<?xml version="1.0"?>
<VTKFile type="StructuredGrid" version="0.1" byte_order="LittleEndian" header_type="UInt32" compressor="vtkZLibDataCompressor">
  <StructuredGrid WholeExtent="0 30 0 40 0 0">
  <Piece Extent="0 30 0 40 0 0">
    <PointData>
      <DataArray type="Float32" Name="orthogonality" format="ascii" RangeMin="0" RangeMax="0.441872775554657">
        0 0.022408422 0.04463124 0.06648859 0.087809734 0.10843688
        0.12822814 0.14705966 0.164827 0.18144618 0.1968544 0.21101117
        0.22389989 0.2355297 0.24593772 0.25519046 0.26338425 0.27064383
        0.27711898 0.28297964 0.28841054 0.29360664 0.2987706 0.30411485
        0.3098702 0.31630751 0.32378605 0.33288074 0.34483495 0.36367738
        0.40683395 1.93909e-05 0.022504007 0.044842213 0.06681558 0.0882532
        0.10899728 0.12890598 0.14785555 0.16574171 0.18248068 0.19800998
        0.21228972 0.22530423 0.2370643 0.24760938 0.25700942 0.26536527
        0.2728074 0.2794924 0.28559846 0.29131985 0.29686293 0.3024447
        0.308296 0.31467336 0.3218859 0.3303547 0.34075263 0.3543587
        0.37381575 0.40465495 3.7117155e-05 0.022602467 0.045057293 0.06714796
        0.088703424 0.109565906 0.12959369 0.14866316 0.16667023 0.18353137
        0.1991845 0.21359032 0.22673422 0.23862852 0.2493151 0.2588672
        0.26739016 0.27501985 0.28191963 0.28827533 0.29429033 0.30018163
        0.30617908 0.31252965 0.31951088 0.3274599 0.33683276 0.3483179
        0.36298382 0.38195303 0.40330222 5.281614e-05 0.02270455 0.045277644
        0.06748736 0.089162566 0.110145584 0.13029486 0.14948702 0.16761824
        0.18460535 0.20038669 0.21492371 0.2282028 0.24023792 0.2510732
        0.2607852 0.26948324 0.27730846 0.2844303 0.29104164 0.29735398
        0.3035934 0.30999994 0.31683198 0.32437834 0.33298245 0.3430805
        0.3552294 0.36996242 0.3868556 0.4023195 6.654925e-05 0.022808932
        0.045500662 0.06782986 0.089625366 0.11072963 0.13100134 0.15031739
        0.1685743 0.18568929 0.20160127 0.21627235 0.22969003 0.24186976
        0.2528579 0.26273385 0.2716108 0.27963454 0.2869799 0.29384598
        0.3004509 0.3070278 0.31382355 0.32110158 0.32914966 0.33829144
        0.34888673 0.36125788 0.37535664 0.38988116 0.40153572 7.850692e-05
        0.022915104 0.045725506 0.06817429 0.09009029 0.11131615 0.13171083
        0.15115157 0.16953528 0.18677963 0.20282412 0.2176316 0.23119058
        0.24351797 0.2546621 0.26470503 0.27376336 0.28198683 0.28955495
        0.2966718 0.3035606 0.31045902 0.31761667 0.32529458 0.33376586
        0.3433084 0.35416248 0.3663807 0.37945923 0.39179575 0.40088105
        8.889569e-05 0.023022886 0.045952026 0.06852051 0.090557225 0.11190505
        0.13242327 0.15198952 0.17050116 0.18787637 0.20405526 0.21900147
        0.23270449 0.24518254 0.2564858 0.26669857 0.27594033 0.28436422
        0.2921534 0.29951563 0.3066774 0.31387812 0.32136533 0.32939002
        0.33819693 0.34799698 0.35888866 0.3706763 0.38257757 0.39304075
        0.40032297 9.789957e-05 0.023132227 0.046180304 0.068868734 0.09102654
        0.11249684 0.13313931 0.15283205 0.1714729 0.18898067 0.20529608
        0.22038357 0.23423356 0.24686553 0.25833115 0.26871672 0.27814403
        0.28676876 0.2947768 0.30237815 0.30980045 0.31728166 0.3250626
        0.33337623 0.34242722 0.3523456 0.36308688 0.37426174 0.384969
        0.39387554 0.3998432 0.00010567107 0.023243122 0.04641048 0.06921926
        0.09149864 0.113092095 0.1338597 0.15368007 0.17245166 0.19009386
        0.20654811 0.22177966 0.23577982 0.24856918 0.26020068 0.27076218
        0.28037715 0.28920314 0.2974274 0.30526075 0.31292978 0.3206678
        0.32870385 0.33724588 0.3464496 0.3563587 0.366801 0.37725925
        0.38683102 0.39445552 0.39942947 0.00011233327 0.023355577 0.046642687
        0.06957235 0.09197395 0.113691345 0.13458511 0.15453443 0.17343839
        0.19121708 0.20781273 0.2231913 0.23734507 0.2502955 0.26209658
        0.27283728 0.2826421 0.2916695 0.300107 0.3081646 0.31606537
        0.32403472 0.33228543 0.34099442 0.35026327 0.36005172 0.37008515
        0.37978092 0.38830963 0.3948757 0.39907268 0.00011798503 0.023469595
        0.046877034 0.06992821 0.09245277 0.11429502 0.13531607 0.15539576
        0.17443389 0.1923513 0.209091 0.2246198 0.23893075 0.2520461
        0.26402062 0.2749438 0.28494066 0.2941695 0.3028169 0.3110901
        0.31920657 0.32738057 0.33580437 0.34461972 0.3538725 0.3634471
        0.3729961 0.38192302 0.38951093 0.3951954 0.3987655 0.00012270627
        0.023585178 0.0471136 0.07028699 0.09293534 0.114903435 0.13605303
        0.1562646 0.17543878 0.19349723 0.21038379 0.2260661 0.24053794
        0.2538222 0.26597407 0.27708316 0.28727415 0.2967042 0.30555767
        0.3140373 0.32235253 0.33070344 0.33925864 0.34812212 0.35728583
        0.36657166 0.37558883 0.38376543 0.3905117 0.39545253 0.39850217
        0.00012656249 0.02370232 0.047352437 0.07064881 0.09342183 0.115516834
        0.13679624 0.15714131 0.1764535 0.19465539 0.2116917 0.22753093
        0.24216749 0.25562474 0.26795793 0.2792563 0.2896434 0.2992743
        0.3083296 0.31700587 0.32550216 0.33400193 0.3426474 0.35150418
        0.36051506 0.36945432 0.37791425 0.38537318 0.3913678 0.39567205
        0.39827812 0.00012960822 0.02382101 0.047593582 0.071013756 0.09391237
        0.11613538 0.13754593 0.15802614 0.17747837 0.19582617 0.21301521
        0.22901478 0.24381998 0.25745437 0.2699729 0.28146392 0.29204905
        0.30188012 0.3111327 0.3199953 0.32865462 0.33727503 0.34597105
        0.35477078 0.36357456 0.37212458 0.380018 0.38679865 0.39212027
        0.39587086 0.39808965 0.00013188967 0.023941234 0.047837056 0.071381874
        0.09440705 0.1167592 0.13830228 0.1589193 0.17851365 0.19700986
        0.21435463 0.2305181 0.24549586 0.25931153 0.27201948 0.2837065
        0.29449144 0.30452195 0.31396693 0.32300523 0.33180922 0.3405226
        0.3492314 0.35792866 0.36648035 0.37461126 0.3819404 0.38808414
        0.39279968 0.39606088 0.397934 0.00013344655 0.024062984 0.04808287
        0.0717532 0.09490592 0.117388375 0.13906538 0.15982094 0.17955947
        0.19820666 0.21571022 0.23204112 0.24719542 0.2611966 0.27409804
        0.28598437 0.2969709 0.3071998 0.31683213 0.32603532 0.3349658
        0.34374523 0.35243157 0.3609863 0.3692496 0.37694207 0.3837167
        0.3892638 0.39342925 0.39625072 0.397809 0.00013431352 0.024186239
        0.04833103 0.07212775 0.09540902 0.118022956 0.1398353 0.16073112
        0.18061598 0.1994167 0.21708211 0.23358406 0.24891894 0.2631099
        0.27620888 0.2882978 0.2994876 0.30991384 0.31972829 0.3290856
        0.33812463 0.3469445 0.355576 0.36395353 0.3719 0.37914306
        0.3853776 0.39036548 0.3940271 0.39644706 0.39771312 0.00013452115
        0.024310984 0.048581526 0.07250555 0.095916376 0.11866298 0.1406121
        0.16164991 0.1816832 0.20064007 0.21847044 0.23514703 0.25066653
        0.2650515 0.27835214 0.290647 0.3020417 0.31266418 0.32265556
        0.33215624 0.3412866 0.35012284 0.35867032 0.3668412 0.37444934
        0.3812384 0.3869498 0.39141214 0.39460766 0.39665517 0.39764526
        0.00013409666 0.024437202 0.048834354 0.072886586 0.09642799 0.119308464
        0.14139579 0.16257735 0.18276122 0.2018768 0.21987526 0.23673011
        0.2524383 0.26702163 0.28052804 0.29303214 0.30463344 0.31545103
        0.3256142 0.33524796 0.34445322 0.35328352 0.36172116 0.36966103
        0.37691534 0.38325062 0.38845676 0.39242306 0.39518276 0.39687958
        0.39760467 0.00013306452 0.024564877 0.049089506 0.073270865 0.09694387
        0.119959414 0.14218639 0.16351344 0.18385002 0.20312694 0.22129658
        0.23833336 0.25423434 0.2690203 0.28273663 0.2954534 0.30726296
        0.31827468 0.32860482 0.3383617 0.34762645 0.35643062 0.36473596
        0.37242523 0.37931526 0.3852005 0.38991907 0.39341474 0.3957624
        0.39712423 0.39759105 0.00013144681 0.024693992 0.04934697 0.07365836
        0.09746401 0.120615825 0.14298388 0.16445819 0.18494962 0.20439045
        0.22273442 0.23995678 0.25605467 0.27104762 0.2849781 0.2979109
        0.3099306 0.32113558 0.33162805 0.34149888 0.35080904 0.359569
        0.36772308 0.37514642 0.38166597 0.38710728 0.39135516 0.39440158
        0.3963555 0.3973928 0.39760432 0.0001292636 0.024824528 0.049606726
        0.074049085 0.0979884 0.12127768 0.14378826 0.16541155 0.18605997
        0.20566733 0.22418875 0.24160035 0.25789925 0.2731036 0.2872525
        0.30040485 0.3126366 0.3240343 0.33468494 0.34466133 0.35400414
        0.3627043 0.37069136 0.37783748 0.38398388 0.38898894 0.3927817
        0.39539644 0.39697006 0.39768896 0.3976447 0.00012653317 0.02495647
        0.049868762 0.074443 0.09851701 0.12194496 0.1445995 0.1663735
        0.18718104 0.20695753 0.2256595 0.243264 0.2597681 0.27518827
        0.28955987 0.30293548 0.31538144 0.32697153 0.33777675 0.34785116
        0.35721555 0.3658426 0.37365022 0.38051134 0.38628483 0.39086232
        0.3942141 0.39641118 0.39761364 0.39801627 0.3977127 0.00012327226
        0.025089798 0.05013306 0.07484009 0.09904983 0.12261763 0.14541756
        0.16734403 0.18831278 0.20826097 0.22714663 0.24494772 0.26166114
        0.27730164 0.2919004 0.305503 0.31816557 0.3299482 0.340905
        0.35107106 0.3604476 0.3689907 0.37660953 0.38318115 0.38858423
        0.39274347 0.39566675 0.39745703 0.39829364 0.39837855 0.39780903
        0.00011949626 0.025224498 0.050399598 0.075240344 0.099586815 0.12329567
        0.1462424 0.16832304 0.18945512 0.20957758 0.22865002 0.24665137
        0.26357836 0.27944368 0.29427415 0.30810773 0.32098958 0.33296528
        0.3440715 0.35432392 0.36370495 0.3721558 0.37957948 0.38585997
        0.39089718 0.3946477 0.3971534 0.39854485 0.3990175 0.3987798
        0.3979347 0.00011521938 0.02536055 0.05066836 0.075643726 0.10012795
        0.12397903 0.14707395 0.16931048 0.19060798 0.21090727 0.23016958
        0.24837486 0.26551962 0.28161442 0.2966812 0.31074998 0.3238541
        0.33602402 0.34727827 0.35761315 0.36699286 0.37534556 0.38257056
        0.3885609 0.39323848 0.3965899 0.39868754 0.39968547 0.3997929
        0.39922452 0.39809096 0.00011045479 0.02549794 0.050939314 0.07605021
        0.1006732 0.12466767 0.14791217 0.17030628 0.19177125 0.2122499
        0.23170519 0.25011808 0.26748484 0.28381377 0.2991217 0.31343007
        0.3267599 0.33912572 0.35052758 0.36094233 0.37031692 0.37856805
        0.3855935 0.39129713 0.39562267 0.39858478 0.40028253 0.40089
        0.40062806 0.39971757 0.3982794 0.00010521484 0.025636647 0.051212445
        0.076459765 0.101222515 0.12536153 0.14875701 0.17131035 0.19294485
        0.21360539 0.2332567 0.25188088 0.26947394 0.28604174 0.30159578
        0.3161484 0.3297078 0.34227195 0.353822 0.3643155 0.3736831
        0.38183165 0.3886593 0.3940818 0.39806432 0.40064695 0.40195197
        0.40217 0.40153182 0.4002646 0.3985019 9.9511184e-05 0.025776653
        0.051487725 0.076872356 0.101775855 0.12606056 0.14960837 0.1723226
        0.19412866 0.21497355 0.23482394 0.2536631 0.27148676 0.28829828
        0.30410352 0.3189054 0.3326987 0.34546435 0.35716423 0.367737
        0.3770977 0.38514504 0.3917791 0.3969282 0.40057796 0.40279126
        0.4037099 0.40353787 0.40251407 0.400872 0.3987607 9.3355055e-05
        0.025917936 0.05176512 0.07728794 0.102333166 0.1267647 0.15046617
        0.17334291 0.19532253 0.21635425 0.23640674 0.25546452 0.27352312
        0.29058328 0.30664507 0.3217016 0.33573365 0.34870473 0.36055732
        0.37121132 0.3805673 0.3885172 0.39496422 0.39984965 0.40317827
        0.40503278 0.40557095 0.40500703 0.40358594 0.4015473 0.3990585
        8.675747e-05 0.026060479 0.052044608 0.077706486 0.1028944 0.12747386
        0.15133034 0.17437118 0.1965263 0.21774729 0.2380049 0.25728497
        0.27558285 0.2928967 0.30922052 0.32453737 0.33881366 0.35199502
        0.36400437 0.3747433 0.3840988 0.39195725 0.3982262 0.40285975
        0.40588018 0.40738726 0.4075509 0.4065923 0.4047601 0.4022994
        0.39939854 7.972957e-05 0.026204254 0.05232614 0.078127936 0.10345948
        0.12818795 0.15220071 0.17540726 0.19773982 0.21915245 0.23961814
        0.25912413 0.2776657 0.29523838 0.31182998 0.32741323 0.34193984
        0.35533723 0.36750874 0.37833795 0.38769925 0.3954746 0.40157667
        0.40597206 0.408699 0.40987095 0.40966657 0.4083102 0.4060513
        0.40313897 0.3997847 7.2283045e-05 0.026349237 0.05260968 0.078552224
        0.10402833 0.1289069 0.15307721 0.17645097 0.19896287 0.2205695
        0.2412462 0.26098177 0.27977142 0.29760814 0.3144735 0.3303297
        0.34511337 0.35873353 0.37107387 0.38200048 0.39137587 0.3990788
        0.4050274 0.40920055 0.41165033 0.4125011 0.41193628 0.41017947
        0.407477 0.40407896 0.40022177 6.4430664e-05 0.026495393 0.052895173
        0.07897928 0.104600854 0.12963055 0.15395966 0.17750213 0.20019521
        0.22199816 0.24288872 0.26285747 0.2818997 0.3000058 0.31715116
        0.33328718 0.34833536 0.36218604 0.37470332 0.38573614 0.39513606
        0.40277937 0.40859026 0.41255918 0.41475034 0.41529584 0.41438013
        0.4122214 0.4090578 0.4051356 0.40071553 5.6187077e-05 0.026642682
        0.05318255 0.07940901 0.105176926 0.13035877 0.15484786 0.1785605
        0.20143655 0.22343802 0.24454533 0.2647508 0.28405005 0.30243096
        0.31986278 0.33628607 0.35160694 0.36569697 0.37840068 0.38955036
        0.39898723 0.40658596 0.41227716 0.4160622 0.41801563 0.41827446
        0.41702017 0.4144605 0.41081876 0.4063293 0.4012734 4.7569898e-05
        0.026791053 0.053471733 0.07984131 0.1057564 0.13109136 0.15574156
        0.17962575 0.2026865 0.22488871 0.24621549 0.26666126 0.28622192
        0.30488324 0.3226082 0.33932662 0.3549291 0.3692684 0.3821695
        0.3934484 0.40293673 0.41050813 0.4160999 0.41972384 0.4214632
        0.4214573 0.41988072 0.41692507 0.4127903 0.40768665 0.40190482
        3.860133e-05 0.026940437 0.053762604 0.080276 0.10633906 0.13182802
        0.15664046 0.18069752 0.2039446 0.2263496 0.24789855 0.26858804
        0.28841463 0.30736193 0.32538697 0.34240884 0.35830262 0.37290218
        0.38601315 0.39743546 0.40699163 0.41455507 0.42007002 0.4235582
        0.42511034 0.42486572 0.42298844 0.4196479 0.41501006 0.4092429
        0.4026223 2.9310582e-05 0.027090743 0.054055005 0.08071286 0.106924616
        0.13256843 0.15754406 0.18177521 0.20521018 0.22781995 0.24959362
        0.27053016 0.29062703 0.309866 0.32819834 0.34553245 0.36172795
        0.3765999 0.3899346 0.40151614 0.41115862 0.41873556 0.42419848
        0.42757896 0.4289742 0.42852187 0.42637235 0.42266676 0.4175248
        0.4110464 0.40344295 1.9737661e-05 0.027241834 0.054348707 0.081151575
        0.10751263 0.13331203 0.15845174 0.18285808 0.20648229 0.22929865
        0.2512994 0.27248624 0.2928577 0.312394 0.3310409 0.3486964
        0.36520487 0.3803624 0.39393604 0.40569437 0.41544333 0.42305714
        0.42849502 0.43179858 0.43307126 0.43244797 0.4300633 0.42602494
        0.42039323 0.4131656 0.40439102 9.939467e-06 0.027393507 0.05464336
        0.08159164 0.10810247 0.134058 0.1593625 0.18394491 0.20775954
        0.23078404 0.2530141 0.27445415 0.29510427 0.31494346 0.3339123
        0.35189876 0.36873195 0.38418922 0.39801836 0.4099725 0.41984975
        0.42752552 0.43296736 0.4362274 0.4374158 0.43666494 0.43409288
        0.42977086 0.42368895 0.41570124 0.40550265 0 0.02754537
        0.05493825 0.08203199 0.108692646 0.13480438 0.16027376 0.18503238
        0.20903766 0.2322706 0.25473034 0.27642432 0.29735413 0.3174977
        0.33679068 0.35511094 0.3722727 0.38803464 0.4021256 0.4142836
        0.4242992 0.43204954 0.43751082 0.44074613 0.44187278 0.44102117
        0.43829376 0.4337261 0.42723802 0.41853526 0.40683395
      </DataArray>
      <DataArray type="Float32" Name="aspect_ratio" format="ascii" RangeMin="1.2665765285491943" RangeMax="8.817999839782715">
        8.069888 8.028081 7.961853 7.852018 7.701138 7.51265
        7.290684 7.039869 6.765128 6.4714875 6.163895 5.847072
        5.5253916 5.2027917 4.8827224 4.568122 4.2614226 3.9645774
        3.6790998 3.4061143 3.1464047 2.9004626 2.6685293 2.4506311
        2.2466106 2.0561492 1.8787769 1.7138466 1.5603452 1.4158814
        1.2665765 8.086798 8.044718 7.978129 7.8677955 7.716293
        7.5270696 7.304272 7.052545 6.77683 6.482169 6.17353
        5.855652 5.5329275 5.2093163 4.8882885 4.572804 4.2653146
        3.9677908 3.6817603 3.4083567 3.1483703 2.902296 2.6703777
        2.4526489 2.2489696 2.059065 1.8825749 1.7191681 1.5689921
        1.4347229 1.3063254 8.103791 8.061423 7.9944553 7.8836074
        7.7314644 7.5414906 7.3178463 7.0651937 6.7884912 6.4927993
        6.1831026 5.8641605 5.540386 5.215759 4.893772 4.577407
        4.2691364 3.9709494 3.6843889 3.4105997 3.15038 2.9042292
        2.6723983 2.4549334 2.251724 2.0625613 1.8872392 1.7257973
        1.5791622 1.4501112 1.3313642 8.1208725 8.0782 8.0108385
        7.8994594 7.746661 7.555921 7.331416 7.077824 6.800122
        6.5033865 6.1926217 5.8726063 5.5477734 5.222125 4.899176
        4.581932 4.272888 3.9740522 3.6869843 3.4128413 3.1524308
        2.9062598 2.6745884 2.457481 2.2548642 2.0666075 1.8926612
        1.7333307 1.5897051 1.4634753 1.3481078 8.13804 8.095075
        8.027328 7.915426 7.7619796 7.57048 7.34512 7.090594
        6.8118944 6.5141187 6.2022877 5.8811994 5.5553083 5.2286386
        4.9047303 4.5866127 4.2768035 3.9773335 3.6897795 3.415313
        3.1547513 2.9086113 2.677165 2.4604974 2.2585747 2.0713394
        1.8988526 1.7415001 1.6000886 1.4750448 1.3600383 8.155294
        8.112053 8.043935 7.9315257 7.7774453 7.5851994 7.3589954
        7.1035447 6.823858 6.5250473 6.212155 5.889997 5.5630507
        5.2353625 4.910498 4.5915117 4.280947 3.980857 3.6928375
        3.4180753 3.1573997 2.911338 2.6801753 2.4640172 2.2628644
        2.076709 1.9056498 1.7499763 1.6099972 1.4850911 1.3690766
        8.172637 8.129134 8.060662 7.947759 7.793059 7.600079
        7.3730435 7.116678 6.8360114 6.5361733 6.222224 5.8990006
        5.5710015 5.2422976 4.9164805 4.5966306 4.2853193 3.984622
        3.6961565 3.4211252 3.1603699 2.9144294 2.6836007 2.4680061
        2.267669 2.082596 1.9128438 1.7584803 1.6192731 1.4938729
        1.3763036 8.190067 8.1463175 8.077504 7.964121 7.808812
        7.61511 7.387252 7.129981 6.848341 6.5474815 6.2324796
        5.9081936 5.5791435 5.2494264 4.9226584 4.6019506 4.2899
        3.9886081 3.6997142 3.4244378 3.1636338 2.9178514 2.6873975
        2.4724038 2.2728975 2.0888603 1.9202366 1.7668085 1.6278607
        1.5016129 1.3823404 8.207584 8.1636 8.094456 7.9806027
        7.824695 7.6302795 7.401607 7.1434374 6.860831 6.558954
        6.2429028 5.917556 5.5874567 5.256727 4.929012 4.607449
        4.2946663 3.992791 3.7034843 3.4279842 3.1671584 2.9215648
        2.6915154 2.4771416 2.2784522 2.0953643 1.927662 1.7748266
        1.6357633 1.5084939 1.3875542 8.22519 8.18098 8.111514
        7.997199 7.8407006 7.645578 7.416098 7.157035 6.873466
        6.5705748 6.2534766 5.927071 5.595924 5.2641826 4.9355206
        4.613107 4.2995977 3.9971485 3.7074432 3.431738 3.1709123
        2.9255304 2.695904 2.4821503 2.2842376 2.101986 1.9349909
        1.7824544 1.6430157 1.5146613 1.392168 8.242884 8.198457
        8.128675 8.013905 7.8568215 7.660998 7.430715 7.170763
        6.8862348 6.5823326 6.2641897 5.9367256 5.604531 5.2717786
        4.9421716 4.6189094 4.3046784 4.001663 3.7115707 3.435675
        3.174866 2.929711 2.7005134 2.4873629 2.2901657 2.1086206
        1.9421273 1.7896501 1.6496664 1.5202293 1.3963219 8.260667
        8.216028 8.145938 8.030716 7.8730536 7.676533 7.4454517
        7.184614 6.8991303 6.5942187 6.275032 5.946511 5.6132684
        5.2795053 4.9489536 4.6248446 4.309896 4.0063205 3.7158496
        3.439774 3.178993 2.9340715 2.705296 2.4927163 2.2961574
        2.1151826 1.9490035 1.796398 1.6557665 1.5252869 1.4001068
        8.278539 8.233694 8.1633 8.047631 7.8893933 7.6921806
        7.4603033 7.198583 6.9121456 6.606227 6.285998 5.95642
        5.6221304 5.2873564 4.95586 4.6309047 4.3152404 4.011109
        3.7202654 3.4440167 3.183268 2.9385781 2.7102075 2.498152
        2.302143 2.1216025 1.9555731 1.8026981 1.6613652 1.5299032
        1.4035833 8.296502 8.251454 8.180759 8.06465 7.905838
        7.7079363 7.475267 7.212667 6.925278 6.6183534 6.2970834
        5.9664493 5.631112 5.2953267 4.9628854 4.6370845 4.320705
        4.016019 3.7248056 3.4483857 3.187668 2.9431984 2.715204
        2.503616 2.3080623 2.1278262 1.9618064 1.80856 1.6665064
        1.5341315 1.4067931 8.314555 8.26931 8.198317 8.081767
        7.922387 7.7237988 7.49034 7.2268624 6.9385247 6.630596
        6.308286 5.9765964 5.6402116 5.3034143 4.9700274 4.6433787
        4.326284 4.0210433 3.7294588 3.452865 3.19217 2.947902
        2.7202456 2.5090594 2.3138635 2.133811 1.9676853 1.8139975
        1.671228 1.538013 1.4097654 8.3327 8.28726 8.215972
        8.098987 7.9390397 7.7397676 7.505522 7.2411695 6.9518843
        6.642954 6.319605 5.9868603 5.649428 5.3116174 4.9772835
        4.649786 4.331973 4.0261745 3.7342143 3.4574387 3.1967518
        2.9526582 2.7252939 2.5144374 2.319502 2.1395245 1.9731998
        1.8190261 1.6755619 1.541579 1.4125203 8.350937 8.3053055
        8.233725 8.116305 7.955795 7.7558413 7.520811 7.255586
        6.9653563 6.6554255 6.331039 5.99724 5.6587605 5.3199363
        4.9846525 4.6563034 4.337768 4.031406 3.7390625 3.462092
        3.2013922 2.9574387 2.7303126 2.5197103 2.3249414 2.1449413
        1.9783449 1.8236611 1.6795335 1.5448534 1.415072 8.369266
        8.323446 8.251575 8.133724 7.9726524 7.77202 7.536208
        7.270113 6.9789405 6.6680117 6.3425894 6.007737 5.66821
        5.328371 4.9921355 4.66293 4.3436666 4.0367327 3.7439933
        3.46681 3.20607 2.9622154 2.7352686 2.5248423 2.33015
        2.150043 1.9831188 1.8279159 1.6831632 1.5478535 1.4174293
        8.387689 8.341682 8.269525 8.151244 7.9896126 7.788304
        7.5517125 7.28475 6.9926376 6.680713 6.3542566 6.0183525
        5.677778 5.3369226 4.999732 4.669665 4.349665 4.042148
        3.748997 3.4715784 3.210765 2.966962 2.7401307 2.5298016
        2.335101 2.1548147 1.9875215 1.831802 1.6864663 1.5505915
        1.4195977 8.406206 8.360016 8.287572 8.168864 8.006676
        7.8046937 7.567325 7.2994976 7.0064483 6.69353 6.366042
        6.029087 5.687465 5.345592 5.0074425 4.6765075 4.355762
        4.0476475 3.7540648 3.4763827 3.215457 2.9716535 2.7448702
        2.5345597 2.3397725 2.1592445 1.9915533 1.8353281 1.6894536
        1.553075 1.4215791 8.424817 8.378447 8.305717 8.186585
        8.023843 7.821189 7.5830464 7.314357 7.020373 6.706465
        6.3779473 6.0399427 5.6972737 5.354381 5.0152683 4.683458
        4.361954 4.053225 3.759187 3.4812088 3.220127 2.9762657
        2.7494602 2.5390916 2.3441453 2.163323 1.9952142 1.8385003
        1.692132 1.5553079 1.4233726 8.443524 8.396974 8.323963
        8.204408 8.041113 7.8377905 7.598877 7.3293285 7.0344133
        6.7195177 6.389973 6.050922 5.707206 5.3632917 5.023211
        4.6905155 4.36824 4.0588765 3.764355 3.4860435 3.2247567
        2.9807758 2.7538772 2.543375 2.3482027 2.167042 1.9985036
        1.8413217 1.6945045 1.5572906 1.4249747 8.462328 8.4156
        8.342309 8.222333 8.058488 7.8544993 7.6148176 7.3444133
        7.0485706 6.7326903 6.4021225 6.062026 5.7172637 5.372326
        5.0312715 4.697681 4.3746176 4.064596 3.7695599 3.490873
        3.2293282 2.9851635 2.7580984 2.5473897 2.3519301 2.1703935
        2.0014193 1.8437929 1.6965706 1.5590199 1.4263791 8.481228
        8.434324 8.360755 8.24036 8.075968 7.871316 7.630869
        7.3596125 7.0628457 6.7459855 6.4143972 6.073258 5.72745
        5.3814864 5.0394516 4.704954 4.381085 4.0703797 3.7747931
        3.4956853 3.2338245 2.9894083 2.7621036 2.5511181 2.3553145
        2.1733701 2.0039577 1.8459114 1.6983266 1.5604903 1.4275773
        8.500225 8.453149 8.379302 8.258491 8.093554 7.8882413
        7.6470323 7.3749275 7.0772405 6.759404 6.4267993 6.0846195
        5.7377667 5.390775 5.0477533 4.7123365 4.387641 4.076223
        3.780047 3.5004675 3.2382302 2.9934924 2.7658744 2.5545435
        2.358344 2.1759639 2.0061138 1.847672 1.6997657 1.5616921
        1.4285578 8.519321 8.472073 8.397951 8.276725 8.111245
        7.905276 7.6633086 7.3903594 7.0917563 6.7729483 6.439331
        6.096114 5.7482176 5.400195 5.0561786 4.719828 4.394284
        4.0821214 3.7853134 3.505209 3.24253 2.9973989 2.7693942
        2.5576518 2.361007 2.1781669 2.0078802 1.8490666 1.7008775
        1.5626135 1.4293063 8.538516 8.491097 8.416702 8.295064
        8.129045 7.9224215 7.6796994 7.4059095 7.1063957 6.7866206
        6.4519954 6.1077447 5.758805 5.409749 5.06473 4.727431
        4.4010134 4.0880713 3.7905853 3.5098982 3.2467108 3.0011122
        2.7726471 2.5604289 2.3632925 2.1799695 2.0092483 1.8500848
        1.701649 1.5632387 1.4298056 8.55781 8.510224 8.435557
        8.313509 8.146953 7.939678 7.6962056 7.42158 7.12116
        6.8004227 6.464794 6.1195135 5.769532 5.4194407 5.0734105
        4.7351456 4.407829 4.0940695 3.7958565 3.5145257 3.2507594
        3.004618 2.7756195 2.5628624 2.36519 2.1813622 2.0102067
        1.8507125 1.7020628 1.5635488 1.4300346 8.577205 8.529452
        8.454515 8.33206 8.164969 7.957048 7.7128286 7.4373717
        7.1360507 6.8143578 6.477731 6.131425 5.7804036 5.4292727
        5.0822225 4.7429743 4.41473 4.100114 3.8011205 3.519082
        3.2546642 3.0079038 2.7782986 2.5649412 2.3666887 2.182334
        2.0107427 1.8509336 1.7020991 1.5635206 1.4299684 8.596701
        8.548784 8.473579 8.350718 8.183097 7.9745317 7.7295704
        7.453287 7.151071 6.8284273 6.490809 6.1434813 5.791422
        5.43925 5.0911694 4.750919 4.421717 4.106201 3.8063724
        3.5235596 3.2584147 3.0109577 2.7806728 2.5666542 2.3677785
        2.1828732 2.0108414 1.8507284 1.7017336 1.5631266 1.429577
        8.616298 8.568219 8.492747 8.369484 8.201335 7.9921308
        7.746432 7.469328 7.1662226 6.842635 6.504031 6.1556873
        5.802592 5.4493756 5.100255 4.758983 4.4287915 4.1123304
        3.811608 3.527951 3.2620022 3.0137696 2.7827322 2.5679913
        2.3684487 2.1829672 2.0104856 1.8500744 1.7009377 1.5623342
        1.4288249 8.635997 8.587758 8.512023 8.388359 8.2196865
        8.009847 7.7634153 7.4854965 7.1815085 6.856984 6.517401
        6.1680465 5.813918 5.4596553 5.109484 4.7671695 4.435955
        4.118501 3.8168237 3.53225 3.2654183 3.016331 2.7844672
        2.5689435 2.368689 2.1826024 2.0096571 1.848946 1.6996789
        1.5611049 1.4276689 8.655799 8.607402 8.531405 8.407345
        8.2381525 8.027681 7.780523 7.5017953 7.1969314 6.8714776
        6.530923 6.1805634 5.8254056 5.4700937 5.118862 4.7754827
        4.4432096 4.124714 3.8220174 3.5364523 3.2686565 3.0186336
        2.7858706 2.5695026 2.3684893 2.181765 2.0083354 1.8473146
        1.6979191 1.5593929 1.4260577 8.675705 8.627152 8.550897
        8.426443 8.256735 8.045637 7.797757 7.5182276 7.2124953
        6.88612 6.5446014 6.1932445 5.83706 5.480697 5.128394
        4.7839274 4.4505596 4.1309695 3.8271883 3.5405545 3.2717123
        3.020672 2.7869356 2.569661 2.3678398 2.1804407 2.0064986
        1.8451483 1.6956148 1.5571442 1.4239279 8.695716 8.64701
        8.5704975 8.445655 8.2754345 8.063717 7.815121 7.5347967
        7.228204 6.9009156 6.558442 6.2060947 5.848888 5.4914727
        5.1380873 4.7925115 4.45801 4.137272 3.8323371 3.5445552
        3.274582 3.0224423 2.7876575 2.569413 2.3667324 2.1786158
        2.0041249 1.8424127 1.6927165 1.5542938 1.4212016 8.715831
        8.666975 8.59021 8.464982 8.294256 8.0819235 7.832619
        7.551507 7.2440624 6.915871 6.5724516 6.219122 5.860898
        5.5024295 5.147951 4.8012414 4.4655685 4.1436257 3.8374667
        3.5484552 3.2772648 3.023942 2.7880335 2.5687547 2.3651597
        2.1762772 2.0011911 1.839071 1.6891681 1.5507636 1.4177806
        8.736052 8.68705 8.610036 8.484428 8.313202 8.100261
        7.850256 7.5683646 7.2600784 6.9309936 6.586639 6.232336
        5.8731008 5.513578 5.1579967 4.8101296 4.4732437 4.1500397
        3.842583 3.552258 3.279763 3.0251725 2.788064 2.5676844
        2.3631175 2.173415 1.9976768 1.8350854 1.684907 1.5464591
        1.4135395 8.756378 8.707235 8.629978 8.503997 8.332276
        8.118736 7.868038 7.585378 7.27626 6.946293 6.601014
        6.2457485 5.8855085 5.5249324 5.168238 4.8191895 4.48105
        4.1565247 3.8476954 3.555971 3.2820818 3.0261378 2.7877526
        2.5662053 2.3606052 2.1700218 1.993564 1.8304188 1.6798645
        1.5412636 1.4083133 8.776812 8.727533 8.650041 8.523693
        8.351488 8.137357 7.885977 7.602558 7.2926197 6.9617834
        6.6155934 6.2593765 5.8981404 5.536512 5.178695 4.828441
        4.4890056 4.1630983 3.8528192 3.5596075 3.284233 3.026849
        2.7871091 2.5643253 2.3576288 2.166098 1.9888413 1.8250388
        1.6739684 1.535032 1.4018786 8.797352 8.747948 8.670228
        8.543525 8.370846 8.156136 7.9040856 7.6199217 7.3091774
        6.977486 6.6303997 6.273244 5.911021 5.5483437 5.189397
        4.837913 4.4971395 4.169788 3.8579795 3.56319 3.2862375
        3.0273254 2.7861524 2.5620625 2.354204 2.1616547 1.9835091
        1.8189236 1.6671485 1.5275812 1.3939234 8.818 8.768475
        8.690535 8.563484 8.39034 8.175058 7.9223495 7.6374526
        7.3259163 6.993386 6.645419 6.287343 5.9241495 5.560434
        5.200359 4.8476353 4.5054946 4.1766515 3.8632486 3.5668044
        3.288193 3.027676 2.7850022 2.5595477 2.35047 2.1568377
        1.9777148 1.812208 1.659487 1.5187954 1.3839933
      </DataArray>
      <DataArray type="Float32" Name="jacobian" format="ascii" RangeMin="0.004165273159742355" RangeMax="0.026490593329072">
        0.024243154 0.024113698 0.02392392 0.02361559 0.023194928 0.022670165
        0.022051226 0.021349367 0.020576755 0.019746065 0.018870082 0.017961334
        0.017031789 0.016092593 0.015153883 0.014224649 0.013312661 0.012424448
        0.011565321 0.010739435 0.0099498825 0.009198799 0.008487488 0.007816537
        0.0071859225 0.0065951077 0.0060431114 0.005528541 0.005049541 0.004603344
        0.004165273 0.024293954 0.02416453 0.023974575 0.02366569 0.023244109
        0.022718072 0.022097524 0.021393746 0.020618932 0.019785797 0.018907161
        0.017995607 0.017063158 0.01612103 0.0151794385 0.0142474575 0.013332942
        0.012442499 0.011581513 0.010754191 0.009963668 0.009212114 0.0085008675
        0.007830569 0.0072012963 0.00661273 0.0060643796 0.005556145 0.0050903517
        0.004680174 0.004300541 0.024345005 0.02421567 0.024025591 0.023716208
        0.023293754 0.02276649 0.022144377 0.021438716 0.020661738 0.019826185
        0.018944921 0.01803058 0.017095245 0.016150204 0.015205752 0.01427105
        0.0133540435 0.012461427 0.011598653 0.010769996 0.009978638 0.0092267925
        0.008515847 0.0078465175 0.007219026 0.0066333385 0.006089589 0.0055890707
        0.005136698 0.004744238 0.004385834 0.024396319 0.024267117 0.024076963
        0.023767127 0.023343852 0.022815403 0.022191767 0.021484261 0.020705149
        0.019867206 0.01898334 0.018066231 0.017128028 0.01618009 0.015232797
        0.0142954 0.013375941 0.0124812 0.011616713 0.010786821 0.009994761
        0.009242802 0.008532389 0.007864333 0.00723902 0.0066567264 0.006118153
        0.0056254263 0.0051834243 0.004798065 0.0044430904 0.024447894 0.0243188
        0.02412855 0.023818243 0.023394126 0.02286448 0.022239305 0.021529946
        0.020748692 0.019908352 0.019021878 0.018102001 0.017160933 0.016210107
        0.015259989 0.014319925 0.013398052 0.012501248 0.01163513 0.010804112
        0.010011495 0.009259605 0.008549957 0.007883458 0.007260658 0.006682091
        0.006148793 0.0056629144 0.00522761 0.0048431177 0.004484095 0.02449973
        0.0243707 0.024180315 0.023869498 0.023444505 0.02291363 0.022286888
        0.021575652 0.020792235 0.019949485 0.019060394 0.018137744 0.01719381
        0.016240103 0.015287174 0.014344471 0.013420227 0.012521418 0.01165375
        0.010821714 0.010028677 0.009277028 0.00856835 0.007903643 0.0072835824
        0.006708849 0.0061804857 0.005699981 0.0052681384 0.0048811072 0.0045153084
        0.02455183 0.02442282 0.024232255 0.02392089 0.023494987 0.02296285
        0.022334516 0.02162138 0.020835783 0.019990608 0.019098891 0.018173464
        0.017226666 0.016270084 0.015314364 0.014369045 0.013442471 0.012541713
        0.011672571 0.010839616 0.010046285 0.009295025 0.008587486 0.0079247365
        0.0073075173 0.0067365 0.0062124166 0.005735666 0.005304791 0.0049135326
        0.004540352 0.02460419 0.024475165 0.024284383 0.023972439 0.023545597
        0.023012174 0.022382226 0.021667171 0.020879382 0.020031773 0.019137422
        0.018209217 0.017259559 0.016300116 0.015341618 0.014393712 0.013464843
        0.012562188 0.011691641 0.010857855 0.010064334 0.009313586 0.008607309
        0.007946606 0.0073322016 0.0067645963 0.006243957 0.0057694367 0.0053377612
        0.004941584 0.0045613097 0.024656815 0.024527742 0.024336718 0.024024168
        0.023596363 0.023061637 0.022430059 0.021713074 0.020923082 0.020073036
        0.019176051 0.018245071 0.017292561 0.016330265 0.015369008 0.01441854
        0.013487412 0.012582906 0.0117110135 0.010876469 0.010082846 0.0093327
        0.008627757 0.00796911 0.007357379 0.0067927423 0.0062746485 0.0058010467
        0.0053674 0.0049661663 0.0045794146 0.024709705 0.024580559 0.024389273
        0.024076099 0.023647316 0.023111269 0.022478053 0.021759132 0.020966934
        0.020114448 0.019214833 0.018281084 0.017325731 0.016360596 0.0153966
        0.014443592 0.0135102365 0.012603921 0.011730733 0.010895492 0.010101828
        0.00935234 0.008648754 0.007992098 0.0073827985 0.0068205995 0.006304171
        0.0058304314 0.0053940923 0.0049879565 0.004595421 0.02476286 0.024633624
        0.024442056 0.024128245 0.023698473 0.023161102 0.02252624 0.021805378
        0.021010976 0.020156054 0.019253816 0.018317308 0.017359123 0.016391166
        0.015424447 0.014468925 0.013533369 0.012625278 0.011750835 0.0109149385
        0.010121276 0.009372466 0.008670206 0.008015407 0.0074082226 0.0068478906
        0.0063323206 0.00585763 0.0054182005 0.005007459 0.004609804 0.024816282
        0.024686942 0.024495082 0.024180623 0.023749856 0.023211153 0.022574645
        0.021851845 0.021055242 0.020197893 0.01929304 0.018353783 0.01739278
        0.016422017 0.015452596 0.01449458 0.013556849 0.012647009 0.011771341
        0.010934816 0.01014117 0.009393023 0.00869201 0.008038874 0.0074334354
        0.006874394 0.0063589765 0.0058827386 0.005440043 0.0050250483 0.004622876
        0.024869975 0.024740517 0.024548357 0.024233244 0.023801478 0.02326144
        0.022623288 0.021898555 0.021099757 0.020239988 0.019332534 0.018390544
        0.017426742 0.01645319 0.0154810855 0.014520595 0.01358071 0.0126691405
        0.011792264 0.0109551195 0.01016148 0.0094139455 0.008714057 0.00806234
        0.0074582463 0.0068999417 0.0063840803 0.005905878 0.005459888 0.005041007
        0.004634847 0.024923936 0.024794357 0.024601888 0.024286117 0.023853349
        0.023311982 0.022672186 0.021945525 0.021144543 0.020282367 0.019372327
        0.01842762 0.017461037 0.016484715 0.015509945 0.014546999 0.013604974
        0.012691689 0.011813608 0.010975837 0.0101821665 0.009435161 0.00873623
        0.008085655 0.0074824905 0.006924409 0.0064076157 0.0059271744 0.005477957
        0.0050555463 0.0046458603 0.024978172 0.024848461 0.02465568 0.02433925
        0.02390548 0.023362784 0.022721352 0.021992771 0.021189617 0.02032505
        0.01941244 0.018465037 0.01749569 0.016516618 0.015539204 0.014573816
        0.013629665 0.012714667 0.011835375 0.010996948 0.010203186 0.009456593
        0.008758423 0.00810868 0.007506031 0.006947708 0.0064295945 0.00594675
        0.0054944307 0.005068826 0.0046560187 0.02503268 0.024902835 0.024709737
        0.024392646 0.023957878 0.023413857 0.022770798 0.022040308 0.021234995
        0.020368053 0.01945289 0.018502813 0.017530726 0.016548928 0.015568885
        0.01460107 0.013654798 0.0127380835 0.01185756 0.011018431 0.010224491
        0.009478164 0.008780525 0.008131291 0.0075287544 0.0069697793 0.006450045
        0.005964715 0.0055094534 0.0050809663 0.0046653934 0.025087466 0.024957484
        0.024764067 0.024446314 0.02401055 0.023465212 0.022820532 0.022088148
        0.021280691 0.02041139 0.019493701 0.01854097 0.017566167 0.016581662
        0.01559901 0.01462878 0.013680388 0.012761944 0.011880153 0.011040258
        0.010246031 0.009499796 0.008802436 0.008153378 0.0075505706 0.006990586
        0.0064690034 0.0059811673 0.0055231405 0.0050920574 0.004674033 0.025142532
        0.025012406 0.024818668 0.024500258 0.024063503 0.023516854 0.022870565
        0.022136297 0.021326715 0.02045508 0.019534882 0.018579524 0.01760203
        0.016614841 0.015629599 0.014656964 0.013706448 0.0127862515 0.011903146
        0.011062401 0.010267755 0.009521416 0.008824065 0.008174846 0.0075714076
        0.007010107 0.00648651 0.005996189 0.005535581 0.005102166 0.004681969
        0.025197877 0.025067607 0.02487355 0.024554484 0.024116741 0.02356879
        0.022920903 0.022184769 0.021373078 0.020499129 0.019576453 0.018618492
        0.017638337 0.016648488 0.015660672 0.014685636 0.013732987 0.012811008
        0.011926528 0.011084832 0.010289612 0.009542952 0.008845326 0.0081956135
        0.00759121 0.0070283324 0.006502603 0.0060098497 0.0055468436 0.0051113376
        0.0046892217 0.025253505 0.025123091 0.024928713 0.024608994 0.02417027
        0.023621026 0.022971556 0.02223357 0.021419793 0.020543555 0.019618426
        0.018657895 0.017675102 0.01668262 0.015692245 0.014714815 0.013760018
        0.012836215 0.011950286 0.011107521 0.010311554 0.009564339 0.008866143
        0.008215611 0.0076099355 0.00704526 0.0065173195 0.0060222032 0.005556978
        0.0051196027 0.004695797 0.025309416 0.025178857 0.02498416 0.024663791
        0.024224095 0.023673568 0.023022525 0.022282708 0.021466866 0.020588366
        0.019660814 0.018697742 0.017712345 0.016717253 0.015724339 0.014744515
        0.01378755 0.012861875 0.011974409 0.01113044 0.010333537 0.009585515
        0.008886452 0.008234782 0.0076275524 0.007060893 0.006530689 0.006033291
        0.005566017 0.0051269783 0.0047016917 0.025365615 0.025234912 0.025039896
        0.024718883 0.02427822 0.02372642 0.023073822 0.022332191 0.02151431
        0.020633575 0.01970363 0.018738052 0.017750083 0.016752409 0.015756968
        0.01477475 0.013815593 0.012887987 0.011998886 0.011153563 0.010355516
        0.009606427 0.008906193 0.008253081 0.0076440377 0.0070752352 0.006542737
        0.0060431426 0.005573981 0.0051334677 0.004706894 0.025422102 0.025291255
        0.025095923 0.024774268 0.024332648 0.02377959 0.023125453 0.022382028
        0.021562131 0.02067919 0.019746888 0.018778838 0.017788328 0.016788103
        0.015790153 0.014805538 0.013844158 0.012914554 0.012023705 0.011176865
        0.010377454 0.009627025 0.00892532 0.008270468 0.0076593747 0.0070882924
        0.0065534823 0.0060517765 0.005580877 0.0051390636 0.0047113816 0.02547888
        0.025347888 0.025152244 0.024829954 0.024387384 0.02383308 0.02317742
        0.022432225 0.02161034 0.020725226 0.0197906 0.018820114 0.017827103
        0.016824352 0.015823912 0.0148368925 0.013873253 0.0129415775 0.012048858
        0.011200323 0.0103993155 0.009647268 0.00894379 0.008286916 0.0076735513
        0.007100069 0.006562936 0.0060592 0.0055867 0.005143748 0.0047151246
        0.025535952 0.025404816 0.02520886 0.024885943 0.024442432 0.023886895
        0.023229731 0.022482788 0.021658942 0.020771688 0.019834775 0.018861897
        0.01786642 0.016861176 0.015858259 0.014868829 0.013902892 0.012969062
        0.012074338 0.011223919 0.010421071 0.009667121 0.00896157 0.008302401
        0.0076865596 0.0071105673 0.006571104 0.0060654106 0.0055914344 0.005147492
        0.0047180825 0.02559332 0.025462043 0.025265777 0.024942236 0.024497798
        0.02394104 0.02328239 0.022533724 0.021707946 0.020818587 0.01987943
        0.0189042 0.017906297 0.016898591 0.015893213 0.014901366 0.013933086
        0.012997011 0.012100141 0.011247637 0.010442697 0.009686555 0.008978635
        0.008316906 0.007698394 0.0071197897 0.0065779844 0.006070396 0.0055950535
        0.0051502567 0.004720206 0.025650984 0.025519567 0.025322996 0.02499884
        0.024553481 0.023995519 0.023335403 0.022585038 0.021757362 0.020865936
        0.019924574 0.018947033 0.017946748 0.016936615 0.015928796 0.014934519
        0.0139638465 0.013025431 0.012126262 0.011271466 0.010464173 0.009705547
        0.008994967 0.0083304215 0.0077090506 0.0071277344 0.00658357 0.0060741357
        0.0055975197 0.0051519913 0.004721434 0.025708945 0.025577392 0.02538052
        0.025055753 0.024609488 0.024050334 0.023388773 0.022636738 0.021807196
        0.020913739 0.019970218 0.018990416 0.017987791 0.016975267 0.015965022
        0.014968306 0.01399519 0.013054332 0.012152704 0.011295396 0.010485485
        0.0097240815 0.0090105515 0.00834294 0.007718529 0.007134398 0.0065878476
        0.0060765985 0.0055987854 0.0051526334 0.0047216928 0.02576721 0.025635522
        0.02543835 0.025112981 0.024665818 0.024105493 0.023442507 0.022688827
        0.021857452 0.020962007 0.020016372 0.019034356 0.018029442 0.017014563
        0.016001914 0.015002744 0.014027133 0.013083722 0.01217947 0.011319425
        0.010506624 0.009742149 0.009025383 0.00835446 0.007726828 0.007139775
        0.006590797 0.0060777464 0.0055987914 0.005152108 0.004720895 0.025825778
        0.025693957 0.02549649 0.025170526 0.024722476 0.024160994 0.023496607
        0.02274131 0.021908138 0.021010747 0.020063048 0.019078871 0.018071715
        0.017054522 0.016039489 0.015037855 0.014059689 0.013113616 0.012206565
        0.011343553 0.0105275875 0.009759746 0.00903946 0.008364983 0.007733949
        0.007143858 0.006592395 0.0060775317 0.005597466 0.005150325 0.004718936
        0.02588465 0.025752699 0.025554942 0.025228389 0.024779465 0.024216842
        0.023551077 0.022794195 0.02195926 0.02105997 0.020110253 0.01912397
        0.018114625 0.017095163 0.016077766 0.015073658 0.014092879 0.013144027
        0.0122340005 0.011367785 0.010548377 0.009776874 0.009052787 0.008374517
        0.007739895 0.007146638 0.006592612 0.006075899 0.005594726 0.0051471787
        0.004715692 0.02594383 0.02581175 0.025613705 0.025286572 0.024836786
        0.02427304 0.023605919 0.02284748 0.022010824 0.021109676 0.020157998
        0.019169666 0.018158188 0.017136501 0.016116766 0.015110173 0.014126725
        0.013174975 0.012261789 0.011392132 0.010569002 0.009793542 0.009065374
        0.008383069 0.007744671 0.007148106 0.006591414 0.006072785 0.0055904742
        0.005142542 0.0047110114 0.02600332 0.025871115 0.025672784 0.025345078
        0.02489444 0.024329588 0.023661135 0.02290117 0.02206283 0.021159876
        0.020206291 0.019215968 0.018202417 0.017178554 0.01615651 0.015147423
        0.014161244 0.013206478 0.01228995 0.011416608 0.010589472 0.009809764
        0.009077238 0.008390658 0.0077482834 0.007148253 0.0065887673 0.006068117
        0.0055845985 0.0051362664 0.0047047157 0.02606312 0.025930792 0.025732178
        0.025403904 0.024952427 0.024386486 0.023716724 0.022955267 0.022115285
        0.02121057 0.020255137 0.019262886 0.018247323 0.017221339 0.016197015
        0.01518543 0.014196463 0.0132385595 0.0123185 0.011441229 0.010609808
        0.009825558 0.009088397 0.008397298 0.0077507435 0.0071470705 0.0065846327
        0.006061818 0.0055769715 0.005128174 0.004696583 0.026123235 0.025990782
        0.025791887 0.025463052 0.025010746 0.024443733 0.023772687 0.023009768
        0.022168186 0.021261763 0.02030454 0.019310426 0.018292917 0.017264869
        0.0162383 0.015224213 0.014232403 0.013271241 0.012347465 0.011466021
        0.010630031 0.0098409485 0.009098878 0.008403014 0.0077520646 0.007144554
        0.006578974 0.0060538026 0.0055674464 0.005118054 0.004686341 0.026183663
        0.026051087 0.025851913 0.025522519 0.025069393 0.024501326 0.023829017
        0.02306467 0.022221528 0.02131345 0.020354498 0.019358592 0.018339207
        0.017309155 0.016280381 0.015263794 0.014269087 0.013304549 0.01237687
        0.011491007 0.010650169 0.009855964 0.009108709 0.008407835 0.0077522653
        0.007140702 0.0065717553 0.0060439818 0.00555586 0.0051056514 0.0046736477
        0.02624441 0.026111709 0.02591225 0.025582302 0.025128366 0.024559256
        0.02388571 0.023119966 0.022275306 0.021365626 0.02040501 0.01940738
        0.018386194 0.017354205 0.016323272 0.01530419 0.014306539 0.013338508
        0.012406739 0.011516215 0.01067025 0.009870636 0.009117925 0.008411789
        0.00775137 0.0071355198 0.0065629464 0.0060322667 0.005542029 0.0050906553
        0.004658063 0.026305474 0.026172642 0.025972897 0.025642395 0.025187653
        0.024617514 0.023942752 0.02317564 0.022329507 0.021418277 0.02045606
        0.019456785 0.018433874 0.017400019 0.016366975 0.015345413 0.014344774
        0.013373139 0.0124371 0.011541672 0.010690303 0.009884995 0.009126557
        0.008414914 0.007749406 0.0071290196 0.006552526 0.0060185706 0.005525753
        0.005072683 0.004639008 0.02636686 0.026233885 0.026033845 0.025702784
        0.025247239 0.02467608 0.02400012 0.02323167 0.022384102 0.021471377
        0.020507628 0.01950678 0.018482229 0.017446585 0.016411489 0.015387465
        0.014383801 0.013408456 0.012467967 0.0115674 0.010710353 0.009899071
        0.009134641 0.008417242 0.007746407 0.0071212216 0.006540483 0.0060028173
        0.005506819 0.005051254 0.0046157 0.026428565 0.026295435 0.026095081
        0.025763448 0.025307097 0.024734924 0.024057776 0.023288015 0.02243905
        0.021524882 0.020559669 0.019557329 0.01853122 0.01749387 0.016456787
        0.015430329 0.0144236125 0.013444459 0.01249935 0.011593408 0.010730416
        0.009912885 0.0091422 0.008418806 0.007742405 0.0071121547 0.0065268255
        0.005984952 0.005485014 0.0050257533 0.0045870366 0.026490593 0.026357299
        0.026156627 0.025824422 0.025367267 0.024794092 0.024115784 0.023344744
        0.02249443 0.021578878 0.020612273 0.01960853 0.01858096 0.017541997
        0.016503004 0.015474156 0.014464374 0.013481329 0.0125314435 0.0116199115
        0.010750719 0.009926679 0.0091494955 0.008419878 0.0077376897 0.0071021197
        0.006511856 0.005965248 0.005460461 0.0049956664 0.004551411
      </DataArray>
    </PointData>
    <CellData>
    </CellData>
    <Points>
      <DataArray type="Float32" Name="Points" NumberOfComponents="3" format="ascii" RangeMin="1.0143731371141558" RangeMax="1.1524217395642664">
        0.43846497 -0.0671035 0.91224915 0.45191428 -0.067091145 0.91208124
        0.46529263 -0.06708181 0.9119543 0.47853264 -0.06707513 0.9118635
        0.4915697 -0.06707065 0.9118026 0.50434303 -0.06706785 0.91176444
        0.51679707 -0.067066245 0.9117427 0.5288819 -0.06706543 0.91173166
        0.54055434 -0.06706513 0.91172755 0.5517781 -0.06706513 0.91172755
        0.56252396 -0.067065306 0.9117299 0.57277 -0.06706558 0.9117337
        0.58250105 -0.06706592 0.9117382 0.59170854 -0.06706628 0.9117432
        0.60038984 -0.06706666 0.91174835 0.60854775 -0.067067035 0.9117534
        0.6161899 -0.0670674 0.9117584 0.6233278 -0.06706776 0.9117632
        0.6299765 -0.06706809 0.91176784 0.63615376 -0.06706842 0.9117723
        0.6418793 -0.06706873 0.91177654 0.6471746 -0.06706903 0.9117806
        0.6520619 -0.06706932 0.9117845 0.65656424 -0.0670696 0.9117883
        0.6607048 -0.067069866 0.91179186 0.66450644 -0.06707012 0.9117953
        0.667992 -0.06707036 0.9117986 0.6711833 -0.06707059 0.9118017
        0.6741017 -0.067070805 0.9118047 0.6767675 -0.067071006 0.9118075
        0.6792002 -0.0670712 0.9118101 0.43846497 -0.06585342 0.9123403
        0.45194244 -0.065841526 0.912172 0.46534875 -0.06583257 0.9120449
        0.4786163 -0.06582619 0.91195405 0.49168035 -0.06582193 0.9118932
        0.50447994 -0.06581927 0.91185516 0.5169593 -0.06581775 0.9118335
        0.5290685 -0.06581694 0.91182256 0.5407641 -0.06581658 0.9118185
        0.55200976 -0.065816455 0.91181856 0.56277615 -0.06581644 0.91182095
        0.5730412 -0.06581646 0.9118248 0.5827898 -0.065816484 0.9118295
        0.59201324 -0.06581646 0.9118344 0.600709 -0.065816395 0.91183966
        0.60888 -0.06581624 0.9118448 0.6165338 -0.065816 0.91184986
        0.6236822 -0.06581569 0.9118547 0.6303404 -0.065815315 0.9118594
        0.6365264 -0.065814875 0.91186386 0.64226013 -0.065814406 0.9118682
        0.64756334 -0.065813944 0.9118724 0.65245867 -0.06581352 0.9118763
        0.65696937 -0.06581316 0.9118802 0.661119 -0.06581293 0.91188383
        0.6649309 -0.06581289 0.9118873 0.6684283 -0.065813124 0.9118906
        0.67163426 -0.065813735 0.9118938 0.674572 -0.06581494 0.91189665
        0.67726725 -0.06581713 0.9118994 0.6797581 -0.06582177 0.9119018
        0.43846497 -0.064603224 0.91242963 0.45197073 -0.06459176 0.91226107
        0.46540514 -0.06458317 0.91213375 0.4787004 -0.06457707 0.9120429
        0.49179158 -0.06457302 0.91198206 0.5046176 -0.064570494 0.9119441
        0.5171225 -0.06456903 0.9119226 0.52925617 -0.06456823 0.9119117
        0.5409751 -0.064567804 0.91190773 0.55224276 -0.06456755 0.9119079
        0.5630298 -0.06456735 0.91191036 0.57331413 -0.064567134 0.9119143
        0.58308035 -0.06456684 0.91191894 0.59232 -0.06456644 0.911924
        0.60103047 -0.064565904 0.91192925 0.60921466 -0.06456524 0.91193444
        0.61688036 -0.064564414 0.91193956 0.62403953 -0.06456347 0.91194445
        0.6307075 -0.06456239 0.9119492 0.6369025 -0.064561225 0.9119538
        0.64264494 -0.06456002 0.9119582 0.6479566 -0.064558834 0.91196245
        0.6528605 -0.06455774 0.9119665 0.65738034 -0.06455683 0.9119703
        0.66154 -0.064556204 0.911974 0.6653634 -0.06455599 0.9119776
        0.6688743 -0.06455637 0.9119809 0.67209715 -0.064557575 0.91198397
        0.67505723 -0.06456 0.9119869 0.6777841 -0.06456437 0.91198945
        0.68031603 -0.06457222 0.9119917 0.43846497 -0.063352905 0.9125173
        0.45199916 -0.063341856 0.91234833 0.4654618 -0.0633336 0.91222095
        0.47878492 -0.06332777 0.91213 0.4919034 -0.0633239 0.9120692
        0.504756 -0.06332149 0.91203135 0.51728654 -0.06332008 0.9120099
        0.5294449 -0.06331926 0.91199917 0.54118735 -0.06331876 0.9119953
        0.55247724 -0.06331837 0.9119955 0.5632851 -0.06331799 0.91199803
        0.5735888 -0.06331752 0.912002 0.58337295 -0.06331691 0.91200674
        0.59262896 -0.06331614 0.91201186 0.60135424 -0.06331516 0.9120171
        0.6095519 -0.063313976 0.9120224 0.61722976 -0.06331258 0.91202754
        0.62439996 -0.063311 0.91203254 0.631078 -0.063309245 0.9120373
        0.6372825 -0.063307375 0.91204196 0.6430339 -0.06330546 0.91204643
        0.6483546 -0.0633036 0.9120507 0.65326774 -0.06330189 0.91205484
        0.6577975 -0.06330049 0.9120588 0.6619681 -0.06329956 0.9120625
        0.6658041 -0.06329928 0.91206604 0.6693301 -0.06329994 0.91206944
        0.6725715 -0.06330188 0.91207254 0.6755552 -0.06330569 0.91207534
        0.67831177 -0.063312165 0.91207784 0.68087393 -0.063322544 0.91208
        0.43846497 -0.06210246 0.91260326 0.45202774 -0.062091805 0.912434
        0.46551877 -0.06208386 0.91230637 0.47886992 -0.06207828 0.9122154
        0.4920158 -0.062074583 0.9121547 0.50489515 -0.062072273 0.9121169
        0.5174516 -0.06207089 0.9120956 0.5296348 -0.062070046 0.91208494
        0.54140085 -0.062069457 0.9120812 0.5527131 -0.062068935 0.9120814
        0.563542 -0.06206835 0.912084 0.57386523 -0.062067624 0.91208804
        0.5836675 -0.062066708 0.9120928 0.5929401 -0.06206556 0.912098
        0.60168046 -0.062064145 0.9121033 0.60989183 -0.062062465 0.91210866
        0.6175821 -0.062060513 0.9121138 0.62476355 -0.06205831 0.9121189
        0.631452 -0.062055904 0.91212374 0.6376663 -0.06205335 0.91212845
        0.6434272 -0.062050764 0.912133 0.64875734 -0.06204826 0.9121373
        0.65368044 -0.062046 0.9121415 0.6582208 -0.062044173 0.91214544
        0.6624033 -0.062043007 0.91214925 0.666253 -0.062042773 0.9121528
        0.6697952 -0.062043816 0.91215616 0.6730562 -0.062046625 0.9121592
        0.6760635 -0.06205183 0.912162 0.67884636 -0.06206023 0.91216445
        0.6814319 -0.06207274 0.91216654 0.43846497 -0.06085191 0.9126875
        0.45205647 -0.060841605 0.91251785 0.46557602 -0.06083397 0.91239005
        0.47895533 -0.060828608 0.91229916 0.49212885 -0.06082507 0.9122384
        0.50503504 -0.060822845 0.9122008 0.51761746 -0.060821485 0.9121796
        0.5298256 -0.060820602 0.91216904 0.5416156 -0.060819924 0.9121653
        0.55295044 -0.060819253 0.91216564 0.5638006 -0.060818467 0.91216826
        0.5741436 -0.060817495 0.9121724 0.58396405 -0.060816262 0.9121772
        0.59325343 -0.060814746 0.91218245 0.6020091 -0.060812913 0.9121878
        0.6102344 -0.06081074 0.9121932 0.6179373 -0.06080824 0.9121984
        0.62513036 -0.060805444 0.9122035 0.6318296 -0.060802396 0.91220844
        0.638054 -0.060799204 0.91221315 0.6438249 -0.060795974 0.9122178
        0.649165 -0.06079287 0.91222215 0.6540985 -0.060790114 0.9122264
        0.6586503 -0.060787927 0.91223043 0.66284543 -0.06078661 0.9122342
        0.66670966 -0.060786493 0.9122378 0.6702689 -0.060788024 0.91224116
        0.6735498 -0.060791746 0.91224426 0.67657965 -0.060798325 0.912247
        0.6793856 -0.06080848 0.9122494 0.68198985 -0.06082283 0.91225135
        0.43846497 -0.05960124 0.91277 0.45208538 -0.059591286 0.91260004
        0.4656336 -0.05958392 0.9124721 0.4790412 -0.059578773 0.9123811
        0.49224246 -0.059575368 0.9123205 0.5051757 -0.059573215 0.91228294
        0.51778436 -0.059571873 0.91226184 0.5300177 -0.059570946 0.91225135
        0.5418316 -0.059570167 0.9122478 0.5531892 -0.05956935 0.91224813
        0.56406075 -0.059568375 0.9122509 0.5744237 -0.059567146 0.912255
        0.58426267 -0.05956562 0.9122599 0.59356904 -0.059563737 0.9122652
        0.6023403 -0.059561487 0.9122706 0.61057967 -0.059558842 0.91227597
        0.6182955 -0.059555817 0.9122813 0.62550044 -0.059552446 0.9122864
        0.63221073 -0.059548788 0.9122914 0.6384457 -0.059544977 0.91229624
        0.64422685 -0.05954114 0.9123009 0.64957744 -0.059537493 0.9123053
        0.654522 -0.05953429 0.9123095 0.6590857 -0.05953181 0.91231364
        0.66329426 -0.059530407 0.9123175 0.6671737 -0.059530493 0.9123211
        0.6707504 -0.059532557 0.9123245 0.67405105 -0.059537217 0.91232747
        0.6771021 -0.05954512 0.9123302 0.67992806 -0.05955685 0.91233253
        0.68254775 -0.0595728 0.91233444 0.43846497 -0.058350462 0.91285086
        0.4521144 -0.05834083 0.9126805 0.46569145 -0.058333732 0.9125524
        0.4791275 -0.058328778 0.9124614 0.4923567 -0.05832549 0.9124008
        0.50531715 -0.058323406 0.91236335 0.5179521 -0.058322065 0.91234237
        0.53021073 -0.05832109 0.912332 0.5420489 -0.058320228 0.9123285
        0.5534294 -0.058319256 0.91232896 0.56432253 -0.058318082 0.91233176
        0.57470566 -0.05831662 0.91233593 0.5845633 -0.058314785 0.9123408
        0.59388685 -0.05831256 0.9123462 0.6026739 -0.05830991 0.91235167
        0.6109277 -0.05830681 0.9123571 0.6186567 -0.058303278 0.9123624
        0.62587374 -0.05829936 0.9123676 0.6325954 -0.05829513 0.9123726
        0.6388413 -0.05829072 0.9123775 0.6446332 -0.058286328 0.9123821
        0.6499948 -0.058282178 0.9123867 0.65495086 -0.058278576 0.912391
        0.65952706 -0.058275864 0.9123951 0.6637495 -0.05827444 0.912399
        0.6676446 -0.058274783 0.91240263 0.67123896 -0.05827744 0.912406
        0.67455876 -0.058283024 0.912409 0.6776293 -0.05829217 0.9124117
        0.6804728 -0.058305304 0.912414 0.6831057 -0.05832266 0.9124159
        0.43846497 -0.057099566 0.9129299 0.45214358 -0.057090256 0.9127593
        0.46574962 -0.057083406 0.912631 0.47921425 -0.05707863 0.91253996
        0.49247152 -0.057075467 0.91247946 0.5054593 -0.05707343 0.9124421
        0.5181208 -0.057072088 0.91242117 0.5304049 -0.057071064 0.912411
        0.54226744 -0.057070095 0.9124075 0.5536711 -0.05706899 0.91240805
        0.564586 -0.057067625 0.9124109 0.57498944 -0.05706592 0.91241515
        0.58486605 -0.05706381 0.9124201 0.59420705 -0.05706125 0.91242546
        0.60301 -0.05705821 0.912431 0.6112785 -0.057054676 0.9124364
        0.61902094 -0.057050664 0.91244185 0.62625045 -0.05704622 0.9124471
        0.6329838 -0.057041436 0.91245216 0.6392409 -0.057036486 0.9124571
        0.6450439 -0.05703157 0.9124618 0.6504169 -0.057026967 0.91246635
        0.65538496 -0.057023026 0.9124707 0.6599742 -0.057020124 0.9124749
        0.664211 -0.05701874 0.91247874 0.668122 -0.057019386 0.9124824
        0.67173374 -0.057022646 0.9124857 0.67507195 -0.057029143 0.91248876
        0.67816037 -0.05703942 0.91249144 0.68101925 -0.05705382 0.9124937
        0.68366367 -0.0570724 0.91249555 0.43846497 -0.055848565 0.9130073
        0.45217288 -0.055839553 0.9128363 0.46580806 -0.05583295 0.9127079
        0.47930148 -0.05582834 0.91261685 0.49258694 -0.055825286 0.91255635
        0.5056023 -0.055823296 0.91251916 0.5182904 -0.055821955 0.91249835
        0.53060025 -0.055820875 0.9124882 0.5424873 -0.055819806 0.9124848
        0.55391425 -0.05581856 0.9124855 0.5648511 -0.05581701 0.91248834
        0.5752752 -0.05581508 0.91249263 0.58517087 -0.0558127 0.91249764
        0.59452945 -0.055809822 0.91250306 0.60334873 -0.055806417 0.9125086
        0.61163205 -0.05580247 0.9125141 0.6193882 -0.055797994 0.9125196
        0.6266305 -0.055793054 0.9125249 0.6333759 -0.055787764 0.91252995
        0.63964456 -0.055782296 0.9125349 0.6454591 -0.05577691 0.91253966
        0.6508438 -0.05577189 0.91254425 0.6558243 -0.055767655 0.91254866
        0.6604269 -0.05576463 0.9125528 0.66467834 -0.05576333 0.91255677
        0.6686053 -0.05576431 0.9125604 0.6722342 -0.05576818 0.9125638
        0.6755897 -0.055775538 0.9125668 0.6786944 -0.055786863 0.91256946
        0.681567 -0.05580238 0.9125717 0.68422157 -0.055822037 0.91257364
        0.43846497 -0.054597467 0.913083 0.45220238 -0.05458874 0.91291165
        0.4658668 -0.054582357 0.912783 0.47938913 -0.054577917 0.91269195
        0.492703 -0.05457496 0.9126316 0.505746 -0.054573018 0.9125944
        0.518461 -0.054571662 0.91257375 0.53079665 -0.05457053 0.91256374
        0.54270846 -0.054569367 0.91256046 0.5541589 -0.054567985 0.9125611
        0.5651179 -0.054566264 0.9125641 0.5755627 -0.054564115 0.9125684
        0.58547777 -0.054561477 0.9125735 0.5948543 -0.0545583 0.9125789
        0.60369 -0.054554544 0.91258454 0.61198854 -0.054550204 0.9125901
        0.6197587 -0.054545302 0.91259557 0.627014 -0.054539904 0.9126009
        0.6337717 -0.05453413 0.91260606 0.6400523 -0.05452819 0.91261095
        0.6458787 -0.05452236 0.9126158 0.6512756 -0.05451699 0.9126204
        0.65626884 -0.0545125 0.91262484 0.6608851 -0.054509398 0.91262907
        0.6651513 -0.054508217 0.91263306 0.66909415 -0.054509554 0.9126367
        0.6727395 -0.054514024 0.9126401 0.6761114 -0.05452219 0.9126431
        0.679231 -0.054534465 0.91264576 0.6821158 -0.054550968 0.912648
        0.6847795 -0.05457157 0.9126499 0.43846497 -0.053346258 0.9131569
        0.452232 -0.053337812 0.91298527 0.46592584 -0.053331647 0.9128565
        0.47947726 -0.053327356 0.9127654 0.49281967 -0.053324495 0.91270506
        0.50589055 -0.053322587 0.91266805 0.5186325 -0.05332123 0.9126475
        0.5309942 -0.053320043 0.9126376 0.5429309 -0.053318784 0.9126344
        0.55440503 -0.053317275 0.9126351 0.5653864 -0.053315386 0.9126381
        0.5758522 -0.05331303 0.9126425 0.5857868 -0.053310152 0.9126476
        0.59518147 -0.05330669 0.9126531 0.60403395 -0.053302616 0.91265875
        0.6123479 -0.05329791 0.9126643 0.6201324 -0.053292602 0.91266984
        0.627401 -0.05328677 0.91267514 0.63417137 -0.05328056 0.9126803
        0.6404642 -0.05327419 0.9126854 0.64630276 -0.05326796 0.9126902
        0.6517121 -0.05326227 0.9126949 0.6567184 -0.05325759 0.91269934
        0.6613486 -0.053254433 0.9127036 0.6656296 -0.053253405 0.91270757
        0.6695881 -0.05325511 0.91271126 0.6732493 -0.053260162 0.9127146
        0.67663646 -0.05326908 0.91271764 0.67976964 -0.053282205 0.9127203
        0.68266547 -0.053299576 0.9127226 0.6853375 -0.053320993 0.9127245
        0.43846497 -0.05209495 0.91322917 0.45226175 -0.052086774 0.91305715
        0.4659852 -0.052080818 0.9129283 0.47956583 -0.05207667 0.91283715
        0.49293694 -0.052073896 0.9127768 0.5060358 -0.05207203 0.91273993
        0.51880497 -0.052070655 0.9127195 0.53119284 -0.052069418 0.91270965
        0.54315466 -0.052068073 0.91270655 0.5546527 -0.05206644 0.9127074
        0.56565666 -0.052064396 0.9127104 0.5761437 -0.052061856 0.91271484
        0.5860981 -0.052058745 0.91271996 0.59551114 -0.052055024 0.91272557
        0.60438055 -0.052050643 0.91273123 0.61271024 -0.052045595 0.91273683
        0.62050927 -0.052039918 0.9127423 0.6277915 -0.05203369 0.91274774
        0.63457483 -0.052027073 0.9127529 0.6408802 -0.052020304 0.912758
        0.6467313 -0.05201373 0.9127629 0.6521534 -0.05200776 0.9127675
        0.657173 -0.05200292 0.91277206 0.66181713 -0.05199976 0.9127763
        0.66611296 -0.051998906 0.91278034 0.6700867 -0.05200098 0.9127841
        0.6737631 -0.052006576 0.91278744 0.6771645 -0.05201618 0.9127905
        0.68031 -0.052030064 0.91279316 0.68321586 -0.052048195 0.9127954
        0.6858954 -0.05207032 0.91279733 0.43846497 -0.050843548 0.91329974
        0.45229167 -0.050835628 0.91312736 0.46604487 -0.050829872 0.91299826
        0.47965485 -0.05082586 0.9129071 0.49305484 -0.05082317 0.9128469
        0.5061819 -0.050821334 0.9128101 0.51897836 -0.050819952 0.9127898
        0.53139263 -0.050818663 0.91278005 0.5433797 -0.05081724 0.91277707
        0.5549019 -0.050815493 0.9127779 0.56592864 -0.0508133 0.91278106
        0.5764371 -0.05081058 0.9127855 0.58641154 -0.050807264 0.9127907
        0.5958432 -0.050803296 0.91279626 0.60472995 -0.050798636 0.9128019
        0.6130756 -0.050793283 0.9128076 0.6208895 -0.05078726 0.9128131
        0.6281857 -0.05078067 0.91281855 0.6349823 -0.050773688 0.91282386
        0.64130056 -0.050766565 0.9128289 0.6471644 -0.050759677 0.91283387
        0.65259945 -0.050753485 0.9128385 0.6576325 -0.05074852 0.91284305
        0.66229075 -0.050745383 0.9128474 0.66660106 -0.050744716 0.9128514
        0.6705896 -0.050747152 0.9128551 0.6742804 -0.05075326 0.9128585
        0.67769504 -0.05076348 0.9128616 0.68085194 -0.050778028 0.91286427
        0.68376684 -0.05079681 0.9128666 0.68645334 -0.050819542 0.91286856
        0.43846497 -0.049592048 0.9133685 0.45232174 -0.049584378 0.91319585
        0.46610484 -0.049578812 0.9130666 0.47974437 -0.049574938 0.9129754
        0.49317336 -0.049572323 0.9129153 0.50632876 -0.049570516 0.9128786
        0.51915276 -0.049569122 0.91285837 0.5315936 -0.04956779 0.9128488
        0.54360616 -0.049566288 0.9128458 0.5551526 -0.049564436 0.91284674
        0.5662024 -0.049562108 0.9128499 0.5767326 -0.049559228 0.91285443
        0.58672726 -0.04955572 0.9128596 0.5961778 -0.049551528 0.9128653
        0.6050821 -0.049546618 0.912871 0.61344403 -0.049540974 0.91287667
        0.6212731 -0.04953465 0.9128822 0.6285835 -0.04952773 0.9128877
        0.6353937 -0.049520414 0.912893 0.6417251 -0.049512982 0.9128981
        0.647602 -0.049505834 0.912903 0.6530503 -0.04949944 0.9129078
        0.6580969 -0.049494393 0.9129123 0.66276914 -0.049491305 0.9129166
        0.6670938 -0.049490836 0.9129207 0.67109656 -0.049493615 0.9129244
        0.674801 -0.049500193 0.91292787 0.6782279 -0.049510967 0.91293097
        0.6813952 -0.049526088 0.91293365 0.6843184 -0.04954543 0.91293603
        0.6870113 -0.04956867 0.912938 0.43846497 -0.048340455 0.9134356
        0.45235196 -0.04833303 0.9132626 0.4661651 -0.048327643 0.9131332
        0.47983435 -0.048323896 0.91304195 0.4932925 -0.04832135 0.9129819
        0.5064764 -0.048319574 0.91294533 0.5193281 -0.048318166 0.91292524
        0.53179574 -0.0483168 0.91291577 0.543834 -0.048315223 0.91291285
        0.5554049 -0.04831327 0.91291386 0.56647795 -0.048310827 0.9129171
        0.57703 -0.0483078 0.91292167 0.58704525 -0.04830412 0.9129269
        0.596515 -0.04829973 0.9129326 0.6054371 -0.04829459 0.9129383
        0.6138156 -0.0482887 0.912944 0.6216601 -0.048282094 0.9129496
        0.6289851 -0.048274886 0.9129551 0.63580906 -0.04826728 0.9129604
        0.642154 -0.04825958 0.91296554 0.64804417 -0.048252195 0.9129705
        0.65350586 -0.048245657 0.91297525 0.6585661 -0.04824055 0.9129799
        0.6632522 -0.048237536 0.9129842 0.66759086 -0.048237264 0.91298825
        0.6716073 -0.04824037 0.912992 0.67532456 -0.048247375 0.9129955
        0.67876285 -0.04825862 0.91299856 0.68193966 -0.048274238 0.9130013
        0.6848705 -0.04829404 0.9130037 0.68756926 -0.048317704 0.9130057
        0.43846497 -0.047088772 0.91350096 0.45238236 -0.04708158 0.91332763
        0.46622568 -0.04707637 0.91319805 0.4799248 -0.04707274 0.9131068
        0.4934123 -0.04707027 0.9130469 0.5066249 -0.047068518 0.91301036
        0.5195045 -0.047067102 0.9129904 0.531999 -0.047065694 0.912981
        0.54406315 -0.047064055 0.9129782 0.5556588 -0.047062017 0.91297925
        0.56675535 -0.047059465 0.9129826 0.5773295 -0.047056302 0.9129872
        0.58736557 -0.047052473 0.9129925 0.59685475 -0.047047906 0.91299814
        0.60579497 -0.047042567 0.9130039 0.61419034 -0.047036454 0.91300964
        0.62205064 -0.047029603 0.9130153 0.6293905 -0.047022145 0.91302073
        0.6362286 -0.047014292 0.9130261 0.64258724 -0.047006357 0.9130312
        0.64849097 -0.046998795 0.9130362 0.6539661 -0.046992134 0.91304106
        0.65904 -0.04698701 0.91304564 0.6637398 -0.046984073 0.91305
        0.6680921 -0.046984 0.9130541 0.67212164 -0.04698741 0.9130579
        0.67585087 -0.046994787 0.9130614 0.67929965 -0.047006447 0.91306454
        0.6824852 -0.047022466 0.9130673 0.68542296 -0.047042646 0.91306967
        0.68812716 -0.047066648 0.91307175 0.43846497 -0.045837004 0.9135646
        0.4524129 -0.04583003 0.913391 0.4662866 -0.04582499 0.91326123
        0.4800157 -0.045821477 0.91317 0.49353272 -0.04581907 0.9131101
        0.5067742 -0.04581735 0.9130737 0.5196819 -0.04581593 0.9130539
        0.5322035 -0.045814484 0.9130446 0.54429376 -0.045812786 0.91304183
        0.55591434 -0.045810673 0.91304296 0.56703454 -0.045808025 0.9130463
        0.5776312 -0.04580475 0.91305095 0.58768827 -0.04580079 0.91305625
        0.5971972 -0.04579607 0.913062 0.60615575 -0.04579056 0.91306776
        0.61456835 -0.045784254 0.91307354 0.62244475 -0.045777198 0.9130792
        0.6297997 -0.045769524 0.9130847 0.63665235 -0.04576146 0.91309005
        0.6430249 -0.04575334 0.91309524 0.6489423 -0.045745634 0.91310024
        0.6544311 -0.04573889 0.9131051 0.65951854 -0.04573376 0.9131097
        0.6642319 -0.045730926 0.9131141 0.6685973 -0.04573105 0.9131182
        0.67263925 -0.045734726 0.91312206 0.6763798 -0.04574243 0.9131256
        0.6798383 -0.045754425 0.91312873 0.6830318 -0.04577077 0.91313154
        0.6859759 -0.045791246 0.913134 0.6886851 -0.0458155 0.91313607
        0.43846497 -0.044585146 0.9136266 0.4524436 -0.044578396 0.91345257
        0.46634778 -0.044573512 0.91332275 0.48010707 -0.044570107 0.91323143
        0.4936538 -0.04456777 0.9131716 0.5069243 -0.044566073 0.9131353
        0.5198602 -0.044564646 0.9131156 0.5324092 -0.04456317 0.9131064
        0.54452574 -0.04456143 0.91310376 0.5561715 -0.044559248 0.91310495
        0.56731564 -0.044556517 0.9131083 0.5779349 -0.044553153 0.91311306
        0.58801335 -0.044549074 0.9131184 0.5975423 -0.044544227 0.9131241
        0.6065196 -0.044538576 0.9131299 0.6149497 -0.04453211 0.9131357
        0.6228425 -0.044524882 0.91314137 0.63021296 -0.04451704 0.9131469
        0.63708025 -0.044508804 0.9131523 0.643467 -0.044500537 0.9131575
        0.6493983 -0.04449272 0.9131625 0.6549007 -0.04448593 0.91316736
        0.6600017 -0.044480827 0.913172 0.6647283 -0.044478096 0.9131764
        0.66910636 -0.0444784 0.91318053 0.67316014 -0.04448232 0.9131844
        0.6769112 -0.044490293 0.913188 0.68037856 -0.044502567 0.91319114
        0.6835794 -0.044519156 0.91319406 0.6865293 -0.04453984 0.9131965
        0.6892431 -0.044564262 0.91319865 0.43846497 -0.043333206 0.9136868
        0.45247445 -0.043326665 0.91351247 0.46640933 -0.04332194 0.9133825
        0.48019895 -0.04331864 0.91329116 0.49377552 -0.043316364 0.9132314
        0.50707525 -0.04331469 0.91319525 0.52003956 -0.04331326 0.91317564
        0.5326161 -0.043311764 0.91316646 0.54475915 -0.04330998 0.91316396
        0.5564303 -0.043307748 0.9131652 0.56759864 -0.04330495 0.9131686
        0.5782408 -0.043301504 0.9131734 0.5883409 -0.043297336 0.9131788
        0.5978901 -0.04329239 0.9131845 0.6068865 -0.04328662 0.91319036
        0.6153344 -0.04328003 0.91319615 0.6232439 -0.043272674 0.91320187
        0.63063014 -0.043264695 0.9132074 0.6375125 -0.04325633 0.9132128
        0.6439137 -0.04324796 0.913218 0.64985895 -0.043240078 0.9132231
        0.6553751 -0.043233268 0.9132279 0.66048944 -0.043228213 0.9132326
        0.6652289 -0.043225598 0.91323704 0.6696192 -0.043226067 0.9132412
        0.67368406 -0.0432302 0.9132451 0.6774448 -0.043238387 0.9132487
        0.6809204 -0.043250863 0.91325194 0.68412787 -0.043267615 0.9132548
        0.68708307 -0.04328843 0.91325736 0.689801 -0.043312944 0.91325957
        0.43846497 -0.04208118 0.9137454 0.45250547 -0.042074844 0.91357064
        0.4664712 -0.042070273 0.91344047 0.48029134 -0.042067073 0.91334915
        0.49389789 -0.042064853 0.9132895 0.507227 -0.04206321 0.9132534
        0.52022 -0.042061776 0.91323394 0.5328242 -0.042060263 0.91322494
        0.544994 -0.042058446 0.9132225 0.55669075 -0.04205617 0.91322374
        0.5678835 -0.042053323 0.91322726 0.5785489 -0.04204982 0.913232
        0.5886709 -0.042045586 0.91323745 0.59824073 -0.04204056 0.9132432
        0.6072565 -0.04203471 0.91324914 0.61572254 -0.042028032 0.91325486
        0.6236491 -0.04202058 0.91326064 0.6310515 -0.0420125 0.9132662
        0.63794905 -0.042004056 0.91327155 0.6443649 -0.041995626 0.91327685
        0.65032434 -0.04198771 0.91328186 0.65585417 -0.041980915 0.91328675
        0.66098166 -0.041975927 0.91329145 0.6657337 -0.041973423 0.9132959
        0.6701357 -0.04197405 0.91330016 0.674211 -0.041978344 0.91330403
        0.6779808 -0.041986704 0.91330767 0.68146384 -0.041999307 0.91331095
        0.68467724 -0.042016156 0.9133139 0.6876372 -0.042037006 0.9133165
        0.69035894 -0.042061538 0.9133188 0.43846497 -0.04082908 0.9138022
        0.45253664 -0.040822938 0.9136271 0.46653336 -0.040818512 0.91349673
        0.4803842 -0.040815413 0.9134054 0.49402094 -0.04081325 0.9133458
        0.5073796 -0.040811628 0.91330993 0.5204014 -0.040810205 0.9132905
        0.5330336 -0.040808678 0.9132816 0.54523027 -0.040806837 0.91327924
        0.5569529 -0.040804528 0.9132806 0.56817037 -0.040801648 0.9132841
        0.5788592 -0.040798105 0.91328895 0.5890034 -0.040793825 0.91329443
        0.5985942 -0.040788755 0.9133002 0.60762966 -0.04078285 0.91330606
        0.6161142 -0.040776115 0.9133119 0.6240582 -0.04076861 0.9133176
        0.63147694 -0.04076048 0.9133232 0.6383901 -0.04075199 0.9133286
        0.64482075 -0.040743537 0.91333383 0.6507944 -0.04073563 0.91333896
        0.65633786 -0.04072888 0.9133439 0.6614784 -0.04072397 0.91334856
        0.66624266 -0.040721584 0.9133531 0.6706557 -0.040722344 0.9133573
        0.67474085 -0.04072678 0.91336125 0.67851895 -0.04073524 0.9133649
        0.68200874 -0.04074792 0.9133683 0.6852276 -0.040764775 0.91337126
        0.6881918 -0.040785596 0.91337395 0.6909169 -0.040810052 0.91337633
        0.43846497 -0.0395769 0.9138573 0.45256796 -0.039570954 0.91368186
        0.46659586 -0.039566662 0.9135514 0.4804775 -0.039563656 0.91346
        0.49414468 -0.03956155 0.9134005 0.5075331 -0.03955996 0.91336465
        0.52058387 -0.039558537 0.9133454 0.5332442 -0.039557002 0.91333663
        0.54546803 -0.03955515 0.9133343 0.55721676 -0.03955283 0.91333574
        0.56845915 -0.039549924 0.9133393 0.5791718 -0.03954636 0.91334414
        0.5893385 -0.039542068 0.9133496 0.5989505 -0.03953697 0.91335547
        0.608006 -0.039531052 0.9133614 0.61650944 -0.039524294 0.9133672
        0.6244711 -0.03951677 0.91337293 0.6319066 -0.03950863 0.91337854
        0.6388356 -0.039500147 0.91338396 0.6452813 -0.039491706 0.9133892
        0.65126926 -0.039483845 0.91339433 0.6568263 -0.03947717 0.9133992
        0.6619797 -0.03947236 0.913404 0.6667557 -0.03947009 0.91340846
        0.67117935 -0.03947097 0.9134128 0.6752736 -0.039475497 0.91341674
        0.67905927 -0.039484017 0.9134205 0.6825552 -0.039496686 0.9134239
        0.68577886 -0.039513476 0.9134269 0.6887468 -0.03953418 0.9134297
        0.69147485 -0.039558485 0.91343206 0.43846497 -0.03832465 0.9139106
        0.45259947 -0.038318884 0.9137349 0.4666587 -0.03831473 0.91360426
        0.4805714 -0.038311813 0.9135129 0.49426904 -0.038309764 0.9134534
        0.5076874 -0.038308196 0.91341776 0.5207674 -0.038306788 0.91339856
        0.5334561 -0.038305253 0.91338986 0.5457073 -0.038303398 0.91338766
        0.55748236 -0.03830107 0.91338915 0.56874996 -0.038298164 0.9133928
        0.5794866 -0.038294602 0.9133976 0.58967614 -0.03829031 0.91340315
        0.5993098 -0.03828523 0.913409 0.6083857 -0.038279317 0.91341496
        0.6169083 -0.03827258 0.9134208 0.62488806 -0.038265076 0.9134265
        0.6323406 -0.038256966 0.9134321 0.6392857 -0.038248528 0.91343755
        0.64574665 -0.038240153 0.91344285 0.65174896 -0.03823237 0.913448
        0.65731955 -0.0382258 0.91345286 0.6624854 -0.038221106 0.91345763
        0.6672728 -0.03821895 0.9134622 0.6717065 -0.038219925 0.9134665
        0.6758092 -0.03822451 0.91347057 0.6796018 -0.038233027 0.91347426
        0.68310314 -0.038245626 0.9134777 0.686331 -0.038262274 0.9134809
        0.6893022 -0.038282778 0.9134837 0.69203275 -0.03830685 0.9134862
        0.43846497 -0.037072323 0.91396224 0.45263112 -0.03706674 0.9137862
        0.46672186 -0.037062712 0.91365534 0.4806657 -0.037059885 0.913564
        0.49439412 -0.03705788 0.9135046 0.5078426 -0.037056345 0.913469
        0.520952 -0.037054956 0.91345 0.53366923 -0.03705343 0.9134414
        0.5459481 -0.037051577 0.9134393 0.5577497 -0.03704926 0.9134408
        0.5690428 -0.037046373 0.9134445 0.57980376 -0.037042826 0.9134494
        0.5900164 -0.03703857 0.91345495 0.599672 -0.03703352 0.91346085
        0.60876864 -0.037027653 0.9134668 0.6173109 -0.03702097 0.91347265
        0.62530905 -0.037013534 0.9134784 0.63277894 -0.037005506 0.91348404
        0.6397404 -0.036997154 0.91348946 0.64621675 -0.036988884 0.9134947
        0.65223354 -0.03698122 0.91349983 0.65781754 -0.036974773 0.91350484
        0.6629957 -0.036970213 0.91350955 0.667794 -0.036968168 0.91351414
        0.67223716 -0.036969222 0.9135185 0.67634773 -0.036973827 0.91352254
        0.6801465 -0.036982283 0.91352636 0.6836527 -0.036994737 0.9135299
        0.6868841 -0.037011165 0.9135331 0.689858 -0.037031386 0.91353595
        0.6925907 -0.037055135 0.9135385 0.43846497 -0.035819933 0.9140122
        0.45266294 -0.03581452 0.91383576 0.46678537 -0.035810616 0.91370475
        0.48076057 -0.03580787 0.91361344 0.4945199 -0.035805922 0.9135541
        0.5079987 -0.035804417 0.91351867 0.52113765 -0.035803042 0.9134998
        0.53388363 -0.035801534 0.91349125 0.5461903 -0.0357997 0.9134892
        0.5580188 -0.035797406 0.91349083 0.56933767 -0.03579455 0.9134945
        0.5801233 -0.03579105 0.9134995 0.59035945 -0.03578684 0.9135051
        0.60003734 -0.035781864 0.913511 0.60915506 -0.03577608 0.9135169
        0.6177172 -0.03576949 0.9135228 0.6257342 -0.03576216 0.9135285
        0.6332218 -0.035754252 0.91353416 0.6401999 -0.035746038 0.9135396
        0.6466918 -0.035737913 0.9135449 0.6527231 -0.035730407 0.9135501
        0.65832037 -0.03572412 0.913555 0.6635105 -0.035719693 0.9135598
        0.66831934 -0.03571776 0.9135644 0.67277133 -0.035718866 0.9135688
        0.6768891 -0.035723444 0.9135729 0.6806935 -0.03573179 0.9135767
        0.6842038 -0.035744034 0.91358036 0.68743825 -0.035760164 0.9135836
        0.6904143 -0.035780016 0.9135865 0.6931487 -0.035803355 0.9135891
        0.43846497 -0.034567468 0.9140605 0.45269495 -0.034562226 0.9138837
        0.46684918 -0.03455844 0.9137525 0.48085594 -0.034555774 0.9136611
        0.49464634 -0.034553878 0.9136019 0.50815564 -0.034552407 0.9135666
        0.5213244 -0.034551054 0.9135478 0.5340994 -0.03454957 0.9135394
        0.54643416 -0.034547765 0.91353744 0.5582897 -0.034545507 0.91353905
        0.5696346 -0.034542706 0.9135428 0.5804452 -0.03453927 0.9135478
        0.59070516 -0.034535144 0.9135534 0.6004057 -0.03453026 0.9135593
        0.6095449 -0.034524594 0.91356534 0.61812735 -0.034518134 0.9135712
        0.62616354 -0.03451096 0.91357696 0.63366914 -0.034503218 0.91358256
        0.64066416 -0.03449518 0.913588 0.6471718 -0.03448725 0.91359335
        0.6532176 -0.034479935 0.9135985 0.6588281 -0.034473833 0.9136035
        0.66402996 -0.034469564 0.9136083 0.6688489 -0.034467734 0.91361296
        0.6733092 -0.034468874 0.9136173 0.6774335 -0.034473393 0.9136215
        0.68124276 -0.034481566 0.9136254 0.6847566 -0.034493532 0.91362906
        0.6879934 -0.03450928 0.9136324 0.69097114 -0.03452867 0.91363543
        0.69370663 -0.034551498 0.9136381 0.43846497 -0.03331494 0.91410697
        0.4527271 -0.033309862 0.9139298 0.46691334 -0.033306193 0.9137985
        0.48095182 -0.033303604 0.91370714 0.49477348 -0.033301756 0.91364795
        0.5083135 -0.03330032 0.9136128 0.52151227 -0.033299 0.91359407
        0.5343164 -0.033297542 0.91358584 0.5466795 -0.033295777 0.91358393
        0.5585624 -0.033293575 0.9135856 0.56993365 -0.033290837 0.9135894
        0.5807695 -0.033287495 0.9135945 0.5910536 -0.033283476 0.9136001
        0.60077715 -0.033278726 0.913606 0.60993826 -0.033273205 0.913612
        0.6185414 -0.03326692 0.9136179 0.62659717 -0.03325994 0.9136237
        0.6341212 -0.03325241 0.9136293 0.6411333 -0.033244602 0.9136347
        0.64765686 -0.03323691 0.9136401 0.6537172 -0.033229828 0.9136452
        0.6593408 -0.03322393 0.9136502 0.66455406 -0.033219837 0.9136551
        0.66938263 -0.033218108 0.91365975 0.6738507 -0.033219263 0.9136642
        0.67798096 -0.033223677 0.9136684 0.68179446 -0.033231623 0.9136724
        0.6853111 -0.033243235 0.913676 0.6885497 -0.033258516 0.9136794
        0.69152844 -0.033277355 0.9136826 0.6942646 -0.033299573 0.9136853
        0.43846497 -0.03206235 0.9141517 0.45275944 -0.03205743 0.9139743
        0.46697786 -0.03205387 0.9138428 0.4810482 -0.032051355 0.91375136
        0.4949013 -0.032049563 0.9136923 0.5084722 -0.032048162 0.91365725
        0.5217012 -0.032046873 0.9136387 0.5345348 -0.032045458 0.9136305
        0.54692644 -0.032043744 0.9136287 0.558837 -0.032041613 0.9136304
        0.57023484 -0.03203896 0.91363436 0.58109623 -0.032035727 0.91363937
        0.59140486 -0.032031845 0.913645 0.6011518 -0.032027252 0.913651
        0.6103352 -0.03202192 0.91365695 0.6189595 -0.032015853 0.91366285
        0.6270352 -0.032009114 0.91366863 0.6345779 -0.032001846 0.91367424
        0.64160746 -0.031994313 0.9136797 0.6481471 -0.0319869 0.913685
        0.6542221 -0.031980086 0.91369027 0.6598586 -0.03197443 0.91369534
        0.665083 -0.03197052 0.91370016 0.6699208 -0.031968895 0.9137048
        0.67439604 -0.03197004 0.91370934 0.6785316 -0.031974316 0.9137136
        0.6823486 -0.031981982 0.91371757 0.68586737 -0.031993166 0.9137213
        0.6891071 -0.03200789 0.91372484 0.6920863 -0.032026082 0.91372794
        0.6948225 -0.032047592 0.91373086 0.43846497 -0.030809704 0.9141948
        0.45279196 -0.030804932 0.91401696 0.4670427 -0.030801475 0.91388535
        0.48114514 -0.030799037 0.913794 0.49502987 -0.03079729 0.913735
        0.5086318 -0.030795934 0.91370004 0.52189124 -0.030794684 0.91368157
        0.5347545 -0.030793319 0.9136735 0.54717493 -0.03079167 0.91367173
        0.5591134 -0.030789617 0.9136736 0.57053816 -0.030787077 0.9136775
        0.5814254 -0.03078398 0.9136826 0.59175897 -0.030780256 0.91368824
        0.6015297 -0.03077586 0.9136942 0.6107358 -0.030770756 0.91370016
        0.6193816 -0.030764945 0.9137061 0.62747765 -0.030758487 0.9137119
        0.63503945 -0.030751534 0.9137175 0.64208674 -0.030744327 0.913723
        0.6486426 -0.03073724 0.91372836 0.65473217 -0.03073074 0.9137336
        0.66038156 -0.03072535 0.9137386 0.6656168 -0.030721638 0.9137435
        0.6704633 -0.030720113 0.9137482 0.6749453 -0.03072123 0.91375273
        0.6790855 -0.030725326 0.913757 0.68290544 -0.03073265 0.9137611
        0.6864257 -0.030743336 0.9137649 0.68966585 -0.030757422 0.9137685
        0.6926448 -0.030774856 0.9137717 0.69538045 -0.030795544 0.91377467
        0.43846497 -0.029556999 0.9142362 0.45282462 -0.029552374 0.91405797
        0.46710792 -0.02954902 0.91392624 0.48124254 -0.029546645 0.9138348
        0.49515912 -0.029544955 0.91377586 0.5087924 -0.02954364 0.91374105
        0.5220824 -0.02954244 0.91372275 0.5349755 -0.02954113 0.9137147
        0.54742503 -0.029539559 0.91371304 0.5593916 -0.029537605 0.913715
        0.57084364 -0.029535193 0.91371894 0.5817572 -0.02953225 0.91372406
        0.59211594 -0.02952872 0.9137297 0.6019109 -0.02952455 0.91373575
        0.61114 -0.029519713 0.91374177 0.61980784 -0.0295142 0.91374767
        0.6279246 -0.02950808 0.91375345 0.63550586 -0.029501481 0.9137591
        0.6425712 -0.02949465 0.9137646 0.6491435 -0.029487941 0.9137699
        0.65524775 -0.029481787 0.91377515 0.6609098 -0.029476704 0.9137802
        0.66615564 -0.0294732 0.9137851 0.6710105 -0.02947178 0.91378987
        0.6754986 -0.029472847 0.9137944 0.6796428 -0.02947673 0.91379875
        0.683465 -0.029483655 0.9138029 0.686986 -0.029493768 0.9138068
        0.69022596 -0.029507115 0.9138104 0.693204 -0.029523691 0.9138137
        0.6959384 -0.029543439 0.91381675 0.43846497 -0.028304236 0.9142758
        0.45285746 -0.028299753 0.9140973 0.46717346 -0.028296497 0.91396534
        0.48134053 -0.028294193 0.913874 0.4952891 -0.028292552 0.91381514
        0.5089538 -0.028291285 0.9137804 0.5222747 -0.028290136 0.91376215
        0.535198 -0.028288895 0.91375434 0.5476768 -0.02828741 0.9137527
        0.5596718 -0.028285576 0.9137547 0.5711514 -0.028283311 0.9137587
        0.58209145 -0.028280552 0.9137638 0.59247583 -0.028277244 0.9137696
        0.60229534 -0.028273337 0.91377556 0.61154807 -0.028268797 0.9137816
        0.62023824 -0.028263632 0.91378754 0.62837625 -0.028257892 0.91379327
        0.6359773 -0.028251706 0.9137989 0.643061 -0.028245304 0.9138044
        0.6496499 -0.028239015 0.9138098 0.6557688 -0.028233258 0.91381496
        0.6614435 -0.028228505 0.9138201 0.66669965 -0.028225238 0.91382504
        0.67156243 -0.028223913 0.9138298 0.67605615 -0.028224915 0.9138344
        0.6802038 -0.028228546 0.9138388 0.68402755 -0.02823502 0.91384304
        0.68754864 -0.02824448 0.9138469 0.69078755 -0.028257001 0.9138506
        0.69376385 -0.028272599 0.91385406 0.69649637 -0.028291276 0.91385716
        0.43846497 -0.027051419 0.9143138 0.4528905 -0.027047072 0.9141348
        0.46723935 -0.027043913 0.9140028 0.481439 -0.027041676 0.91391134
        0.4954198 -0.027040089 0.9138526 0.50911623 -0.027038872 0.913818
        0.52246815 -0.02703778 0.9137999 0.5354217 -0.027036617 0.91379213
        0.5479301 -0.027035236 0.91379064 0.55995387 -0.027033532 0.9137926
        0.57146126 -0.027031438 0.91379666 0.58242834 -0.027028888 0.9138019
        0.59283864 -0.027025828 0.9138076 0.60268325 -0.027022218 0.91381365
        0.61195993 -0.027018026 0.9138197 0.620673 -0.027013248 0.91382563
        0.6288326 -0.027007937 0.9138314 0.6364539 -0.027002217 0.9138371
        0.6435562 -0.026996296 0.91384256 0.6501619 -0.026990483 0.9138479
        0.6562956 -0.026985163 0.91385317 0.6619828 -0.026980773 0.9138583
        0.66724896 -0.026977763 0.91386324 0.6721193 -0.026976543 0.91386807
        0.6766181 -0.026977463 0.9138727 0.6807686 -0.026980804 0.9138771
        0.68459326 -0.02698677 0.9138814 0.6881137 -0.026995502 0.91388535
        0.6913508 -0.027007092 0.91388917 0.6943246 -0.027021592 0.9138926
        0.6970543 -0.027039055 0.91389585 0.43846497 -0.025798554 0.91435
        0.45292366 -0.02579434 0.9141707 0.4673056 -0.02579127 0.9140384
        0.48153806 -0.0257891 0.91394705 0.4955512 -0.025787566 0.9138884
        0.5092795 -0.025786404 0.9138539 0.5226627 -0.025785381 0.9138359
        0.5356469 -0.025784303 0.91382825 0.5481851 -0.025783036 0.9138268
        0.5602379 -0.025781486 0.9138289 0.57177347 -0.02577958 0.91383296
        0.5827678 -0.025777264 0.9138382 0.5932045 -0.025774488 0.913844
        0.60307455 -0.025771208 0.91385 0.6123757 -0.025767399 0.9138561
        0.62111205 -0.025763057 0.913862 0.62929374 -0.02575823 0.91386783
        0.6369357 -0.025753029 0.91387343 0.644057 -0.025747644 0.913879
        0.6506797 -0.025742358 0.91388434 0.6568283 -0.025737522 0.91388965
        0.6625278 -0.025733534 0.9138947 0.6678038 -0.025730798 0.9138997
        0.67268133 -0.025729684 0.9139046 0.67718476 -0.025730515 0.91390926
        0.68133754 -0.025733534 0.9139137 0.6851624 -0.025738936 0.913918
        0.6886814 -0.02574686 0.91392213 0.69191587 -0.025757415 0.91392595
        0.6948863 -0.025770687 0.9139295 0.6976123 -0.025786784 0.91393286
        0.43846497 -0.024545638 0.9143844 0.45295706 -0.024541551 0.9142048
        0.4673722 -0.024538571 0.9140724 0.48163763 -0.024536468 0.913981
        0.49568334 -0.024534987 0.9139224 0.50944376 -0.024533885 0.9138881
        0.52285844 -0.024532935 0.9138702 0.5358735 -0.024531955 0.91386265
        0.54844177 -0.02453082 0.91386133 0.56052387 -0.024529438 0.9138635
        0.5720879 -0.024527743 0.91386753 0.5831099 -0.024525689 0.91387284
        0.5935734 -0.024523223 0.9138786 0.6034693 -0.024520315 0.91388464
        0.61279535 -0.02451693 0.9138907 0.62155557 -0.024513073 0.9138967
        0.62975985 -0.024508782 0.91390246 0.63742286 -0.024504153 0.9139082
        0.64456344 -0.02449936 0.91391367 0.65120345 -0.024494657 0.91391903
        0.65736693 -0.024490355 0.91392434 0.6630788 -0.024486804 0.91392946
        0.6683644 -0.02448437 0.9139345 0.67324877 -0.024483373 0.91393936
        0.6777563 -0.0244841 0.9139441 0.68191075 -0.024486767 0.91394866
        0.6857352 -0.024491549 0.913953 0.6892521 -0.024498584 0.9139572
        0.692483 -0.024507994 0.913961 0.69544905 -0.0245199 0.9139647
        0.6981702 -0.02453446 0.9139681 0.43846497 -0.023292677 0.91441727
        0.45299056 -0.023288716 0.9142372 0.46743914 -0.023285821 0.91410464
        0.48173773 -0.023283781 0.91401327 0.49581626 -0.02328236 0.91395473
        0.5096089 -0.02328132 0.9139205 0.5230554 -0.023280451 0.9139028
        0.53610146 -0.02327958 0.91389537 0.5487001 -0.023278592 0.91389406
        0.56081176 -0.023277394 0.91389626 0.5724046 -0.02327594 0.91390043
        0.58345467 -0.023274168 0.91390574 0.5939454 -0.02327205 0.9139116
        0.60386765 -0.023269543 0.9139176 0.613219 -0.02326663 0.9139237
        0.6220036 -0.023263304 0.9139297 0.6302309 -0.023259599 0.9139355
        0.63791543 -0.023255603 0.91394114 0.6450757 -0.023251465 0.9139467
        0.6517333 -0.023247398 0.91395205 0.6579118 -0.02324368 0.91395736
        0.6636359 -0.023240615 0.91396254 0.66893095 -0.023238506 0.9139676
        0.6738218 -0.02323764 0.9139725 0.67833304 -0.023238253 0.91397727
        0.6824887 -0.02324054 0.91398185 0.686312 -0.02324465 0.91398627
        0.6898259 -0.023250718 0.91399044 0.6930524 -0.023258869 0.91399443
        0.696013 -0.023269257 0.9139982 0.69872814 -0.023282092 0.91400164
        0.43846497 -0.022039672 0.91444826 0.45302433 -0.022035832 0.9142679
        0.4675065 -0.02203302 0.9141352 0.48183838 -0.022031046 0.9140438
        0.49594986 -0.022029685 0.9139854 0.50977504 -0.022028713 0.9139513
        0.52325344 -0.022027932 0.9139337 0.5363308 -0.022027185 0.9139263
        0.5489601 -0.022026356 0.9139252 0.5611017 -0.022025367 0.9139274
        0.5727237 -0.02202417 0.9139316 0.5838021 -0.022022713 0.9139369
        0.5943205 -0.022020971 0.91394275 0.6042695 -0.02201891 0.91394883
        0.61364686 -0.022016507 0.9139549 0.62245625 -0.022013763 0.91396093
        0.6307071 -0.022010703 0.9139668 0.6384136 -0.022007398 0.9139724
        0.64559394 -0.022003971 0.913978 0.6522693 -0.022000607 0.9139834
        0.658463 -0.021997528 0.9139887 0.6641995 -0.021994988 0.9139939
        0.66950375 -0.021993242 0.91399896 0.6744008 -0.021992518 0.9140039
        0.6789154 -0.021993015 0.91400874 0.6830716 -0.021994893 0.9140133
        0.6868932 -0.02199828 0.91401786 0.6904033 -0.022003299 0.9140221
        0.6936244 -0.022010075 0.91402614 0.69657826 -0.022018781 0.9140299
        0.6992861 -0.022029676 0.9140335 0.43846497 -0.020786628 0.9144776
        0.4530582 -0.020782903 0.91429687 0.46757415 -0.020780176 0.914164
        0.48193958 -0.020778265 0.9140726 0.49608424 -0.020776967 0.9140143
        0.5099421 -0.02077607 0.9139803 0.5234527 -0.020775389 0.91396284
        0.5365616 -0.020774776 0.91395557 0.54922175 -0.020774122 0.9139545
        0.56139356 -0.020773359 0.91395676 0.5730451 -0.02077244 0.91396105
        0.58415234 -0.02077133 0.9139664 0.5946987 -0.020769998 0.9139723
        0.60467505 -0.02076842 0.9139784 0.61407876 -0.020766575 0.9139845
        0.62291354 -0.020764463 0.91399044 0.6311885 -0.020762106 0.9139963
        0.6389175 -0.020759553 0.914002 0.64611834 -0.020756908 0.91400754
        0.6528118 -0.020754306 0.914013 0.65902084 -0.020751921 0.91401833
        0.66476965 -0.020749958 0.9140235 0.67008305 -0.020748604 0.91402864
        0.67498606 -0.020748045 0.9140336 0.67950356 -0.020748427 0.9140385
        0.6836599 -0.020749876 0.9140432 0.68747914 -0.020752495 0.9140477
        0.69098467 -0.020756386 0.914052 0.6941993 -0.020761669 0.9140561
        0.6971453 -0.020768512 0.91406 0.69984406 -0.020777216 0.9140636
        0.43846497 -0.019533541 0.91450524 0.45309228 -0.019529931 0.91432416
        0.4676422 -0.019527284 0.9141911 0.48204136 -0.01952544 0.9140997
        0.49621937 -0.01952421 0.91404146 0.5101102 -0.019523395 0.91400766
        0.52365315 -0.019522823 0.91399026 0.5367938 -0.019522356 0.9139831
        0.54948515 -0.0195219 0.9139821 0.56168747 -0.019521384 0.9139845
        0.57336885 -0.019520773 0.9139888 0.58450526 -0.019520033 0.91399413
        0.59508014 -0.019519147 0.9140001 0.60508424 -0.01951809 0.91400623
        0.6145149 -0.01951685 0.9140123 0.6233756 -0.019515423 0.9140183
        0.63167524 -0.019513827 0.9140242 0.63942724 -0.019512093 0.9140299
        0.64664906 -0.01951029 0.9140354 0.65336096 -0.019508518 0.91404086
        0.65958554 -0.019506896 0.9140462 0.6653467 -0.019505557 0.9140514
        0.67066914 -0.019504642 0.9140566 0.67557794 -0.019504268 0.9140616
        0.680098 -0.01950454 0.91406655 0.68425405 -0.019505544 0.91407126
        0.6880703 -0.019507352 0.91407585 0.69157046 -0.019510038 0.9140802
        0.6947776 -0.019513704 0.9140843 0.6977142 -0.019518496 0.91408837
        0.700402 -0.019524716 0.91409206 0.43846497 -0.01828042 0.9145312
        0.45312655 -0.018276924 0.9143497 0.46771058 -0.018274358 0.91421646
        0.48214367 -0.018272582 0.914125 0.49635527 -0.018271424 0.9140669
        0.5102792 -0.0182707 0.91403323 0.52385473 -0.018270249 0.914016
        0.53702754 -0.018269943 0.914009 0.54975027 -0.018269695 0.91400796
        0.5619834 -0.01826945 0.91401047 0.573695 -0.01826917 0.9140148
        0.584861 -0.018268835 0.91402024 0.5954648 -0.018268429 0.91402614
        0.6054972 -0.018267937 0.9140323 0.6149553 -0.018267348 0.9140384
        0.62384254 -0.018266663 0.91404444 0.63216734 -0.018265886 0.9140503
        0.63994294 -0.018265037 0.914056 0.64718616 -0.01826415 0.9140616
        0.65391695 -0.01826328 0.91406703 0.6601573 -0.018262483 0.91407245
        0.6659309 -0.018261831 0.9140777 0.6712624 -0.018261397 0.9140829
        0.6761768 -0.018261239 0.91408795 0.6806991 -0.018261412 0.91409284
        0.68485445 -0.01826196 0.91409767 0.6886672 -0.01826292 0.9141023
        0.69216126 -0.018264337 0.9141067 0.6953598 -0.018266262 0.9141109
        0.69828546 -0.018268805 0.914115 0.70096 -0.018272178 0.91411877
        0.43846497 -0.017027264 0.9145554 0.453161 -0.01702388 0.9143735
        0.46777937 -0.017021397 0.9142402 0.48224652 -0.017019695 0.91414875
        0.49649188 -0.017018614 0.9140907 0.5104492 -0.017017988 0.91405714
        0.52405757 -0.01701767 0.91404 0.5372626 -0.017017541 0.9140331
        0.5500171 -0.017017525 0.9140322 0.56228137 -0.017017571 0.91403466
        0.5740235 -0.017017653 0.91403913 0.58521944 -0.017017756 0.91404456
        0.5958527 -0.017017867 0.9140505 0.6059138 -0.017017981 0.9140567
        0.6154 -0.017018095 0.91406286 0.6243143 -0.017018208 0.9140689
        0.63266504 -0.017018316 0.9140747 0.6404647 -0.017018424 0.91408044
        0.64772993 -0.017018529 0.91408604 0.6544799 -0.01701863 0.9140915
        0.6607364 -0.01701873 0.91409695 0.6665226 -0.017018829 0.91410226
        0.67186314 -0.017018925 0.91410744 0.67678297 -0.01701902 0.91411257
        0.6813074 -0.017019114 0.9141175 0.68546164 -0.017019205 0.91412234
        0.6892704 -0.01701929 0.91412705 0.6927576 -0.017019374 0.9141315
        0.6959467 -0.017019454 0.9141358 0.6988597 -0.01701953 0.91413987
        0.70151794 -0.017019602 0.91414374
        <InformationKey name="L2_NORM_RANGE" location="vtkDataArray" length="2">
          <Value index="0">
            1.0143731371
          </Value>
          <Value index="1">
            1.1524217396
          </Value>
        </InformationKey>
      </DataArray>
    </Points>
  </Piece>
  </StructuredGrid>
</VTKFile>
