<?xml version="1.0"?>
<VTKFile type="StructuredGrid" version="0.1" byte_order="LittleEndian">
    <StructuredGrid WholeExtent="0 68 0 40 0 0">
        <Piece Extent="0 68 0 40 0 0">
            <Points>
                <DataArray type="Float32" NumberOfComponents="3" format="ascii">
                       -0.0575297311606042        0.0004815562320052    0.0
                       -0.0564286991045122        0.0013023726893699    0.0
                       -0.0552118815554837        0.0021885478069389    0.0
                       -0.0538672800567198        0.0031458350258389    0.0
                       -0.0523818855505866        0.0041801183788164    0.0
                       -0.0507416499327580        0.0052972708400677    0.0
                       -0.0489314785290269        0.0065029537411391    0.0
                       -0.0469352562786801        0.0078023439580952    0.0
                       -0.0447359278747825        0.0091997763465817    0.0
                       -0.0423156637517461        0.0106982930908768    0.0
                       -0.0396561658560786        0.0122990997615196    0.0
                       -0.0367391970291160        0.0140009490678614    0.0
                       -0.0335474983327525        0.0157994949306087    0.0
                       -0.0300659914558125        0.0176868779012685    0.0
                       -0.0262826682506726        0.0196519021771803    0.0
                       -0.0221891068636606        0.0216806850744434    0.0
                       -0.0177803989906818        0.0237576325426711    0.0
                       -0.0130545037218380        0.0258663509774145    0.0
                       -0.0080115403505393        0.0279900149299197    0.0
                       -0.0026534247381089        0.0301110601892530    0.0
                        0.0030159088060810        0.0322103528370367    0.0
                        0.0089884377794998        0.0342660118235004    0.0
                        0.0152496480702962        0.0362534040392405    0.0
                        0.0217777785442144        0.0381465242306267    0.0
                        0.0285437178066420        0.0399198806281235    0.0
                        0.0355110255991255        0.0415503422792687    0.0
                        0.0426393830575426        0.0430179752485900    0.0
                        0.0498742063159801        0.0443069844218070    0.0
                        0.0571688459207414        0.0454127585971852    0.0
                        0.0648792367773166        0.0463866721699593    0.0
                        0.0725187244993795        0.0471767405056861    0.0
                        0.0800161660081685        0.0478090202720612    0.0
                        0.0873228885271994        0.0483154931455046    0.0
                        0.0943951112198917        0.0487274298860980    0.0
                        0.1012015070078626        0.0490724381322835    0.0
                        0.1077197081049007        0.0493719691278217    0.0
                        0.1139358666146361        0.0496403971128528    0.0
                        0.1198428290830883        0.0498851382752278    0.0
                        0.1254385218764719        0.0501075929864830    0.0
                        0.1307232786482547        0.0503047163282473    0.0
                        0.1356979834360920        0.0504713090826744    0.0
                        0.1403643672441216        0.0506021149957938    0.0
                        0.1447255510768716        0.0506931595588077    0.0
                        0.1487863873338013        0.0507424263910539    0.0
                        0.1525536292966988        0.0507500302093994    0.0
                        0.1560359295278363        0.0507180421894658    0.0
                        0.1592437013933834        0.0506501091919604    0.0
                        0.1621888801872368        0.0505509829575895    0.0
                        0.1648846219924850        0.0504260451739269    0.0
                        0.1673449745219311        0.0502808843097478    0.0
                        0.1695845463320058        0.0501209542270720    0.0
                        0.1716182065633177        0.0499513233878903    0.0
                        0.1734608458604874        0.0497765042793935    0.0
                        0.1751271447971965        0.0496003562289823    0.0
                        0.1766313574173665        0.0494260590912899    0.0
                        0.1779871501941526        0.0492561368115820    0.0
                        0.1792074898444905        0.0490925118204458    0.0
                        0.1803045717396643        0.0489365759687266    0.0
                        0.1812897812417528        0.0487892677878446    0.0
                        0.1821736809602719        0.0486511491984886    0.0
                        0.1829660178561326        0.0485224773591924    0.0
                        0.1836757450491340        0.0484032692465959    0.0
                        0.1843110541072577        0.0482933578952747    0.0
                        0.1848794143461032        0.0481924401353369    0.0
                        0.1853876166554968        0.0481001161832695    0.0
                        0.1858418188481736        0.0480159219702539    0.0
                        0.1862475946803836        0.0479393543874222    0.0
                        0.1866099699119920        0.0478698932850811    0.0
                        0.1869335084468757        0.0478070088515698    0.0
                       -0.0584332635304959        0.0016788988131230    0.0
                       -0.0573064930167402        0.0024839573288789    0.0
                       -0.0560682683941688        0.0033604572387156    0.0
                       -0.0547047324854341        0.0043118536520177    0.0
                       -0.0532018201041251        0.0053427884777128    0.0
                       -0.0515448054938111        0.0064584280196052    0.0
                       -0.0497181004287246        0.0076640221310005    0.0
                       -0.0477051918405230        0.0089645179447136    0.0
                       -0.0454886839160287        0.0103641456493472    0.0
                       -0.0430504527409702        0.0118659368590684    0.0
                       -0.0403719575169793        0.0134711605327848    0.0
                       -0.0374347877365338        0.0151786877039471    0.0
                       -0.0342216086206405        0.0169843117317141    0.0
                       -0.0307173727111139        0.0188802719399172    0.0
                       -0.0269101846423872        0.0208553701898860    0.0
                       -0.0227917746088542        0.0228955775639359    0.0
                       -0.0183573667202366        0.0249849972418032    0.0
                       -0.0136049740604844        0.0271068163528492    0.0
                       -0.0085346596145113        0.0292437555895721    0.0
                       -0.0031481740514206        0.0313778614790102    0.0
                        0.0025507734335072        0.0334897807395950    0.0
                        0.0085543072457692        0.0355576256604587    0.0
                        0.0148478917344715        0.0375568696931714    0.0
                        0.0214095908240234        0.0394616539243756    0.0
                        0.0282099513546916        0.0412466066589736    0.0
                        0.0352122315159726        0.0428886712562679    0.0
                        0.0423756812411891        0.0443683331747321    0.0
                        0.0496448811934438        0.0456701992777269    0.0
                        0.0569722757954383        0.0467899003279130    0.0
                        0.0647149410388844        0.0477795458272829    0.0
                        0.0723827296374523        0.0485859941057497    0.0
                        0.0799038150646846        0.0492345207027232    0.0
                        0.0872293065213956        0.0497562339929244    0.0
                        0.0943156005074515        0.0501814861093705    0.0
                        0.1011319762607077        0.0505370367455452    0.0
                        0.1076570557980955        0.0508436646532922    0.0
                        0.1138782793914313        0.0511153494666035    0.0
                        0.1197899342163677        0.0513594644695946    0.0
                        0.1253913416414465        0.0515777647743061    0.0
                        0.1306838658444005        0.0517679324398966    0.0
                        0.1356688585308640        0.0519256503037064    0.0
                        0.1403480477968850        0.0520465070643503    0.0
                        0.1447242451259423        0.0521272554360656    0.0
                        0.1488018236295468        0.0521664634579292    0.0
                        0.1525869936661639        0.0521646903922834    0.0
                        0.1560878738161366        0.0521243274422102    0.0
                        0.1593143972562172        0.0520492360163336    0.0
                        0.1622780964077594        0.0519442953562971    0.0
                        0.1649918100282275        0.0518149438525862    0.0
                        0.1674693520345397        0.0516667697152452    0.0
                        0.1697251721591474        0.0515051812091560    0.0
                        0.1717740445694843        0.0513351652783738    0.0
                        0.1736308189310716        0.0511611270211806    0.0
                        0.1753101773792140        0.0509868052035317    0.0
                        0.1768264052580330        0.0508152552427419    0.0
                        0.1781932198002356        0.0506488787319247    0.0
                        0.1794236501453739        0.0504894818583814    0.0
                        0.1805299600236724        0.0503383490243519    0.0
                        0.1815236050450844        0.0501963217661264    0.0
                        0.1824152172074864        0.0500638762867394    0.0
                        0.1832146102174078        0.0499411954187766    0.0
                        0.1839308001960674        0.0498282326923614    0.0
                        0.1845720373287516        0.0497247675016023    0.0
                        0.1851458447981246        0.0496304512908688    0.0
                        0.1856590624707880        0.0495448452348690    0.0
                        0.1861178920339717        0.0494674505084360    0.0
                        0.1865279465404416        0.0493977314845398    0.0
                        0.1868942847767699        0.0493351361466830    0.0
                        0.1872215040422253        0.0492791021016933    0.0
                       -0.0593367959003876        0.0028762413942408    0.0
                       -0.0581889402861816        0.0036718751179783    0.0
                       -0.0569306141779872        0.0045406053726874    0.0
                       -0.0555482633699786        0.0054864103168436    0.0
                       -0.0540275674905695        0.0065137568173124    0.0
                       -0.0523534199443557        0.0076275115610515    0.0
                       -0.0505098480518553        0.0088326701732780    0.0
                       -0.0484799769820617        0.0101340085415765    0.0
                       -0.0462460761913542        0.0115356683934022    0.0
                       -0.0437897189787050        0.0130406663936802    0.0
                       -0.0410921055905711        0.0146503180522587    0.0
                       -0.0381346307781966        0.0163635856434540    0.0
                       -0.0348998598659742        0.0181763659599177    0.0
                       -0.0313727564941319        0.0200809615005962    0.0
                       -0.0275415279973319        0.0220661460634854    0.0
                       -0.0233980579504574        0.0241177344364632    0.0
                       -0.0189377150011379        0.0262195366812923    0.0
                       -0.0141585842901336        0.0283543470124951    0.0
                       -0.0090606898580962        0.0305044664398216    0.0
                       -0.0036456285550546        0.0326515842287816    0.0
                        0.0020831154034828        0.0347761423216642    0.0
                        0.0081178256697476        0.0368562290461400    0.0
                        0.0144439580940177        0.0388673953839172    0.0
                        0.0210394103291902        0.0407839007460120    0.0
                        0.0278743890493208        0.0425804740958009    0.0
                        0.0349118426485696        0.0442341528568425    0.0
                        0.0421105988351288        0.0457257860968262    0.0
                        0.0494144029531562        0.0470403206184591    0.0
                        0.0567747827845819        0.0481735834958444    0.0
                        0.0645499555901423        0.0491784148092226    0.0
                        0.0722462464708568        0.0500005164856328    0.0
                        0.0797911348837761        0.0506644536480371    0.0
                        0.0871355105125343        0.0512005296644200    0.0
                        0.0942359519562153        0.0516382526386051    0.0
                        0.1010623526380078        0.0520036127359912    0.0
                        0.1075943322194234        0.0523167922073418    0.0
                        0.1138206251362481        0.0525914408953477    0.0
                        0.1197369636057444        0.0528349326431190    0.0
                        0.1253440693300796        0.0530493820054442    0.0
                        0.1306443458106915        0.0532331439666282    0.0
                        0.1356396230268766        0.0533827057800281    0.0
                        0.1403316357204577        0.0534944321728744    0.0
                        0.1447228924253779        0.0535657490222841    0.0
                        0.1488172896240403        0.0535957693297791    0.0
                        0.1526204936607755        0.0535854697329973    0.0
                        0.1561400851275044        0.0535375436979526    0.0
                        0.1593855111816268        0.0534560560908630    0.0
                        0.1623678947585969        0.0533460069627750    0.0
                        0.1650997507134089        0.0532128873806061    0.0
                        0.1675946531730296        0.0530622827489314    0.0
                        0.1698668879355880        0.0528995541251963    0.0
                        0.1719311301737797        0.0527296068385439    0.0
                        0.1738021857601286        0.0525567401640949    0.0
                        0.1754947364877074        0.0523845733530467    0.0
                        0.1770230976095834        0.0522160367491626    0.0
                        0.1784010359326729        0.0520534068245179    0.0
                        0.1796416417640752        0.0518983681722333    0.0
                        0.1807572455986383        0.0517520891973874    0.0
                        0.1817593710863703        0.0516153018818971    0.0
                        0.1826587165141646        0.0514883791854144    0.0
                        0.1834651580832477        0.0513714061844807    0.0
                        0.1841877693198782        0.0512642429905125    0.0
                        0.1848348520285484        0.0511665788785649    0.0
                        0.1854139750161166        0.0510779779992349    0.0
                        0.1859320180632211        0.0509979174866271    0.0
                        0.1863952175312521        0.0509258192099121    0.0
                        0.1868092173329813        0.0508610752791647    0.0
                        0.1871791024959355        0.0508030714144736    0.0
                        0.1875094996375749        0.0507511953518168    0.0
                       -0.0602403282702793        0.0040735839753587    0.0
                       -0.0590739456004640        0.0048633778842309    0.0
                       -0.0577970171682067        0.0057265263113234    0.0
                       -0.0563965006874912        0.0066677769538210    0.0
                       -0.0548581884010616        0.0076919022395424    0.0
                       -0.0531668479715466        0.0088038145336374    0.0
                       -0.0513062648780004        0.0100084559364761    0.0
                       -0.0492592737154184        0.0113105372199635    0.0
                       -0.0470078399186188        0.0127141627541329    0.0
                       -0.0445332419803513        0.0142223533851226    0.0
                       -0.0418164158170654        0.0158364702346898    0.0
                       -0.0388385477619314        0.0175555514297698    0.0
                       -0.0355820854376176        0.0193755710643121    0.0
                       -0.0320319879627903        0.0212888658936827    0.0
                       -0.0281765571727466        0.0232841588734649    0.0
                       -0.0240078315740333        0.0253470984174067    0.0
                       -0.0195213352872637        0.0274612083799907    0.0
                       -0.0147152417271883        0.0296089123193646    0.0
                       -0.0095895516398130        0.0317721219163053    0.0
                       -0.0041457180661521        0.0339321981575541    0.0
                        0.0016129999529495        0.0360693923465759    0.0
                        0.0076790559719168        0.0381617563314813    0.0
                        0.0140379089335293        0.0401848936970114    0.0
                        0.0206672980547745        0.0421131566031862    0.0
                        0.0275370908474536        0.0439213564325134    0.0
                        0.0346099205566016        0.0455866335903751    0.0
                        0.0418441998567284        0.0470901527722524    0.0
                        0.0491828374583192        0.0484171450056643    0.0
                        0.0565764341830920        0.0495635944261818    0.0
                        0.0643843414218888        0.0505830574883011    0.0
                        0.0721093280471617        0.0514200926549256    0.0
                        0.0796781683301755        0.0520986186380645    0.0
                        0.0870415312100774        0.0526482011552367    0.0
                        0.0941561827370862        0.0530975775550802    0.0
                        0.1009926389855784        0.0534720440980211    0.0
                        0.1075315254448179        0.0537912581049706    0.0
                        0.1137628765609064        0.0540685984130677    0.0
                        0.1196838733779484        0.0543114753198003    0.0
                        0.1252966424465592        0.0545223613782143    0.0
                        0.1306046347025543        0.0547002343838550    0.0
                        0.1356101690339714        0.0548423154210451    0.0
                        0.1403149971355793        0.0549456804718024    0.0
                        0.1447213322506591        0.0550083766043966    0.0
                        0.1488325979784811        0.0550300230929241    0.0
                        0.1526539164305685        0.0550119867088568    0.0
                        0.1561923267617316        0.0549572448428755    0.0
                        0.1594567845076993        0.0548700538785206    0.0
                        0.1624579964381512        0.0547555270033922    0.0
                        0.1652081466310188        0.0546192029187529    0.0
                        0.1677205629737940        0.0544666607032497    0.0
                        0.1700093616701819        0.0543032116527789    0.0
                        0.1720891142284554        0.0541336778222989    0.0
                        0.1739745791302730        0.0539622513797183    0.0
                        0.1756804350843175        0.0537924297764269    0.0
                        0.1772210250130832        0.0536270141662848    0.0
                        0.1786101632712794        0.0534681496151354    0.0
                        0.1798609992993156        0.0533173905767503    0.0
                        0.1809859281750818        0.0531757788233230    0.0
                        0.1819965392319311        0.0530439246378071    0.0
                        0.1829035946356052        0.0529220852769234    0.0
                        0.1837170309192200        0.0528102372364765    0.0
                        0.1844459775754718        0.0527081406846019    0.0
                        0.1850987879080796        0.0526153956077495    0.0
                        0.1856830781384165        0.0525314898806588    0.0
                        0.1862057720967222        0.0524558396552261    0.0
                        0.1866731474218240        0.0523878228102688    0.0
                        0.1870908877177368        0.0523268050329328    0.0
                        0.1874641146075361        0.0522721626411545    0.0
                        0.1877974952329244        0.0522232886019404    0.0
                       -0.0611438606401710        0.0052709265564765    0.0
                       -0.0599605369523317        0.0060572130919196    0.0
                       -0.0586662481846038        0.0069166482787554    0.0
                       -0.0572483397659725        0.0078545705019670    0.0
                       -0.0556928037970728        0.0088761656531394    0.0
                       -0.0539844179524180        0.0099865741173986    0.0
                       -0.0521068377329394        0.0111908415422350    0.0
                       -0.0500426806230986        0.0124937221181254    0.0
                       -0.0477736492940256        0.0138993486232411    0.0
                       -0.0452807458758733        0.0154107802727764    0.0
                       -0.0425446450415684        0.0170294354046077    0.0
                       -0.0395463177185421        0.0187544228706671    0.0
                       -0.0362680815344881        0.0205817767196620    0.0
                       -0.0326948793504430        0.0225038454026387    0.0
                       -0.0288151013245123        0.0245092815447673    0.0
                       -0.0246209429141014        0.0265835576383842    0.0
                       -0.0201080938180934        0.0287099162885637    0.0
                       -0.0152748304288726        0.0308704293175894    0.0
                       -0.0101211443327743        0.0330466460934777    0.0
                       -0.0046483535750400        0.0352196257011132    0.0
                        0.0011405084555829        0.0373694426006210    0.0
                        0.0072380745620783        0.0394741034321331    0.0
                        0.0136298171057030        0.0415092430877402    0.0
                        0.0202933239311514        0.0434492831610919    0.0
                        0.0271981239913021        0.0452690998841932    0.0
                        0.0343065321193446        0.0469459377081047    0.0
                        0.0415765517973784        0.0484612348974665    0.0
                        0.0489502524905341        0.0498004566899553    0.0
                        0.0563772974863622        0.0509597101463269    0.0
                        0.0642181592426180        0.0519932472385124    0.0
                        0.0719720265736053        0.0528445051227847    0.0
                        0.0795649571669860        0.0535368152650920    0.0
                        0.0869473982476685        0.0540990718922604    0.0
                        0.0940763091950191        0.0545593133501209    0.0
                        0.1009228376977205        0.0549422147286038    0.0
                        0.1074686234904522        0.0552669755840607    0.0
                        0.1137050066706343        0.0555467567592257    0.0
                        0.1196306202951805        0.0557890342698165    0.0
                        0.1252489995397654        0.0559966326144971    0.0
                        0.1305646503145595        0.0561691054667446    0.0
                        0.1355803911108015        0.0563043429464981    0.0
                        0.1402980015841168        0.0564000712954705    0.0
                        0.1447194083775991        0.0564549087906968    0.0
                        0.1488475670161626        0.0564689430502498    0.0
                        0.1526870560439624        0.0564439037135613    0.0
                        0.1562443703261952        0.0563830332756893    0.0
                        0.1595279684547317        0.0562907669870806    0.0
                        0.1625481343450837        0.0561723227125828    0.0
                        0.1653167141858047        0.0560332809794494    0.0
                        0.1678467827805004        0.0558792103177901    0.0
                        0.1701522805891825        0.0557153689977141    0.0
                        0.1722476702333227        0.0555464931105909    0.0
                        0.1741476586222952        0.0553766650007631    0.0
                        0.1758669181108822        0.0552092567972050    0.0
                        0.1774198166659653        0.0550469358307404    0.0
                        0.1788202140162722        0.0548917102311987    0.0
                        0.1800813169263742        0.0547449985484916    0.0
                        0.1812155836472410        0.0546077110255078    0.0
                        0.1822346683424816        0.0544803337233091    0.0
                        0.1831493970132673        0.0543630097840523    0.0
                        0.1839697675719825        0.0542556144428519    0.0
                        0.1847049678264443        0.0541578219986424    0.0
                        0.1853634062669639        0.0540691639443131    0.0
                        0.1859527513529976        0.0539890780719734    0.0
                        0.1864799764885869        0.0539169486594713    0.0
                        0.1869514062155330        0.0538521384617494    0.0
                        0.1873727689566538        0.0537940122242367    0.0
                        0.1877492269728095        0.0537419564979225    0.0
                        0.1880854908282740        0.0536953818520639    0.0
                       -0.0620473930100627        0.0064682691375943    0.0
                       -0.0608481977222770        0.0072527308224902    0.0
                       -0.0595375182291013        0.0081099831650684    0.0
                       -0.0581029533399954        0.0090457721020781    0.0
                       -0.0565306739900571        0.0100656643829117    0.0
                       -0.0548055154998997        0.0111750922999530    0.0
                       -0.0529110699754889        0.0123792996666800    0.0
                       -0.0508297956169268        0.0136831705006946    0.0
                       -0.0485431723732240        0.0150909299295056    0.0
                       -0.0460319485506671        0.0166057157265446    0.0
                       -0.0432765459621480        0.0182290230619182    0.0
                       -0.0402577182429130        0.0199600343654475    0.0
                       -0.0369576452898648        0.0217948336789399    0.0
                       -0.0333612454270108        0.0237257643429851    0.0
                       -0.0294569929578204        0.0257413925113963    0.0
                       -0.0252372429405966        0.0278270061132945    0.0
                       -0.0206978602145329        0.0299655701255655    0.0
                       -0.0158372376271981        0.0321388208499487    0.0
                       -0.0106553704185676        0.0343279694678477    0.0
                       -0.0051534493993320        0.0365137972852015    0.0
                        0.0006657184287041        0.0386762154331547    0.0
                        0.0067949534433176        0.0407931796410867    0.0
                        0.0132197506498062        0.0428403380018185    0.0
                        0.0199175528721120        0.0447921602938898    0.0
                        0.0268575508084763        0.0466235704256232    0.0
                        0.0340017391107254        0.0483119122971471    0.0
                        0.0413077168564814        0.0498388602627333    0.0
                        0.0487167104740229        0.0511900688227413    0.0
                        0.0561774345862855        0.0523617379988021    0.0
                        0.0640514647888236        0.0534087899532171    0.0
                        0.0718343897648604        0.0542735696520897    0.0
                        0.0794515392240406        0.0549788769525531    0.0
                        0.0868531379792540        0.0555529994133877    0.0
                        0.0939963451107716        0.0560233464519929    0.0
                        0.1008529493253159        0.0564140417767551    0.0
                        0.1074056131997923        0.0567438900131530    0.0
                        0.1136469879097610        0.0570258815744482    0.0
                        0.1195771611676616        0.0572675816892132    0.0
                        0.1252010799012726        0.0574721572744952    0.0
                        0.1305243120598556        0.0576396935846697    0.0
                        0.1355501865043314        0.0577686898062183    0.0
                        0.1402805225016645        0.0578574648658006    0.0
                        0.1447169697544521        0.0579051601501429    0.0
                        0.1488620215528314        0.0579122944503317    0.0
                        0.1527197144288726        0.0578809330404140    0.0
                        0.1562959967377948        0.0578145643267484    0.0
                        0.1595988251404786        0.0577177892321666    0.0
                        0.1626380540664304        0.0575959212847662    0.0
                        0.1654251845357686        0.0574545765669676    0.0
                        0.1679730311057047        0.0572993085146992    0.0
                        0.1702953519436513        0.0571353188992101    0.0
                        0.1724064951393304        0.0569672550001441    0.0
                        0.1743211114723075        0.0567990866872502    0.0
                        0.1760538634385664        0.0566340580451788    0.0
                        0.1776191414227316        0.0564746999936529    0.0
                        0.1790308486758676        0.0563228819517427    0.0
                        0.1803022482013403        0.0561798866355290    0.0
                        0.1814458611744800        0.0560464958715091    0.0
                        0.1824734072835867        0.0559230787452297    0.0
                        0.1833957780783491        0.0558096763048454    0.0
                        0.1842230355552191        0.0557060791980403    0.0
                        0.1849644293575268        0.0556118961532232    0.0
                        0.1856284271758160        0.0555266122852328    0.0
                        0.1862227538016305        0.0554496370270000    0.0
                        0.1867544359767098        0.0553803420117214    0.0
                        0.1872298482495947        0.0553180900606661    0.0
                        0.1876547661483823        0.0552622553856405    0.0
                        0.1880343939386475        0.0552122404686450    0.0
                        0.1883734864236236        0.0551674751021874    0.0
                       -0.0629509253799544        0.0076656117187121    0.0
                       -0.0617366207282729        0.0084495558621087    0.0
                       -0.0604103041974712        0.0093058929448071    0.0
                       -0.0589597303522868        0.0102406462226988    0.0
                       -0.0573711996631746        0.0112596962123139    0.0
                       -0.0556296054116776        0.0123687684047480    0.0
                       -0.0537185057256128        0.0135733487269401    0.0
                       -0.0516202368177803        0.0148785088311638    0.0
                       -0.0493160880025838        0.0162886189193602    0.0
                       -0.0467865753629553        0.0178069343482224    0.0
                       -0.0440118784401856        0.0194350502890055    0.0
                       -0.0409725350049566        0.0211722309824797    0.0
                       -0.0376505829620253        0.0230146062874964    0.0
                       -0.0340309107206708        0.0249545025744301    0.0
                       -0.0301020744015760        0.0269803865673099    0.0
                       -0.0258565920203647        0.0290773541118026    0.0
                       -0.0212905127905652        0.0312280953175751    0.0
                       -0.0164023585083813        0.0334140250128197    0.0
                       -0.0111921397391367        0.0356160378452515    0.0
                       -0.0056609268971822        0.0378146595236121    0.0
                        0.0001887003791040        0.0399896511222117    0.0
                        0.0063497575730684        0.0421189141878574    0.0
                        0.0128077706083986        0.0441780946885323    0.0
                        0.0195400429889639        0.0461416912087587    0.0
                        0.0265154272156697        0.0479846584226199    0.0
                        0.0336955970398736        0.0496844310362644    0.0
                        0.0410377510786805        0.0512228856170120    0.0
                        0.0484822678479629        0.0525858254377966    0.0
                        0.0559769014352988        0.0537695169857263    0.0
                        0.0638843085667886        0.0548295243738926    0.0
                        0.0716964607137416        0.0557071348197361    0.0
                        0.0793379483609932        0.0564246696207809    0.0
                        0.0867587735059589        0.0570098731038549    0.0
                        0.0939163017741651        0.0574895940534019    0.0
                        0.1007829726927071        0.0578874716296089    0.0
                        0.1073424804180512        0.0582219741567689    0.0
                        0.1135887924176410        0.0585059641061531    0.0
                        0.1195234532107135        0.0587471144127745    0.0
                        0.1251528240279735        0.0589489222451175    0.0
                        0.1304835415133212        0.0591119623674761    0.0
                        0.1355194557329335        0.0592352871335259    0.0
                        0.1402624377998709        0.0593177536581299    0.0
                        0.1447138710455928        0.0593589801059243    0.0
                        0.1488757933665260        0.0593598800200874    0.0
                        0.1527517017363242        0.0593228271689417    0.0
                        0.1563469964519255        0.0592515364238014    0.0
                        0.1596691276515246        0.0591507608239622    0.0
                        0.1627275137747709        0.0590259002472176    0.0
                        0.1655333033047144        0.0588825999363332    0.0
                        0.1680990431539440        0.0587263938057771    0.0
                        0.1704383023426519        0.0585624240509535    0.0
                        0.1725653084827118        0.0583952470344620    0.0
                        0.1744946514518667        0.0582287188222412    0.0
                        0.1762409803392038        0.0580659549965254    0.0
                        0.1778187055141304        0.0579093509666920    0.0
                        0.1792417723632992        0.0577606404739538    0.0
                        0.1805234997641113        0.0576209763981878    0.0
                        0.1816764724581622        0.0574910217227942    0.0
                        0.1827124772515959        0.0573710418220216    0.0
                        0.1836424736475401        0.0572609920503796    0.0
                        0.1844765907038406        0.0571605967942708    0.0
                        0.1852241431337258        0.0570694178256334    0.0
                        0.1858936609851243        0.0569869110880498    0.0
                        0.1864929281739439        0.0569124720773337    0.0
                        0.1870290270192314        0.0568454706075672    0.0
                        0.1875083836822672        0.0567852766085995    0.0
                        0.1879368218190919        0.0567312773450557    0.0
                        0.1883195881529072        0.0566828920173938    0.0
                        0.1886614820189732        0.0566395683523109    0.0
                       -0.0638544577498460        0.0088629542998300    0.0
                       -0.0626256066480656        0.0096474532252426    0.0
                       -0.0612842442939779        0.0105039503645592    0.0
                       -0.0598182152886677        0.0114386601813710    0.0
                       -0.0582139006683538        0.0124577124217661    0.0
                       -0.0564562315473381        0.0135671007279559    0.0
                       -0.0545287371562730        0.0147725642514153    0.0
                       -0.0524136506496040        0.0160793946840508    0.0
                       -0.0500920924717138        0.0174921455481212    0.0
                       -0.0475443640200125        0.0190142231886055    0.0
                       -0.0447504128693049        0.0206473458896970    0.0
                       -0.0416905639799162        0.0223908708377249    0.0
                       -0.0383467113793786        0.0242409736838936    0.0
                       -0.0347037104636603        0.0261899559927236    0.0
                       -0.0307501984490486        0.0282261749608732    0.0
                       -0.0264788603719831        0.0303345280350638    0.0
                       -0.0218859388780651        0.0324974327147753    0.0
                       -0.0169700964205267        0.0346959946841746    0.0
                       -0.0117313695832998        0.0369108116180310    0.0
                       -0.0061707144145045        0.0391221741480896    0.0
                       -0.0002904819823962        0.0413097063504188    0.0
                        0.0059025452132945        0.0434512542815981    0.0
                        0.0123939314715213        0.0455224488706392    0.0
                        0.0191608460866921        0.0474977998072157    0.0
                        0.0261718031970572        0.0493522758298408    0.0
                        0.0333881556581829        0.0510633909481242    0.0
                        0.0407667048771106        0.0526131929498867    0.0
                        0.0482469755807888        0.0539875972824449    0.0
                        0.0557757486084168        0.0551829133350797    0.0
                        0.0637167363185555        0.0562553171217867    0.0
                        0.0715582783226805        0.0571450767004894    0.0
                        0.0792242148670361        0.0578740859494332    0.0
                        0.0866643250469455        0.0584696080245956    0.0
                        0.0938361883340080        0.0589579975426721    0.0
                        0.1007129052421420        0.0593624730242252    0.0
                        0.1072792103552132        0.0597012210852451    0.0
                        0.1135303924371082        0.0599870140495918    0.0
                        0.1194694545174073        0.0602276467238012    0.0
                        0.1251041741614773        0.0604269323408784    0.0
                        0.1304422629967036        0.0605858950133183    0.0
                        0.1354881031846857        0.0607040878297890    0.0
                        0.1402436304459400        0.0607808543579494    0.0
                        0.1447099731633729        0.0608162448568441    0.0
                        0.1488887216553518        0.0608115319406542    0.0
                        0.1527828366994889        0.0607693708862949    0.0
                        0.1563971697000685        0.0606936834540176    0.0
                        0.1597386601389790        0.0605893610702649    0.0
                        0.1628162841633042        0.0604618806091938    0.0
                        0.1656408303375453        0.0603169102961663    0.0
                        0.1682245703733418        0.0601599606538378    0.0
                        0.1705808770638000        0.0599961121895716    0.0
                        0.1727238513833636        0.0598298297167635    0.0
                        0.1746680174125881        0.0596648563174725    0.0
                        0.1764280073149577        0.0595041815940707    0.0
                        0.1780182492204048        0.0593500701540448    0.0
                        0.1794527296330720        0.0592041274774333    0.0
                        0.1807448233957973        0.0590673870406477    0.0
                        0.1819071798823154        0.0589404063031718    0.0
                        0.1829516548602661        0.0588233624599886    0.0
                        0.1838892781475486        0.0587161417660560    0.0
                        0.1847302484460181        0.0586184186057522    0.0
                        0.1854839480568726        0.0585297223886273    0.0
                        0.1861589716115812        0.0584494918284946    0.0
                        0.1867631639447249        0.0583771172769077    0.0
                        0.1873036642700280        0.0583119723637900    0.0
                        0.1877869512225446        0.0582534369642335    0.0
                        0.1882188970890216        0.0582009119940442    0.0
                        0.1886047912010215        0.0581538323560388    0.0
                        0.1889494776143228        0.0581116616024345    0.0
                       -0.0647579901197377        0.0100602968809478    0.0
                       -0.0635150171972316        0.0108462667211261    0.0
                       -0.0621590777334843        0.0117038592717370    0.0
                       -0.0606780624028481        0.0126394237256760    0.0
                       -0.0590583919111280        0.0136592865764202    0.0
                       -0.0572850087661092        0.0147696770393225    0.0
                       -0.0553414046557117        0.0159765803211784    0.0
                       -0.0532097148169091        0.0172855216004474    0.0
                       -0.0508709026435605        0.0187012620553987    0.0
                       -0.0483050669178642        0.0202273847889455    0.0
                       -0.0454919315789728        0.0218657517801504    0.0
                       -0.0424116120582448        0.0236158251226691    0.0
                       -0.0390458579836475        0.0254738288656930    0.0
                       -0.0353794902861302        0.0274320350075766    0.0
                       -0.0314012278653940        0.0294786835609390    0.0
                       -0.0271039274921286        0.0315984684405186    0.0
                       -0.0224840342236820        0.0337735365427000    0.0
                       -0.0175403622538409        0.0359846953923140    0.0
                       -0.0122729840444223        0.0382122635010164    0.0
                       -0.0066827466012024        0.0404363155313536    0.0
                       -0.0007717709949652        0.0426363514304336    0.0
                        0.0054533687222928        0.0447901620520079    0.0
                        0.0119782819828699        0.0468733524531483    0.0
                        0.0187800084508276        0.0488604272241895    0.0
                        0.0258267235231903        0.0507263526655330    0.0
                        0.0330794596480228        0.0524487085992503    0.0
                        0.0404946236894873        0.0540096853872795    0.0
                        0.0480108797822533        0.0553952774334745    0.0
                        0.0555740219147293        0.0566018159778433    0.0
                        0.0635487895299989        0.0576860578471114    0.0
                        0.0714198777580293        0.0585872938283220    0.0
                        0.0791103658721318        0.0593270401083633    0.0
                        0.0865698103152700        0.0599321394094038    0.0
                        0.0937560121491039        0.0604285168057092    0.0
                        0.1006427433758457        0.0608390312272758    0.0
                        0.1072157879411893        0.0611816383334828    0.0
                        0.1134717607058947        0.0614690537870587    0.0
                        0.1194151245018601        0.0617092046863605    0.0
                        0.1250550747849704        0.0619062045871302    0.0
                        0.1304004041127051        0.0620614884485214    0.0
                        0.1354560376635169        0.0621750606440157    0.0
                        0.1402239889957271        0.0622467019336765    0.0
                        0.1447051437646711        0.0622768515189777    0.0
                        0.1489006534744638        0.0622671061317926    0.0
                        0.1528129469875274        0.0622203757863228    0.0
                        0.1564463267361124        0.0621407695464547    0.0
                        0.1598072179319187        0.0620333035038189    0.0
                        0.1629041483989282        0.0619035223800853    0.0
                        0.1657475394602577        0.0617571117331220    0.0
                        0.1683493799785075        0.0615995557588351    0.0
                        0.1707228392727643        0.0614358725708326    0.0
                        0.1728818853531050        0.0612704367409920    0.0
                        0.1748409715066862        0.0611068817071368    0.0
                        0.1766147094579312        0.0609480766669899    0.0
                        0.1782175429809969        0.0607961634955953    0.0
                        0.1796634988438482        0.0606526300778731    0.0
                        0.1809660080863569        0.0605184035054129    0.0
                        0.1821377858028362        0.0603939504100522    0.0
                        0.1831907583959903        0.0602793751428074    0.0
                        0.1841360279685679        0.0601745096334918    0.0
                        0.1849838648663845        0.0600789913765453    0.0
                        0.1857437208001337        0.0599923280838142    0.0
                        0.1864242564989013        0.0599139490931625    0.0
                        0.1870333788717577        0.0598432446931937    0.0
                        0.1875782848389836        0.0597795949710698    0.0
                        0.1880655060209419        0.0597223904386028    0.0
                        0.1885009636387878        0.0596710449260750    0.0
                        0.1888899897047387        0.0596250073614716    0.0
                        0.1892374732096723        0.0595837548525580    0.0
                       -0.0656615224896294        0.0112576394620656    0.0
                       -0.0644047513564397        0.0120458880610234    0.0
                       -0.0630346095220170        0.0129054084906533    0.0
                       -0.0615390038255785        0.0138426472347276    0.0
                       -0.0599043623792095        0.0148640873697718    0.0
                       -0.0581156127456253        0.0159761619702017    0.0
                       -0.0561561937781694        0.0171850864789050    0.0
                       -0.0540081387071059        0.0184966203934808    0.0
                       -0.0516522574218638        0.0199157453356793    0.0
                       -0.0490684525115766        0.0214462390227218    0.0
                       -0.0462362297009398        0.0230901237921418    0.0
                       -0.0431354973686852        0.0248469778862884    0.0
                       -0.0397478607227646        0.0267130776837889    0.0
                       -0.0360581058301769        0.0286806630295487    0.0
                       -0.0320550348529356        0.0307378510702301    0.0
                       -0.0277316815624027        0.0328691281386083    0.0
                       -0.0230847023846575        0.0350563724544695    0.0
                       -0.0181130738389673        0.0372801033258446    0.0
                       -0.0128169134159799        0.0395203764604485    0.0
                       -0.0071969637866500        0.0417570684678202    0.0
                       -0.0012551143852237        0.0439695678687708    0.0
                        0.0050022752445700        0.0461356119027679    0.0
                        0.0115608658321320        0.0482307707108091    0.0
                        0.0183975715140709        0.0502295289062597    0.0
                        0.0254802283564516        0.0521068340567725    0.0
                        0.0327695491960214        0.0538403169540658    0.0
                        0.0402215485208116        0.0554122838236762    0.0
                        0.0477740222103227        0.0568087777325048    0.0
                        0.0553717628993831        0.0580261328937852    0.0
                        0.0633805058523830        0.0591216553537786    0.0
                        0.0712812908274263        0.0600337032051180    0.0
                        0.0789964256912012        0.0607834636271779    0.0
                        0.0864752448358113        0.0613974183973972    0.0
                        0.0936757790886581        0.0619011258581184    0.0
                        0.1005724827520811        0.0623171436322237    0.0
                        0.1071521981356650        0.0626632435483297    0.0
                        0.1134128707990868        0.0629521141609095    0.0
                        0.1193604242867390        0.0631918220404137    0.0
                        0.1250054730568173        0.0633867641220287    0.0
                        0.1303578962120751        0.0635387491711563    0.0
                        0.1354231728703334        0.0636481859834118    0.0
                        0.1402034080687702        0.0637152454705631    0.0
                        0.1446992576996842        0.0637407140444160    0.0
                        0.1489114441369274        0.0637264783148636    0.0
                        0.1528418695340180        0.0636756765306171    0.0
                        0.1564942880645858        0.0635925855745610    0.0
                        0.1598746076341124        0.0634823326506386    0.0
                        0.1629909020514009        0.0633505215946376    0.0
                        0.1658532181976495        0.0632028504283340    0.0
                        0.1684732543991934        0.0630447753028463    0.0
                        0.1708639691219489        0.0628812529141234    0.0
                        0.1730391909265402        0.0627165710373397    0.0
                        0.1750132971811480        0.0625542593209836    0.0
                        0.1768008755809756        0.0623970748336954    0.0
                        0.1784163833877969        0.0622470473442076    0.0
                        0.1798738867293584        0.0621055598019548    0.0
                        0.1811868729541447        0.0619734469591201    0.0
                        0.1823681237264326        0.0618510991177741    0.0
                        0.1834296373810938        0.0617385616796595    0.0
                        0.1843825897832509        0.0616356245792977    0.0
                        0.1852373243676739        0.0615418985021700    0.0
                        0.1860033635259195        0.0614568769774213    0.0
                        0.1866894351134754        0.0613799849489308    0.0
                        0.1873035088883263        0.0613106153826806    0.0
                        0.1878528400260513        0.0612481557529638    0.0
                        0.1883440134923386        0.0611920067947780    0.0
                        0.1887829996891217        0.0611415939220032    0.0
                        0.1891751733901602        0.0610963782058403    0.0
                        0.1895254688050219        0.0610558481026815    0.0
                       -0.0665650548595211        0.0124549820431834    0.0
                       -0.0652947322817485        0.0132462400134567    0.0
                       -0.0639106892321194        0.0141084442819392    0.0
                       -0.0624008278308259        0.0150481134555186    0.0
                       -0.0607515585227989        0.0160718571810567    0.0
                       -0.0589477701236961        0.0171862846494306    0.0
                       -0.0569728308969060        0.0183978227208784    0.0
                       -0.0548086623699748        0.0197124584468446    0.0
                       -0.0524359182144109        0.0211353979602705    0.0
                       -0.0498343061356235        0.0226706242761923    0.0
                       -0.0469831158166636        0.0243203323081961    0.0
                       -0.0438620495868115        0.0260842259492204    0.0
                       -0.0404525680402802        0.0279586381289588    0.0
                       -0.0367394225118092        0.0299357753214979    0.0
                       -0.0327115006832951        0.0320036276307530    0.0
                       -0.0283620190263904        0.0341464706910703    0.0
                       -0.0236878542932413        0.0363459159934741    0.0
                       -0.0186881555126037        0.0385822037711445    0.0
                       -0.0133630937543900        0.0408351420965564    0.0
                       -0.0077133115247978        0.0430844264453797    0.0
                       -0.0017404647796346        0.0453093464705141    0.0
                        0.0045493072239505        0.0474875884512090    0.0
                        0.0111417221733854        0.0495946800998664    0.0
                        0.0180135723560267        0.0516050723453776    0.0
                        0.0251323537055685        0.0534936779503789    0.0
                        0.0324584604240548        0.0552381629434973    0.0
                        0.0399475163540760        0.0568209243188738    0.0
                        0.0475364406595235        0.0582280260340343    0.0
                        0.0551690092308487        0.0594557882927194    0.0
                        0.0632119194325250        0.0605620346232958    0.0
                        0.0711425462783354        0.0614842372462506    0.0
                        0.0788824161006386        0.0622433022518749    0.0
                        0.0863806422051323        0.0628654088062706    0.0
                        0.0935954937820771        0.0633758095693342    0.0
                        0.1005021185352715        0.0637968164923417    0.0
                        0.1070884261930531        0.0641460613015770    0.0
                        0.1133536974238799        0.0644362314222089    0.0
                        0.1193053170374983        0.0646755372732891    0.0
                        0.1249553191848302        0.0648686412965360    0.0
                        0.1303146747981922        0.0650176903227197    0.0
                        0.1353894278228436        0.0651234529702459    0.0
                        0.1401817887670290        0.0651864452554190    0.0
                        0.1446921974118415        0.0652077603826927    0.0
                        0.1489209575738023        0.0651895412967533    0.0
                        0.1528694508314835        0.0651351282916353    0.0
                        0.1565408846386825        0.0650489467783574    0.0
                        0.1599406471892438        0.0649362218225068    0.0
                        0.1630763529833401        0.0648026082207189    0.0
                        0.1659576674372730        0.0646538125527228    0.0
                        0.1685959906546645        0.0644952625935274    0.0
                        0.1710040627527317        0.0643318563894966    0.0
                        0.1731955661828630        0.0641678004759658    0.0
                        0.1751847970821219        0.0640065288283406    0.0
                        0.1769863153460856        0.0638506968063714    0.0
                        0.1786145893795537        0.0637022343953840    0.0
                        0.1800837235393412        0.0635624331975916    0.0
                        0.1814072612987046        0.0634320496212888    0.0
                        0.1825980513646455        0.0633114110839188    0.0
                        0.1836681648571718        0.0632005160532764    0.0
                        0.1846288524061623        0.0630991224136109    0.0
                        0.1854905315210285        0.0630068216001250    0.0
                        0.1862627961445782        0.0629230981335405    0.0
                        0.1869544419726553        0.0628473755979911    0.0
                        0.1875735021677791        0.0627790509142541    0.0
                        0.1881272905816878        0.0627175188902208    0.0
                        0.1886224458333800        0.0626621895012198    0.0
                        0.1890649877587739        0.0626124981673472    0.0
                        0.1894603340166931        0.0625679162067455    0.0
                        0.1898134644003715        0.0625279413528050    0.0
                       -0.0674685872294128        0.0136523246243013    0.0
                       -0.0661848996024039        0.0144472665893382    0.0
                       -0.0647871977436020        0.0153128532986510    0.0
                       -0.0632633640064312        0.0162556583761220    0.0
                       -0.0615997715870529        0.0172823958175753    0.0
                       -0.0597812498771273        0.0183998278547009    0.0
                       -0.0577910785700811        0.0196145739576398    0.0
                       -0.0556110547446092        0.0209328379009499    0.0
                       -0.0532216687387671        0.0223600482826127    0.0
                       -0.0506024304283624        0.0239003981291161    0.0
                       -0.0477324124487676        0.0255562627677750    0.0
                       -0.0445911102540763        0.0273274789433419    0.0
                       -0.0411598389719199        0.0292104398905555    0.0
                       -0.0374233154362068        0.0311973181925449    0.0
                       -0.0333705154987002        0.0332759737981741    0.0
                       -0.0289948443362712        0.0354304692844130    0.0
                       -0.0242934079853268        0.0376421514334171    0.0
                       -0.0192655378416794        0.0398909899343888    0.0
                       -0.0139114665961128        0.0421565594254625    0.0
                       -0.0082317402917715        0.0444183903410091    0.0
                       -0.0022277793703296        0.0466556859024155    0.0
                        0.0040945027644387        0.0488460849580914    0.0
                        0.0107208859959415        0.0509650665853008    0.0
                        0.0176280440635383        0.0529870353465658    0.0
                        0.0247831317551013        0.0548868533612039    0.0
                        0.0321462257038772        0.0566422056032092    0.0
                        0.0396725604538138        0.0582355560989512    0.0
                        0.0472981692530366        0.0596529640895061    0.0
                        0.0549657949959647        0.0608907204443836    0.0
                        0.0630430611690605        0.0620071345287084    0.0
                        0.0710036700331594        0.0629388414384646    0.0
                        0.0787683565602271        0.0637065135439920    0.0
                        0.0862860143042254        0.0643360846806203    0.0
                        0.0935151598273813        0.0648525611917969    0.0
                        0.1004316456081318        0.0652780624819813    0.0
                        0.1070244578898120        0.0656301207426262    0.0
                        0.1132942166738204        0.0659214450157510    0.0
                        0.1192497682509374        0.0661603915194337    0.0
                        0.1249045667493379        0.0663518696112579    0.0
                        0.1302706798772170        0.0664983296126724    0.0
                        0.1353547272212371        0.0666008573595315    0.0
                        0.1401590390428917        0.0666602707189601    0.0
                        0.1446838532924647        0.0666779304853000    0.0
                        0.1489290666551400        0.0666562030697960    0.0
                        0.1528955471921811        0.0665986049691474    0.0
                        0.1565859580276102        0.0665096910967309    0.0
                        0.1600051659151045        0.0663947715292439    0.0
                        0.1631603212050635        0.0662595445620341    0.0
                        0.1660607010513091        0.0661097224925562    0.0
                        0.1687173996794982        0.0659507058367729    0.0
                        0.1711429312500455        0.0657873385227890    0.0
                        0.1733508252410887        0.0656237533357073    0.0
                        0.1753552909938544        0.0654632985736190    0.0
                        0.1771708565539496        0.0653085398579798    0.0
                        0.1788119988145825        0.0651613206633888    0.0
                        0.1802928588803462        0.0650228549906559    0.0
                        0.1816270357698690        0.0648938342180589    0.0
                        0.1828274452754793        0.0647745349201213    0.0
                        0.1839062317160919        0.0646649187659606    0.0
                        0.1848747210739301        0.0645647194755253    0.0
                        0.1857434055594319        0.0644735148252605    0.0
                        0.1865219512539728        0.0643907838175219    0.0
                        0.1872192222082348        0.0643159504047335    0.0
                        0.1878433154245479        0.0642484158243847    0.0
                        0.1884016037984450        0.0641875815977169    0.0
                        0.1889007799082900        0.0641328656715665    0.0
                        0.1893469133127905        0.0640837118160469    0.0
                        0.1897454647338446        0.0640395997637576    0.0
                        0.1901014599957211        0.0640000346029286    0.0
                       -0.0683721195993045        0.0148496672054191    0.0
                       -0.0670752046385275        0.0156489270084518    0.0
                       -0.0656640386674761        0.0165185516660774    0.0
                       -0.0641264730248184        0.0174651581412924    0.0
                       -0.0624488281104707        0.0184955483914203    0.0
                       -0.0606158561550864        0.0196166189938551    0.0
                       -0.0586107311412009        0.0208351646645460    0.0
                       -0.0564151115630358        0.0221575933039429    0.0
                       -0.0540093144126527        0.0235895499308878    0.0
                       -0.0513726454589500        0.0251354376322550    0.0
                       -0.0484839564145163        0.0267978160279048    0.0
                       -0.0453225330882851        0.0285766594102844    0.0
                       -0.0418695433162121        0.0304684241040504    0.0
                       -0.0381096694296568        0.0324652484485520    0.0
                       -0.0340319782459472        0.0345548598001394    0.0
                       -0.0296300698333278        0.0367211058939743    0.0
                       -0.0249012884581557        0.0389450709092907    0.0
                       -0.0198451574708705        0.0412064620574546    0.0
                       -0.0144619787935604        0.0434846339640390    0.0
                       -0.0087522053001120        0.0457589674367941    0.0
                       -0.0027170196978267        0.0480085916021321    0.0
                        0.0036378958752459        0.0502111021276232    0.0
                        0.0102983883831231        0.0523419243569925    0.0
                        0.0172410159856447        0.0543754046967664    0.0
                        0.0244325911006796        0.0562863390229547    0.0
                        0.0318328738842497        0.0580524146374047    0.0
                        0.0393967105888725        0.0596561400087533    0.0
                        0.0470592386616394        0.0610835459057341    0.0
                        0.0547621509246910        0.0623308799909628    0.0
                        0.0628739589119316        0.0634569060596308    0.0
                        0.0708646853755681        0.0643974725230564    0.0
                        0.0786542643927626        0.0651730650241398    0.0
                        0.0861913714744188        0.0658094284052250    0.0
                        0.0934347799668720        0.0663313804730676    0.0
                        0.1003610587532527        0.0667608988526647    0.0
                        0.1069602797208772        0.0671154538480596    0.0
                        0.1132344062491388        0.0674077959531640    0.0
                        0.1191937460049531        0.0676464270375248    0.0
                        0.1248531729823399        0.0678364842332815    0.0
                        0.1302258562611323        0.0679806878321190    0.0
                        0.1353190017665168        0.0680804000494526    0.0
                        0.1401350740223965        0.0681366989653256    0.0
                        0.1446741239952516        0.0681511748817706    0.0
                        0.1489356534764454        0.0681263854564393    0.0
                        0.1529200249798840        0.0680659979111039    0.0
                        0.1566293605592966        0.0679746779471855    0.0
                        0.1600680045157493        0.0678578082613945    0.0
                        0.1632426387085771        0.0677211239322369    0.0
                        0.1661621454992537        0.0675703412286843    0.0
                        0.1688373056365651        0.0674108359418219    0.0
                        0.1712803996026544        0.0672474040455516    0.0
                        0.1735047968029123        0.0670841137306138    0.0
                        0.1755246139049022        0.0669242390771147    0.0
                        0.1773543426922285        0.0667702689553414    0.0
                        0.1790084654935447        0.0666239739828352    0.0
                        0.1805011582532644        0.0664865039738967    0.0
                        0.1818460745142623        0.0663584976095297    0.0
                        0.1830561967610601        0.0662401912116718    0.0
                        0.1841437425212514        0.0661315181060209    0.0
                        0.1851201133686770        0.0660321940617621    0.0
                        0.1859958765647550        0.0659417873033294    0.0
                        0.1867807707179124        0.0658597736102746    0.0
                        0.1874837286229769        0.0657855781575976    0.0
                        0.1881129114952325        0.0657186062871157    0.0
                        0.1886757516290400        0.0656582652887121    0.0
                        0.1891789958908474        0.0656039796786538    0.0
                        0.1896287638983563        0.0655551999226810    0.0
                        0.1900305596711380        0.0655114124268944    0.0
                        0.1903894555910707        0.0654721278530521    0.0
                       -0.0692756519691962        0.0160470097865369    0.0
                       -0.0679656073009668        0.0168511918283827    0.0
                       -0.0665411326249649        0.0177254777653416    0.0
                       -0.0649900394863776        0.0186765199722308    0.0
                       -0.0632985828357986        0.0197111963261525    0.0
                       -0.0614514224890157        0.0208365228251245    0.0
                       -0.0594316108166689        0.0220594540624257    0.0
                       -0.0572206532049654        0.0233865890999003    0.0
                       -0.0547986815129657        0.0248237809232712    0.0
                       -0.0521447886422431        0.0263756392723875    0.0
                       -0.0492375990604155        0.0280449085732261    0.0
                       -0.0460561842693696        0.0298317029046660    0.0
                       -0.0425815618479619        0.0317325432135000    0.0
                       -0.0387983791524229        0.0337395330203571    0.0
                       -0.0346957967072027        0.0358402650003944    0.0
                       -0.0302676157278666        0.0380183706618161    0.0
                       -0.0255114276239645        0.0402546737626421    0.0
                       -0.0204269570612747        0.0425286267493290    0.0
                       -0.0150145824383214        0.0448193770362904    0.0
                       -0.0092746663986147        0.0471061706706556    0.0
                       -0.0032081515197262        0.0493680749422313    0.0
                        0.0031795166302354        0.0515826471815147    0.0
                        0.0098742566879971        0.0537252548346424    0.0
                        0.0168525139105074        0.0557701751312943    0.0
                        0.0240807569144346        0.0576921223376803    0.0
                        0.0315184304531575        0.0594687692986669    0.0
                        0.0391199931948321        0.0610826473009021    0.0
                        0.0468196762672914        0.0625197364572561    0.0
                        0.0545581045612766        0.0637762286198061    0.0
                        0.0627046376180943        0.0649113109276824    0.0
                        0.0707256130990602        0.0658600970689888    0.0
                        0.0785401549306409        0.0666429327177665    0.0
                        0.0860967226641666        0.0672854292336152    0.0
                        0.0933543562365337        0.0678122721936913    0.0
                        0.1002903528096964        0.0682453460198857    0.0
                        0.1068958790702503        0.0686020940987277    0.0
                        0.1131742456481382        0.0688953256023699    0.0
                        0.1191372211747224        0.0691336860926798    0.0
                        0.1248010990083869        0.0693225209176964    0.0
                        0.1301801538294787        0.0694647877773859    0.0
                        0.1352821884371227        0.0695620860030717    0.0
                        0.1401098162890029        0.0696157137067316    0.0
                        0.1446629167157867        0.0696274536460526    0.0
                        0.1489406096161692        0.0696000231196584    0.0
                        0.1529427608194139        0.0695372149647202    0.0
                        0.1566709554475626        0.0694437872878995    0.0
                        0.1601290150845711        0.0693251834945277    0.0
                        0.1633231492993775        0.0691871694797184    0.0
                        0.1662618394379661        0.0690354647943376    0.0
                        0.1689555452537931        0.0688754243523912    0.0
                        0.1714163057170271        0.0687118037755073    0.0
                        0.1736573228007570        0.0685486171828587    0.0
                        0.1756926142614487        0.0683890769700991    0.0
                        0.1775366307886239        0.0682356088317311    0.0
                        0.1792038566389517        0.0680899241757272    0.0
                        0.1807085002225952        0.0679531214516788    0.0
                        0.1820642681313282        0.0678257979149433    0.0
                        0.1832842087303467        0.0677081588865339    0.0
                        0.1843806124041285        0.0676001163934355    0.0
                        0.1853649562667488        0.0675013731569621    0.0
                        0.1862478827659010        0.0674114908567104    0.0
                        0.1870392032834512        0.0673299435043177    0.0
                        0.1877479196685929        0.0672561577678066    0.0
                        0.1883822576939464        0.0671895425212161    0.0
                        0.1889497094163315        0.0671295096966939    0.0
                        0.1894570763526487        0.0670754889272205    0.0
                        0.1899105285665660        0.0670269357582526    0.0
                        0.1903156136642430        0.0669833416243566    0.0
                        0.1906774511864203        0.0669442211031756    0.0
                       -0.0701791843390879        0.0172443523676547    0.0
                       -0.0688560740122527        0.0180540403764536    0.0
                       -0.0674184133316184        0.0189335873394059    0.0
                       -0.0658539668434532        0.0198896757742049    0.0
                       -0.0641489134255311        0.0209292506855417    0.0
                       -0.0622878071978735        0.0220594356821879    0.0
                       -0.0602535643068670        0.0232873319540461    0.0
                       -0.0580275226716001        0.0246197171835068    0.0
                       -0.0555896162418861        0.0260626425852606    0.0
                       -0.0529187145188754        0.0276209187122960    0.0
                       -0.0499932064037591        0.0292974725878129    0.0
                       -0.0467919426947240        0.0310925580695657    0.0
                       -0.0432957865533550        0.0330027608956564    0.0
                       -0.0394893492656312        0.0350201487098095    0.0
                       -0.0353618875998131        0.0371321775083835    0.0
                       -0.0309074101516459        0.0393222614294974    0.0
                       -0.0261237643339412        0.0415709660429841    0.0
                       -0.0210108852956595        0.0438574964743510    0.0
                       -0.0155692348479159        0.0461608052409215    0.0
                       -0.0097990880345056        0.0484600180586550    0.0
                       -0.0037011447423631        0.0507341525819461    0.0
                        0.0027193912642202        0.0529607331367285    0.0
                        0.0094485146474825        0.0551150658885189    0.0
                        0.0164625601843266        0.0571713485230895    0.0
                        0.0237276510583955        0.0591041985493661    0.0
                        0.0312029176514177        0.0608912575056013    0.0
                        0.0388424314907550        0.0625150586792972    0.0
                        0.0465795062841490        0.0639615106670462    0.0
                        0.0543536803938235        0.0652267380097415    0.0
                        0.0625351194727195        0.0663703204602372    0.0
                        0.0705864716255688        0.0673266903408886    0.0
                        0.0784260416359728        0.0681161000036841    0.0
                        0.0860020755521957        0.0687640821273959    0.0
                        0.0932738900937445        0.0692952450212170    0.0
                        0.1002195228085085        0.0697314264664641    0.0
                        0.1068312443592799        0.0700900754670395    0.0
                        0.1131137163331624        0.0703840747751361    0.0
                        0.1190801676191227        0.0706222101256818    0.0
                        0.1247483100513907        0.0708100152140035    0.0
                        0.1301335277542321        0.0709506534612600    0.0
                        0.1352442307283315        0.0710459234578633    0.0
                        0.1400831961324171        0.0710973044799769    0.0
                        0.1446501474408714        0.0711067356313626    0.0
                        0.1489438363698814        0.0710770628204511    0.0
                        0.1529636417912771        0.0710121797448538    0.0
                        0.1567106169138986        0.0709169188592286    0.0
                        0.1601880611124681        0.0707967728291343    0.0
                        0.1634017084455806        0.0706575331038365    0.0
                        0.1663596333650556        0.0705049227919510    0.0
                        0.1690719672176244        0.0703442809376375    0.0
                        0.1715504995235058        0.0701803316226889    0.0
                        0.1738082571913248        0.0700170464900892    0.0
                        0.1758591524408778        0.0698575895280978    0.0
                        0.1777175895806715        0.0697043371062638    0.0
                        0.1793980508040206        0.0695589548329627    0.0
                        0.1809147741323802        0.0694225019225971    0.0
                        0.1822815172828129        0.0692955444674357    0.0
                        0.1835113932965143        0.0691782648861657    0.0
                        0.1846167647402471        0.0690705598157293    0.0
                        0.1856091839707210        0.0689721228312144    0.0
                        0.1864993685853851        0.0688825112720501    0.0
                        0.1872972028800352        0.0688011982495372    0.0
                        0.1880117580165366        0.0687276118066975    0.0
                        0.1886513246583969        0.0686611635544557    0.0
                        0.1892234550069738        0.0686012688439987    0.0
                        0.1897350056291254        0.0685473609655104    0.0
                        0.1901921974712884        0.0684988989805428    0.0
                        0.1906006220652305        0.0684553777965356    0.0
                        0.1909654467817698        0.0684163143532991    0.0
                       -0.0710827167089796        0.0184416949487726    0.0
                       -0.0697465762764878        0.0192574590033691    0.0
                       -0.0682958248639453        0.0201428501068275    0.0
                       -0.0667181737611708        0.0211045775821315    0.0
                       -0.0649997165244570        0.0221496472181349    0.0
                       -0.0631248897916152        0.0232852809458176    0.0
                       -0.0610764600352637        0.0245187152284080    0.0
                       -0.0588355837742522        0.0258568946523695    0.0
                       -0.0563819838005834        0.0273060583999578    0.0
                       -0.0536942944673266        0.0288712103841674    0.0
                       -0.0507506592106580        0.0305554559119754    0.0
                       -0.0475297002069258        0.0323591866691763    0.0
                       -0.0440121208746355        0.0342790520104248    0.0
                       -0.0401824946336942        0.0363070820105246    0.0
                       -0.0360301767249254        0.0384305938899052    0.0
                       -0.0315493892629863        0.0406327833822817    0.0
                       -0.0267382444536417        0.0428939601228866    0.0
                       -0.0215968969323377        0.0451930891548734    0.0
                       -0.0161258985988337        0.0475089400367544    0.0
                       -0.0103254392611518        0.0498205322436574    0.0
                       -0.0041959733988040        0.0521068459586736    0.0
                        0.0022575422223052        0.0543453782365045    0.0
                        0.0090211824502640        0.0565113712238543    0.0
                        0.0160711737866032        0.0585789332414766    0.0
                        0.0233732921585145        0.0605225700887773    0.0
                        0.0308863545492462        0.0623198751428950    0.0
                        0.0385640455606575        0.0639533635390049    0.0
                        0.0463387498460565        0.0654088525950623    0.0
                        0.0541488999507317        0.0666823889898778    0.0
                        0.0623654239824189        0.0678339147176211    0.0
                        0.0704472770995820        0.0687972353950632    0.0
                        0.0783119361988207        0.0695925566954597    0.0
                        0.0859074366508317        0.0702453868328572    0.0
                        0.0931933825264644        0.0707803106033060    0.0
                        0.1001485640898249        0.0712191638822599    0.0
                        0.1067663651750653        0.0715794316322724    0.0
                        0.1130528018736063        0.0718740830302311    0.0
                        0.1190225623401250        0.0721120391271536    0.0
                        0.1246947756104670        0.0722990018743628    0.0
                        0.1300859386911910        0.0724383095272838    0.0
                        0.1352050788579419        0.0725319233378252    0.0
                        0.1400551517661694        0.0725814660600978    0.0
                        0.1446357411718576        0.0725889978906158    0.0
                        0.1489452449663674        0.0725574628429993    0.0
                        0.1529825656185199        0.0724908310463141    0.0
                        0.1567482303138024        0.0723939915413292    0.0
                        0.1602450175148902        0.0722724752186659    0.0
                        0.1634781831627880        0.0721320944386391    0.0
                        0.1664553893189313        0.0719785769770060    0.0
                        0.1691864316506709        0.0718172519889028    0.0
                        0.1716828422039923        0.0716528218031052    0.0
                        0.1739574649205335        0.0714892279874913    0.0
                        0.1760240994600559        0.0713295998828252    0.0
                        0.1778970979945961        0.0711762784529491    0.0
                        0.1795909361697003        0.0710308965688622    0.0
                        0.1811198782849495        0.0708944856566353    0.0
                        0.1824977308252883        0.0707675900232878    0.0
                        0.1837376699351547        0.0706503763401440    0.0
                        0.1848521293970618        0.0705427308791870    0.0
                        0.1858527362978698        0.0704443412243316    0.0
                        0.1867502832039993        0.0703547620036300    0.0
                        0.1875547273811262        0.0702734658904124    0.0
                        0.1882752095246603        0.0701998819293414    0.0
                        0.1889200855198651        0.0701334235374977    0.0
                        0.1894969681161789        0.0700735082153997    0.0
                        0.1900127693662749        0.0700195714660326    0.0
                        0.1904737615827977        0.0699710743574446    0.0
                        0.1908855806072090        0.0699275137924514    0.0
                        0.1912534423771194        0.0698884076034227    0.0
                       -0.0719862490788713        0.0196390375298904    0.0
                       -0.0706370896793397        0.0204614398767725    0.0
                       -0.0691733197283359        0.0213532473878858    0.0
                       -0.0675825914944317        0.0223211942908647    0.0
                       -0.0658509048360462        0.0233723426770111    0.0
                       -0.0639625681955825        0.0245140055282115    0.0
                       -0.0619001858817499        0.0257535449906195    0.0
                       -0.0596447195867789        0.0270980618236794    0.0
                       -0.0571756675406785        0.0285539728821134    0.0
                       -0.0544714164031083        0.0301264670019503    0.0
                       -0.0515098530402433        0.0318188219114124    0.0
                       -0.0482693618020044        0.0336315635750176    0.0
                       -0.0447304799590019        0.0355614025555943    0.0
                       -0.0408777405503010        0.0376003289731362    0.0
                       -0.0367005991506689        0.0397355189465225    0.0
                       -0.0321934973902089        0.0419499487729920    0.0
                       -0.0273548209761605        0.0442236743958793    0.0
                       -0.0221849528946824        0.0465354278577784    0.0
                       -0.0166845415934320        0.0488638074149348    0.0
                       -0.0108536937792187        0.0511877401379642    0.0
                       -0.0046926156612311        0.0534861808847852    0.0
                        0.0017939881739463        0.0557366054984372    0.0
                        0.0085922767696363        0.0579141898914001    0.0
                        0.0156783703720445        0.0599929436422962    0.0
                        0.0230176956483603        0.0619472460518440    0.0
                        0.0305687570939984        0.0637546255043554    0.0
                        0.0382848524070684        0.0653975593610751    0.0
                        0.0460974250669309        0.0668617547914418    0.0
                        0.0539437818700380        0.0681431708673768    0.0
                        0.0621955680451020        0.0693020817875729    0.0
                        0.0703080434616026        0.0702717223559578    0.0
                        0.0781978486167688        0.0710722983059405    0.0
                        0.0858128113921606        0.0717293471425485    0.0
                        0.0931128341460840        0.0722674828449705    0.0
                        0.1000774724033983        0.0727085824830299    0.0
                        0.1067012323806330        0.0730701953653817    0.0
                        0.1129914880676829        0.0733653881336605    0.0
                        0.1189643856171255        0.0736032111586514    0.0
                        0.1246404696070999        0.0737895144051117    0.0
                        0.1300373529404122        0.0739277808075891    0.0
                        0.1351646899409501        0.0740200988083927    0.0
                        0.1400256295168856        0.0740681980121758    0.0
                        0.1446196321254663        0.0740742252254275    0.0
                        0.1489447567702143        0.0740411925340400    0.0
                        0.1529994408522012        0.0739731223525618    0.0
                        0.1567836922767516        0.0738749427897321    0.0
                        0.1602997706902622        0.0737522122615520    0.0
                        0.1635524519510152        0.0736107598993146    0.0
                        0.1665489806553715        0.0734563199280869    0.0
                        0.1692988096955441        0.0732942183660774    0.0
                        0.1718132055622345        0.0731291463208681    0.0
                        0.1741048210751461        0.0729650282628123    0.0
                        0.1761873359212277        0.0728049729354110    0.0
                        0.1780750439163269        0.0726512997649754    0.0
                        0.1797824091866324        0.0725056215771683    0.0
                        0.1813237185091632        0.0723689528515717    0.0
                        0.1827128243627194        0.0722418247623165    0.0
                        0.1839629640753825        0.0721243946531038    0.0
                        0.1850866414090669        0.0720165427947261    0.0
                        0.1860955574733614        0.0719179533954516    0.0
                        0.1870005794943371        0.0718281795984372    0.0
                        0.1878117376896496        0.0717466938287804    0.0
                        0.1885382424775320        0.0716729255963076    0.0
                        0.1891885152949641        0.0716062891153737    0.0
                        0.1897702298632140        0.0715462027492316    0.0
                        0.1902903541896494        0.0714921027936785    0.0
                        0.1907552124787800        0.0714434508630434    0.0
                        0.1911704853055422        0.0713997444428308    0.0
                        0.1915414379724690        0.0713605008535462    0.0
                       -0.0728897814487630        0.0208363801110082    0.0
                       -0.0715275931850087        0.0216659801436653    0.0
                       -0.0700508574942632        0.0225647704337086    0.0
                       -0.0684471620037890        0.0235395093061276    0.0
                       -0.0667024049743157        0.0245973120993901    0.0
                       -0.0648007566495561        0.0257455771757997    0.0
                       -0.0627246474126883        0.0269917842543243    0.0
                       -0.0604548311822701        0.0283431805418467    0.0
                       -0.0579705682405589        0.0298063505355963    0.0
                       -0.0552499845087083        0.0313866590442599    0.0
                       -0.0522706982824238        0.0330875492855549    0.0
                       -0.0490108458290167        0.0349096767086432    0.0
                       -0.0454507909107553        0.0368498096128084    0.0
                       -0.0415750229806276        0.0388998950941222    0.0
                       -0.0373730994200002        0.0410469655403138    0.0
                       -0.0328396872030317        0.0432737767021878    0.0
                       -0.0279734541630760        0.0455601330345760    0.0
                       -0.0227750203868436        0.0478845405426403    0.0
                       -0.0172451371516984        0.0502254376354706    0.0
                       -0.0113838300025258        0.0525616726365030    0.0
                       -0.0051910538790494        0.0548721872248142    0.0
                        0.0013287440002038        0.0571344423533045    0.0
                        0.0081618107693504        0.0593235458969525    0.0
                        0.0152841622865565        0.0614133996618460    0.0
                        0.0226608737889795        0.0633782417844043    0.0
                        0.0302501381349635        0.0651955188504961    0.0
                        0.0380048659819261        0.0668476512323419    0.0
                        0.0458555470786102        0.0683202177831881    0.0
                        0.0537383419459251        0.0696090808927784    0.0
                        0.0620255659997197        0.0707748172236827    0.0
                        0.0701687825036364        0.0717501478387364    0.0
                        0.0780837872580689        0.0725553254590473    0.0
                        0.0857182041988735        0.0732159703040124    0.0
                        0.0930322452654305        0.0737567773301499    0.0
                        0.1000062439937779        0.0741997064669540    0.0
                        0.1066358382080078        0.0745623980409582    0.0
                        0.1129297630441359        0.0748580256337615    0.0
                        0.1189056211176287        0.0750957619789284    0.0
                        0.1245853705053165        0.0752815847195558    0.0
                        0.1299877425775921        0.0754190919817574    0.0
                        0.1351230281352611        0.0755104649316974    0.0
                        0.1399945839875110        0.0755575043398054    0.0
                        0.1446017639148369        0.0755624098242332    0.0
                        0.1489423034746192        0.0755282319204528    0.0
                        0.1530141870608747        0.0754590214102855    0.0
                        0.1568169108675841        0.0753597281266222    0.0
                        0.1603522186205141        0.0752359275466625    0.0
                        0.1636244047975098        0.0750934617959250    0.0
                        0.1666402919169216        0.0749380738244444    0.0
                        0.1694089832219477        0.0747750938290450    0.0
                        0.1719414715515889        0.0746092127587463    0.0
                        0.1742502102294931        0.0744443513504891    0.0
                        0.1763487511924332        0.0742836119577097    0.0
                        0.1782513232352643        0.0741293062341073    0.0
                        0.1799723735229292        0.0739830393194785    0.0
                        0.1815262070584067        0.0738458191010746    0.0
                        0.1829267191406908        0.0737181717193834    0.0
                        0.1841872060313216        0.0736002510716856    0.0
                        0.1853202399795036        0.0734919353229575    0.0
                        0.1863375952258482        0.0733929075510011    0.0
                        0.1872502132249507        0.0733027203733163    0.0
                        0.1880681970576588        0.0732208459825695    0.0
                        0.1888008270225157        0.0731467137195714    0.0
                        0.1894565904347229        0.0730797375468694    0.0
                        0.1900432224272606        0.0730193354039585    0.0
                        0.1905677474591403        0.0729649429859414    0.0
                        0.1910365421894628        0.0729160210346882    0.0
                        0.1914553323845963        0.0728720662567174    0.0
                        0.1918294335678186        0.0728325941036697    0.0
                       -0.0737933138186547        0.0220337226921260    0.0
                       -0.0724180686472311        0.0228710813550209    0.0
                       -0.0709284038401935        0.0237774192611487    0.0
                       -0.0693118366264219        0.0247595188742989    0.0
                       -0.0675541559229063        0.0258245468225098    0.0
                       -0.0656393841670696        0.0269799824369763    0.0
                       -0.0635497665495635        0.0282334161307307    0.0
                       -0.0612658366583147        0.0295922327803732    0.0
                       -0.0587666035369944        0.0310631749309409    0.0
                       -0.0560299190276600        0.0326517742462627    0.0
                       -0.0530331202129404        0.0343616318387088    0.0
                       -0.0497540841923146        0.0361935269468196    0.0
                       -0.0461729930483227        0.0381442812776098    0.0
                       -0.0422742888155835        0.0402057952138777    0.0
                       -0.0380476317764200        0.0423649544470064    0.0
                       -0.0334879199044552        0.0446042929374733    0.0
                       -0.0285941117058694        0.0469033657923548    0.0
                       -0.0233670730287590        0.0492404598552340    0.0
                       -0.0178076641213039        0.0515938650116702    0.0
                       -0.0119158311422086        0.0539423643834516    0.0
                       -0.0056912746363697        0.0562648986347525    0.0
                        0.0008618207604074        0.0585389203553544    0.0
                        0.0077297940883866        0.0607394678898670    0.0
                        0.0148885585627565        0.0628403264944365    0.0
                        0.0223028356696450        0.0648155785534463    0.0
                        0.0299305074294551        0.0666425720599395    0.0
                        0.0377240971985944        0.0683036514683173    0.0
                        0.0456131280494418        0.0697842496715450    0.0
                        0.0535325931554431        0.0710801238399384    0.0
                        0.0618554296581996        0.0722521236035206    0.0
                        0.0700295039085839        0.0732325144929572    0.0
                        0.0779697589099237        0.0740416434226629    0.0
                        0.0856236185410637        0.0747052665480318    0.0
                        0.0929516159629422        0.0752482108584312    0.0
                        0.0999348756709624        0.0756925595783523    0.0
                        0.1065701763349228        0.0760560692452032    0.0
                        0.1128676173447197        0.0763520285201932    0.0
                        0.1188462559852956        0.0765897247448342    0.0
                        0.1245294614061021        0.0767752428614685    0.0
                        0.1299370855577814        0.0769122673059580    0.0
                        0.1350800647599162        0.0770030383917402    0.0
                        0.1399619781961149        0.0770493932008906    0.0
                        0.1445820897128140        0.0770535509621995    0.0
                        0.1489378272872307        0.0770185713809829    0.0
                        0.1530267350282885        0.0769485098506435    0.0
                        0.1568478057755260        0.0768483206755652    0.0
                        0.1604022710224507        0.0767235860492165    0.0
                        0.1636939432567029        0.0765801575224078    0.0
                        0.1667292188081538        0.0764237893497678    0.0
                        0.1695168446701751        0.0762598235794642    0.0
                        0.1720675319708176        0.0760929623993296    0.0
                        0.1743935259918098        0.0759271364088289    0.0
                        0.1765082428172840        0.0757654558490486    0.0
                        0.1784258391429412        0.0756102382588568    0.0
                        0.1801607392856405        0.0754630931952426    0.0
                        0.1817272617922924        0.0753250319579580    0.0
                        0.1831393412245753        0.0751965833738648    0.0
                        0.1844103302082265        0.0750779034184631    0.0
                        0.1855528677391607        0.0749688717460412    0.0
                        0.1865788001163569        0.0748691723195743    0.0
                        0.1874991424699268        0.0747783580309664    0.0
                        0.1883240705815028        0.0746959007582964    0.0
                        0.1890629347510729        0.0746212289895929    0.0
                        0.1897242884894761        0.0745537553722374    0.0
                        0.1903159287913468        0.0744928961450200    0.0
                        0.1908449370862594        0.0744380850333353    0.0
                        0.1913177430820378        0.0743887805198608    0.0
                        0.1917401182229734        0.0743444772078269    0.0
                        0.1921174291631682        0.0743046873537932    0.0
                       -0.0746968461885464        0.0232310652732439    0.0
                       -0.0733085004821661        0.0240767490850233    0.0
                       -0.0718059299151994        0.0249912018662136    0.0
                       -0.0701765751808045        0.0259812309299379    0.0
                       -0.0684061079845986        0.0270540530787900    0.0
                       -0.0664783934692581        0.0282172251775097    0.0
                       -0.0643754806340092        0.0294784424541401    0.0
                       -0.0620776704472119        0.0308452195288526    0.0
                       -0.0595637075310347        0.0323244479233214    0.0
                       -0.0568111561474486        0.0339218171274847    0.0
                       -0.0537970590852755        0.0356410782330484    0.0
                       -0.0504990225672081        0.0374831279958891    0.0
                       -0.0468970381690455        0.0394448365699624    0.0
                       -0.0429754961359479        0.0415180534143252    0.0
                       -0.0387241604029635        0.0436895142252481    0.0
                       -0.0341381654377592        0.0459415297592607    0.0
                       -0.0292167689024704        0.0482534078362384    0.0
                       -0.0239610910053757        0.0506032229543097    0.0
                       -0.0183721070011053        0.0529691277303256    0.0
                       -0.0124496853044719        0.0553298535796289    0.0
                       -0.0061932688241887        0.0576643523499385    0.0
                        0.0003932256428246        0.0599500749497506    0.0
                        0.0072962328090144        0.0621619889157933    0.0
                        0.0144915648989952        0.0642737543386566    0.0
                        0.0219435871929395        0.0662592832901958    0.0
                        0.0296098716332758        0.0680958083593615    0.0
                        0.0374425539277068        0.0697655793230897    0.0
                        0.0453701771859416        0.0712538658233320    0.0
                        0.0533265456675812        0.0725563116837202    0.0
                        0.0616851683211789        0.0737340101886352    0.0
                        0.0698902152748343        0.0747188306489673    0.0
                        0.0778557688129743        0.0755312617433845    0.0
                        0.0855290569798363        0.0761972487160043    0.0
                        0.0928709461336860        0.0767418010753108    0.0
                        0.0998633648670601        0.0771871647559771    0.0
                        0.1065042419456603        0.0775512364568010    0.0
                        0.1128050439880124        0.0778474269438198    0.0
                        0.1187862809060787        0.0780851297642286    0.0
                        0.1244727301169416        0.0782705167767924    0.0
                        0.1298853657924113        0.0784073303899553    0.0
                        0.1350357783868415        0.0784978372676057    0.0
                        0.1399277836913244        0.0785438766700720    0.0
                        0.1445605723987377        0.0785476547442180    0.0
                        0.1489312811108718        0.0785122113563169    0.0
                        0.1530370269622454        0.0784415828455162    0.0
                        0.1568763085354679        0.0783407107335727    0.0
                        0.1604498495566342        0.0782151735778963    0.0
                        0.1637609806160489        0.0780708288289672    0.0
                        0.1668156682869774        0.0779134447362553    0.0
                        0.1696222970411755        0.0777483830283619    0.0
                        0.1721912883358273        0.0775803686852931    0.0
                        0.1745346707531525        0.0774133558702459    0.0
                        0.1766657161495258        0.0772504770075869    0.0
                        0.1785985016725942        0.0770940690999261    0.0
                        0.1803474224918682        0.0769457580667771    0.0
                        0.1819268056087181        0.0768065684235051    0.0
                        0.1833506209209409        0.0766770391941289    0.0
                        0.1846322745378799        0.0765573337687010    0.0
                        0.1857844702151684        0.0764473367349001    0.0
                        0.1868191250543028        0.0763467348478175    0.0
                        0.1877473271808033        0.0762550820046913    0.0
                        0.1885793248340440        0.0761718496503165    0.0
                        0.1893245383923842        0.0760964647239745    0.0
                        0.1899915878626410        0.0760283374989735    0.0
                        0.1905883325534762        0.0759668812511366    0.0
                        0.1911219113988809        0.0759115263875163    0.0
                        0.1915988077748112        0.0758617277668030    0.0
                        0.1920248393126924        0.0758169765888202    0.0
                        0.1924054247585178        0.0757767806039168    0.0
                       -0.0756003785584381        0.0244284078543617    0.0
                       -0.0741988754708702        0.0252829927022405    0.0
                       -0.0726834119552554        0.0262061337344025    0.0
                       -0.0710413454266460        0.0272046643547160    0.0
                       -0.0692582221427794        0.0282858510620510    0.0
                       -0.0673177403321105        0.0294573255570758    0.0
                       -0.0652017418557206        0.0307268827935105    0.0
                       -0.0628902829046734        0.0321021599504783    0.0
                       -0.0603618305796012        0.0335901890200990    0.0
                       -0.0575936479889285        0.0351968085728784    0.0
                       -0.0545624702747336        0.0369259117374913    0.0
                       -0.0512456206382385        0.0387785062412807    0.0
                       -0.0476228908249508        0.0407515053236271    0.0
                       -0.0436786144854745        0.0428367029095449    0.0
                       -0.0394026596713885        0.0450206810932742    0.0
                       -0.0347904027047707        0.0472855258237010    0.0
                       -0.0298414088450207        0.0496102996018207    0.0
                       -0.0245570612263403        0.0519728713626459    0.0
                       -0.0189384560745236        0.0543512676985846    0.0
                       -0.0129853855984507        0.0567241818212200    0.0
                       -0.0066970317237986        0.0590705890114774    0.0
                       -0.0000770380972727        0.0613679452865571    0.0
                        0.0068611294113630        0.0635911462226529    0.0
                        0.0140931836248073        0.0657137182013211    0.0
                        0.0215831310466897        0.0677093883942014    0.0
                        0.0292882342777817        0.0695552571207140    0.0
                        0.0371602409787897        0.0712334607743116    0.0
                        0.0451267007191639        0.0727290886438850    0.0
                        0.0531202068361548        0.0740376633630250    0.0
                        0.0615147887786266        0.0752204926733362    0.0
                        0.0697509221269281        0.0762091100535148    0.0
                        0.0777418206826939        0.0770241939689992    0.0
                        0.0854345211982852        0.0776919319714364    0.0
                        0.0927902355276382        0.0782375661800163    0.0
                        0.0997917096792861        0.0786835438490346    0.0
                        0.1064380317763335        0.0790479247833890    0.0
                        0.1127420385149382        0.0793442479802475    0.0
                        0.1187256901529446        0.0795820042840015    0.0
                        0.1244151691971003        0.0797674321168714    0.0
                        0.1298325732002748        0.0799043040056382    0.0
                        0.1349901549067026        0.0799948808390883    0.0
                        0.1398919806448997        0.0800409705334258    0.0
                        0.1445371846892941        0.0800447338785168    0.0
                        0.1489226287200224        0.0800091620876176    0.0
                        0.1530450167162639        0.0799382487922296    0.0
                        0.1569023627844048        0.0798369053781120    0.0
                        0.1604948880983959        0.0797106962754050    0.0
                        0.1638254421541733        0.0795654811843976    0.0
                        0.1668995587797795        0.0794070449578807    0.0
                        0.1697252540412054        0.0792407767965999    0.0
                        0.1723126519338925        0.0790714360174143    0.0
                        0.1746735556419486        0.0789030140467573    0.0
                        0.1768210842101005        0.0787386797744139    0.0
                        0.1787692274707968        0.0785808032119182    0.0
                        0.1805323447738241        0.0784310385382649    0.0
                        0.1821247661044031        0.0782904332353682    0.0
                        0.1835604924155900        0.0781595439901725    0.0
                        0.1848529801137972        0.0780385469126737    0.0
                        0.1860149954793719        0.0779273349531473    0.0
                        0.1870585249709755        0.0778255995651839    0.0
                        0.1879947288932675        0.0777328963923152    0.0
                        0.1888339276093876        0.0776486963438076    0.0
                        0.1895856115983337        0.0775724241334786    0.0
                        0.1902584676362524        0.0775034866210431    0.0
                        0.1908604177916673        0.0774412928748229    0.0
                        0.1913986590438652        0.0773852686503012    0.0
                        0.1918797290749868        0.0773348638292289    0.0
                        0.1923094922294167        0.0772895649194406    0.0
                        0.1926934203538674        0.0772488738540403    0.0
                       -0.0765039109283298        0.0256257504354795    0.0
                       -0.0750891826726999        0.0264898252667968    0.0
                       -0.0735608311182942        0.0274222375974770    0.0
                       -0.0719061228326875        0.0284298485801755    0.0
                       -0.0701104697856472        0.0295199743930921    0.0
                       -0.0681573933068676        0.0307003194058844    0.0
                       -0.0660285170194297        0.0319787738103884    0.0
                       -0.0637036401707998        0.0333630907939961    0.0
                       -0.0611609392793794        0.0348604348995007    0.0
                       -0.0583773627142932        0.0364767854765916    0.0
                       -0.0553293244859241        0.0382161699814608    0.0
                       -0.0519938523673049        0.0400797005765261    0.0
                       -0.0483505286124063        0.0420643280536550    0.0
                       -0.0443836251526812        0.0441617859251076    0.0
                       -0.0400831143995352        0.0463584988068597    0.0
                       -0.0354446197926949        0.0486363260360967    0.0
                       -0.0304680226160441        0.0509740866635322    0.0
                       -0.0251549774934346        0.0533494508357217    0.0
                       -0.0195067075501734        0.0557403304107597    0.0
                       -0.0135229302516022        0.0581253939627907    0.0
                       -0.0072025630988684        0.0604836525237105    0.0
                       -0.0005489712096417        0.0627925740733878    0.0
                        0.0064244827168558        0.0650269811117591    0.0
                        0.0136934136549157        0.0671602577509653    0.0
                        0.0212214666645692        0.0691659315904210    0.0
                        0.0289655957351375        0.0710209537174299    0.0
                        0.0368771600690200        0.0727073283746074    0.0
                        0.0448827018768927        0.0742099474226077    0.0
                        0.0529135811774492        0.0755242046201267    0.0
                        0.0613442952960438        0.0767115930127736    0.0
                        0.0696116279128261        0.0777033716847941    0.0
                        0.0776279167181132        0.0785204574484306    0.0
                        0.0853400120201619        0.0791893335846152    0.0
                        0.0927094837754684        0.0797355246991375    0.0
                        0.0997199088994800        0.0801817173884427    0.0
                        0.1063715441447933        0.0805461567406762    0.0
                        0.1126785990162483        0.0808425154240511    0.0
                        0.1186644816095258        0.0810803723004759    0.0
                        0.1243567759790402        0.0812660120608433    0.0
                        0.1297787037328257        0.0814032099152253    0.0
                        0.1349431875690891        0.0814941894137779    0.0
                        0.1398545579214764        0.0815406941058396    0.0
                        0.1445119092532981        0.0815448074730670    0.0
                        0.1489118449329837        0.0815094433779095    0.0
                        0.1530506700243794        0.0814385290237335    0.0
                        0.1569259245542846        0.0813369281088545    0.0
                        0.1605373330735989        0.0812101801749131    0.0
                        0.1638872654955878        0.0810641432325532    0.0
                        0.1669808205261303        0.0809046210767886    0.0
                        0.1698256403875883        0.0807370379484426    0.0
                        0.1724315440664845        0.0805661988822462    0.0
                        0.1748101006884509        0.0803961461693437    0.0
                        0.1769742677677751        0.0802300994116123    0.0
                        0.1789379397980999        0.0800704751932075    0.0
                        0.1807154333103859        0.0799189679121104    0.0
                        0.1823210754524529        0.0797766578623108    0.0
                        0.1837688936136594        0.0796441269727413    0.0
                        0.1850723910096868        0.0795215694977583    0.0
                        0.1862443939589311        0.0794088902933419    0.0
                        0.1872969566333889        0.0793057875191183    0.0
                        0.1882413105526041        0.0792118193900639    0.0
                        0.1890878477657523        0.0791264562436083    0.0
                        0.1898461288075029        0.0790491199398788    0.0
                        0.1905249074580987        0.0789792129186124    0.0
                        0.1911321689749857        0.0789161388164162    0.0
                        0.1916751689218311        0.0788593174144579    0.0
                        0.1921604999364117        0.0788081922666771    0.0
                        0.1925940736119786        0.0787622438997828    0.0
                        0.1929814159492169        0.0787209671041638    0.0
                       -0.0774074432982215        0.0268230930165973    0.0
                       -0.0759794134411620        0.0276972635397806    0.0
                       -0.0744381735210106        0.0286395434090707    0.0
                       -0.0727708906287923        0.0296568234958130    0.0
                       -0.0709628327674012        0.0307564699414760    0.0
                       -0.0689973337912684        0.0319462579617773    0.0
                       -0.0668557876368137        0.0332341689342198    0.0
                       -0.0645177242990177        0.0346280660447578    0.0
                       -0.0619610166465970        0.0361352390767570    0.0
                       -0.0591622847610425        0.0377618004513244    0.0
                       -0.0560976080310152        0.0395119047177277    0.0
                       -0.0527437062966452        0.0413867622140559    0.0
                       -0.0490799424778073        0.0433833558014573    0.0
                       -0.0450905214612707        0.0454933535633273    0.0
                       -0.0407655201155392        0.0477030185344945    0.0
                       -0.0361008142076721        0.0499939814302025    0.0
                       -0.0310966094910641        0.0523448196154793    0.0
                       -0.0257548406738249        0.0547330112431633    0.0
                       -0.0200768637078530        0.0571363648300917    0.0
                       -0.0140623227307590        0.0595335379993847    0.0
                       -0.0077098672943388        0.0619035899372495    0.0
                       -0.0010225785294075        0.0642240074610054    0.0
                        0.0059862878221821        0.0664695388282379    0.0
                        0.0132922504332827        0.0686134172150221    0.0
                        0.0208585901766448        0.0706289558335176    0.0
                        0.0286419531728607        0.0724929394336792    0.0
                        0.0365933097800302        0.0741872211632015    0.0
                        0.0446381808423419        0.0756964782447759    0.0
                        0.0527066703331302        0.0770159679099593    0.0
                        0.0611736895866142        0.0782073393236507    0.0
                        0.0694723339880573        0.0792016396400734    0.0
                        0.0775140575980792        0.0800200732019706    0.0
                        0.0852455294163816        0.0806894727827376    0.0
                        0.0926286904019285        0.0812356953176737    0.0
                        0.0996479620302233        0.0816817044042549    0.0
                        0.1063047789652568        0.0820459520646551    0.0
                        0.1126147261421130        0.0823422496039725    0.0
                        0.1186026567729169        0.0825802543826735    0.0
                        0.1242975525661998        0.0827662771480946    0.0
                        0.1297237593739243        0.0829040687107575    0.0
                        0.1348948769969329        0.0829957841682966    0.0
                        0.1398155131250551        0.0830430700651720    0.0
                        0.1444847388096477        0.0830479008505880    0.0
                        0.1488989157787376        0.0830130843739888    0.0
                        0.1530539647481687        0.0829424575437777    0.0
                        0.1569469626008778        0.0828408185253087    0.0
                        0.1605771438598338        0.0827136708144725    0.0
                        0.1639464010641902        0.0825668663447273    0.0
                        0.1670593960570046        0.0824062297423750    0.0
                        0.1699233922810376        0.0822372274530715    0.0
                        0.1725478964870062        0.0820647212968600    0.0
                        0.1749442352052822        0.0818928178387787    0.0
                        0.1771251956483906        0.0817248015807062    0.0
                        0.1791045687617874        0.0815631493092926    0.0
                        0.1808966209858723        0.0814096077684689    0.0
                        0.1825156704952516        0.0812653001448459    0.0
                        0.1839757661779662        0.0811308414545379    0.0
                        0.1852904542757592        0.0810064497857393    0.0
                        0.1864726184027497        0.0808920456836685    0.0
                        0.1875343785916784        0.0807873362235656    0.0
                        0.1884870364511426        0.0806918831755356    0.0
                        0.1893410551601729        0.0806051563850521    0.0
                        0.1901060651825702        0.0805265743090808    0.0
                        0.1907908874857248        0.0804555340089351    0.0
                        0.1914035709167910        0.0803914324891614    0.0
                        0.1919514301512841        0.0803336822402350    0.0
                        0.1924411134354680        0.0802817191303667    0.0
                        0.1928785801503188        0.0802350164038989    0.0
                        0.1932694115445665        0.0801930603542873    0.0
                       -0.0783109756681132        0.0280204355977152    0.0
                       -0.0768695615422530        0.0289053281009879    0.0
                       -0.0753154304761799        0.0298580885300852    0.0
                       -0.0736356401388040        0.0308856396477186    0.0
                       -0.0718153038007167        0.0319953979840737    0.0
                       -0.0698375564452802        0.0331952079466062    0.0
                       -0.0676835503385008        0.0344931383360068    0.0
                       -0.0653325336512848        0.0358971568011043    0.0
                       -0.0627620624942423        0.0374146717100920    0.0
                       -0.0599484152054517        0.0390519216004768    0.0
                       -0.0568673231824501        0.0408131815939550    0.0
                       -0.0534951858892779        0.0426997544777529    0.0
                       -0.0498111370404210        0.0447086499567097    0.0
                       -0.0457993090690801        0.0468314656527553    0.0
                       -0.0414498833280646        0.0490542987273756    0.0
                       -0.0367589931139049        0.0513585490505498    0.0
                       -0.0317271771464108        0.0537225539596968    0.0
                       -0.0263566588778429        0.0561236064595857    0.0
                       -0.0206489330485987        0.0585394232818983    0.0
                       -0.0146035718675330        0.0609486649639633    0.0
                       -0.0082189533408395        0.0633304513536991    0.0
                       -0.0014978690644733        0.0656622949578998    0.0
                        0.0055465360249291        0.0679188684867418    0.0
                        0.0128896858681949        0.0700732453166648    0.0
                        0.0204944943507017        0.0720985092553752    0.0
                        0.0283173004983526        0.0739712614226225    0.0
                        0.0363086855033027        0.0756731846336233    0.0
                        0.0443931346997043        0.0771887239653936    0.0
                        0.0524994730185723        0.0785129923751883    0.0
                        0.0610029707693985        0.0797077658532655    0.0
                        0.0693330395868038        0.0807039430914682    0.0
                        0.0774002424650665        0.0815230658571366    0.0
                        0.0851510724993668        0.0821923706604373    0.0
                        0.0925478548268371        0.0827380967618680    0.0
                        0.0995758692875588        0.0831835222829614    0.0
                        0.1062377377476956        0.0835473275500547    0.0
                        0.1125504230939151        0.0838434672119679    0.0
                        0.1185402207357384        0.0840816675014299    0.0
                        0.1242375058072233        0.0842682451142692    0.0
                        0.1296677481139622        0.0844068996592736    0.0
                        0.1348452311747920        0.0844996869993244    0.0
                        0.1397748526214261        0.0845481243003244    0.0
                        0.1444556762071071        0.0845540453809201    0.0
                        0.1488838386566619        0.0845201233691797    0.0
                        0.1530548911338768        0.0844500807886469    0.0
                        0.1569654587667003        0.0843486320424489    0.0
                        0.1606142932518581        0.0842212329109745    0.0
                        0.1640028126358183        0.0840737242674990    0.0
                        0.1671352408088153        0.0839119528389230    0.0
                        0.1700184580491479        0.0837414338646805    0.0
                        0.1726616520402214        0.0835670965550308    0.0
                        0.1750758983925336        0.0833931248658541    0.0
                        0.1772738052821178        0.0832228822937685    0.0
                        0.1792690517902418        0.0830589195578307    0.0
                        0.1810758467849260        0.0829030481340764    0.0
                        0.1827084930604653        0.0827564445478085    0.0
                        0.1841810557720100        0.0826197651611042    0.0
                        0.1855071201178597        0.0824932579956168    0.0
                        0.1866996240073559        0.0823768634386865    0.0
                        0.1877707512625000        0.0822702999980420    0.0
                        0.1887318722792116        0.0821731342205521    0.0
                        0.1895935206758241        0.0820848357109355    0.0
                        0.1903653966213999        0.0820048190867205    0.0
                        0.1910563883872639        0.0819324751383653    0.0
                        0.1916746087699879        0.0818671930678024    0.0
                        0.1922274320618344        0.0818083767622941    0.0
                        0.1927215627648778        0.0817554530311949    0.0
                        0.1931630085817035        0.0817078865121540    0.0
                        0.1935574071399161        0.0816651536044108    0.0
                       -0.0792145080380049        0.0292177781788330    0.0
                       -0.0777596233834941        0.0301140435802782    0.0
                       -0.0761925989442071        0.0310779181319058    0.0
                       -0.0745003714093750        0.0321163587346069    0.0
                       -0.0726678871933903        0.0332368327022787    0.0
                       -0.0706780699596998        0.0344472519772067    0.0
                       -0.0685118176100576        0.0357557691902171    0.0
                       -0.0661480835604882        0.0371704513637793    0.0
                       -0.0635640940065266        0.0386988195354134    0.0
                       -0.0607357722553542        0.0403472323450360    0.0
                       -0.0576384886002068        0.0421200799281997    0.0
                       -0.0542483099070297        0.0440187525749060    0.0
                       -0.0505441309323278        0.0460402820549653    0.0
                       -0.0465100062752568        0.0481761905811228    0.0
                       -0.0421362218020733        0.0504124049832483    0.0
                       -0.0374191735777669        0.0527300918364380    0.0
                       -0.0323597418715574        0.0551073500000400    0.0
                       -0.0269604476405633        0.0575212942626906    0.0
                       -0.0212229304479983        0.0599495613557199    0.0
                       -0.0151466919872305        0.0623708288376726    0.0
                       -0.0087298350638059        0.0647642898495465    0.0
                       -0.0019748560892543        0.0671074893713870    0.0
                        0.0051052147415226        0.0693750230300368    0.0
                        0.0124857082589246        0.0715397952489088    0.0
                        0.0201291685248149        0.0735746451533740    0.0
                        0.0279916282937881        0.0754559727112408    0.0
                        0.0360232793743863        0.0771652707551370    0.0
                        0.0441475573665931        0.0786867342427731    0.0
                        0.0522919849564238        0.0800153238848155    0.0
                        0.0608321353134419        0.0812129130145689    0.0
                        0.0691937417797899        0.0822103163075133    0.0
                        0.0772864688964033        0.0830294636476829    0.0
                        0.0850566395051017        0.0836980501479541    0.0
                        0.0924669763535667        0.0842427477305823    0.0
                        0.0995036315902588        0.0846871866607806    0.0
                        0.1061704235819811        0.0850502969104822    0.0
                        0.1124856955982903        0.0853461811411167    0.0
                        0.1184771821475255        0.0855846248593851    0.0
                        0.1241766472466205        0.0857719307264496    0.0
                        0.1296106838981382        0.0859117205503777    0.0
                        0.1347942654103973        0.0860059203825564    0.0
                        0.1397325915353773        0.0860558857729823    0.0
                        0.1444247344840641        0.0860632783320972    0.0
                        0.1488666224864897        0.0860306076295971    0.0
                        0.1530534520764091        0.0859614574188147    0.0
                        0.1569814083745256        0.0858604396473647    0.0
                        0.1606487679882613        0.0857329500948992    0.0
                        0.1640564779881915        0.0855848128638642    0.0
                        0.1672083238739047        0.0854218972747073    0.0
                        0.1701107989648089        0.0852497732084269    0.0
                        0.1727727655106853        0.0850734472569139    0.0
                        0.1752050401782475        0.0848971934795566    0.0
                        0.1774200435025819        0.0847244683149154    0.0
                        0.1794313343649756        0.0845579102551916    0.0
                        0.1812530564407573        0.0843994082247438    0.0
                        0.1828994905176011        0.0842502030151485    0.0
                        0.1843847125244013        0.0841110011478338    0.0
                        0.1857223422748645        0.0839820872338110    0.0
                        0.1869253687159263        0.0838634261601733    0.0
                        0.1880060371601640        0.0837547508059183    0.0
                        0.1889757852993422        0.0836556340437462    0.0
                        0.1898452163498090        0.0835655457245321    0.0
                        0.1906240998479330        0.0834838963453686    0.0
                        0.1913213914036863        0.0834100696233153    0.0
                        0.1919452680675692        0.0833434458269032    0.0
                        0.1925031642187042        0.0832834189315852    0.0
                        0.1930018412467238        0.0832294052927753    0.0
                        0.1934473556957980        0.0831808595837050    0.0
                        0.1938454027352657        0.0831372468545344    0.0
                       -0.0801180404078966        0.0304151207599508    0.0
                       -0.0786495983708884        0.0313234390177701    0.0
                       -0.0770696822287553        0.0322990858436239    0.0
                       -0.0753650941695768        0.0333490544303067    0.0
                       -0.0735205999607867        0.0344808630408785    0.0
                       -0.0715188982002769        0.0357024893217258    0.0
                       -0.0693406188638163        0.0370221662225106    0.0
                       -0.0669644072629674        0.0384480555265967    0.0
                       -0.0643671465083008        0.0399877859145944    0.0
                       -0.0615243918682312        0.0416478312918799    0.0
                       -0.0584111398300147        0.0434326924793757    0.0
                       -0.0550031128237400        0.0453438433429668    0.0
                       -0.0512789571541471        0.0473783335494796    0.0
                       -0.0472226443350810        0.0495276051117748    0.0
                       -0.0428245648399320        0.0517774099044720    0.0
                       -0.0380813828168132        0.0541086785076309    0.0
                       -0.0329943287858690        0.0564992727412043    0.0
                       -0.0275662301069391        0.0589261362376039    0.0
                       -0.0217988773123978        0.0613668378151154    0.0
                       -0.0156917030408474        0.0638000864715213    0.0
                       -0.0092425311968890        0.0662051614179340    0.0
                       -0.0024535572444157        0.0685596467741350    0.0
                        0.0046623074177001        0.0708380592194941    0.0
                        0.0120803022141256        0.0730131246849863    0.0
                        0.0197625985312977        0.0750574220183610    0.0
                        0.0276649237414269        0.0769471322508217    0.0
                        0.0357370801958897        0.0786635380471633    0.0
                        0.0439014395131458        0.0801905656312463    0.0
                        0.0520841987949143        0.0815230151358356    0.0
                        0.0606611769674358        0.0827228274868395    0.0
                        0.0690544354186686        0.0837207987401351    0.0
                        0.0771727328626291        0.0845392984753343    0.0
                        0.0849622277626650        0.0852065360363259    0.0
                        0.0923860541448623        0.0857496668741776    0.0
                        0.0994312505355474        0.0861927113512359    0.0
                        0.1061028411067632        0.0865548706577701    0.0
                        0.1124205518634368        0.0868504003292904    0.0
                        0.1184135531554495        0.0870891357186607    0.0
                        0.1241149930517489        0.0872773456149897    0.0
                        0.1295525865485214        0.0874185475449829    0.0
                        0.1347420022686685        0.0875145072400280    0.0
                        0.1396887537212501        0.0875663863952220    0.0
                        0.1443919369059740        0.0875756427439055    0.0
                        0.1488472878452270        0.0875445932488487    0.0
                        0.1530496633859425        0.0874766581457308    0.0
                        0.1569948206466062        0.0873763277011102    0.0
                        0.1606805693345628        0.0872489247072353    0.0
                        0.1641073896446155        0.0871002499443906    0.0
                        0.1672786288863684        0.0869361949032808    0.0
                        0.1702003902422563        0.0867623890567454    0.0
                        0.1728812046877822        0.0865839256021257    0.0
                        0.1753316223072979        0.0864051808818919    0.0
                        0.1775638676161253        0.0862297179941748    0.0
                        0.1795913710330800        0.0860602771342403    0.0
                        0.1814282033627200        0.0858988377621495    0.0
                        0.1830886166028219        0.0857467164397167    0.0
                        0.1845866917426466        0.0856046793471639    0.0
                        0.1859360786211889        0.0854730550446610    0.0
                        0.1871498137152125        0.0853518382265281    0.0
                        0.1882402012975070        0.0852407796325743    0.0
                        0.1892187446626213        0.0851394604427686    0.0
                        0.1900961156171221        0.0850473515554582    0.0
                        0.1908821525955036        0.0849638592755251    0.0
                        0.1915858784822347        0.0848883595668412    0.0
                        0.1922155348156527        0.0848202226897410    0.0
                        0.1927786164834781        0.0847588314072175    0.0
                        0.1932819423677078        0.0847035901990789    0.0
                        0.1937316183499774        0.0846539423736264    0.0
                        0.1941333983306153        0.0846093401046579    0.0
                       -0.0810215727777883        0.0316124633410686    0.0
                       -0.0795394894222503        0.0325335483804759    0.0
                       -0.0779466909658279        0.0335216546913927    0.0
                       -0.0762298291788113        0.0345838135874135    0.0
                       -0.0743734733661614        0.0357275939742529    0.0
                       -0.0723600817643295        0.0369610370270473    0.0
                       -0.0701700018653566        0.0382924525468013    0.0
                       -0.0677815571048293        0.0397300930552973    0.0
                       -0.0651712744240880        0.0412816909771060    0.0
                       -0.0623143284862673        0.0429538321244740    0.0
                       -0.0591853298650941        0.0447511251994828    0.0
                       -0.0557596452686705        0.0466751249644878    0.0
                       -0.0520156634440008        0.0487228955555704    0.0
                       -0.0479372677815979        0.0508857941845585    0.0
                       -0.0435149535679478        0.0531493929520451    0.0
                       -0.0387456584541244        0.0554943834531792    0.0
                       -0.0336309720601753        0.0578983917935833    0.0
                       -0.0281740372207303        0.0603381976875049    0.0
                       -0.0223768017380479        0.0627913145147686    0.0
                       -0.0162386307400926        0.0652364975190886    0.0
                       -0.0097570654996458        0.0676531249282170    0.0
                       -0.0029339946427036        0.0700188264963732    0.0
                        0.0042177934313283        0.0723080376579612    0.0
                        0.0116734485617331        0.0744932958254809    0.0
                        0.0193947666118464        0.0765469036026178    0.0
                        0.0273371705391343        0.0784448050136449    0.0
                        0.0354500733489440        0.0801680517075924    0.0
                        0.0436547684672940        0.0817002817341517    0.0
                        0.0518761040100823        0.0830361258192358    0.0
                        0.0604900866743774        0.0842375623834020    0.0
                        0.0689151130664342        0.0852354351785380    0.0
                        0.0770590286725607        0.0860526060358139    0.0
                        0.0848678336508992        0.0867178550611032    0.0
                        0.0923050871857618        0.0872588728220446    0.0
                        0.0993587283611515        0.0877001083074753    0.0
                        0.1060349964630475        0.0880610560000569    0.0
                        0.1123550025177069        0.0883561296072692    0.0
                        0.1183493493243536        0.0885952052247136    0.0
                        0.1240525639159504        0.0887844981012487    0.0
                        0.1294934816594381        0.0889273950260187    0.0
                        0.1346884714772563        0.0890254708185158    0.0
                        0.1396433717051863        0.0890796609276071    0.0
                        0.1443573169778534        0.0890911873302313    0.0
                        0.1488258670871833        0.0890621450385297    0.0
                        0.1530435540520248        0.0889957656011174    0.0
                        0.1570057191434361        0.0888963977915668    0.0
                        0.1607097137162250        0.0887692776607864    0.0
                        0.1641555557058051        0.0886201751848863    0.0
                        0.1673461550401015        0.0884550025662406    0.0
                        0.1702872222120590        0.0882794527782287    0.0
                        0.1729869516547993        0.0880987139237606    0.0
                        0.1754556196934062        0.0879172761270503    0.0
                        0.1777052467636186        0.0877388225179844    0.0
                        0.1797491267295945        0.0875662089505610    0.0
                        0.1816012498784289        0.0874015188797280    0.0
                        0.1832758325509818        0.0872461567821253    0.0
                        0.1847869549168421        0.0871009587978476    0.0
                        0.1861482920344803        0.0869663056469150    0.0
                        0.1873729241682214        0.0868422279448222    0.0
                        0.1884732117908573        0.0867284984802424    0.0
                        0.1894607218972524        0.0866247092806476    0.0
                        0.1903461936961792        0.0865303335067499    0.0
                        0.1911395339032821        0.0864447734799537    0.0
                        0.1918498324972607        0.0863673969001201    0.0
                        0.1924853956511047        0.0862975630262079    0.0
                        0.1930537791195014        0.0862346421260618    0.0
                        0.1935618598418166        0.0861780253542946    0.0
                        0.1940157934972553        0.0861271432030230    0.0
                        0.1944213939259649        0.0860814333547814    0.0
                       -0.0819251051476800        0.0328098059221864    0.0
                       -0.0804293036806533        0.0337444112800077    0.0
                       -0.0788236444814512        0.0347456984073070    0.0
                       -0.0770946100489651        0.0358207379091092    0.0
                       -0.0752265549645611        0.0369771482516905    0.0
                       -0.0732016800014365        0.0382230314577866    0.0
                       -0.0710000345388238        0.0395667707985734    0.0
                       -0.0685996060243812        0.0410167063373597    0.0
                       -0.0659765524167291        0.0425806718276786    0.0
                       -0.0631056558748208        0.0442653634904683    0.0
                       -0.0599611297598334        0.0460754969502431    0.0
                       -0.0565179744925876        0.0480127066419425    0.0
                       -0.0527543126560313        0.0500740685660009    0.0
                       -0.0486539347530591        0.0522508507033033    0.0
                       -0.0442074412287769        0.0545284402988222    0.0
                       -0.0394120487789552        0.0568872866262374    0.0
                       -0.0342697151441231        0.0593047812859377    0.0
                       -0.0287839079179367        0.0617575475516967    0.0
                       -0.0229567386736411        0.0642230563255945    0.0
                       -0.0167875066957655        0.0666801243809727    0.0
                       -0.0102734668798846        0.0691082421044730    0.0
                       -0.0034161949813771        0.0714850911454663    0.0
                        0.0037716479869505        0.0737850228470224    0.0
                        0.0112651242497430        0.0759803754842256    0.0
                        0.0190256513233710        0.0780431590295834    0.0
                        0.0270083488055960        0.0799490621380020    0.0
                        0.0351622406925493        0.0816788837976364    0.0
                        0.0434075281054472        0.0832159534200706    0.0
                        0.0516676867907538        0.0845547228534995    0.0
                        0.0603188524704503        0.0857571774898478    0.0
                        0.0687757649132162        0.0867542759735922    0.0
                        0.0769453489045030        0.0875694260128891    0.0
                        0.0847734525417754        0.0882320360483296    0.0
                        0.0922240742333194        0.0887703842622504    0.0
                        0.0992860678935328        0.0892093876220834    0.0
                        0.1059668972324382        0.0895688567602629    0.0
                        0.1122890605304999        0.0898633695518824    0.0
                        0.1182845895360701        0.0901028342265742    0.0
                        0.1239893849376275        0.0902933930223144    0.0
                        0.1294334004656373        0.0904382754540344    0.0
                        0.1346337098025535        0.0905388345841693    0.0
                        0.1395964865972563        0.0905957469050930    0.0
                        0.1443209184289441        0.0906099664193093    0.0
                        0.1488024044428448        0.0905833364647035    0.0
                        0.1530351664993105        0.0905188742588631    0.0
                        0.1570141422147309        0.0904207666455147    0.0
                        0.1607362333934166        0.0902941483698712    0.0
                        0.1642010007620848        0.0901447501279298    0.0
                        0.1674109182336804        0.0899785022463563    0.0
                        0.1703713016743880        0.0898011639394741    0.0
                        0.1730900043085582        0.0896180254380422    0.0
                        0.1755770220499937        0.0894337012999244    0.0
                        0.1778441636007808        0.0892520075600810    0.0
                        0.1799045784459248        0.0890759295985950    0.0
                        0.1817721688354114        0.0889076686439407    0.0
                        0.1834611085864651        0.0887487298930640    0.0
                        0.1849854710686060        0.0886000306374713    0.0
                        0.1863589515846041        0.0884620129588540    0.0
                        0.1875946702368533        0.0883347504817661    0.0
                        0.1887050407192380        0.0882180431008145    0.0
                        0.1897016916139195        0.0881114969446479    0.0
                        0.1905954281541122        0.0880145891922368    0.0
                        0.1913962245573397        0.0879267187667713    0.0
                        0.1921132375833749        0.0878472448279966    0.0
                        0.1927548380824764        0.0877755147616257    0.0
                        0.1933286429550230        0.0877108850948319    0.0
                        0.1938415877084980        0.0876527321833618    0.0
                        0.1942998782305796        0.0876004721956004    0.0
                        0.1947093895213145        0.0875535266049050    0.0
                       -0.0828286375175717        0.0340071485033043    0.0
                       -0.0813190534939785        0.0349560739612131    0.0
                       -0.0797005726292756        0.0359713032269817    0.0
                       -0.0779594856642799        0.0370599462193669    0.0
                       -0.0760799112543232        0.0382296687249347    0.0
                       -0.0740437735644819        0.0394886303013115    0.0
                       -0.0718308071779757        0.0408452845707354    0.0
                       -0.0694186493084900        0.0423080571770601    0.0
                       -0.0667830766886352        0.0438848827828062    0.0
                       -0.0638984680443547        0.0455825688531889    0.0
                       -0.0607386292793126        0.0474059391627119    0.0
                       -0.0572781848464745        0.0493567082229718    0.0
                       -0.0534949831438236        0.0514319621365563    0.0
                       -0.0493727173251669        0.0536228753135577    0.0
                       -0.0449020934806214        0.0559146446868760    0.0
                       -0.0400806130152745        0.0582874734493174    0.0
                       -0.0349106110008504        0.0607185197892024    0.0
                       -0.0293958893259448        0.0631842583334561    0.0
                       -0.0235387300871162        0.0656621310696591    0.0
                       -0.0173383685602022        0.0681310321628965    0.0
                       -0.0107917695214617        0.0705705775255348    0.0
                       -0.0039001896621966        0.0729585066561455    0.0
                        0.0033238420009995        0.0752690832823716    0.0
                        0.0108553022368072        0.0774744352167502    0.0
                        0.0186552274336501        0.0795462629487385    0.0
                        0.0266784349743973        0.0814599811254869    0.0
                        0.0348735604499279        0.0831961134878828    0.0
                        0.0431596987275447        0.0847376591074243    0.0
                        0.0514589299046996        0.0860788806909605    0.0
                        0.0601474593671336        0.0872817395784738    0.0
                        0.0686363786766292        0.0882773773386266    0.0
                        0.0768316843228842        0.0890898023466100    0.0
                        0.0846790787299003        0.0897491101291061    0.0
                        0.0921430137527810        0.0902842200794004    0.0
                        0.0992132724821336        0.0907205575697538    0.0
                        0.1058985523600237        0.0910782733190463    0.0
                        0.1122227411154918        0.0913721163469051    0.0
                        0.1182192958679924        0.0916120190956569    0.0
                        0.1239254854750187        0.0918040315559252    0.0
                        0.1293723796826359        0.0919511992331190    0.0
                        0.1345777608950517        0.0920546221413863    0.0
                        0.1395481479715655        0.0921146846012274    0.0
                        0.1442827951665232        0.0921320399443484    0.0
                        0.1487769560920476        0.0921082496440555    0.0
                        0.1530245568285463        0.0920460904231201    0.0
                        0.1570201434543492        0.0919495661115319    0.0
                        0.1607601771678335        0.0918236947554786    0.0
                        0.1642437668760876        0.0916741582678842    0.0
                        0.1674729523340913        0.0915069013208408    0.0
                        0.1704526534272960        0.0913277508391950    0.0
                        0.1731903781142434        0.0911421051810366    0.0
                        0.1756958358153868        0.0909547129642517    0.0
                        0.1779806163255286        0.0907695353123882    0.0
                        0.1800577172865884        0.0905897007389258    0.0
                        0.1819409456174915        0.0904175422247670    0.0
                        0.1836444258386144        0.0902546791120787    0.0
                        0.1851822185181847        0.0901021219706836    0.0
                        0.1865680341200389        0.0899603845580151    0.0
                        0.1878150284698633        0.0898295917425476    0.0
                        0.1889356653090201        0.0897095766459803    0.0
                        0.1899416324924153        0.0895999636551600    0.0
                        0.1908437997078539        0.0895002364296555    0.0
                        0.1916522077230918        0.0894097915872027    0.0
                        0.1923760796182531        0.0893279798004165    0.0
                        0.1930238508425336        0.0892541358921307    0.0
                        0.1936031996239851        0.0891876014739726    0.0
                        0.1941211204787127        0.0891277366173201    0.0
                        0.1945838698492364        0.0890739416016088    0.0
                        0.1949973851166640        0.0890256198550285    0.0
                       -0.0837321698874634        0.0352044910844221    0.0
                       -0.0822087577605183        0.0361685906709511    0.0
                       -0.0805775182724605        0.0371985703575039    0.0
                       -0.0788245233736749        0.0383015775217082    0.0
                       -0.0769336310745508        0.0394853213990707    0.0
                       -0.0748864675710124        0.0407580151047844    0.0
                       -0.0726624350880475        0.0421281801510075    0.0
                       -0.0702388066114971        0.0436043276954137    0.0
                       -0.0675909664184815        0.0451944955853944    0.0
                       -0.0646928802279570        0.0469056062653115    0.0
                       -0.0615179375636568        0.0487425954145798    0.0
                       -0.0580403782604127        0.0507072597661321    0.0
                       -0.0542377691433454        0.0527966945423260    0.0
                       -0.0500937018473118        0.0550019761762249    0.0
                       -0.0455989887047244        0.0573081052959372    0.0
                       -0.0407514216004642        0.0596950347361635    0.0
                       -0.0355537223511501        0.0621396902562486    0.0
                       -0.0300100369701213        0.0646184060413201    0.0
                       -0.0241228251380402        0.0671086094680058    0.0
                       -0.0178912601749188        0.0695892886507747    0.0
                       -0.0113120130187690        0.0720401986507666    0.0
                       -0.0043860149204178        0.0744391423765749    0.0
                        0.0028743419760859        0.0767602915930864    0.0
                        0.0104439513711015        0.0789755514970930    0.0
                        0.0182834658055542        0.0810562957410038    0.0
                        0.0263474016757702        0.0829776460966618    0.0
                        0.0345840070806692        0.0847198273725921    0.0
                        0.0429112569151276        0.0862654851250874    0.0
                        0.0512498125439236        0.0876086817049469    0.0
                        0.0599758892153050        0.0888113228074188    0.0
                        0.0684969394856484        0.0898048017353845    0.0
                        0.0767180237794329        0.0906137835848468    0.0
                        0.0845847053474975        0.0912691110321349    0.0
                        0.0920619038397903        0.0918003995600281    0.0
                        0.0991403459194608        0.0922336247013680    0.0
                        0.1058299720619066        0.0925893025893348    0.0
                        0.1121560616162747        0.0928823616570904    0.0
                        0.1181534934508966        0.0931227515477723    0.0
                        0.1238608989764264        0.0933164110514359    0.0
                        0.1293104613186159        0.0934661745956432    0.0
                        0.1345206751028861        0.0935728571875129    0.0
                        0.1394984137124254        0.0936365170450776    0.0
                        0.1442430111958205        0.0936574735012747    0.0
                        0.1487495902068154        0.0936369754179080    0.0
                        0.1530117950361128        0.0935775323009337    0.0
                        0.1570237921501660        0.0934829432301778    0.0
                        0.1607816111105490        0.0933580933376906    0.0
                        0.1642839146239456        0.0932086052231975    0.0
                        0.1675323105484123        0.0930404329072967    0.0
                        0.1705313219633663        0.0928594711541040    0.0
                        0.1732881080969470        0.0926712311005127    0.0
                        0.1758120863861491        0.0924806038437279    0.0
                        0.1781146210818588        0.0922917068667840    0.0
                        0.1802085509616372        0.0921078249314137    0.0
                        0.1821075806413028        0.0919314367505897    0.0
                        0.1838257787633098        0.0917642897308575    0.0
                        0.1853771871637279        0.0916075007584506    0.0
                        0.1867755263531068        0.0914616667731144    0.0
                        0.1880339836595195        0.0913269734344292    0.0
                        0.1891650695441423        0.0912032944931262    0.0
                        0.1901805286420683        0.0910902778858665    0.0
                        0.1910912933428363        0.0909874171369427    0.0
                        0.1919074698383571        0.0908941083389019    0.0
                        0.1926383469109991        0.0908096941958069    0.0
                        0.1932924243950806        0.0907334965536265    0.0
                        0.1938774419146941        0.0906648410603241    0.0
                        0.1944004533477383        0.0906030700317599    0.0
                        0.1948677659561518        0.0905475662415472    0.0
                        0.1952853807120136        0.0904977131051520    0.0
                       -0.0846357022573551        0.0364018336655399    0.0
                       -0.0830984437947227        0.0373820255802919    0.0
                       -0.0814545406546563        0.0384276193941023    0.0
                       -0.0796898132015971        0.0395457951213682    0.0
                       -0.0777878299280016        0.0407442993929654    0.0
                       -0.0757298954649001        0.0420313944153820    0.0
                       -0.0734950616741243        0.0434156685416988    0.0
                       -0.0710602242094129        0.0449057212712090    0.0
                       -0.0684003652919272        0.0465096995287902    0.0
                       -0.0654890298769006        0.0482346480130633    0.0
                       -0.0622991837808662        0.0500856208964409    0.0
                       -0.0588046747078931        0.0520645010376077    0.0
                       -0.0549827811495249        0.0541683924072366    0.0
                       -0.0508169892823617        0.0563882687451423    0.0
                       -0.0462982183233567        0.0587089276320418    0.0
                       -0.0414245564771588        0.0611100666382863    0.0
                       -0.0361991219299050        0.0635683799839848    0.0
                       -0.0306264149900856        0.0660600701488804    0.0
                       -0.0247090803572921        0.0685625651058725    0.0
                       -0.0184462317249728        0.0710549643075997    0.0
                       -0.0118342425196138        0.0735171758776923    0.0
                       -0.0048737119647668        0.0759270711976167    0.0
                        0.0024231098622279        0.0782587247329610    0.0
                        0.0100310362553564        0.0804838059513413    0.0
                        0.0179103332681450        0.0825733437823412    0.0
                        0.0260152176043998        0.0845021481138346    0.0
                        0.0342935511370733        0.0862501198622284    0.0
                        0.0426621753707460        0.0877995261597767    0.0
                        0.0510403101464753        0.0891442166688418    0.0
                        0.0598041205498493        0.0903460092163678    0.0
                        0.0683574297467621        0.0913366183573345    0.0
                        0.0766043540978248        0.0921414233308731    0.0
                        0.0844903242640693        0.0927920754674573    0.0
                        0.0919807421281532        0.0933189426787670    0.0
                        0.0990672923468267        0.0937485940020166    0.0
                        0.1057611677174193        0.0941019380333235    0.0
                        0.1120890413745369        0.0943940925241477    0.0
                        0.1180872103060565        0.0946350184761223    0.0
                        0.1237956627856659        0.0948305248760964    0.0
                        0.1292476924572426        0.0949832075183783    0.0
                        0.1344625092524334        0.0950935635195972    0.0
                        0.1394473498247425        0.0951612901104460    0.0
                        0.1442016405031191        0.0951863384958793    0.0
                        0.1487203869593338        0.0951696135282206    0.0
                        0.1529969652054046        0.0951133301840496    0.0
                        0.1570251737195220        0.0950210604146541    0.0
                        0.1608006192988298        0.0948975394341701    0.0
                        0.1643215241809829        0.0947483190065209    0.0
                        0.1675890668894415        0.0945793563002891    0.0
                        0.1706073733239701        0.0943966126784859    0.0
                        0.1733832510669192        0.0942057152684632    0.0
                        0.1759258206685272        0.0940117046906576    0.0
                        0.1782462147684170        0.0938188649045317    0.0
                        0.1803571067651517        0.0936306492537081    0.0
                        0.1822720924076349        0.0934496958740305    0.0
                        0.1840051781691338        0.0932778944164601    0.0
                        0.1855703813915420        0.0931164819054517    0.0
                        0.1869814275774891        0.0929661511664512    0.0
                        0.1882515313077874        0.0928271596405061    0.0
                        0.1893932463424333        0.0926994306155577    0.0
                        0.1904183714691757        0.0925826422786472    0.0
                        0.1913378998695595        0.0924763026029608    0.0
                        0.1921620018705128        0.0923798098717626    0.0
                        0.1929000311807251        0.0922925000035999    0.0
                        0.1935605516613927        0.0922136818731030    0.0
                        0.1941513642729662        0.0921426643359725    0.0
                        0.1946795825039598        0.0920787705455717    0.0
                        0.1951515645997568        0.0920213641205445    0.0
                        0.1955733763073632        0.0919698063552755    0.0
                       -0.0855392346272468        0.0375991762466577    0.0
                       -0.0839881499569666        0.0385964555419459    0.0
                       -0.0823317200302355        0.0396585931173434    0.0
                       -0.0805554734233118        0.0407927922057330    0.0
                       -0.0786426554553289        0.0420068280451964    0.0
                       -0.0765742236692160        0.0433090075857373    0.0
                       -0.0743288619698313        0.0447079877070752    0.0
                       -0.0718830774367660        0.0462124634238762    0.0
                       -0.0692114430655666        0.0478307013979324    0.0
                       -0.0662870776249565        0.0495698800681576    0.0
                       -0.0630825177359167        0.0514351817353957    0.0
                       -0.0595712126385450        0.0534285809305125    0.0
                       -0.0557301462801459        0.0555471903118904    0.0
                       -0.0515426955498977        0.0577818755591561    0.0
                       -0.0469998871310456        0.0601172234475823    0.0
                       -0.0421001114017316        0.0625326706258201    0.0
                       -0.0368468927579844        0.0650046806055100    0.0
                       -0.0312450963681912        0.0675093335793829    0.0
                       -0.0252975598360042        0.0700240744210539    0.0
                       -0.0190033399018065        0.0725281322985038    0.0
                       -0.0123585088785521        0.0750015826395413    0.0
                       -0.0053633271308379        0.0774223697350239    0.0
                        0.0019701029023495        0.0797644642347020    0.0
                        0.0096165170954114        0.0819992856590079    0.0
                        0.0175357924725339        0.0840974997758820    0.0
                        0.0256818473712647        0.0860335855827587    0.0
                        0.0340021591027047        0.0877870936677074    0.0
                        0.0424124227366880        0.0893398858047365    0.0
                        0.0508303941915249        0.0906855853420579    0.0
                        0.0596321284130378        0.0918858893348359    0.0
                        0.0682178289909157        0.0928729037268604    0.0
                        0.0764906599405483        0.0936727808042235    0.0
                        0.0843959259698363        0.0943180436193425    0.0
                        0.0918995256826433        0.0948398704835144    0.0
                        0.0989941161456004        0.0952654691305490    0.0
                        0.1056921517461465        0.0956161697377292    0.0
                        0.1120217015810189        0.0959072912979800    0.0
                        0.1180204771617911        0.0961488018072707    0.0
                        0.1237298179225654        0.0963463622905142    0.0
                        0.1291841250108155        0.0965023016879514    0.0
                        0.1344033263948972        0.0966167651156178    0.0
                        0.1393950302069400        0.0966890527037855    0.0
                        0.1441587668993885        0.0967187124100463    0.0
                        0.1486894384908869        0.0967062729276558    0.0
                        0.1529801656636332        0.0966536267731424    0.0
                        0.1570243901209075        0.0965640957744258    0.0
                        0.1608173045492601        0.0964422474934634    0.0
                        0.1643566964362595        0.0962935504133640    0.0
                        0.1676433177181389        0.0961239575057447    0.0
                        0.1706808970956103        0.0959394941454568    0.0
                        0.1734758880694568        0.0957459051796046    0.0
                        0.1760371099517138        0.0955483862872003    0.0
                        0.1783754582752815        0.0953513966304121    0.0
                        0.1805034350898379        0.0951585693581246    0.0
                        0.1824345211891300        0.0949727150511912    0.0
                        0.1841826549632156        0.0947958796823240    0.0
                        0.1857618237643430        0.0946294347469104    0.0
                        0.1871857531914114        0.0944741827324705    0.0
                        0.1884676808929498        0.0943304653431029    0.0
                        0.1896202004956611        0.0941982660204893    0.0
                        0.1906551622446883        0.0940773016189898    0.0
                        0.1915836180970671        0.0939671006965249    0.0
                        0.1924158010950532        0.0938670677191911    0.0
                        0.1931611289561621        0.0937765339588114    0.0
                        0.1938282290684357        0.0936947959671686    0.0
                        0.1944249635332931        0.0936211453521826    0.0
                        0.1949585055800827        0.0935548848529239    0.0
                        0.1954352644821964        0.0934953572957093    0.0
                        0.1958613719027128        0.0934418996053990    0.0
                       -0.0864427669971385        0.0387965188277756    0.0
                       -0.0848779294464188        0.0398119741560218    0.0
                       -0.0832091641236654        0.0408916643513758    0.0
                       -0.0814216579888314        0.0420427994454719    0.0
                       -0.0794982943324712        0.0432731714462572    0.0
                       -0.0774196571025908        0.0445911292683909    0.0
                       -0.0751640465582066        0.0460054049302297    0.0
                       -0.0727075732150573        0.0475248024871860    0.0
                       -0.0700243970775169        0.0491577251054030    0.0
                       -0.0670872081579142        0.0509115012721465    0.0
                       -0.0638681103971440        0.0527914541415708    0.0
                       -0.0603401493594952        0.0547996567995889    0.0
                       -0.0564800086197772        0.0569332303867856    0.0
                       -0.0522709518724772        0.0591829260608275    0.0
                       -0.0477041136416258        0.0615331107048824    0.0
                       -0.0427781922727128        0.0639629535127817    0.0
                       -0.0374971284324855        0.0664486881202065    0.0
                       -0.0318661631723838        0.0689662827215861    0.0
                       -0.0258883354253511        0.0714932167214754    0.0
                       -0.0195626480760640        0.0740088685510417    0.0
                       -0.0128848688226704        0.0764934955521220    0.0
                       -0.0058549120504889        0.0789251185761937    0.0
                        0.0015152734591113        0.0812775965401404    0.0
                        0.0092003495292822        0.0835220835360628    0.0
                        0.0171598017301395        0.0856288631654259    0.0
                        0.0253472513371943        0.0875720647482431    0.0
                        0.0337097932108716        0.0893308603935677    0.0
                        0.0421619633908020        0.0908866772283858    0.0
                        0.0506200319637412        0.0922328971823122    0.0
                        0.0594598841547696        0.0934310629238931    0.0
                        0.0680781136995790        0.0944137424278605    0.0
                        0.0763769236565857        0.0952079215375031    0.0
                        0.0843014994419806        0.0958470597720986    0.0
                        0.0918182508763548        0.0963632056039900    0.0
                        0.0989208218139166        0.0967842527646475    0.0
                        0.1056229374700324        0.0971319845694618    0.0
                        0.1119540651096644        0.0974219356224499    0.0
                        0.1179533272497607        0.0976640783977298    0.0
                        0.1236634088384791        0.0978639083734214    0.0
                        0.1291198154432740        0.0980234585410037    0.0
                        0.1343431955179896        0.0981424863210606    0.0
                        0.1393415363850267        0.0982198570865576    0.0
                        0.1441144838222800        0.0982546792268577    0.0
                        0.1486568488382328        0.0982470722667000    0.0
                        0.1529615090983786        0.0981985776895510    0.0
                        0.1570215602331305        0.0981122436272270    0.0
                        0.1608317891345675        0.0979924516060220    0.0
                        0.1643895541192687        0.0978445735651043    0.0
                        0.1676951833429477        0.0976745498952933    0.0
                        0.1707520085277542        0.0974884661300469    0.0
                        0.1735661270429148        0.0972921851061966    0.0
                        0.1761460530975354        0.0970910615167995    0.0
                        0.1785024401635924        0.0968897368644808    0.0
                        0.1806476135221449        0.0966920338798407    0.0
                        0.1825949334376575        0.0965009474899878    0.0
                        0.1843582647456369        0.0963186934602896    0.0
                        0.1859515596643105        0.0961467921390950    0.0
                        0.1873885392479905        0.0959861702029465    0.0
                        0.1886824601936795        0.0958372674774552    0.0
                        0.1898459526517957        0.0957001399948915    0.0
                        0.1908909156553167        0.0955745537132932    0.0
                        0.1918284578943840        0.0954600658850560    0.0
                        0.1926688736401280        0.0953560928866066    0.0
                        0.1934216436039857        0.0952619648644237    0.0
                        0.1940954580836860        0.0951769676894096    0.0
                        0.1946982399980158        0.0951003758962299    0.0
                        0.1952372223231089        0.0950314708781571    0.0
                        0.1957188652698688        0.0949695731346967    0.0
                        0.1961493674980624        0.0949139928555226    0.0
                       -0.0873462993670302        0.0399938614088934    0.0
                       -0.0857678559364267        0.0410286979689942    0.0
                       -0.0840870173117334        0.0421270459728045    0.0
                       -0.0822885664645921        0.0432960954027788    0.0
                       -0.0803549808911078        0.0445436406924270    0.0
                       -0.0782664455741142        0.0458780745287841    0.0
                       -0.0760008657631687        0.0473082190552984    0.0
                       -0.0735339525252950        0.0488430098490694    0.0
                       -0.0708394535837526        0.0504910108618277    0.0
                       -0.0678896309064979        0.0522597221623382    0.0
                       -0.0646561542916003        0.0541546233381712    0.0
                       -0.0611116613404805        0.0561778937024862    0.0
                       -0.0572325295330985        0.0583266618964557    0.0
                       -0.0530019051217250        0.0605915564514409    0.0
                       -0.0484110304510763        0.0629567135921146    0.0
                       -0.0434589174798651        0.0654010275330540    0.0
                       -0.0381499334357072        0.0679005029658214    0.0
                       -0.0324897068132351        0.0704310074797024    0.0
                       -0.0264814869465930        0.0729700742347972    0.0
                       -0.0201242264799726        0.0754972518551253    0.0
                       -0.0134133851303613        0.0779929946178177    0.0
                       -0.0063485238387486        0.0804354026023516    0.0
                        0.0010585688208739        0.0827982134195616    0.0
                        0.0087824844342198        0.0850522988139860    0.0
                        0.0167823148314858        0.0871675406436729    0.0
                        0.0250113854261300        0.0891177003002529    0.0
                        0.0334164112409274        0.0908815412598155    0.0
                        0.0419107572174115        0.0924400239848231    0.0
                        0.0504091862824898        0.0937862722072826    0.0
                        0.0592873552078898        0.0949816398766655    0.0
                        0.0679382571082760        0.0959592280003114    0.0
                        0.0762631251085482        0.0967469182373921    0.0
                        0.0842070319928344        0.0973791730988234    0.0
                        0.0917369132522991        0.0978889729149758    0.0
                        0.0988474138290643        0.0983049470828231    0.0
                        0.1055535389611910        0.0986493664414728    0.0
                        0.1118861563357645        0.0989379985022817    0.0
                        0.1178857960816949        0.0991808199958947    0.0
                        0.1235964831470813        0.0993831440239540    0.0
                        0.1290548244628574        0.0995466774141758    0.0
                        0.1342821912221518        0.0996707521829924    0.0
                        0.1392869572069407        0.0997537593803074    0.0
                        0.1440688940950770        0.0997943300680812    0.0
                        0.1486227338149507        0.0997921406157499    0.0
                        0.1529411226295021        0.0997483522359023    0.0
                        0.1570168201945547        0.0996657152628426    0.0
                        0.1608442154725254        0.0995484062557326    0.0
                        0.1644202429220516        0.0994016866640015    0.0
                        0.1677448096541142        0.0992314750255988    0.0
                        0.1708208507467279        0.0990439120556502    0.0
                        0.1736541056599237        0.0988449774939874    0.0
                        0.1762527800292527        0.0986401874427888    0.0
                        0.1786272807885890        0.0984343711797645    0.0
                        0.1807897515492558        0.0982315490555951    0.0
                        0.1827534269877777        0.0980349106457116    0.0
                        0.1845320933873875        0.0978468537471117    0.0
                        0.1861396630944604        0.0976690613136134    0.0
                        0.1875898483080733        0.0975025988865963    0.0
                        0.1888959210119191        0.0973480192537566    0.0
                        0.1900705447312984        0.0972054651931790    0.0
                        0.1911256647567935        0.0970747644264427    0.0
                        0.1920724445579776        0.0969555134345507    0.0
                        0.1929212381875459        0.0968471485582742    0.0
                        0.1936815883266584        0.0967490043405679    0.0
                        0.1943622475126958        0.0966603591605923    0.0
                        0.1949711990686007        0.0965804717214232    0.0
                        0.1955157356142507        0.0965086017625595    0.0
                        0.1960023680684947        0.0964440462093403    0.0
                        0.1964373630934119        0.0963860861056461    0.0
                       -0.0882498317369219        0.0411912039900112    0.0
                       -0.0866580322627672        0.0422467763077283    0.0
                       -0.0849654739519106        0.0433650058363677    0.0
                       -0.0831564573883540        0.0445530208022419    0.0
                       -0.0812130077317377        0.0458186040817358    0.0
                       -0.0791148909423839        0.0471702043089661    0.0
                       -0.0768396138675560        0.0486167622191692    0.0
                       -0.0743624925947887        0.0501673794280126    0.0
                       -0.0716568687517861        0.0518308136675810    0.0
                       -0.0686945804540183        0.0536147633232636    0.0
                       -0.0654468637042007        0.0555248822206179    0.0
                       -0.0618859444052909        0.0575634635257834    0.0
                       -0.0579878879261715        0.0597276408062163    0.0
                       -0.0537357181509667        0.0620079095768128    0.0
                       -0.0491207846065072        0.0643881625844029    0.0
                       -0.0441424182655153        0.0668470104572576    0.0
                       -0.0388054234546564        0.0693602301207405    0.0
                       -0.0331158283069888        0.0719036013450843    0.0
                       -0.0270771024035005        0.0744547321785743    0.0
                       -0.0206881523923875        0.0769933639939106    0.0
                       -0.0139441268181050        0.0795001634830236    0.0
                       -0.0068442252951097        0.0819533113870105    0.0
                        0.0005999309884768        0.0843264124845093    0.0
                        0.0083628677123878        0.0865900376217461    0.0
                        0.0164032808465339        0.0887136467613644    0.0
                        0.0246742009183361        0.0906706161017454    0.0
                        0.0331219662920798        0.0924392679684315    0.0
                        0.0416587593529535        0.0940000609856963    0.0
                        0.0501978151917270        0.0953458420273793    0.0
                        0.0591145048378317        0.0965377413030868    0.0
                        0.0677982289866209        0.0975094640244802    0.0
                        0.0761492414785082        0.0982898518405509    0.0
                        0.0841125090997655        0.0989144386468842    0.0
                        0.0916555073696039        0.0994172003905628    0.0
                        0.0987738964965068        0.0998275544209250    0.0
                        0.1054839708768186        0.1001682967255184    0.0
                        0.1118180009397005        0.1004554484848481    0.0
                        0.1178179212080245        0.1006989933012646    0.0
                        0.1235290913314065        0.1009040460786121    0.0
                        0.1289892166848571        0.1010719558506380    0.0
                        0.1342203933614764        0.1012015889877201    0.0
                        0.1392313884972180        0.1012908203186811    0.0
                        0.1440221096424508        0.1013377641153830    0.0
                        0.1485872208469577        0.1013416184998797    0.0
                        0.1529191478341218        0.1013031344889872    0.0
                        0.1570103236973664        0.1012247400465844    0.0
                        0.1608547467776031        0.1011103874023404    0.0
                        0.1644489326015163        0.1009652130488957    0.0
                        0.1677923697707836        0.1007951037019076    0.0
                        0.1708875970366282        0.1006062493605115    0.0
                        0.1737399943185375        0.1004047444143379    0.0
                        0.1763574554880720        0.1001962673456824    0.0
                        0.1787501368470351        0.0999858389578529    0.0
                        0.1809299958865987        0.0997776833497302    0.0
                        0.1829101371122607        0.0995751930280724    0.0
                        0.1847042637176226        0.0993809581503107    0.0
                        0.1863262438560166        0.0991968365206507    0.0
                        0.1877897769221298        0.0990240464262560    0.0
                        0.1891081467358194        0.0988632686162088    0.0
                        0.1902940473230808        0.0987147479689598    0.0
                        0.1913594679513844        0.0985783887568060    0.0
                        0.1923156251416280        0.0984538399858450    0.0
                        0.1931729314722104        0.0983405690191329    0.0
                        0.1939409907111766        0.0982379231757679    0.0
                        0.1946286170440693        0.0981451789499308    0.0
                        0.1952438537946749        0.0980615822778973    0.0
                        0.1957940530770496        0.0979863721319943    0.0
                        0.1962857761766118        0.0979188212817007    0.0
                        0.1967253586887615        0.0978581793557696    0.0
                       -0.0891533641068136        0.0423885465711290    0.0
                       -0.0875486044330741        0.0434664076177481    0.0
                       -0.0858447981402329        0.0446058894899879    0.0
                       -0.0840256661488814        0.0458139979543401    0.0
                       -0.0820727384204071        0.0470984991785923    0.0
                       -0.0799653546642847        0.0484679305923877    0.0
                       -0.0776806329141950        0.0499314004024528    0.0
                       -0.0751935084448148        0.0514982259003326    0.0
                       -0.0724769290693492        0.0531774008270354    0.0
                       -0.0695023165007376        0.0549768530910471    0.0
                       -0.0662404745766094        0.0569024296413650    0.0
                       -0.0626632137377881        0.0589565439251006    0.0
                       -0.0587462804021576        0.0611363292727262    0.0
                       -0.0544725700706556        0.0634321347865482    0.0
                       -0.0498335379428088        0.0658275944908357    0.0
                       -0.0448288390626360        0.0683010256892124    0.0
                       -0.0394637256776360        0.0708279791745148    0.0
                       -0.0337446385131694        0.0733841614289630    0.0
                       -0.0276752781679772        0.0759472787931247    0.0
                       -0.0212545103003442        0.0784972898529089    0.0
                       -0.0144771693133112        0.0810150897043398    0.0
                       -0.0073420851012470        0.0834789396332558    0.0
                        0.0001392964573697        0.0858622977627024    0.0
                        0.0079414400667416        0.0881354136445474    0.0
                        0.0160226439172059        0.0902673046117661    0.0
                        0.0243356442318019        0.0922309460212247    0.0
                        0.0328264065409633        0.0940041837053347    0.0
                        0.0414059199116667        0.0955669356305975    0.0
                        0.0499858716097225        0.0969117510515410    0.0
                        0.0589412918694641        0.0980995008076711    0.0
                        0.0676579953965770        0.0990645654083641    0.0
                        0.0760352470540093        0.0998368127838018    0.0
                        0.0840179142185141        0.1004529185454254    0.0
                        0.0915740266365555        0.1009479201800355    0.0
                        0.0987002737883289        0.1013520781376992    0.0
                        0.1054142482844623        0.1016887548477368    0.0
                        0.1117496256997424        0.1019742499911094    0.0
                        0.1177497419616837        0.1022185601544985    0.0
                        0.1234612864297377        0.1024265875850425    0.0
                        0.1289230602664194        0.1025992901193882    0.0
                        0.1341578866510465        0.1027350250716105    0.0
                        0.1391749326738115        0.1028311063277150    0.0
                        0.1439742511650222        0.1028850899071882    0.0
                        0.1485504487640682        0.1028956593481437    0.0
                        0.1528957407256374        0.1028631248362288    0.0
                        0.1570022422357017        0.1027895669826837    0.0
                        0.1608635676702353        0.1026786940224369    0.0
                        0.1644758180506389        0.1025355026834292    0.0
                        0.1678380656810308        0.1023658374146504    0.0
                        0.1709524531572700        0.1021759309359050    0.0
                        0.1738239992434824        0.1019719891426488    0.0
                        0.1764602830114370        0.1017598527133581    0.0
                        0.1788712063058463        0.1015447362430674    0.0
                        0.1810685364009735        0.1013310718299133    0.0
                        0.1830652434465041        0.1011224609391213    0.0
                        0.1848749434106069        0.1009216939185553    0.0
                        0.1865114563043420        0.1007308131958703    0.0
                        0.1879884650964116        0.1005512016241710    0.0
                        0.1893192622834813        0.1003836816940613    0.0
                        0.1905165697990753        0.1002286157247745    0.0
                        0.1915924189080285        0.1000860006882984    0.0
                        0.1925580777925116        0.0999555540470021    0.0
                        0.1934240166670543        0.0998367887827927    0.0
                        0.1941998998651311        0.0997290772801755    0.0
                        0.1948946029412847        0.0996317034888833    0.0
                        0.1955162290397837        0.0995439067811683    0.0
                        0.1960721897383259        0.0994649085525508    0.0
                        0.1965690963421614        0.0993939583102215    0.0
                        0.1970133542841111        0.0993302726058931    0.0
                       -0.0900568964767053        0.0435858891522469    0.0
                       -0.0884397854492408        0.0446878680794990    0.0
                       -0.0867253535246708        0.0458501552773889    0.0
                       -0.0848966285212657        0.0470795565458221    0.0
                       -0.0829346218461160        0.0483838458917657    0.0
                       -0.0808182648668123        0.0497717199116675    0.0
                       -0.0785243153178048        0.0512525316806606    0.0
                       -0.0760273532420550        0.0528358809284381    0.0
                       -0.0732999507862552        0.0545310480064122    0.0
                       -0.0703131231144352        0.0563462242833286    0.0
                       -0.0670372439002936        0.0582874680652666    0.0
                       -0.0634437035352379        0.0603573168551899    0.0
                       -0.0595079211671097        0.0625528948444757    0.0
                       -0.0552126563364799        0.0648643875540281    0.0
                       -0.0505494672670591        0.0672751522743640    0.0
                       -0.0455183376979784        0.0697632021298364    0.0
                       -0.0401249789636760        0.0723038641576528    0.0
                       -0.0343762582500162        0.0748727882529782    0.0
                       -0.0282761190498511        0.0774478051414156    0.0
                       -0.0218233919565675        0.0800091173219554    0.0
                       -0.0150125945425665        0.0825378648523766    0.0
                       -0.0078421779539210        0.0850123874917086    0.0
                       -0.0003234039522331        0.0874059801886520    0.0
                        0.0075181368117461        0.0896885487240851    0.0
                        0.0156403430816642        0.0918286464599643    0.0
                        0.0239956567244047        0.0937988347552914    0.0
                        0.0325296750094084        0.0955764441775732    0.0
                        0.0411521837137023        0.0971408090087293    0.0
                        0.0497733029496230        0.0984841577897288    0.0
                        0.0587676704048412        0.0996670658980449    0.0
                        0.0675175184388635        0.1006246598273128    0.0
                        0.0759211130023708        0.1013879024502360    0.0
                        0.0839232285873514        0.1019946834092383    0.0
                        0.0914924631377116        0.1024811698917256    0.0
                        0.0986265491785411        0.1028785236860438    0.0
                        0.1053443864853277        0.1032107190709146    0.0
                        0.1116810582816531        0.1034943638026059    0.0
                        0.1176812991944778        0.1037394778684461    0.0
                        0.1233931237067617        0.1039507382585038    0.0
                        0.1288564265188886        0.1041286759958457    0.0
                        0.1340947602458630        0.1042710919746834    0.0
                        0.1391176983324562        0.1043746910230067    0.0
                        0.1439254477786279        0.1044364271175799    0.0
                        0.1485125675539136        0.1044544314810572    0.0
                        0.1528710716929886        0.1044285420965172    0.0
                        0.1569927653125432        0.1043604668954657    0.0
                        0.1608708847454831        0.1042536502834873    0.0
                        0.1645011203344881        0.1041129342659262    0.0
                        0.1678821298615135        0.1039441103474205    0.0
                        0.1710156596729581        0.1037534470302120    0.0
                        0.1739063656556883        0.1035472580256753    0.0
                        0.1765615090755172        0.1033315452689297    0.0
                        0.1789907336431778        0.1031117183387853    0.0
                        0.1812056125614301        0.1028924200251718    0.0
                        0.1832189777375981        0.1026774646185145    0.0
                        0.1850443540889603        0.1024698477116304    0.0
                        0.1866955098160390        0.1022718028673101    0.0
                        0.1881861080650264        0.1020848858883397    0.0
                        0.1895294470210209        0.1019100716749987    0.0
                        0.1907382740854504        0.1017478531642107    0.0
                        0.1918246607405644        0.1015983355619470    0.0
                        0.1927999257513617        0.1014613220318144    0.0
                        0.1936745965393715        0.1013363890078023    0.0
                        0.1944583980757621        0.1012229509533113    0.0
                        0.1951602676638437        0.1011203140705037    0.0
                        0.1957883687126384        0.1010277227126211    0.0
                        0.1963501727352333        0.1009443883938866    0.0
                        0.1968523410111701        0.1008695415609654    0.0
                        0.1973013498794607        0.1008023658560167    0.0
                       -0.0909604288465970        0.0447832317333647    0.0
                       -0.0893318983698865        0.0459115647702008    0.0
                       -0.0876076486530251        0.0470984287602950    0.0
                       -0.0857699102710046        0.0483503658361745    0.0
                       -0.0837992065906094        0.0496752578986579    0.0
                       -0.0816741211648973        0.0510820925398823    0.0
                       -0.0793711039396639        0.0525805802582026    0.0
                       -0.0768644165018519        0.0541806860934140    0.0
                       -0.0741262776874087        0.0558920328928370    0.0
                       -0.0711273067047400        0.0577231091782627    0.0
                       -0.0678374481203050        0.0596801998885498    0.0
                       -0.0642276658759303        0.0617659660126480    0.0
                       -0.0602730412880161        0.0639775087064347    0.0
                       -0.0559561882797008        0.0663048281966485    0.0
                       -0.0512687640446705        0.0687309839908598    0.0
                       -0.0462110851372523        0.0712336731645825    0.0
                       -0.0407893335843152        0.0737880025003024    0.0
                       -0.0350108180098481        0.0763695846843018    0.0
                       -0.0288797379954582        0.0789564040822674    0.0
                       -0.0223948961006577        0.0815289364192605    0.0
                       -0.0155504907277431        0.0840685839107005    0.0
                       -0.0083445844492670        0.0865537602432181    0.0
                       -0.0007882450558493        0.0889575775193352    0.0
                        0.0070928878584680        0.0912495729352806    0.0
                        0.0152563122525921        0.0933978138686015    0.0
                        0.0236541746194422        0.0953744382252023    0.0
                        0.0322317094271313        0.0971562183002583    0.0
                        0.0408974900865371        0.0987218568156487    0.0
                        0.0495600507581500        0.1000632359230782    0.0
                        0.0585935895759708        0.1012405992271866    0.0
                        0.0673767560206044        0.1021898890470953    0.0
                        0.0758068071597491        0.1029432345527915    0.0
                        0.0838284310444095        0.1035398137306326    0.0
                        0.0914108074750592        0.1040169939054538    0.0
                        0.0985527254940434        0.1044068997373313    0.0
                        0.1052744008538430        0.1047341673335685    0.0
                        0.1116123270428198        0.1050157475913211    0.0
                        0.1176126350228745        0.1052616996023708    0.0
                        0.1233246603251513        0.1054764650553832    0.0
                        0.1287893895112031        0.1056601097790438    0.0
                        0.1340311073040166        0.1058098259502559    0.0
                        0.1390597998111429        0.1059216571724058    0.0
                        0.1438758366312848        0.1059919089000704    0.0
                        0.1484737380918663        0.1060181207530645    0.0
                        0.1528453254142649        0.1059996263765940    0.0
                        0.1569821006192252        0.1059377354145542    0.0
                        0.1608769271130630        0.1058356085728457    0.0
                        0.1645250876984672        0.1056979182185036    0.0
                        0.1679248268754052        0.1055303922470078    0.0
                        0.1710774942765418        0.1053393279329977    0.0
                        0.1739873809743191        0.1051311429486094    0.0
                        0.1766614273405824        0.1049119992902834    0.0
                        0.1791090153127105        0.1046875022558270    0.0
                        0.1813415203041073        0.1044625071073286    0.0
                        0.1833716322935515        0.1042410432235033    0.0
                        0.1852127815395376        0.1040263140206669    0.0
                        0.1868786809446121        0.1038207472541466    0.0
                        0.1883829705285571        0.1036260756671034    0.0
                        0.1897389511508403        0.1034434321897265    0.0
                        0.1909593931119439        0.1032734484553558    0.0
                        0.1920564061752062        0.1031163492006380    0.0
                        0.1930413585590203        0.1029720382138973    0.0
                        0.1939248346690365        0.1028401737061580    0.0
                        0.1947166207604357        0.1027202329308438    0.0
                        0.1954257172188585        0.1026115657008235    0.0
                        0.1960603493845052        0.1025134412745026    0.0
                        0.1966280504672963        0.1024250776908887    0.0
                        0.1971355327876756        0.1023456982148630    0.0
                        0.1975893454748103        0.1022744591061402    0.0
                       -0.0918639612164887        0.0459805743144825    0.0
                       -0.0902254596108864        0.0471381409115026    0.0
                       -0.0884924049104827        0.0483515851079699    0.0
                       -0.0866462403808017        0.0496272689753244    0.0
                       -0.0846671509931982        0.0509734458336411    0.0
                       -0.0825334937376933        0.0523996122341763    0.0
                       -0.0802214871345207        0.0539159827111532    0.0
                       -0.0777051182751597        0.0555329798600882    0.0
                       -0.0749562756568909        0.0572606241935036    0.0
                       -0.0719451913550931        0.0591077306449396    0.0
                       -0.0686413792907989        0.0610808203894288    0.0
                       -0.0650153676245560        0.0631826711959969    0.0
                       -0.0610418861966697        0.0654103409983068    0.0
                       -0.0567033910380819        0.0677536177486329    0.0
                       -0.0519916326100148        0.0701952389287586    0.0
                       -0.0469072638593163        0.0727125728911393    0.0
                       -0.0414569496888940        0.0752805112781693    0.0
                       -0.0356484564896993        0.0778746522211910    0.0
                       -0.0294862546936896        0.0804731666735935    0.0
                       -0.0229691271857799        0.0830568359497865    0.0
                       -0.0160909512965707        0.0856073423453290    0.0
                       -0.0088493901879241        0.0881031657824347    0.0
                       -0.0012553065861579        0.0905172121711280    0.0
                        0.0066656182839790        0.0928186226979665    0.0
                        0.0148704807067047        0.0949749559289996    0.0
                        0.0233111293567344        0.0969579222298481    0.0
                        0.0319324424402428        0.0987436872870654    0.0
                        0.0406417729473163        0.1003102688110487    0.0
                        0.0493460505250586        0.1016491740385608    0.0
                        0.0584189934612443        0.1028202786453849    0.0
                        0.0672356617413574        0.1037604091813737    0.0
                        0.0756922939108655        0.1045029355840674    0.0
                        0.0837334979195699        0.1050884004649467    0.0
                        0.0913290486751993        0.1055554439936988    0.0
                        0.0984788048275407        0.1059372187095769    0.0
                        0.1052043067363350        0.1062590775612065    0.0
                        0.1115434608913463        0.1065383559630008    0.0
                        0.1175437926211993        0.1067851743005024    0.0
                        0.1232559550519695        0.1070037324576868    0.0
                        0.1287220256950441        0.1071935892230414    0.0
                        0.1339670245619836        0.1073512695866917    0.0
                        0.1390013567605966        0.1074720989556802    0.0
                        0.1438255625224764        0.1075516847023953    0.0
                        0.1484341318709518        0.1075869338314361    0.0
                        0.1528187007684447        0.1075766427211194    0.0
                        0.1569704742111664        0.1075216969008248    0.0
                        0.1608819469315299        0.1074249535992517    0.0
                        0.1645479965687871        0.1072909008559946    0.0
                        0.1679664549619274        0.1071251925409252    0.0
                        0.1711382741089461        0.1069341479067099    0.0
                        0.1740673780296145        0.1067242849317921    0.0
                        0.1767603829450378        0.1065019247605349    0.0
                        0.1792264053330803        0.1062728694632686    0.0
                        0.1814766191589737        0.1060421885853357    0.0
                        0.1835235689209514        0.1058141283049757    0.0
                        0.1853805867767910        0.1055921010323060    0.0
                        0.1870613269803022        0.1053787291926053    0.0
                        0.1885794031484208        0.1051759223747929    0.0
                        0.1899481156301152        0.1049849713199558    0.0
                        0.1911802546156088        0.1048066468597426    0.0
                        0.1922879654936242        0.1046412957487823    0.0
                        0.1932826639108787        0.1044889284493576    0.0
                        0.1941749902044348        0.1043492961475758    0.0
                        0.1949747921495081        0.1042219563455971    0.0
                        0.1956911349240731        0.1041063262528263    0.0
                        0.1963323088621421        0.1040017288122475    0.0
                        0.1969059130133137        0.1039074193930894    0.0
                        0.1974187148075746        0.1038226435253726    0.0
                        0.1978773410701598        0.1037465523562637    0.0
                       -0.0927674935863804        0.0471779168956003    0.0
                       -0.0911213521351852        0.0483686984919596    0.0
                       -0.0893806511132479        0.0496108628463773    0.0
                       -0.0875265370983521        0.0509113027349482    0.0
                       -0.0855392190504199        0.0522791974415880    0.0
                       -0.0833970097125918        0.0537248561996264    0.0
                       -0.0810759835983297        0.0552591587055246    0.0
                       -0.0785498949977334        0.0568930719458036    0.0
                       -0.0757903201198908        0.0586370597500615    0.0
                       -0.0727671078354519        0.0605002833457971    0.0
                       -0.0694493354858033        0.0624895013047951    0.0
                       -0.0658070820487086        0.0646075936460578    0.0
                       -0.0618147082782718        0.0668515473345684    0.0
                       -0.0574544968936394        0.0692109051849781    0.0
                       -0.0527182840814137        0.0716680552327782    0.0
                       -0.0476070622167248        0.0742000239682572    0.0
                       -0.0421279920300208        0.0767814952360980    0.0
                       -0.0362893156533380        0.0793880792399484    0.0
                       -0.0300957909826959        0.0819981707434271    0.0
                       -0.0235461911793123        0.0845928925693488    0.0
                       -0.0166340711527222        0.0871542258609529    0.0
                       -0.0093566825195864        0.0896607050601738    0.0
                       -0.0017246703848060        0.0920850022786229    0.0
                        0.0062362507258997        0.0943958323736795    0.0
                        0.0144827751677174        0.0965602211834522    0.0
                        0.0229664492914522        0.0985494551120323    0.0
                        0.0316318029353674        0.1003390380730484    0.0
                        0.0403849617999875        0.1019062429255361    0.0
                        0.0491312321510554        0.1032421703197587    0.0
                        0.0582438215575952        0.1044062925542444    0.0
                        0.0670941851937864        0.1053363865742656    0.0
                        0.0755775343864764        0.1060671412263543    0.0
                        0.0836384031786938        0.1066405419040546    0.0
                        0.0912471743071558        0.1070965765398846    0.0
                        0.0984047886359465        0.1074694941726561    0.0
                        0.1051341195192882        0.1077854250954830    0.0
                        0.1114744893019451        0.1080621378146543    0.0
                        0.1174748161568670        0.1083098441371976    0.0
                        0.1231870680857534        0.1085325005796981    0.0
                        0.1286544136277902        0.1087291126744411    0.0
                        0.1339026119881415        0.1088954720040645    0.0
                        0.1389424937765673        0.1090261231515969    0.0
                        0.1437747775700724        0.1091159223511429    0.0
                        0.1483939307667567        0.1091611010816175    0.0
                        0.1527914107705977        0.1091598847017575    0.0
                        0.1569581306963853        0.1091127086386321    0.0
                        0.1608862199451436        0.1090221070779522    0.0
                        0.1645701525455873        0.1088923694376504    0.0
                        0.1680073476076406        0.1087290656052217    0.0
                        0.1711983580485738        0.1085385304776145    0.0
                        0.1741467382357206        0.1083273791719696    0.0
                        0.1768587767578338        0.1081020918267012    0.0
                        0.1793433208534753        0.1078686694978412    0.0
                        0.1816113394053211        0.1076323989679997    0.0
                        0.1836752280006676        0.1073977457778645    0.0
                        0.1855482174451857        0.1071683328638998    0.0
                        0.1872439002061319        0.1069469773588548    0.0
                        0.1887758603773561        0.1067357638585132    0.0
                        0.1901573945854445        0.1065361369238146    0.0
                        0.1914013095101136        0.1063490003793997    0.0
                        0.1925197825364450        0.1061748149264186    0.0
                        0.1935242729616265        0.1060136887954726    0.0
                        0.1944254734060247        0.1058654584082628    0.0
                        0.1952332901830460        0.1057297580767704    0.0
                        0.1959568517679507        0.1056060773835411    0.0
                        0.1966045144417471        0.1054938109322485    0.0
                        0.1971839476153588        0.1053922862011221    0.0
                        0.1977019821785564        0.1053008254232371    0.0
                        0.1981653366655094        0.1052186456063872    0.0
                       -0.0936710259562721        0.0483752594767182    0.0
                       -0.0920212132138518        0.0496053015796190    0.0
                       -0.0902738234668534        0.0508779740656631    0.0
                       -0.0884118946675243        0.0522036539886810    0.0
                       -0.0864162404902433        0.0535933016788373    0.0
                       -0.0842653113644289        0.0550583412085264    0.0
                       -0.0819351039326877        0.0566104452989375    0.0
                       -0.0793991648146934        0.0582611850324338    0.0
                       -0.0766287645940476        0.0600214938106570    0.0
                       -0.0735933648203097        0.0619008849770849    0.0
                       -0.0702615942721454        0.0639063449066444    0.0
                       -0.0666030642660923        0.0660408321735358    0.0
                       -0.0625917440037320        0.0683012262678112    0.0
                       -0.0582097238500377        0.0706767856849421    0.0
                       -0.0534489162263273        0.0731495186747892    0.0
                       -0.0483106554720191        0.0756960967483459    0.0
                       -0.0428026121046409        0.0782910062772899    0.0
                       -0.0369335239609352        0.0809099009394290    0.0
                       -0.0307084551818280        0.0835314414252954    0.0
                       -0.0241261810578414        0.0861371321203940    0.0
                       -0.0171799334367093        0.0887092727922387    0.0
                       -0.0098665385821931        0.0912264355087224    0.0
                       -0.0021964097003634        0.0936610260790255    0.0
                        0.0058047148461478        0.0959812995487475    0.0
                        0.0140931281650977        0.0981537235290663    0.0
                        0.0226200668446827        0.1001491748819004    0.0
                        0.0313297220037776        0.1019424316894343    0.0
                        0.0401269866144318        0.1035099548547991    0.0
                        0.0489155234843277        0.1048424032937555    0.0
                        0.0580680117499715        0.1059988119875071    0.0
                        0.0669522741966306        0.1069179710841319    0.0
                        0.0754624881688750        0.1076359708724045    0.0
                        0.0835431197702368        0.1081963193601109    0.0
                        0.0911651715977418        0.1086404292271197    0.0
                        0.0983306787107099        0.1090037183195802    0.0
                        0.1050638554988399        0.1093131606986846    0.0
                        0.1114054430944228        0.1095870146722143    0.0
                        0.1174057514607170        0.1098356232829618    0.0
                        0.1231180615820327        0.1100627050622846    0.0
                        0.1285866343441715        0.1102666605188573    0.0
                        0.1338379730212515        0.1104424718299206    0.0
                        0.1388833405346507        0.1105838335430798    0.0
                        0.1437236412759398        0.1106847937818458    0.0
                        0.1483533270756735        0.1107408635274730    0.0
                        0.1527636826352201        0.1107496625215643    0.0
                        0.1569453333898899        0.1107111499987440    0.0
                        0.1608900458104160        0.1106275178560608    0.0
                        0.1645918909981499        0.1105028431375925    0.0
                        0.1680478745215208        0.1103426024301440    0.0
                        0.1712581481946554        0.1101531405876525    0.0
                        0.1742258937372559        0.1099411673181651    0.0
                        0.1769570683757015        0.1097133226394906    0.0
                        0.1794602462315706        0.1094758107677226    0.0
                        0.1817461875071112        0.1092341408950952    0.0
                        0.1838271356124370        0.1089930027443542    0.0
                        0.1857162170406956        0.1087562336659710    0.0
                        0.1874269597491065        0.1085268479779828    0.0
                        0.1889729157083176        0.1083071058033265    0.0
                        0.1903673751823437        0.1080986033788774    0.0
                        0.1916231584328653        0.1079023717638918    0.0
                        0.1927524713574989        0.1077189749571550    0.0
                        0.1937668124373178        0.1075486017671518    0.0
                        0.1946769206247417        0.1073911481360418    0.0
                        0.1954927527679245        0.1072462888460170    0.0
                        0.1962234900548651        0.1071135370947271    0.0
                        0.1968775411356288        0.1069922971860483    0.0
                        0.1974626293005541        0.1068818941907627    0.0
                        0.1979856295499534        0.1067816439618455    0.0
                        0.1984533322608590        0.1066907388565108    0.0
                </DataArray>
            </Points>
            <PointData>
                <DataArray type="Float32" Name="orthogonality" NumberOfComponents="1" format="ascii">
                        0.0005915088401158
                        0.0041770726086272
                        0.0072640002340391
                        0.0096327109732506
                        0.0113852940190562
                        0.0126141946287998
                        0.0134023875798994
                        0.0138244794741582
                        0.0139485463841057
                        0.0138378281022732
                        0.0135508081920778
                        0.0131368432146861
                        0.0126297284498844
                        0.0120447383261760
                        0.0113786280619458
                        0.0106190881058288
                        0.0097597263595857
                        0.0088121627074570
                        0.0078123731758662
                        0.0068179411193341
                        0.0058872599592372
                        0.0050674747246564
                        0.0043926235911410
                        0.0038664780365202
                        0.0035010590116851
                        0.0033069721888483
                        0.0032391068792705
                        0.0033125278954606
                        0.0040619352773109
                        0.0030017964597201
                        0.0025202047075392
                        0.0018895902569996
                        0.0010836263779638
                        0.0001447730208482
                        0.0008954720872783
                        0.0020286478302706
                        0.0032885405620579
                        0.0047438675224685
                        0.0064783153534001
                        0.0085258774836896
                        0.0108328491535215
                        0.0132897011556815
                        0.0157621524371774
                        0.0181128693354956
                        0.0202185141538195
                        0.0219801546545191
                        0.0233286141898391
                        0.0242258811487947
                        0.0246635486426636
                        0.0246591323728360
                        0.0242508072834333
                        0.0234909294829070
                        0.0224394032321374
                        0.0211575029215432
                        0.0197038667064610
                        0.0181323132429457
                        0.0164904519558852
                        0.0148189764732113
                        0.0131515258677863
                        0.0115149675740365
                        0.0099299630739185
                        0.0084116949656870
                        0.0069706648461177
                        0.0056134796871345
                        0.0043436291670555
                        0.0031620535854210
                        0.0020681043336944
                        0.0010586854128005
                        0.0003135181981879
                        0.0235387891861444
                        0.0208395903559097
                        0.0186136009736716
                        0.0177891419237041
                        0.0175008928389597
                        0.0173612621017224
                        0.0171941589851723
                        0.0169214733394443
                        0.0165138167078049
                        0.0159681097646029
                        0.0152959550570386
                        0.0145149613876683
                        0.0136445969990143
                        0.0127046951533228
                        0.0117106762552746
                        0.0106756525631756
                        0.0096160662079003
                        0.0085542075578843
                        0.0075194501502193
                        0.0065442684877506
                        0.0056477386498541
                        0.0048420290165104
                        0.0041436657226576
                        0.0035530895655507
                        0.0030910574056287
                        0.0027511798799174
                        0.0024636537912387
                        0.0022580825485205
                        0.0027103262594217
                        0.0013789532256346
                        0.0006956300301979
                        0.0000140691014451
                        0.0007562518345062
                        0.0014790836611441
                        0.0021541488890238
                        0.0027905998591339
                        0.0034557193791532
                        0.0042691092060508
                        0.0053812651398599
                        0.0068887326553882
                        0.0087745634409931
                        0.0109434330458845
                        0.0132628171551141
                        0.0155901666554523
                        0.0177933052328037
                        0.0197629445058298
                        0.0214193105532083
                        0.0227142665606132
                        0.0236300795964664
                        0.0241757621559827
                        0.0243815032553084
                        0.0242922525449817
                        0.0239625066100269
                        0.0234510777722520
                        0.0228164914351544
                        0.0221143035067578
                        0.0213955626189160
                        0.0207061180323601
                        0.0200865692760378
                        0.0195726382654652
                        0.0191957385351122
                        0.0189835162732430
                        0.0189601680464382
                        0.0191463815142146
                        0.0195589038699726
                        0.0202096392789707
                        0.0211050555147811
                        0.0222440394997119
                        0.0233792485048701
                        0.0392518896704858
                        0.0337398827227258
                        0.0289441044734134
                        0.0258022028636004
                        0.0237138106588962
                        0.0222345088524428
                        0.0210757963684668
                        0.0200588497680610
                        0.0190754719724982
                        0.0180627528003008
                        0.0169874494635598
                        0.0158356200824795
                        0.0146103230549384
                        0.0133314401573790
                        0.0120277137043226
                        0.0107326949724324
                        0.0094820635199479
                        0.0083075013573610
                        0.0072327375961617
                        0.0062681805633690
                        0.0053984293148059
                        0.0046039533706223
                        0.0038838548012031
                        0.0032338451563048
                        0.0026796583139727
                        0.0022006099087949
                        0.0017077675378541
                        0.0012442479719914
                        0.0014210943682569
                        0.0001584407278300
                        0.0010233146189858
                        0.0017998641821683
                        0.0024743160248359
                        0.0029866740192630
                        0.0033127904884994
                        0.0034800216958012
                        0.0035886081445453
                        0.0038061529747962
                        0.0043429540727698
                        0.0053506329460857
                        0.0068462705568392
                        0.0087493173568867
                        0.0109303677522025
                        0.0132431306677070
                        0.0155478986784267
                        0.0177260367879552
                        0.0196878346847612
                        0.0213753379639491
                        0.0227614683907551
                        0.0238464741811727
                        0.0246523483483154
                        0.0252166896842700
                        0.0255882583503906
                        0.0258220396350351
                        0.0259741038588588
                        0.0260982828954748
                        0.0262440082225952
                        0.0264548942380961
                        0.0267677658458757
                        0.0272118690276490
                        0.0278080914801235
                        0.0285681516509531
                        0.0294938774320560
                        0.0305768074187510
                        0.0317984564157894
                        0.0331312899867844
                        0.0345410655927903
                        0.0359882368889290
                        0.0373347351173358
                        0.0507514882960443
                        0.0440088257174816
                        0.0378655745222652
                        0.0331737997777556
                        0.0296595843830409
                        0.0269928333735472
                        0.0248883079941768
                        0.0231282480645292
                        0.0215559167407040
                        0.0200628524538429
                        0.0185775265318854
                        0.0170570842392312
                        0.0154878504049807
                        0.0138869594193033
                        0.0122925000982435
                        0.0107544595830230
                        0.0093247193243825
                        0.0080430962420035
                        0.0069282833783317
                        0.0059710069651712
                        0.0051251713323737
                        0.0043422235955029
                        0.0036040979696469
                        0.0029006621405620
                        0.0022600046382650
                        0.0016492257800828
                        0.0009644456094262
                        0.0002616020319784
                        0.0001820660707684
                        0.0016232826571105
                        0.0026500525923618
                        0.0034803001289805
                        0.0040811063712045
                        0.0043856305653258
                        0.0043751855639272
                        0.0040957588934365
                        0.0036795694689501
                        0.0033388587115080
                        0.0033372032577849
                        0.0038748676861161
                        0.0050005564766210
                        0.0066491041314927
                        0.0086958209335188
                        0.0109924475193322
                        0.0133933118083544
                        0.0157716008845470
                        0.0180283615919593
                        0.0200960330204920
                        0.0219379624050607
                        0.0235450595509993
                        0.0249303523206828
                        0.0261231156653871
                        0.0271647950006609
                        0.0281039960436475
                        0.0289907321055654
                        0.0298723495750883
                        0.0307906007783139
                        0.0317794943234894
                        0.0328637283689523
                        0.0340576296125541
                        0.0353646482058150
                        0.0367775407281863
                        0.0382793784554607
                        0.0398453979482692
                        0.0414456062349292
                        0.0430476498215068
                        0.0446201650610333
                        0.0461339980086287
                        0.0475001323429981
                        0.0597503125483642
                        0.0523837245209059
                        0.0454727257191509
                        0.0397508690766257
                        0.0351567604281979
                        0.0314951872501841
                        0.0285373914296853
                        0.0260714624190233
                        0.0239212991453745
                        0.0219498695338640
                        0.0200566221087920
                        0.0181743537773131
                        0.0162738329624005
                        0.0143680043149334
                        0.0125013781904269
                        0.0107370879678998
                        0.0091405670512639
                        0.0077585518347868
                        0.0066051374982107
                        0.0056534154125084
                        0.0048298207626337
                        0.0040591921557587
                        0.0033067504129308
                        0.0025556816718143
                        0.0018345408565225
                        0.0010999057029466
                        0.0002362061565690
                        0.0006883997589091
                        0.0010059041488486
                        0.0030161771377945
                        0.0041865268064023
                        0.0050583215526052
                        0.0055804810483172
                        0.0056805314210749
                        0.0053462047295089
                        0.0046422473224194
                        0.0037315661933218
                        0.0028676056016624
                        0.0023614041331064
                        0.0024563562549594
                        0.0032305174915568
                        0.0046344115362061
                        0.0065493861575585
                        0.0088267791079478
                        0.0113163663403156
                        0.0138842082575577
                        0.0164227028956053
                        0.0188547972605132
                        0.0211339279291242
                        0.0232409456310535
                        0.0251788709056384
                        0.0269672316992411
                        0.0286381391226104
                        0.0302310713180517
                        0.0317865842003152
                        0.0333416865692336
                        0.0349265220305641
                        0.0365621241273664
                        0.0382591777190217
                        0.0400177797637393
                        0.0418281954686658
                        0.0436725258853519
                        0.0455270806485144
                        0.0473651081109764
                        0.0491595467260473
                        0.0508852584350203
                        0.0525211583658835
                        0.0540498585157969
                        0.0554041358502368
                        0.0670637249174396
                        0.0593333125706924
                        0.0519464915512398
                        0.0455243724036055
                        0.0401225487132564
                        0.0356519257978897
                        0.0319515854501878
                        0.0288390133948399
                        0.0261402908803516
                        0.0237053439317210
                        0.0214144831066225
                        0.0191817449083477
                        0.0169645838844339
                        0.0147713803713282
                        0.0126510457640265
                        0.0106772277609120
                        0.0089266416565603
                        0.0074518110182388
                        0.0062625463461940
                        0.0053160611055543
                        0.0045140903779603
                        0.0037570481167053
                        0.0029940382988210
                        0.0022009837751989
                        0.0014055787531716
                        0.0005552668305058
                        0.0004746780753131
                        0.0016044103069859
                        0.0021421316321333
                        0.0043377584867015
                        0.0056346302496860
                        0.0065368054908455
                        0.0069761896761709
                        0.0068757900234781
                        0.0062305028651202
                        0.0051236980333382
                        0.0037474423156674
                        0.0023929551573598
                        0.0014135150151890
                        0.0010908519241614
                        0.0015302284910765
                        0.0026979323847455
                        0.0044824305840630
                        0.0067360357125608
                        0.0093052495614122
                        0.0120499633665187
                        0.0148544540193548
                        0.0176322399449314
                        0.0203264647992212
                        0.0229071413683844
                        0.0253661486620038
                        0.0277117614850614
                        0.0299648394244516
                        0.0321534841052823
                        0.0343064745905816
                        0.0364485027314090
                        0.0385970030325792
                        0.0407604159248307
                        0.0429377963313805
                        0.0451196211467826
                        0.0472895497750308
                        0.0494267802788605
                        0.0515085913792121
                        0.0535126686691661
                        0.0554189940990872
                        0.0572109784248814
                        0.0588765259338249
                        0.0604067475725015
                        0.0617443559992949
                        0.0731372510442255
                        0.0651650927514177
                        0.0574577330346884
                        0.0505426267997392
                        0.0445338585476286
                        0.0394139281093082
                        0.0350817905456103
                        0.0313920937292678
                        0.0281859525642435
                        0.0253122183969712
                        0.0226410344644846
                        0.0200734313765218
                        0.0175563866188405
                        0.0150941123985724
                        0.0127386395629357
                        0.0105720801140945
                        0.0086805214767902
                        0.0071212509844635
                        0.0059000198965039
                        0.0049596748496976
                        0.0041796443896596
                        0.0034379009054696
                        0.0026681293903012
                        0.0018386359896620
                        0.0009753575251562
                        0.0000177524427267
                        0.0011660940751616
                        0.0024851322905147
                        0.0032260091129560
                        0.0055886183977239
                        0.0069961321922019
                        0.0079184740599135
                        0.0082717820370003
                        0.0079755665166115
                        0.0070324396900067
                        0.0055440323088849
                        0.0037298651005697
                        0.0019155633217287
                        0.0004919246241317
                        0.0002252125804438
                        0.0001054051337542
                        0.0008332959713505
                        0.0024873509902957
                        0.0047112583817210
                        0.0073494084923895
                        0.0102564122885789
                        0.0133089219308466
                        0.0164110890942122
                        0.0194954053964313
                        0.0225203142526614
                        0.0254655076507143
                        0.0283267041319811
                        0.0311120511847776
                        0.0338368713876191
                        0.0365171606206335
                        0.0391650858746494
                        0.0417863404182936
                        0.0443791472944235
                        0.0469346764424231
                        0.0494385205831181
                        0.0518727868070393
                        0.0542183383563191
                        0.0564568006855304
                        0.0585720692969130
                        0.0605512950474444
                        0.0623851962633284
                        0.0640685275562973
                        0.0655983564971278
                        0.0669217162797073
                        0.0782422488243549
                        0.0700890861210492
                        0.0621474798472990
                        0.0548709336524075
                        0.0483996021000664
                        0.0427601293346928
                        0.0378975428883826
                        0.0337023333654676
                        0.0300364286392681
                        0.0267555524703137
                        0.0237268962777223
                        0.0208437575179559
                        0.0180456428056154
                        0.0153334803676883
                        0.0127617074811280
                        0.0104193449939250
                        0.0084002727011727
                        0.0067656403242020
                        0.0055173076362231
                        0.0045850604824994
                        0.0038281053881365
                        0.0031037819507160
                        0.0023311257189259
                        0.0014706713784826
                        0.0005460329581513
                        0.0005103558141512
                        0.0018360758723299
                        0.0033293242870568
                        0.0042569871792123
                        0.0067693000088845
                        0.0082726735516927
                        0.0092058823972059
                        0.0094705966477272
                        0.0089837634944930
                        0.0077560884386883
                        0.0059069064676214
                        0.0036813575553890
                        0.0014361917435107
                        0.0004045712656852
                        0.0014947605048172
                        0.0016806750738825
                        0.0009649463733369
                        0.0005575739572109
                        0.0027446346731029
                        0.0054395820632301
                        0.0084925920609448
                        0.0117731918194873
                        0.0151762744931588
                        0.0186234105827114
                        0.0220608861218395
                        0.0254553875369306
                        0.0287891483866611
                        0.0320567465403671
                        0.0352601972232885
                        0.0384028102196052
                        0.0414852040220288
                        0.0445033026691032
                        0.0474479807741512
                        0.0503059545490729
                        0.0530614185416340
                        0.0556979232519641
                        0.0582000746627108
                        0.0605548015337146
                        0.0627520886201596
                        0.0647852892286248
                        0.0666509353594263
                        0.0683489227074620
                        0.0698805889737240
                        0.0711944412371471
                        0.0825578778389706
                        0.0742544028860909
                        0.0661278674556644
                        0.0585746803569320
                        0.0517438975432702
                        0.0456873101120034
                        0.0403825523066998
                        0.0357505198869164
                        0.0316749641678490
                        0.0280228941551246
                        0.0246637514508691
                        0.0214874984020803
                        0.0184290150080311
                        0.0154870706953077
                        0.0127182024114663
                        0.0102171876830295
                        0.0080844113751791
                        0.0063841096479266
                        0.0051143843287287
                        0.0041930978883646
                        0.0034610651130947
                        0.0027566510682328
                        0.0019850615512970
                        0.0010990747290038
                        0.0001196721266803
                        0.0010269254003248
                        0.0024827917600339
                        0.0041358021243187
                        0.0052345579608492
                        0.0078802923190650
                        0.0094657637714822
                        0.0104014111705330
                        0.0105757550064122
                        0.0099040275655198
                        0.0084052492473266
                        0.0062157383997186
                        0.0036043293608712
                        0.0009557204962463
                        0.0012767850304844
                        0.0027200973442169
                        0.0031990911655775
                        0.0027013312919401
                        0.0013124411447873
                        0.0008295152007717
                        0.0035678306407422
                        0.0067490707915227
                        0.0102361721746998
                        0.0139149662970926
                        0.0176959790148250
                        0.0215129648978338
                        0.0253190935602162
                        0.0290826214537532
                        0.0327842875203505
                        0.0364129801630259
                        0.0399601428585284
                        0.0434163842568451
                        0.0467700302695026
                        0.0500071507858019
                        0.0531125471341765
                        0.0560711586967479
                        0.0588694325310495
                        0.0614963539963914
                        0.0639440225738359
                        0.0662077835529498
                        0.0682860948930073
                        0.0701800515282440
                        0.0718934548081055
                        0.0734307944258679
                        0.0747405595019598
                        0.0862096050120745
                        0.0777705282054759
                        0.0694874550261181
                        0.0617131243829493
                        0.0545966920340919
                        0.0482027853944601
                        0.0425306287848661
                        0.0375249232549683
                        0.0330895019052842
                        0.0291043864072488
                        0.0254445792304842
                        0.0220000656641225
                        0.0187035588447676
                        0.0155528377403437
                        0.0126064939202907
                        0.0099642239316856
                        0.0077318815495182
                        0.0059761351030771
                        0.0046914454719577
                        0.0037847522677416
                        0.0030801000512101
                        0.0023984084296189
                        0.0016319077101397
                        0.0007257773782234
                        0.0003017453660523
                        0.0015299579072673
                        0.0031045292128880
                        0.0049034344687648
                        0.0061582388001335
                        0.0089220224848493
                        0.0105767760499762
                        0.0115072593478233
                        0.0115901564509797
                        0.0107397509040714
                        0.0089834607784875
                        0.0064737292546646
                        0.0035011001355276
                        0.0004751551510878
                        0.0021251533879718
                        0.0039029375705265
                        0.0046634053731028
                        0.0043794988784867
                        0.0031272071389321
                        0.0010395808701154
                        0.0017275498734206
                        0.0050179644801800
                        0.0086886038179471
                        0.0126165563146211
                        0.0167013642637396
                        0.0208641305370248
                        0.0250443300799972
                        0.0291961679749828
                        0.0332867556497909
                        0.0372925101521049
                        0.0411941832010655
                        0.0449740158208489
                        0.0486146594403958
                        0.0520993045777751
                        0.0554124706199491
                        0.0585409581435938
                        0.0614746106363836
                        0.0642067067884433
                        0.0667339709222532
                        0.0690562715181730
                        0.0711762053162991
                        0.0730984633710994
                        0.0748298694374180
                        0.0763773044894347
                        0.0776884614115074
                        0.0892891788032170
                        0.0807201157291855
                        0.0722964730391671
                        0.0643377373901289
                        0.0569888348086080
                        0.0503195445449416
                        0.0443423942917000
                        0.0390196114071835
                        0.0342720615837964
                        0.0299926822393615
                        0.0260637704754902
                        0.0223776542767905
                        0.0188668336311368
                        0.0155291640100596
                        0.0124253874656087
                        0.0096595149975440
                        0.0073420422611251
                        0.0055415285386011
                        0.0042489069807942
                        0.0033610850635980
                        0.0026867877133144
                        0.0020309080054117
                        0.0012735783863773
                        0.0003526564685385
                        0.0007163232090349
                        0.0020175742128583
                        0.0036996799227209
                        0.0056311358863823
                        0.0070275573517779
                        0.0098948478572970
                        0.0116069424173729
                        0.0125254380847052
                        0.0125164742393893
                        0.0114940732648334
                        0.0094940106325905
                        0.0066838813499903
                        0.0033739169469075
                        0.0000043701368486
                        0.0029497539355908
                        0.0050444311013304
                        0.0060756373882589
                        0.0060022120652837
                        0.0048902203917470
                        0.0028669697450373
                        0.0000865292512082
                        0.0032929333129385
                        0.0071230378935922
                        0.0112725922792899
                        0.0156304223415357
                        0.0201051247212986
                        0.0246226207561643
                        0.0291233423026419
                        0.0335613252505215
                        0.0379014248229253
                        0.0421149550273542
                        0.0461772674494868
                        0.0500668391486350
                        0.0537652776948524
                        0.0572577314144753
                        0.0605332965214120
                        0.0635851816371589
                        0.0664105510083555
                        0.0690100975721547
                        0.0713874370555957
                        0.0735485140912212
                        0.0755008807083000
                        0.0772537438745579
                        0.0788158428991232
                        0.0801336912078834
                        0.0918658723564576
                        0.0831669656973069
                        0.0746110399658602
                        0.0664923616851884
                        0.0589496544393480
                        0.0520531765326137
                        0.0458228127044802
                        0.0402329539714358
                        0.0352180479399299
                        0.0306827398259443
                        0.0265171498839275
                        0.0226173344593959
                        0.0189169876554920
                        0.0154149129827340
                        0.0121741451802554
                        0.0093025674203434
                        0.0069146591480762
                        0.0050804308606397
                        0.0037874061825270
                        0.0029232642166201
                        0.0022827215139643
                        0.0016559703372680
                        0.0009119383404965
                        0.0000184637945625
                        0.0011222432863379
                        0.0024880010407346
                        0.0042667261612619
                        0.0063178592057182
                        0.0078420386902996
                        0.0107990486708890
                        0.0125573493723807
                        0.0134577660152631
                        0.0133571530104621
                        0.0121698846192605
                        0.0099399448920672
                        0.0068490131714795
                        0.0032249676173426
                        0.0004815921454755
                        0.0037503213568124
                        0.0061451887657852
                        0.0074371005992778
                        0.0075713783289266
                        0.0066039766911047
                        0.0046558141459666
                        0.0018783512211900
                        0.0015691618775128
                        0.0055337904228694
                        0.0098766790699944
                        0.0144764160422282
                        0.0192294933153648
                        0.0240486997476799
                        0.0288612415884136
                        0.0336088384255619
                        0.0382457767710274
                        0.0427350955027383
                        0.0470464515659896
                        0.0511552046247292
                        0.0550421488770783
                        0.0586934576227441
                        0.0621005384674840
                        0.0652596609597966
                        0.0681713488368860
                        0.0708396205683871
                        0.0732711683271509
                        0.0754746498221481
                        0.0774599162296955
                        0.0792380861545166
                        0.0808193730835280
                        0.0821489532387463
                        0.0939932418405542
                        0.0851611821475840
                        0.0764763470572524
                        0.0682139926606540
                        0.0605058895936606
                        0.0534200005579846
                        0.0469794213666335
                        0.0411663880556671
                        0.0359255807191977
                        0.0311715568598472
                        0.0268019327384686
                        0.0227170980376698
                        0.0188528189169882
                        0.0152094722177942
                        0.0118525052165585
                        0.0088933348141839
                        0.0064498985594532
                        0.0045933069463272
                        0.0033078028830787
                        0.0024725729047207
                        0.0018695235471970
                        0.0012753938205636
                        0.0005488096114574
                        0.0003858100655027
                        0.0015177605669080
                        0.0029395592811648
                        0.0048042288133775
                        0.0069625880087879
                        0.0086011943834904
                        0.0116348216126042
                        0.0134289341937800
                        0.0143058657564636
                        0.0141144073513330
                        0.0127698281707607
                        0.0103240767443408
                        0.0069717718432615
                        0.0030563906864415
                        0.0009551199986743
                        0.0045262631278441
                        0.0072053065892380
                        0.0087484278786554
                        0.0090880728418598
                        0.0082699904654430
                        0.0064081400177018
                        0.0036505551141726
                        0.0001566723592748
                        0.0039168810937520
                        0.0084243606182178
                        0.0132348002160830
                        0.0182332215368838
                        0.0233199331603723
                        0.0284096524574261
                        0.0334326425088916
                        0.0383335851930072
                        0.0430682294735250
                        0.0476014230512082
                        0.0519060746521558
                        0.0559625334801420
                        0.0597580491869559
                        0.0632861132743111
                        0.0665456249061894
                        0.0695399189890391
                        0.0722757524724182
                        0.0747623269303760
                        0.0770105030695646
                        0.0790319956235617
                        0.0808394791475770
                        0.0824443566540611
                        0.0837904397381213
                        0.0957134077246145
                        0.0867426171808675
                        0.0779290195257585
                        0.0695336956643691
                        0.0616813264963583
                        0.0544359754108808
                        0.0478211101562015
                        0.0418234505074634
                        0.0363948975840476
                        0.0314578878069923
                        0.0269166412191966
                        0.0226758702427300
                        0.0186738145173537
                        0.0149127864736331
                        0.0114606982442105
                        0.0084322201999495
                        0.0059483230100447
                        0.0040809413254134
                        0.0028111800160145
                        0.0020104165730103
                        0.0014488551524658
                        0.0008909642748528
                        0.0001859774071543
                        0.0007476575412291
                        0.0019011983632422
                        0.0033706540496294
                        0.0053108170634657
                        0.0075643295959547
                        0.0093045132714973
                        0.0124022742210773
                        0.0142224818151965
                        0.0150711612908338
                        0.0147902210708228
                        0.0132963033846131
                        0.0106489939892988
                        0.0070546432201898
                        0.0028702825230923
                        0.0014234381330821
                        0.0052766748055705
                        0.0082243890033886
                        0.0100095970247606
                        0.0105525626129980
                        0.0098888165615325
                        0.0081248574933623
                        0.0054044997537909
                        0.0018864383018723
                        0.0022699633777513
                        0.0069129946479342
                        0.0119030076164263
                        0.0171143906397862
                        0.0224358064293253
                        0.0277703425462176
                        0.0330376915006544
                        0.0381738032000811
                        0.0431279171245482
                        0.0478606713418736
                        0.0523428751916235
                        0.0565545121474285
                        0.0604837379842469
                        0.0641257660979318
                        0.0674816444753987
                        0.0705569896436049
                        0.0733607743413227
                        0.0759042308027692
                        0.0782000079789583
                        0.0802613396997505
                        0.0821021816135521
                        0.0837349093636111
                        0.0851020172435198
                        0.0970598825845240
                        0.0879432374896721
                        0.0789988638809590
                        0.0704774679425216
                        0.0624967898876744
                        0.0551160975364041
                        0.0483573052228153
                        0.0422090480420830
                        0.0366278516527422
                        0.0315419731038493
                        0.0268610007032482
                        0.0224934976194346
                        0.0183801728578693
                        0.0145253816169847
                        0.0109994605476506
                        0.0079200780371752
                        0.0054108872988805
                        0.0035444342089518
                        0.0022988436979112
                        0.0015383283076979
                        0.0010224253889881
                        0.0005044628201925
                        0.0001748049210192
                        0.0011023277074096
                        0.0022709441152572
                        0.0037797663306835
                        0.0057851795973421
                        0.0081221085599562
                        0.0099514536566140
                        0.0131014199814092
                        0.0149386220966872
                        0.0157548758933900
                        0.0153863467932515
                        0.0137514686839626
                        0.0109170652298187
                        0.0070999596776069
                        0.0026687018990480
                        0.0018849106440595
                        0.0060003550513125
                        0.0092015711761199
                        0.0112199558488176
                        0.0119643313579828
                        0.0114600740065989
                        0.0098057850367042
                        0.0071402929197666
                        0.0036205946313271
                        0.0005922521200564
                        0.0053416301621813
                        0.0104802498804609
                        0.0158728745117440
                        0.0213974949496517
                        0.0269465013481983
                        0.0324298833115919
                        0.0377756152930259
                        0.0429270108732619
                        0.0478408571860095
                        0.0524859753161035
                        0.0568418611229190
                        0.0608972677444747
                        0.0646486980486841
                        0.0680988571651903
                        0.0712551463107608
                        0.0741282901167016
                        0.0767311429520145
                        0.0790777983118652
                        0.0811827300724635
                        0.0830609567646119
                        0.0847256563896739
                        0.0861180945319946
                        0.0980595014894162
                        0.0887887895912195
                        0.0797101671272236
                        0.0710669845965048
                        0.0629702985091602
                        0.0554740992389646
                        0.0485974419689159
                        0.0423289253406858
                        0.0366275074556690
                        0.0314252976365052
                        0.0266358314253688
                        0.0221707213931898
                        0.0179728129368486
                        0.0140483806167852
                        0.0104700436440411
                        0.0073582154674860
                        0.0048389348522788
                        0.0029851976130186
                        0.0017723226372997
                        0.0010579726862815
                        0.0005919976045211
                        0.0001176721605142
                        0.0005318118262285
                        0.0014481863181243
                        0.0026254457594251
                        0.0041654460321589
                        0.0062260571595947
                        0.0086349610090392
                        0.0105414366401852
                        0.0137321739721753
                        0.0155778273325489
                        0.0163580303167625
                        0.0159043055442577
                        0.0141372435202924
                        0.0111304445823911
                        0.0071099056516881
                        0.0024536722438923
                        0.0023377869070269
                        0.0066958205413296
                        0.0101355406546003
                        0.0123782469488203
                        0.0133221049285192
                        0.0129824712978367
                        0.0114496758415645
                        0.0088568228974011
                        0.0053582343391580
                        0.0011155464124128
                        0.0037108951586106
                        0.0089673434248572
                        0.0145100861627721
                        0.0202075226422479
                        0.0259423199210726
                        0.0316155939812999
                        0.0371479849115122
                        0.0424772938283217
                        0.0475566249076968
                        0.0523527456562838
                        0.0568444059176395
                        0.0610205625885801
                        0.0648785411246932
                        0.0684222182053894
                        0.0716603162904591
                        0.0746048963523252
                        0.0772700797310958
                        0.0796711125600515
                        0.0818234761660678
                        0.0837430733076556
                        0.0854437461414910
                        0.0868656407057567
                        0.0987337733953451
                        0.0892999940066533
                        0.0800826690729849
                        0.0713202197033798
                        0.0631172860936649
                        0.0555223277419031
                        0.0485506405265094
                        0.0421892912716592
                        0.0363978293904843
                        0.0311103873677840
                        0.0262429462869528
                        0.0217091439215422
                        0.0174533747262533
                        0.0134835130919818
                        0.0098742206039896
                        0.0067483924924377
                        0.0042341939908434
                        0.0024049514106220
                        0.0012333668937394
                        0.0005711482503313
                        0.0001593942885296
                        0.0002676186025968
                        0.0008833424109401
                        0.0017836417112858
                        0.0029632087023851
                        0.0045263062905114
                        0.0066322363172985
                        0.0091019294380754
                        0.0110738403875973
                        0.0142943489350198
                        0.0161404098596528
                        0.0168814410039669
                        0.0163453860654156
                        0.0144553095869591
                        0.0112910747841183
                        0.0070865209794565
                        0.0022271817511727
                        0.0027802083998141
                        0.0073613208837949
                        0.0110245584809793
                        0.0134826322166993
                        0.0146238771661426
                        0.0144538328408118
                        0.0130542457252101
                        0.0105517909595832
                        0.0070971279858409
                        0.0028512982724649
                        0.0020228997311009
                        0.0073665659990934
                        0.0130287779303037
                        0.0188695054586943
                        0.0247626924387426
                        0.0306013699644772
                        0.0362993858975971
                        0.0417893071411862
                        0.0470205800120778
                        0.0519577281845373
                        0.0565784063982739
                        0.0608713304446713
                        0.0648341658954928
                        0.0684714867778587
                        0.0717929018054745
                        0.0748114295561042
                        0.0775421419162254
                        0.0800011823337228
                        0.0822048392041328
                        0.0841697479797105
                        0.0859102984509664
                        0.0873656337406139
                        0.0990998439461643
                        0.0894934132459621
                        0.0801322940263955
                        0.0712519530923955
                        0.0629508374945233
                        0.0552717311259277
                        0.0482255214042516
                        0.0417965684903104
                        0.0359434524701576
                        0.0306006473442087
                        0.0256850618337863
                        0.0211111940848799
                        0.0168242140443852
                        0.0128331198493813
                        0.0092142893835635
                        0.0060928209417454
                        0.0035987739097783
                        0.0018057191942151
                        0.0006839460021514
                        0.0000797887369775
                        0.0002734996171823
                        0.0006496105077427
                        0.0012277181345026
                        0.0021071435236767
                        0.0032827933986694
                        0.0048610188915698
                        0.0070025443054086
                        0.0095220582274744
                        0.0115479951441582
                        0.0147876516580395
                        0.0166265196567049
                        0.0173257181492693
                        0.0167106436505328
                        0.0147071109958490
                        0.0114006886070502
                        0.0070317020870286
                        0.0019911814720805
                        0.0032102166644841
                        0.0079948536257154
                        0.0118664798949962
                        0.0145307171044073
                        0.0158669360634078
                        0.0158711262265344
                        0.0146162019100302
                        0.0122217437088956
                        0.0088337639328156
                        0.0046114968075924
                        0.0002811576703181
                        0.0056815465042733
                        0.0114328951409203
                        0.0173879728455206
                        0.0234130211401250
                        0.0293937444932298
                        0.0352376670972420
                        0.0408723020360812
                        0.0462433626867708
                        0.0513128541613695
                        0.0560569283805551
                        0.0604635843870511
                        0.0645303386117397
                        0.0682619988032830
                        0.0716686459539673
                        0.0747639031993770
                        0.0775635028344312
                        0.0800842546958313
                        0.0823430750824116
                        0.0843571983480768
                        0.0861414593539384
                        0.0876341138824615
                        0.0991711874853707
                        0.0893820869213247
                        0.0798717026879696
                        0.0708741787514096
                        0.0624819156902198
                        0.0547319061217922
                        0.0476301179758363
                        0.0411572383772302
                        0.0352695241315688
                        0.0299002408843670
                        0.0249657265361838
                        0.0203800958361222
                        0.0160883946667121
                        0.0121001536845900
                        0.0084930735135074
                        0.0053941621692912
                        0.0029351602268439
                        0.0011898238664553
                        0.0001262464852057
                        0.0004140368118668
                        0.0007047348021078
                        0.0010264925162572
                        0.0015632813466370
                        0.0024171818474445
                        0.0035828135268890
                        0.0051683106962763
                        0.0073358448490479
                        0.0098943897435876
                        0.0119631788626110
                        0.0152116795853896
                        0.0170361418499569
                        0.0176912634680797
                        0.0170008983417907
                        0.0148938532784168
                        0.0114608085154892
                        0.0069472010712508
                        0.0017475815083892
                        0.0036257623510091
                        0.0085941793956004
                        0.0126587746912770
                        0.0155195746481033
                        0.0170478901259577
                        0.0172304901014575
                        0.0161312722479234
                        0.0138621045460877
                        0.0105633844344977
                        0.0063913074074122
                        0.0015094720151374
                        0.0039171884128021
                        0.0097274805306644
                        0.0157682587018975
                        0.0218991076130153
                        0.0279991506557700
                        0.0339700131392145
                        0.0397342736944781
                        0.0452337748331767
                        0.0504276757977956
                        0.0552901820208097
                        0.0598080817087107
                        0.0639782491935541
                        0.0678052690387407
                        0.0712992933537180
                        0.0744742122026050
                        0.0773461437613994
                        0.0799323477050252
                        0.0822502014772741
                        0.0843174148925419
                        0.0861491732591856
                        0.0876829537737144
                        0.0989581029614499
                        0.0889759951567576
                        0.0793107069696222
                        0.0701964307692480
                        0.0617195692954168
                        0.0539111810563481
                        0.0467718565949029
                        0.0402777599028342
                        0.0343816066311958
                        0.0290140078944605
                        0.0240892684051860
                        0.0195198427147556
                        0.0152496797169455
                        0.0112881774775389
                        0.0077139204669396
                        0.0046555234602559
                        0.0022462100017079
                        0.0005598829057512
                        0.0004373312195550
                        0.0009081249623484
                        0.0011322969413182
                        0.0013964404502329
                        0.0018883946134143
                        0.0027122868518263
                        0.0038619347540637
                        0.0054469609875190
                        0.0076310348846716
                        0.0102179610128094
                        0.0123186133289557
                        0.0155659175829082
                        0.0173690940603058
                        0.0179782675690545
                        0.0172167323599586
                        0.0150165011054184
                        0.0114727445203926
                        0.0068346227123522
                        0.0014982453952466
                        0.0040247152859719
                        0.0091568371940337
                        0.0133985472527135
                        0.0164457692218222
                        0.0181626948304724
                        0.0185272624403761
                        0.0175942346020611
                        0.0154672038592572
                        0.0122800170673442
                        0.0081846015129121
                        0.0033428235687223
                        0.0020796255712354
                        0.0079186254714378
                        0.0140164534006888
                        0.0202271160359538
                        0.0264239104968602
                        0.0325029757571972
                        0.0383820496269951
                        0.0439989359530465
                        0.0493095942441433
                        0.0542858206284819
                        0.0589126875812239
                        0.0631859307659495
                        0.0671094561976279
                        0.0706930905597626
                        0.0739506592358630
                        0.0768983980152885
                        0.0795538056822894
                        0.0819345590787714
                        0.0840587242557368
                        0.0859417453226186
                        0.0875204186591945
                        0.0984680616004069
                        0.0882823906840227
                        0.0784565776466418
                        0.0692260406960159
                        0.0606711175624073
                        0.0528167188788961
                        0.0456575854007915
                        0.0391645468756008
                        0.0332856311644210
                        0.0279474194438533
                        0.0230607625126071
                        0.0185351799488600
                        0.0143125237042007
                        0.0104013603302422
                        0.0068806979613406
                        0.0038804531556616
                        0.0015351461687619
                        0.0000811967224153
                        0.0010041763883048
                        0.0014001397399239
                        0.0015541072212582
                        0.0017576170120345
                        0.0022014408064263
                        0.0029910288838595
                        0.0041188740769947
                        0.0056957996715901
                        0.0078870421180688
                        0.0104918009460931
                        0.0126134606981055
                        0.0158497348056091
                        0.0176250235433491
                        0.0181867068502661
                        0.0173584866751534
                        0.0150757746423029
                        0.0114375901924873
                        0.0066954194463145
                        0.0012449827472735
                        0.0044048755078014
                        0.0096801598118699
                        0.0140825562394973
                        0.0173053799610452
                        0.0192066790710204
                        0.0197560090854212
                        0.0189989462470234
                        0.0170303078278884
                        0.0139765015002332
                        0.0099839801737783
                        0.0052114438811848
                        0.0001762081595236
                        0.0060134635781870
                        0.0121394092938821
                        0.0184035970773080
                        0.0246742854093195
                        0.0308425589086608
                        0.0368214161685136
                        0.0425444547692225
                        0.0479640766821222
                        0.0530492004837451
                        0.0577826726076106
                        0.0621585887279777
                        0.0661797169950150
                        0.0698551588830194
                        0.0731983408341015
                        0.0762253457932205
                        0.0789536991083481
                        0.0814012137251075
                        0.0835861915176784
                        0.0855242423557707
                        0.0871515652531956
                        0.0977059366841819
                        0.0873060260274955
                        0.0773142655290035
                        0.0679683377371886
                        0.0593423137742611
                        0.0514546327194748
                        0.0442936403723562
                        0.0378239929805082
                        0.0319878967530969
                        0.0267065655553209
                        0.0218860179849771
                        0.0174315947964515
                        0.0132820659419299
                        0.0094444721946433
                        0.0059977883615748
                        0.0030729345075301
                        0.0008055513562309
                        0.0007302240142398
                        0.0015714721612777
                        0.0018876153504908
                        0.0019680239594697
                        0.0021081728277203
                        0.0025008239304937
                        0.0032520190537126
                        0.0043523997290779
                        0.0059137062887845
                        0.0081028233781578
                        0.0107149280929287
                        0.0128468203668056
                        0.0160623816267491
                        0.0178034040890668
                        0.0183163398627871
                        0.0174262566463675
                        0.0150721444751193
                        0.0113562168007479
                        0.0065308843141053
                        0.0009895402242399
                        0.0047639852083684
                        0.0101612893251447
                        0.0147072338713154
                        0.0180940237609639
                        0.0201745714803644
                        0.0209105524578137
                        0.0203383732734196
                        0.0185436459989562
                        0.0156445120622498
                        0.0117807880945315
                        0.0071065945171502
                        0.0017844840539845
                        0.0040202022391377
                        0.0101447933076425
                        0.0164355641280705
                        0.0227565781294419
                        0.0289943478113258
                        0.0350572746158106
                        0.0408746111560729
                        0.0463948615146666
                        0.0515836059051533
                        0.0564209540032778
                        0.0608988543117591
                        0.0650184686759913
                        0.0687877629759456
                        0.0722194196755581
                        0.0753290883019483
                        0.0781340992326834
                        0.0806522305020987
                        0.0829018931038305
                        0.0848987640972447
                        0.0865785112095901
                        0.0966741335349022
                        0.0860492922473543
                        0.0758865500230757
                        0.0664268008983554
                        0.0577374901404132
                        0.0498301115445455
                        0.0426859427802573
                        0.0362625381127584
                        0.0304951088480895
                        0.0252981733227832
                        0.0205715833535266
                        0.0162153149727571
                        0.0121641255081166
                        0.0084228771402926
                        0.0050700812487693
                        0.0022373782748692
                        0.0000613610914507
                        0.0013837297212664
                        0.0021362001766424
                        0.0023679597162625
                        0.0023718452625198
                        0.0024462484738453
                        0.0027849706695664
                        0.0034939103023163
                        0.0045613316437105
                        0.0060996098036466
                        0.0082773637406983
                        0.0108863489129770
                        0.0130177261240424
                        0.0162029866005346
                        0.0179035326617235
                        0.0183667031032829
                        0.0174198866776226
                        0.0150058250555466
                        0.0112292655439142
                        0.0063421418898212
                        0.0007335908554804
                        0.0050997415178330
                        0.0105971925871775
                        0.0152687046961492
                        0.0188068777179739
                        0.0210605264973979
                        0.0219840003738454
                        0.0216046200838653
                        0.0199984380102175
                        0.0172745769357514
                        0.0135651196385738
                        0.0090182386700961
                        0.0037926044351719
                        0.0019481877712832
                        0.0080411814415078
                        0.0143306161786863
                        0.0206772807971399
                        0.0269636773582867
                        0.0330938243552471
                        0.0389925483579098
                        0.0446041547348555
                        0.0498904459021229
                        0.0548282898520709
                        0.0594069748464396
                        0.0636255745597114
                        0.0674904915528796
                        0.0710133007699701
                        0.0742089199144874
                        0.0770942467838143
                        0.0796868395957959
                        0.0820050803195771
                        0.0840646048998391
                        0.0858005952647640
                        0.0953726284498624
                        0.0845122781062014
                        0.0741741236934845
                        0.0646031703017385
                        0.0558596888163754
                        0.0479475573032108
                        0.0408401265817472
                        0.0344867729209018
                        0.0288144543305159
                        0.0237296527467486
                        0.0191247686262929
                        0.0148933143205940
                        0.0109651973806607
                        0.0073425251270903
                        0.0041029641165907
                        0.0013786140638954
                        0.0006931435827139
                        0.0020379724524886
                        0.0026951456459120
                        0.0028384587850107
                        0.0027633126866917
                        0.0027699774623720
                        0.0030523326368615
                        0.0037153989457058
                        0.0047445424660189
                        0.0062524891607865
                        0.0084096764142349
                        0.0110050565610177
                        0.0131251435303485
                        0.0162705534433175
                        0.0179245257713599
                        0.0183371062144487
                        0.0173389638561490
                        0.0148767666234137
                        0.0110571378387970
                        0.0061301371743745
                        0.0004787217473098
                        0.0054098100659144
                        0.0109846766072317
                        0.0157628036952782
                        0.0194387008432521
                        0.0218581500274308
                        0.0229687749065681
                        0.0227889591378436
                        0.0213849199999409
                        0.0188560950956835
                        0.0153258186815038
                        0.0109350158140191
                        0.0058369817704183
                        0.0001919999222471
                        0.0058381910194649
                        0.0120971038286503
                        0.0184432669049345
                        0.0247558396305409
                        0.0309347749065104
                        0.0369004796593195
                        0.0425928236708467
                        0.0479694302882773
                        0.0530034355827732
                        0.0576809507565537
                        0.0619984631979884
                        0.0659603611729242
                        0.0695767226433402
                        0.0728614094956329
                        0.0758306259180947
                        0.0785015049922215
                        0.0808922445510670
                        0.0830183168151713
                        0.0848144389908709
                        0.0937989172231646
                        0.0826927520632840
                        0.0721756171169188
                        0.0624975235171680
                        0.0537107851420049
                        0.0458107382920132
                        0.0387616980429349
                        0.0325035813647492
                        0.0269537110755024
                        0.0220091679118571
                        0.0175536819878918
                        0.0134733242583403
                        0.0096924488993347
                        0.0062099418831353
                        0.0031023110622573
                        0.0005018804113642
                        0.0014533440312292
                        0.0026889450280943
                        0.0032449028263224
                        0.0032962815853538
                        0.0031401158885312
                        0.0030774901766311
                        0.0033013893226991
                        0.0039152266862921
                        0.0049009591064672
                        0.0063713746100954
                        0.0084988033971856
                        0.0110700301906071
                        0.0131679674834140
                        0.0162639580298739
                        0.0178653155821660
                        0.0182266265876399
                        0.0171828105532258
                        0.0146846455741899
                        0.0108399836253621
                        0.0058956224244234
                        0.0002264201798038
                        0.0056918392491391
                        0.0113204036719209
                        0.0161850935254908
                        0.0199838548274495
                        0.0225605245077346
                        0.0238566412261636
                        0.0238818611381603
                        0.0226923713547593
                        0.0203773523346691
                        0.0170504745365255
                        0.0128442072129197
                        0.0079050460062407
                        0.0023884272686526
                        0.0035466472645316
                        0.0097443365872940
                        0.0160620276521901
                        0.0223763337560004
                        0.0285835927359702
                        0.0345999174069615
                        0.0403605972501407
                        0.0458187348138338
                        0.0509432719519277
                        0.0557166278409295
                        0.0601321887133187
                        0.0641918496202844
                        0.0679037691026760
                        0.0712803956727286
                        0.0743369475549810
                        0.0770898997212639
                        0.0795570875301700
                        0.0817536773065252
                        0.0836139133112646
                        0.0919478656899971
                        0.0805860632434176
                        0.0698875644932932
                        0.0601083220164483
                        0.0512916111661317
                        0.0434229669330287
                        0.0364562333886429
                        0.0303203236036795
                        0.0249213913963492
                        0.0201457311907439
                        0.0158672785279444
                        0.0119638489378322
                        0.0083537152580897
                        0.0050322162493336
                        0.0020744692590289
                        0.0003871863890408
                        0.0022142924159589
                        0.0033323810087756
                        0.0037818808441713
                        0.0037384860178763
                        0.0034998982758882
                        0.0033669187702255
                        0.0035306517405030
                        0.0040921830799435
                        0.0050295648372290
                        0.0064553498223325
                        0.0085438169335945
                        0.0110802347957499
                        0.0131450199348014
                        0.0161819454158565
                        0.0177246457744668
                        0.0180341033776793
                        0.0169504759838660
                        0.0144288532470698
                        0.0105776876431405
                        0.0056391418674690
                        0.0000219419178278
                        0.0059434751275108
                        0.0116009060297037
                        0.0165308806449451
                        0.0204363235788873
                        0.0231602331421626
                        0.0246387363213014
                        0.0248730258531433
                        0.0239091425012709
                        0.0218255378533919
                        0.0187254164282082
                        0.0147316958003813
                        0.0099827416932988
                        0.0046276657586899
                        0.0011787810864282
                        0.0072828307293628
                        0.0135419553149553
                        0.0198311644170522
                        0.0260437924118311
                        0.0320919361542966
                        0.0379062853441941
                        0.0434351672801154
                        0.0486429148125404
                        0.0535077527663579
                        0.0580194376559018
                        0.0621768617141347
                        0.0659858022142498
                        0.0694568948966745
                        0.0726040395900976
                        0.0754427841950564
                        0.0779903926255110
                        0.0802615572496002
                        0.0821900052949487
                        0.0898114450480096
                        0.0781849505708114
                        0.0673043068038798
                        0.0574324330191438
                        0.0486020905810174
                        0.0407873143306233
                        0.0339296239074115
                        0.0279450637332032
                        0.0227269194301276
                        0.0181493179225807
                        0.0140754177624293
                        0.0103741814232101
                        0.0069574923127680
                        0.0038169841467336
                        0.0010262429354391
                        0.0012825647080524
                        0.0029707204492942
                        0.0039637613077757
                        0.0043023098247140
                        0.0041620253920421
                        0.0038402636995877
                        0.0036364030649197
                        0.0037386667854516
                        0.0042451084477696
                        0.0051294019361308
                        0.0065035548372311
                        0.0085438218184916
                        0.0110346216272852
                        0.0130550477239887
                        0.0160231269127612
                        0.0175010671936653
                        0.0177581309578512
                        0.0166407267391098
                        0.0141084831188720
                        0.0102698536285818
                        0.0053610142342123
                        0.0002651251420884
                        0.0061623768657268
                        0.0118225999170058
                        0.0167952300053980
                        0.0207897311912043
                        0.0236493830062243
                        0.0253055974493848
                        0.0257514137300139
                        0.0250226844411758
                        0.0231867629587959
                        0.0203357091673353
                        0.0165819242684982
                        0.0120544338374034
                        0.0068946341917501
                        0.0012515452106982
                        0.0047245974346714
                        0.0108926777252877
                        0.0171271980144073
                        0.0233192854970859
                        0.0293774862035890
                        0.0352280342581099
                        0.0408143503587961
                        0.0460958193229219
                        0.0510460002879565
                        0.0556504863546048
                        0.0599046271443059
                        0.0638113122439710
                        0.0673789149210047
                        0.0706196342631202
                        0.0735477762873662
                        0.0761797848044735
                        0.0785296763722016
                        0.0805305721492547
                        0.0873783217189537
                        0.0754792405345708
                        0.0644178255405592
                        0.0544651335529717
                        0.0456414011088715
                        0.0379068794528346
                        0.0311883819331683
                        0.0253868487585322
                        0.0203808427202740
                        0.0160309983525654
                        0.0121889258682774
                        0.0087144175356677
                        0.0055129245950351
                        0.0025724081523153
                        0.0000351254501136
                        0.0021778612215261
                        0.0037170483836302
                        0.0045783207796431
                        0.0048022472923197
                        0.0045637557469889
                        0.0041587842614490
                        0.0038840975133859
                        0.0039240223363409
                        0.0043728972248911
                        0.0051995748959672
                        0.0065151899129509
                        0.0084979586284157
                        0.0109321292416645
                        0.0128967205028177
                        0.0157859772653643
                        0.0171929333358961
                        0.0173970518623294
                        0.0162520363247946
                        0.0137223164026066
                        0.0099157863812860
                        0.0050613130208152
                        0.0005020414889887
                        0.0063462326238665
                        0.0119817986502573
                        0.0169729779167898
                        0.0210373579160405
                        0.0240196266461686
                        0.0258471900848532
                        0.0265052783747147
                        0.0260195806630584
                        0.0244460833923740
                        0.0218651527720256
                        0.0183778554973235
                        0.0141028114142951
                        0.0091724299071902
                        0.0037285883677838
                        0.0020834706334700
                        0.0081254487078754
                        0.0142725878333671
                        0.0204148046913393
                        0.0264577794064706
                        0.0323236417152137
                        0.0379509427809199
                        0.0432938958149946
                        0.0483209831041923
                        0.0530131125435254
                        0.0573615270944700
                        0.0613656750577341
                        0.0650311590557890
                        0.0683680341413626
                        0.0713889919086757
                        0.0741093563534343
                        0.0765422224070770
                        0.0786199583101606
                        0.0846332523788931
                        0.0724554020891686
                        0.0612174960921658
                        0.0512001074892360
                        0.0424081883330407
                        0.0347851382736355
                        0.0282400256239462
                        0.0226560465638931
                        0.0178950776789912
                        0.0138030823852012
                        0.0102196574373300
                        0.0069954632815155
                        0.0040297860566303
                        0.0013071515393380
                        0.0011019771608646
                        0.0030663257132725
                        0.0044473940834016
                        0.0051710546744676
                        0.0052775848232531
                        0.0049404440343661
                        0.0044530093619446
                        0.0041081793311546
                        0.0040853531591920
                        0.0044745017490292
                        0.0052392542315450
                        0.0064895203813947
                        0.0084054079887947
                        0.0107716852722999
                        0.0126686287255572
                        0.0154688320077227
                        0.0167983957457747
                        0.0169489492916696
                        0.0157825737670829
                        0.0132688060691497
                        0.0095144716496369
                        0.0047398443777012
                        0.0007317749914498
                        0.0064927757844762
                        0.0120747244411697
                        0.0170587425968531
                        0.0211721536172913
                        0.0242621816971218
                        0.0262529350295607
                        0.0271221998514548
                        0.0268855819307153
                        0.0255875266987866
                        0.0232962887719360
                        0.0201009396894928
                        0.0161087944448820
                        0.0114421555958643
                        0.0062344562727054
                        0.0006245272943509
                        0.0052535990794496
                        0.0112772813084461
                        0.0173364251428634
                        0.0233347761543253
                        0.0291909636045299
                        0.0348389298886866
                        0.0402276626237035
                        0.0453202606486642
                        0.0500924668088598
                        0.0545308442019253
                        0.0586308014735929
                        0.0623945972842504
                        0.0658296263505792
                        0.0689465211873613
                        0.0717591206723077
                        0.0742792949075591
                        0.0764384359287186
                        0.0815562046392749
                        0.0690959097419473
                        0.0576897460267093
                        0.0476294545170159
                        0.0389008677594536
                        0.0314264085219753
                        0.0250935653964401
                        0.0197647511126230
                        0.0152831869423605
                        0.0114792707362557
                        0.0081805501237022
                        0.0052290309898586
                        0.0025184507364889
                        0.0000303455553592
                        0.0021662625666309
                        0.0039408669520089
                        0.0051555820115500
                        0.0057367248562086
                        0.0057240549690008
                        0.0052887773000239
                        0.0047204761769547
                        0.0043068579594596
                        0.0042213477070728
                        0.0045489365084034
                        0.0052476809488895
                        0.0064258826627895
                        0.0082653960368410
                        0.0105522090605123
                        0.0123692816886900
                        0.0150698851179849
                        0.0163153994341458
                        0.0164116392920698
                        0.0152301913853308
                        0.0127460593418061
                        0.0090645537992058
                        0.0043961225105955
                        0.0009536041999238
                        0.0065998013736387
                        0.0120975185039536
                        0.0170469317978846
                        0.0211867480601341
                        0.0243678479202180
                        0.0265117342100475
                        0.0275891185863461
                        0.0276056442403320
                        0.0265941258295444
                        0.0246104157984185
                        0.0217310927058720
                        0.0180514511872046
                        0.0136827497169073
                        0.0087488294447392
                        0.0033807863086328
                        0.0022930511344319
                        0.0081536231321948
                        0.0140922092573709
                        0.0200118112905931
                        0.0258284573388025
                        0.0314720290428651
                        0.0368864750121342
                        0.0420293737086543
                        0.0468709148008753
                        0.0513924296249902
                        0.0555846560576905
                        0.0594458677892835
                        0.0629801976966899
                        0.0661956851620966
                        0.0691042342222260
                        0.0717161114257644
                        0.0739614052705004
                        0.0781210737700601
                        0.0653783393206295
                        0.0538176008619046
                        0.0437437460501386
                        0.0351180723309828
                        0.0278364796485903
                        0.0217601197908405
                        0.0167272619689271
                        0.0125606833979036
                        0.0090748031926244
                        0.0060856637830480
                        0.0034276184473122
                        0.0009898502577641
                        0.0012484513298773
                        0.0032195702410925
                        0.0047940695322593
                        0.0058351519698582
                        0.0062698657213559
                        0.0061372385326818
                        0.0056053730916182
                        0.0049587218487022
                        0.0044783861004589
                        0.0043307559795613
                        0.0045952829076674
                        0.0052241717843946
                        0.0063236916662807
                        0.0080772013059966
                        0.0102726153515769
                        0.0119971056222281
                        0.0145871871534652
                        0.0157416784738206
                        0.0157826627760347
                        0.0145924118890985
                        0.0121518187650765
                        0.0085643112604188
                        0.0040293424832935
                        0.0011670265903380
                        0.0066651824863143
                        0.0120462488968491
                        0.0169317467414111
                        0.0210734572289479
                        0.0243270208992545
                        0.0266119945062542
                        0.0278923694365322
                        0.0281639699515516
                        0.0274479598352631
                        0.0257876167632978
                        0.0232466900573968
                        0.0199079325852882
                        0.0158708301970039
                        0.0112486826024500
                        0.0061636843233180
                        0.0007371042320964
                        0.0049170665789462
                        0.0106930049003546
                        0.0164944070683387
                        0.0222359240226237
                        0.0278442776269634
                        0.0332588926335222
                        0.0384319516310060
                        0.0433278736929118
                        0.0479222837551686
                        0.0522006151174701
                        0.0561564549171894
                        0.0597899777188966
                        0.0631059863313520
                        0.0661138913128883
                        0.0688218764231992
                        0.0711582531879156
                        0.0742937785435667
                        0.0612740792475085
                        0.0495801016604931
                        0.0395321936133459
                        0.0310593349098905
                        0.0240234758047560
                        0.0182536922176071
                        0.0135606412547904
                        0.0097453502557534
                        0.0066065907423266
                        0.0039501935937665
                        0.0016044644609934
                        0.0005445851712052
                        0.0025193034849895
                        0.0042531600295662
                        0.0056182115817864
                        0.0064793674886282
                        0.0067647898443149
                        0.0065125723971774
                        0.0058867914615826
                        0.0051652978237918
                        0.0046210726938210
                        0.0044123987060646
                        0.0046126946801512
                        0.0051681254087750
                        0.0061824499187995
                        0.0078401633629867
                        0.0099318193707894
                        0.0115504418694945
                        0.0140186441492419
                        0.0150747520104571
                        0.0150592776351424
                        0.0138664150475396
                        0.0114834420355500
                        0.0080116298181607
                        0.0036383503446751
                        0.0013717849619273
                        0.0066868864418355
                        0.0119169153586382
                        0.0167071813684127
                        0.0208242846487177
                        0.0241297014230383
                        0.0265416487195860
                        0.0280177151874687
                        0.0285440517076842
                        0.0281302020135673
                        0.0268067994141567
                        0.0246245806939749
                        0.0216534314689649
                        0.0179805627796749
                        0.0137080206881787
                        0.0089481517343540
                        0.0038139753158551
                        0.0015870005256846
                        0.0071534278925036
                        0.0127913322136318
                        0.0184155345682368
                        0.0239509048712867
                        0.0293332868265681
                        0.0345099755867187
                        0.0394396933028340
                        0.0440920585607773
                        0.0484466269237625
                        0.0524915650160454
                        0.0562222967736192
                        0.0596396148465982
                        0.0627497372758430
                        0.0655581502542141
                        0.0679907026356576
                        0.0700293596826096
                        0.0567464733233001
                        0.0449515931933724
                        0.0349830528401436
                        0.0267261453423340
                        0.0199990415324172
                        0.0145921399059585
                        0.0102853424763085
                        0.0068575582173184
                        0.0040933132108009
                        0.0017904442669013
                        0.0002265265607569
                        0.0020730057715784
                        0.0037719587854015
                        0.0052580003834836
                        0.0064052833366381
                        0.0070812239142744
                        0.0072155935623231
                        0.0068453583135045
                        0.0061295491718715
                        0.0053377870078262
                        0.0047332984118417
                        0.0044651783028900
                        0.0046004042092862
                        0.0050790299363002
                        0.0060017589467494
                        0.0075536936952381
                        0.0095287437773111
                        0.0110275452723215
                        0.0133620177244315
                        0.0143119210607394
                        0.0142384513441572
                        0.0130490243319843
                        0.0107378809342687
                        0.0074039739374014
                        0.0032216105928539
                        0.0015678958174770
                        0.0066629902424867
                        0.0117054501195526
                        0.0163670155842803
                        0.0204309163702286
                        0.0237654992710277
                        0.0262881724545965
                        0.0279503783357401
                        0.0287287182344110
                        0.0286211751980539
                        0.0276457512504341
                        0.0258401240171705
                        0.0232611738909603
                        0.0199835668082228
                        0.0160976478144549
                        0.0117052465374554
                        0.0069102004227216
                        0.0018123109106020
                        0.0034930549527377
                        0.0089159746883024
                        0.0143732528654845
                        0.0197896374604882
                        0.0250988529645834
                        0.0302443487327051
                        0.0351796886250413
                        0.0398685219649447
                        0.0442841377010859
                        0.0484085882606362
                        0.0522316823836001
                        0.0557492843307202
                        0.0589635417367234
                        0.0618764433314153
                        0.0644103691179763
                        0.0652673979050827
                        0.0517481023577052
                        0.0399009291601224
                        0.0300844939394498
                        0.0221235969854856
                        0.0157799621875292
                        0.0107983575841434
                        0.0069258896215895
                        0.0039205488246422
                        0.0015554577487542
                        0.0003762501052184
                        0.0020508992352413
                        0.0035832449593032
                        0.0049959213133279
                        0.0062248104552562
                        0.0071470068676586
                        0.0076334565840536
                        0.0076161630808318
                        0.0071307734411071
                        0.0063301371139729
                        0.0054738248048228
                        0.0048135346057253
                        0.0044880923750035
                        0.0045577302779031
                        0.0049564723520053
                        0.0057813337533191
                        0.0072172896338866
                        0.0090623283019230
                        0.0104265830442830
                        0.0126149271276314
                        0.0134502667081761
                        0.0133168547054151
                        0.0121366941999903
                        0.0099116599702040
                        0.0067383565727576
                        0.0027771711967180
                        0.0017556795413097
                        0.0065916946256850
                        0.0114077132120464
                        0.0159048006676891
                        0.0198847077945702
                        0.0232236296460207
                        0.0258385951831412
                        0.0276750694270840
                        0.0287001803665153
                        0.0289004129196884
                        0.0282812085959425
                        0.0268672522571765
                        0.0247024491155207
                        0.0218488718768642
                        0.0183849915159203
                        0.0144017708148124
                        0.0099932749748204
                        0.0052506981931667
                        0.0002621624901938
                        0.0048880953331852
                        0.0101207977161694
                        0.0153626555132771
                        0.0205472956106907
                        0.0256160467539113
                        0.0305185472745521
                        0.0352131073351668
                        0.0396667736903292
                        0.0438549952763889
                        0.0477611139060640
                        0.0513750156869541
                        0.0546936817987681
                        0.0577145491992895
                        0.0603550169757706
                        0.0599244486253235
                        0.0462167349066496
                        0.0343907730716620
                        0.0248263689400460
                        0.0172629441658844
                        0.0113903441997479
                        0.0069016726206986
                        0.0035115581866346
                        0.0009606369339934
                        0.0009847337158182
                        0.0025316786160910
                        0.0038538101192875
                        0.0050629499952478
                        0.0061805379331735
                        0.0071441079968377
                        0.0078348578892869
                        0.0081285501759840
                        0.0079601823895283
                        0.0073638841361547
                        0.0064850426778091
                        0.0055711258061674
                        0.0048603672648130
                        0.0044802511202256
                        0.0044840882553542
                        0.0048001509716561
                        0.0055210217902503
                        0.0068305526064830
                        0.0085315434235065
                        0.0097456347587706
                        0.0117748544527874
                        0.0124866507454173
                        0.0122908578514174
                        0.0111254991740720
                        0.0090008558416402
                        0.0060113083982908
                        0.0023026268323482
                        0.0019357917959123
                        0.0064713354674376
                        0.0110194800415293
                        0.0153138341774666
                        0.0191766597159141
                        0.0224928997181719
                        0.0251795029416895
                        0.0271760093012086
                        0.0284400745566584
                        0.0289467237897398
                        0.0286889378636270
                        0.0276785582479258
                        0.0259466827165885
                        0.0235429379536077
                        0.0205340073870913
                        0.0169999689177237
                        0.0130249278087996
                        0.0086910179303237
                        0.0040782875465370
                        0.0007360076772152
                        0.0056783012808341
                        0.0106794953826844
                        0.0156756103202735
                        0.0206083412442201
                        0.0254255757576981
                        0.0300818742597021
                        0.0345388784252902
                        0.0387654946114108
                        0.0427379922146492
                        0.0464392005494763
                        0.0498596089555053
                        0.0529907046868599
                        0.0557425521375661
                        0.0538808675000494
                        0.0400691944594244
                        0.0283775156505843
                        0.0192036682134389
                        0.0121655259202482
                        0.0068644616334842
                        0.0029393925806900
                        0.0000769689078670
                        0.0019927348578586
                        0.0035034475847067
                        0.0046569991297568
                        0.0056202490912899
                        0.0064997455567207
                        0.0073151016427428
                        0.0080062653385189
                        0.0084600919056535
                        0.0085587516732971
                        0.0082411456047972
                        0.0075396657689405
                        0.0065907800853154
                        0.0056275191231608
                        0.0048725286751646
                        0.0044409010560328
                        0.0043790046568152
                        0.0046098929801918
                        0.0052208288149007
                        0.0063932129286811
                        0.0079354104233441
                        0.0089826947730546
                        0.0108391551706694
                        0.0114177206326699
                        0.0111565304820572
                        0.0100111267633281
                        0.0080010797449222
                        0.0052188483212211
                        0.0017950818665980
                        0.0021092547404413
                        0.0063003902889981
                        0.0105364176477787
                        0.0145871202772846
                        0.0182973796005149
                        0.0215616813912338
                        0.0242970287078742
                        0.0264369410667906
                        0.0279294993722646
                        0.0287382543543997
                        0.0288438244171035
                        0.0282454053212904
                        0.0269615534194920
                        0.0250297482737966
                        0.0225051890113749
                        0.0194573553836925
                        0.0159606218165680
                        0.0120881411987432
                        0.0079116762070483
                        0.0035008351295178
                        0.0010777946156645
                        0.0057612622484035
                        0.0104905982452129
                        0.0152109616780050
                        0.0198717352991099
                        0.0244266971700911
                        0.0288343575019932
                        0.0330583701235691
                        0.0370681501620248
                        0.0408387312395848
                        0.0443526855613271
                        0.0475937356110555
                        0.0504607663197036
                        0.0469564227006103
                        0.0331919683492711
                        0.0218131933629482
                        0.0132230914996798
                        0.0068686338309765
                        0.0022502798929292
                        0.0010416566044546
                        0.0033375514753408
                        0.0049071792029085
                        0.0059756586482610
                        0.0067330997836412
                        0.0073353310034117
                        0.0078814370641558
                        0.0083889767063881
                        0.0088015780458995
                        0.0090137793366503
                        0.0089160917569757
                        0.0084523786511323
                        0.0076530335538059
                        0.0066439338732325
                        0.0056409974305288
                        0.0048489413751057
                        0.0043694593105873
                        0.0042421396362626
                        0.0043856807225944
                        0.0048809557273617
                        0.0059051649350521
                        0.0072730318584994
                        0.0081356797017085
                        0.0098050777193494
                        0.0102399221205028
                        0.0099096498637245
                        0.0087888778769000
                        0.0069074662113894
                        0.0043564588230361
                        0.0012511162537662
                        0.0022774851219560
                        0.0060774758092337
                        0.0099540438237813
                        0.0137173090210222
                        0.0172370218082418
                        0.0204178640737762
                        0.0231768240797015
                        0.0254411250408743
                        0.0271490376250642
                        0.0282525423638703
                        0.0287199604162939
                        0.0285380509645101
                        0.0277131479572599
                        0.0262709772314728
                        0.0242557027401613
                        0.0217267226441224
                        0.0187492738049869
                        0.0153881456574093
                        0.0117073273943955
                        0.0077690009167548
                        0.0036324789386270
                        0.0006464895075585
                        0.0050159638189283
                        0.0094276330757338
                        0.0138363602853595
                        0.0181996581352619
                        0.0224773481870824
                        0.0266315133232792
                        0.0306270617956598
                        0.0344319506734713
                        0.0380199963065730
                        0.0413650961070869
                        0.0443482733003946
                        0.0388620275086680
                        0.0254268774423065
                        0.0146529548482376
                        0.0069151773291468
                        0.0014338816382786
                        0.0023865830821483
                        0.0049839274772458
                        0.0066860540297114
                        0.0077478917232048
                        0.0083757161964135
                        0.0087410997708699
                        0.0089846706613553
                        0.0091962626289381
                        0.0093917531967123
                        0.0095203538227128
                        0.0094868573491629
                        0.0091924225304711
                        0.0085870781999692
                        0.0076988922616704
                        0.0066412235651737
                        0.0056097875272534
                        0.0047887815386825
                        0.0042655651741398
                        0.0040733231834364
                        0.0041276926465874
                        0.0045018528415083
                        0.0053665184711931
                        0.0065436389356947
                        0.0072024454499170
                        0.0086697982627469
                        0.0089495250942598
                        0.0085457224406690
                        0.0074536807787587
                        0.0057146746237691
                        0.0034190721893261
                        0.0006667599730629
                        0.0024423139630449
                        0.0058013298244368
                        0.0092676599652472
                        0.0126966047008329
                        0.0159851970940887
                        0.0190487777960586
                        0.0218040022616985
                        0.0241713060038827
                        0.0260787525193787
                        0.0274665475781332
                        0.0282907173063256
                        0.0285257686676888
                        0.0281661387656604
                        0.0272262235774817
                        0.0257396540034676
                        0.0237563698546084
                        0.0213332964684792
                        0.0185279078653660
                        0.0153976135941741
                        0.0119983746828681
                        0.0083832473869573
                        0.0046013174656026
                        0.0006971641481055
                        0.0032890765809281
                        0.0073210777504454
                        0.0113652266302076
                        0.0153893098946183
                        0.0193612134153133
                        0.0232482512207010
                        0.0270164759102201
                        0.0306334125312907
                        0.0340624941862328
                        0.0371544311942952
                        0.0290973427787519
                        0.0165500272553915
                        0.0068770418878570
                        0.0003557717317019
                        0.0040418650616973
                        0.0069592014888383
                        0.0088188166094976
                        0.0099177520656243
                        0.0104786225781064
                        0.0106781889930848
                        0.0106629999885121
                        0.0105548453086474
                        0.0104331959759754
                        0.0103134338000551
                        0.0101530257066314
                        0.0098702034028078
                        0.0093794773429190
                        0.0086383740072538
                        0.0076722111401597
                        0.0065795963358906
                        0.0055324491393816
                        0.0046915678531746
                        0.0041291547306331
                        0.0038726098464738
                        0.0038363641092781
                        0.0040842977453833
                        0.0047776724766406
                        0.0057466625018265
                        0.0061808180042177
                        0.0074304772785460
                        0.0075426685642782
                        0.0070600254197437
                        0.0060001251638288
                        0.0044169100635006
                        0.0024010741054675
                        0.0000374818212616
                        0.0026059927705100
                        0.0054707706218824
                        0.0084722476871378
                        0.0115166324317247
                        0.0145308409481976
                        0.0174410761126532
                        0.0201630411946445
                        0.0226096405868796
                        0.0246981441874300
                        0.0263566445410621
                        0.0275287848739615
                        0.0281769468382351
                        0.0282839606376467
                        0.0278532860267497
                        0.0269084739387417
                        0.0254905739230263
                        0.0236490532041694
                        0.0214353185928568
                        0.0189018290093125
                        0.0161003055357237
                        0.0130798358513740
                        0.0098853095491891
                        0.0065562984087014
                        0.0031264677573915
                        0.0003764270976955
                        0.0039298981049438
                        0.0075154223672904
                        0.0111164296150757
                        0.0147160231548081
                        0.0182937559748303
                        0.0218254928409108
                        0.0252744732920331
                        0.0284370834650197
                        0.0167181798278729
                        0.0062448224879757
                        0.0014500441737539
                        0.0062987508305261
                        0.0094145912815849
                        0.0113574816561059
                        0.0124678313585530
                        0.0129786576553031
                        0.0130630599560168
                        0.0128588864628313
                        0.0124823973391545
                        0.0120338657224637
                        0.0115822292675625
                        0.0111445903740272
                        0.0106902349060418
                        0.0101546821699452
                        0.0094689095659203
                        0.0085993754762109
                        0.0075680880289624
                        0.0064563149234124
                        0.0054079715106234
                        0.0045572467774399
                        0.0039605313051628
                        0.0036403252238081
                        0.0035124434252095
                        0.0036294748458156
                        0.0041393893827305
                        0.0048818090075777
                        0.0050686173411973
                        0.0060843220573654
                        0.0060154077869347
                        0.0054476515115347
                        0.0044224990000311
                        0.0030079450921714
                        0.0012963046402486
                        0.0006418298323967
                        0.0027712114887798
                        0.0050846585282471
                        0.0075623508584224
                        0.0101682847842045
                        0.0128620641198098
                        0.0155806026325027
                        0.0182376704763810
                        0.0207376077388941
                        0.0229860883797754
                        0.0248985973487428
                        0.0264061943679164
                        0.0274591785044417
                        0.0280289948040973
                        0.0281084858007383
                        0.0277114356524382
                        0.0268703346927516
                        0.0256278187637338
                        0.0240303600825535
                        0.0221270970976133
                        0.0199676862420145
                        0.0176001118560717
                        0.0150688147856036
                        0.0124131691314916
                        0.0096662999714923
                        0.0068541843701284
                        0.0039949842938568
                        0.0010985556290583
                        0.0018337537696536
                        0.0048092288921054
                        0.0078425783618040
                        0.0109570860817776
                        0.0141744849937643
                        0.0171991518176769
                        0.0002269696209168
                        0.0059795571652239
                        0.0101148572169528
                        0.0128623884519909
                        0.0145860896698767
                        0.0155470163969092
                        0.0159363509426152
                        0.0158975605662704
                        0.0155427876568171
                        0.0149653322287931
                        0.0142482992758844
                        0.0134692587166596
                        0.0126876484745993
                        0.0119256040784833
                        0.0111684778085606
                        0.0103732593654928
                        0.0094906352083385
                        0.0084973871519547
                        0.0074115756967005
                        0.0062943995977722
                        0.0052572002208117
                        0.0044042833593361
                        0.0037759186422101
                        0.0033908495471141
                        0.0031695786792223
                        0.0031510729442000
                        0.0034653158309977
                        0.0039628047322226
                        0.0038800553661055
                        0.0046432296604245
                        0.0043770356553820
                        0.0037145776769156
                        0.0027226686879788
                        0.0014851646576574
                        0.0000979339903640
                        0.0013812900386545
                        0.0029499548266357
                        0.0046555448637887
                        0.0065513434976923
                        0.0086678880132679
                        0.0110006116641329
                        0.0134963993597843
                        0.0160654276171742
                        0.0186017877921202
                        0.0209981721564393
                        0.0231564585456003
                        0.0249944900086734
                        0.0264501565996310
                        0.0274834285001330
                        0.0280765894992089
                        0.0282336687050716
                        0.0279784367981253
                        0.0273467628286881
                        0.0263808167289301
                        0.0251274842625524
                        0.0236358491964948
                        0.0219548928201564
                        0.0201316493532419
                        0.0182098144400389
                        0.0162288016146014
                        0.0142231961164089
                        0.0122225490702790
                        0.0102514138681041
                        0.0083296491268517
                        0.0064725864491429
                        0.0046922321960829
                        0.0029950721900874
                        0.0013922371515896
                        0.0003103441809147
                </DataArray>
                <DataArray type="Float32" Name="aspect_ratio" NumberOfComponents="1" format="ascii">
                        1.4817221630978223
                        1.6667211253652850
                        1.8545854349828485
                        2.0564486489791236
                        2.2751360880621996
                        2.5127221846123090
                        2.7708161596246184
                        3.0506168123152562
                        3.3528268201275622
                        3.6774558241357200
                        4.0235096410860157
                        4.3885307545524356
                        4.7682119976212573
                        5.1567436589482513
                        5.5477687035556072
                        5.9355219959520322
                        6.3159525668459364
                        6.6871101694169143
                        7.0485271364974740
                        7.3999492368950235
                        7.7389662180180066
                        8.0591385602170376
                        8.3514488632168614
                        8.6063383489562812
                        8.8145804095711916
                        8.9698576710689804
                        9.0592184382653737
                        9.0774976177292545
                        9.2781564916151543
                        9.3841732697092158
                        9.1448360552594741
                        8.8398987248907421
                        8.4930930297677406
                        8.1205505239562187
                        7.7386694448142468
                        7.3591526400335621
                        6.9900648859892205
                        6.6354512561812374
                        6.2952154693663309
                        5.9654981730390830
                        5.6416191433680535
                        5.3203417364992438
                        5.0001553882126815
                        4.6810454588361124
                        4.3641467416006451
                        4.0513548568641935
                        3.7449625168880878
                        3.4473524264167549
                        3.1607625781110716
                        2.8871248503654619
                        2.6279774937790567
                        2.3844522107649163
                        2.1572713449945792
                        1.9467336854285535
                        1.7527551377850363
                        1.5749458238053342
                        1.4126846925404098
                        1.2651862172335420
                        1.1315573431329049
                        1.0108443134021029
                        1.1085614919746825
                        1.2433753639265018
                        1.3957194130632423
                        1.5678678408411114
                        1.7623990252332072
                        1.9822287565198398
                        2.2306725700604590
                        2.5113713799619160
                        2.8471771651930170
                        1.4945460386247087
                        1.6712561597530863
                        1.8555609973285494
                        2.0560083093494271
                        2.2742123360744580
                        2.5117240319294536
                        2.7699186891037547
                        3.0498835692047094
                        3.3522629979972748
                        3.6770328062662134
                        4.0231788835500212
                        4.3882344104147881
                        4.7678990860399865
                        5.1563824104223177
                        5.5473498905042206
                        5.9350520898594306
                        6.3154353440898689
                        6.6865297868234617
                        7.0478433676974384
                        7.3991012167292146
                        7.7378796945219080
                        8.0577713052541566
                        8.3497956605131890
                        8.6044108204438451
                        8.8124582282663505
                        8.9674917960814736
                        9.0566814812199621
                        9.0749362416449478
                        9.2759554301159429
                        9.3825038939873692
                        9.1435578348367023
                        8.8390115846284965
                        8.4925253220974179
                        8.1202044911064058
                        7.7384834992721270
                        7.3591431104180657
                        6.9903403185358005
                        6.6361857813401308
                        6.2965604352494768
                        5.9675157935543703
                        5.6442436337495323
                        5.3234085606389692
                        5.0034506118044761
                        4.6843441005988679
                        4.3672417426226665
                        4.0540760530861308
                        3.7471873262000657
                        3.4490095765883146
                        3.1618301847322011
                        2.8876239996210151
                        2.6279628643494267
                        2.3840014652809896
                        2.1564748477552312
                        1.9456865925937141
                        1.7515511910009249
                        1.5736733636954958
                        1.4114244689113397
                        1.2640106138140797
                        1.1305306397137396
                        1.0100235713148054
                        1.1092548630444236
                        1.2437795801274374
                        1.3955603839344854
                        1.5667389238262806
                        1.7597152991748584
                        1.9771722649542112
                        2.2221342926320544
                        2.4978735385485657
                        2.8266976487379406
                        1.5078147100061052
                        1.6780201897150354
                        1.8587732000350392
                        2.0573617455775641
                        2.2746413325645271
                        2.5117364629556182
                        2.7697883745265424
                        3.0497538981946429
                        3.3522010609972114
                        3.6770579147157605
                        4.0232791681757395
                        4.3883772063189860
                        4.7680436271369022
                        5.1564925120582862
                        5.5474017189793840
                        5.9350335952425386
                        6.3153366633622734
                        6.6863335961160371
                        7.0475230382702137
                        7.3986246034448388
                        7.7372087000669939
                        8.0568878538322095
                        8.3487044070971282
                        8.6031217825794731
                        8.8110421248722165
                        8.9659262479945888
                        9.0550342530525871
                        9.0733193341693769
                        9.2747243397702539
                        9.3817979733290979
                        9.1431458533924074
                        8.8388666193469193
                        8.4925618453135164
                        8.1203226951108592
                        7.7386324694388777
                        7.3593627757846778
                        6.9907758531870032
                        6.6370610799531358
                        6.2980833632929101
                        5.9697885874725754
                        5.6472194357390125
                        5.3269285142936867
                        5.0072982153203881
                        4.6882867535448598
                        4.3710619590037177
                        4.0575920257005657
                        3.7502647158461511
                        3.4515659506422522
                        3.1638334813490448
                        2.8890862325326972
                        2.6289307676561190
                        2.3845464176952753
                        2.1566833020682838
                        1.9456517411189698
                        1.7513660640685290
                        1.5734262327043471
                        1.4111960295296318
                        1.2638724659477613
                        1.1305446200889415
                        1.0102415194789188
                        1.1086846986072947
                        1.2426349287561789
                        1.3935414972180353
                        1.5634445314303285
                        1.7546222150775778
                        1.9696144239064991
                        2.2112865674930829
                        2.4827223503237619
                        2.8058894241324213
                        1.5212650422631448
                        1.6877858631017740
                        1.8653873005457775
                        2.0616936484648631
                        2.2774603170839673
                        2.5136121124628042
                        2.7711127633565910
                        3.0507875194431623
                        3.3531115464437311
                        3.6779467032490528
                        4.0241987509895015
                        4.3893395118120835
                        4.7690266601527390
                        5.1574533896794952
                        5.5482921045849936
                        5.9358104143067986
                        6.3159678597789552
                        6.6868010536718426
                        7.0478256453176780
                        7.3987815470970724
                        7.7372453754456717
                        8.0568290529763586
                        8.3485728593636273
                        8.6029260242621103
                        8.8108403548545335
                        8.9657436960776076
                        9.0549332961315529
                        9.0733561141959405
                        9.2752014445143549
                        9.3827993666705686
                        9.1442848428761514
                        8.8400630359328060
                        8.4937007111492138
                        8.1212955491510233
                        7.7394027834246918
                        7.3600087509451676
                        6.9915050310220154
                        6.6381833726956673
                        6.2999041683069952
                        5.9724799515420638
                        5.6507688419115667
                        5.3311892810460133
                        5.0120526191622336
                        4.6932928912101613
                        4.3760883547634496
                        4.0624404058155136
                        3.7547832564927865
                        3.4556546763177005
                        3.1674433290671933
                        2.8922130924348706
                        2.6316064382570576
                        2.3868295670378641
                        2.1586509908668309
                        1.9473904201891928
                        1.7529634417561996
                        1.5749654480099834
                        1.4127515599926368
                        1.2655072550918981
                        1.1323080482292378
                        1.0121679844461886
                        1.1060995587255680
                        1.2391055689432828
                        1.3887740732186188
                        1.5570954108105103
                        1.7463029209461958
                        1.9588994323993815
                        2.1977275055586311
                        2.4658485156842116
                        2.7850880601256102
                        1.5348589238434667
                        1.6990386328733070
                        1.8741784718789000
                        2.0683149557739042
                        2.2823746638636130
                        2.5172867401827089
                        2.7739464906152804
                        3.0530935246369502
                        3.3551232735096856
                        3.6798295017812591
                        4.0260599893460331
                        4.3912314293917955
                        4.7709467354706021
                        5.1593560663160198
                        5.5501095580534717
                        5.9374730547226202
                        6.3174235739170231
                        6.6880298077560354
                        7.0488478858734403
                        7.3996609423433103
                        7.7380624830583174
                        8.0576479240857214
                        8.3494337161873229
                        8.6038370017986561
                        8.8118516180917332
                        8.9669154362688333
                        9.0563211215939072
                        9.0749646524723957
                        9.2772859671029398
                        9.3853836044038547
                        9.1468456138294427
                        8.8424688249642732
                        8.4958101670704348
                        8.1229949211841910
                        7.7406725115920230
                        7.3609663254131233
                        6.9924188030236597
                        6.6394431894003131
                        6.3019021024913074
                        5.9754520894298466
                        5.6547375946632151
                        5.3360230842552305
                        5.0175362076884208
                        4.6991787194207536
                        4.3821341638943904
                        4.0684339566027530
                        3.7605569084931089
                        3.4610917160078983
                        3.1724776945807329
                        2.8968239073921619
                        2.6358094674296394
                        2.3906688987201726
                        2.1621909130666339
                        1.9507057032254757
                        1.7561300650232736
                        1.5780536477983402
                        1.4158207859964945
                        1.2686026989787895
                        1.1354585939208135
                        1.0153855511144136
                        1.1021007658838012
                        1.2340218810719021
                        1.3823622251197066
                        1.5490892313609649
                        1.7364172028535494
                        1.9468321080357262
                        2.1831635439731889
                        2.4484459372880385
                        2.7643420301895134
                        1.5486030476405390
                        1.7111577425431089
                        1.8843916753624705
                        2.0766242213301669
                        2.2889964942769721
                        2.5225438366314919
                        2.7781825514345559
                        3.0566239571064974
                        3.3582133279691928
                        3.6826874953941830
                        4.0288359842043017
                        4.3940117846619450
                        4.7737473600485032
                        5.1621314158815313
                        5.5527767373836420
                        5.9399404692905356
                        6.3196218820098815
                        6.6899371837989060
                        7.0505038295601889
                        7.4011685331611657
                        7.7395512344512371
                        8.0592185772214802
                        8.3511442752103007
                        8.6056972371780849
                        8.8139077926834510
                        8.9692544281861582
                        9.0589917322172505
                        9.0779250567404997
                        9.2807455320739399
                        9.3893051796351928
                        9.1505899728422667
                        8.8458561540771601
                        8.4986755997121950
                        8.1252220176045998
                        7.7422601661589264
                        7.3620710347663965
                        6.9933668332176278
                        6.6406975670298812
                        6.3039316697432058
                        5.9785512021712844
                        5.6589630446735654
                        5.3412602169209413
                        5.0235748552466153
                        4.7057684078691588
                        4.3890241876901403
                        4.0753998009554778
                        3.7674160204051557
                        3.4677107247425011
                        3.1787728457957013
                        2.9027561947927386
                        2.6413766473956468
                        2.3958977020634929
                        2.1671290381411345
                        1.9554115598165365
                        1.7606627710585746
                        1.5824655732700813
                        1.4201524554736428
                        1.2728798684098466
                        1.1396913904599434
                        1.0195695054221765
                        1.0971207452984972
                        1.2279174376825100
                        1.3749314073965316
                        1.5401152133498322
                        1.7256686188302495
                        1.9340612053080815
                        2.1681064892247314
                        2.4308062714499569
                        2.7436540909165401
                        1.5625138429781733
                        1.7238592680461423
                        1.8955833442599882
                        2.0861815086676233
                        2.2969776299865199
                        2.5291430251870055
                        2.7836673603428461
                        3.0612815714107845
                        3.3623140283633484
                        3.6864630401233536
                        4.0324663853930837
                        4.3976103336155394
                        4.7773460744348345
                        5.1656861834366791
                        5.5561930840575695
                        5.9431087549392608
                        6.3224583100073736
                        6.6924186656919724
                        7.0526870552256794
                        7.4031918573715498
                        7.7415880520503841
                        8.0614040013592080
                        8.3535543066404275
                        8.6083451339685959
                        8.8168389883063392
                        8.9725765553398771
                        9.0627468751674351
                        9.0820295006717034
                        9.2853632901918773
                        9.3943393120099790
                        9.1553027751901718
                        8.8500228052944650
                        8.5021102346666915
                        8.1278075288078613
                        7.7440147278567011
                        7.3631891857644314
                        6.9942292935122921
                        6.6418338496937315
                        6.3058786383096512
                        5.9816561223801883
                        5.6633160429410585
                        5.3467647299755001
                        5.0300279013298905
                        4.7129188343044346
                        4.3966147994066650
                        4.0831951952197555
                        3.7752193995049861
                        3.4753719623197312
                        3.1861896675813889
                        2.9098699916683495
                        2.6481651096734853
                        2.4023675549634494
                        2.1733082537162851
                        1.9613389595696617
                        1.7663778989997168
                        1.5880014755161271
                        1.4255312954760859
                        1.2781111508205975
                        1.1447724722515071
                        1.0244878845920005
                        1.0914487728039014
                        1.2211199967861047
                        1.3668335425803484
                        1.5305285605940737
                        1.7143900245373085
                        1.9208696119274725
                        2.1527626610278915
                        2.4130361497958183
                        2.7230124227715385
                        1.5766097028529656
                        1.7370015193498919
                        1.9074903114972436
                        2.0966815594389190
                        2.3060384298962447
                        2.5368630003057472
                        2.7902404497046713
                        3.0669532760539239
                        3.3673419190512803
                        3.6910864875020594
                        4.0368835984870839
                        4.4019541775775258
                        4.7816615653175516
                        5.1699310416717834
                        5.5602638418051016
                        5.9468810259015497
                        6.3258363415080124
                        6.6953787516278762
                        7.0553015792634284
                        7.4056309387936122
                        7.7440646446584765
                        8.0640853500608311
                        8.3565343653456843
                        8.6116420873374537
                        8.8204995677235757
                        8.9767247489028519
                        9.0674181080569659
                        9.0871021131612390
                        9.2909563036537785
                        9.4002980304922942
                        9.1608056959513883
                        8.8548034283819153
                        8.5059639570751292
                        8.1306181747180246
                        7.7458201147402392
                        7.3642204883233098
                        6.9949179454753899
                        6.6427694277515807
                        6.3076582950358426
                        5.9846751158695506
                        5.6676965228206582
                        5.3524289973279871
                        5.0367818760884372
                        4.7205126414799474
                        4.4047865068770267
                        4.0916997806849458
                        3.7838464480791883
                        3.4839545266129600
                        3.1946062302474379
                        2.9180410534061707
                        2.6560465618179119
                        2.4099440961397791
                        2.1805861196679950
                        1.9683358698792214
                        1.7731133750717483
                        1.5944903711494157
                        1.4317804245518652
                        1.2841185858862806
                        1.1505289067388744
                        1.0299792821019446
                        1.0852765566575995
                        1.2138338034754075
                        1.3582753660096577
                        1.5205267636778933
                        1.7027573666263690
                        1.9073998840981571
                        2.1372305195632945
                        2.3951806212337405
                        2.7024003795674942
                        1.5909091517677753
                        1.7505095312341170
                        1.9199521720154985
                        2.1079148301887943
                        2.3159637316668066
                        2.5455141729406866
                        2.7977503504243615
                        3.0735235908151140
                        3.3732078619602563
                        3.6964836721000604
                        4.0420186129480759
                        4.4069726081148866
                        4.7866179965731392
                        5.1747847081474410
                        5.5649040981561816
                        5.9511714151347607
                        6.3296713256494034
                        6.6987346560923565
                        7.0582652338278430
                        7.4084011935144171
                        7.7468902524569532
                        8.0671634989130334
                        8.3599766581238459
                        8.6154726535022442
                        8.8247678390487296
                        8.9815677606800652
                        9.0728646752969042
                        9.0929960388526378
                        9.2973719461069989
                        9.4070255413342071
                        9.1669521447971364
                        8.8600639238913760
                        8.5101172257120556
                        8.1335502424991186
                        7.7475884430566606
                        7.3650911554464195
                        6.9953692123707433
                        6.6434448329158607
                        6.3092083784940559
                        5.9875385985406378
                        5.6720261005047871
                        5.3581662939083383
                        5.0437431339578085
                        4.7284509993011447
                        4.4134369193324869
                        4.1008088402769468
                        3.7931908085928317
                        3.4933505032460777
                        3.2039125841732747
                        2.9271564709472388
                        2.6649039439834247
                        2.4185049135790609
                        2.1888340266031800
                        1.9762674284105339
                        1.7807291946515108
                        1.6017895736935580
                        1.4387581680469038
                        1.2907659936195602
                        1.1568345957167963
                        1.0359316312257017
                        1.0787328981517884
                        1.2061901523406622
                        1.3493844805259248
                        1.5102272781289789
                        1.6908716780224178
                        1.8937308201966941
                        2.1215613802086247
                        2.3772587685628019
                        2.6818002560447622
                        1.6054304677380649
                        1.7643426271653137
                        1.9328682847078751
                        2.1197365289917905
                        2.3265904583213011
                        2.5549394395691940
                        2.8060607645582755
                        3.0808811316995331
                        3.3798218090896073
                        3.7025787294253175
                        4.0478022589176673
                        4.4125972620661407
                        4.7921444526591663
                        5.1801729637591576
                        5.5700375468211109
                        5.9559036604684281
                        6.3338888891363004
                        6.7024144950519304
                        7.0615075566518079
                        7.4114309285538715
                        7.7499886344101302
                        8.0705555242687436
                        8.3637910496483545
                        8.6197401281480924
                        8.8295413973874037
                        8.9869949795958637
                        9.0789678384069278
                        9.0995873879684248
                        9.3044815108880990
                        9.4143912798148756
                        9.1736203094932325
                        8.8656944401472168
                        8.5144740625614146
                        8.1365226290287047
                        7.7492531861729890
                        7.3657472519969975
                        6.9955377942504056
                        6.6438176200386444
                        6.3104830666795319
                        5.9901931652126114
                        5.6762421962430607
                        5.3639050659070506
                        5.0508323191768625
                        4.7366483076714193
                        4.4224757322502045
                        4.1104286179507419
                        3.8031560815503322
                        3.5034611589701490
                        3.2140075190580653
                        2.9371120945516322
                        2.6746295976708036
                        2.4279384502594430
                        2.1979366444340567
                        1.9850154734037312
                        1.7891062733694825
                        1.6097818703738931
                        1.4463525301526459
                        1.2979499793787841
                        1.1635976220959680
                        1.0422664371660632
                        1.0719062652823168
                        1.1982763250689301
                        1.3402432163991845
                        1.4997037798561194
                        1.6787944924007068
                        1.8799085951504605
                        2.1057830940505913
                        2.3592773238743196
                        2.6611948321702890
                        1.6201916871973320
                        1.7784791474184420
                        1.9461739327027341
                        2.1320452055542702
                        2.3377951432417965
                        2.5650105052104884
                        2.8150521010376589
                        3.0889217998941233
                        3.3870955566855591
                        3.7092956706722467
                        4.0541655888286676
                        4.4187615512842491
                        4.7981737026475370
                        5.1860269960020322
                        5.5755945760407373
                        5.9610090300096318
                        6.3384227226609849
                        6.7063549065493157
                        7.0649671973062243
                        7.4146584606589927
                        7.7532948119629978
                        8.0741910760634510
                        8.3679011036547804
                        8.6243623102899105
                        8.8347327554307946
                        8.9929117248948966
                        9.0856258575332199
                        9.1067699998001154
                        9.3121747704211137
                        9.4222841277586007
                        9.1807074564010950
                        8.8716037367852649
                        8.5189565033686389
                        8.1394714212390932
                        7.7507639320247304
                        7.3661496834180611
                        6.9953919370280590
                        6.6438578986754710
                        6.3114486424022188
                        5.9925973308939309
                        5.6802938810689443
                        5.3695849229152169
                        5.0579805366068672
                        4.7450285753227149
                        4.4318213448051829
                        4.1204732110005648
                        3.8136530364888010
                        3.5141945215457527
                        3.2247965631247645
                        2.9478109869427866
                        2.6851241568499642
                        2.4381432104844423
                        2.2077911605771462
                        1.9944773542223426
                        1.7981442423061079
                        1.6183717100939757
                        1.4544753560446433
                        1.3055919914747692
                        1.1707505422642025
                        1.0489280058812834
                        1.0648589029282071
                        1.1901521908213498
                        1.3309067144982375
                        1.4890044344659678
                        1.6665649005061471
                        1.8659612668744716
                        2.0899108344538256
                        2.3412367677830940
                        2.6405679842097159
                        1.6352107083428157
                        1.7929086663493471
                        1.9598267627070911
                        2.1447685748480188
                        2.3494836644790967
                        2.5756229810223806
                        2.8246207282730651
                        3.0975500724590568
                        3.3949443767683024
                        3.7165594693133770
                        4.0610401593654613
                        4.4254002016404078
                        4.8046411773436827
                        5.1922820060705617
                        5.5815106533570872
                        5.9664245754866808
                        6.3432127360718201
                        6.7104990948944601
                        7.0685898131133300
                        7.4180298043109180
                        7.7567524807247066
                        8.0780095139249643
                        8.3722409781004984
                        8.6292682079545139
                        8.8402659644405559
                        8.9992356330195879
                        9.0927501563915539
                        9.1144514620791953
                        9.3203558592162596
                        9.4306080692753037
                        9.1881256740398945
                        8.8777150072856162
                        8.5235005146813666
                        8.1423459400774816
                        7.7520825920771270
                        7.3662706122287865
                        6.9949100890719596
                        6.6435452050842815
                        6.3120804795280535
                        5.9947185828673254
                        5.6841390129087902
                        5.3751538883720757
                        5.0651267424295748
                        4.7535229724453211
                        4.4413985956612167
                        4.1308625128567122
                        3.8245977888530374
                        3.5254638173573513
                        3.2361906977419030
                        2.9591624014440645
                        2.6962957157554171
                        2.4490269491405870
                        2.2183062133339687
                        2.0045642494234511
                        1.8077587847108285
                        1.6274812948188352
                        1.4630571186421579
                        1.3136319979916666
                        1.1782433700822159
                        1.0558762733651453
                        1.0576356554113751
                        1.1818599886510099
                        1.3214130823207315
                        1.4781617766795544
                        1.6542085115297645
                        1.8519062354198330
                        2.0739525477488966
                        2.3231343413703203
                        2.6199048786112053
                        1.6505054117432246
                        1.8076277517942585
                        1.9737988011353077
                        2.1578542012620572
                        2.3615834029931691
                        2.5866916086252344
                        2.8346771943970502
                        3.1066791397882735
                        3.4032878715342411
                        3.7242968134519044
                        4.0683583107140829
                        4.4324489943453595
                        4.8114842618465977
                        5.1988761898033583
                        5.5877251175051493
                        5.9720918182728430
                        6.3482036749710559
                        6.7147953736470074
                        7.0723265092006665
                        7.4214969591999684
                        7.7603120901413974
                        8.0819577763850520
                        8.3767531127079143
                        8.6343955897279023
                        8.8460741052578653
                        9.0058939771537907
                        9.1002624732243983
                        9.1225501545154487
                        9.3289402180355535
                        9.4392789764230806
                        9.1957987333433358
                        8.8839628125663491
                        8.5280530119818367
                        8.1451058691815772
                        7.7531806723334925
                        7.3660909054224487
                        6.9940785462346615
                        6.6428663180262208
                        6.3123609498673755
                        5.9965313390849304
                        5.6877422580329877
                        5.3805665077829038
                        5.0722159596039491
                        4.7620681690988572
                        4.4511372375100837
                        4.1415208363879739
                        3.8359105837336534
                        3.5371864215007958
                        3.2481054632797810
                        2.9710809993050546
                        2.7080590589554506
                        2.4605057482716790
                        2.2294005919653237
                        2.0151992540541785
                        1.8178789290953791
                        1.6370470203279083
                        1.4720426100347731
                        1.3220236802442800
                        1.1860386124079960
                        1.0630820309636843
                        1.0502695768120578
                        1.1734302905163546
                        1.3117893793283541
                        1.4671983811874396
                        1.6417424927431516
                        1.8377543681102165
                        2.0579119163269601
                        2.3049656300851765
                        2.5991919754827567
                        1.6660937748346941
                        1.8226375198861047
                        1.9880715773615797
                        2.1712633222738861
                        2.3740374273804866
                        2.5981460983843771
                        2.8451440935089182
                        3.1162303652265386
                        3.4120502656003127
                        3.7324365690031622
                        4.0760534115288791
                        4.4398446525898998
                        4.8186418409174324
                        5.2057500285219957
                        5.5941803097603809
                        5.9779557931994663
                        6.3533441130147951
                        6.7191961076905506
                        7.0761327073593557
                        7.4250166643097577
                        7.7639294374293136
                        8.0859888095736993
                        8.3813865158863257
                        8.6396891692481757
                        8.8520974248431271
                        9.0128216727638053
                        9.1080927327818112
                        9.1309930360534705
                        9.3378523039065225
                        9.4482222051474453
                        9.2036597438927051
                        8.8902908015455186
                        8.5325696539282785
                        8.1477191445805089
                        7.7540372856311495
                        7.3655982966109390
                        6.9928897768095913
                        6.6418137196738856
                        6.3122779567418282
                        5.9980155221418322
                        5.6910737129542916
                        5.3857825372968372
                        5.0791980491707690
                        4.7706051997366895
                        4.4609709005996454
                        4.1523759786874062
                        3.8475149597201709
                        3.5492831095216140
                        3.2604602695629108
                        2.9834861594295022
                        2.7203348706546133
                        2.4725029877749444
                        2.2410018144841656
                        2.0263154358775034
                        1.8284445278326401
                        1.6470164250201215
                        1.4813875117008247
                        1.3307308453800625
                        1.1941077625227753
                        1.0705237056058144
                        1.0427855819701383
                        1.1648857622201509
                        1.3020552991939011
                        1.4561302832931674
                        1.6291785606491650
                        1.8235124114490402
                        2.0417900583480927
                        2.2867254310471511
                        2.5784169475487941
                        1.6819939744698890
                        1.8379421541621268
                        2.0026330328320792
                        2.1849666813075646
                        2.3868002162911575
                        2.6099276807465502
                        2.8559539283153312
                        3.1261323803895093
                        3.4211603039039028
                        3.7409099937985723
                        4.0840600362176313
                        4.4475248077943619
                        4.8260540200422065
                        5.2128458087438327
                        5.6008209603942417
                        5.9839643608328540
                        6.3585857234350255
                        6.7236569486593661
                        7.0799673275120543
                        7.4285494906200740
                        7.7675646338055808
                        8.0900604004011657
                        8.3860954838029655
                        8.6450992435737089
                        8.8582819334825714
                        9.0199597711396147
                        9.1161774307977959
                        9.1397139593222592
                        9.3470238415913005
                        9.4573707626223997
                        9.2116493698424691
                        8.8966499833226471
                        8.5370131796470605
                        8.1501603760098186
                        7.7546376803517901
                        7.3647860437963389
                        6.9913412152116591
                        6.6403844993040542
                        6.3118238977629117
                        5.9991555548298335
                        5.6941079377354623
                        5.3907660297626449
                        5.0860268614571520
                        4.7790786853623101
                        4.4708363849659733
                        4.1633585762826144
                        3.8593371530775532
                        3.5616774864183591
                        3.2731778095280356
                        2.9963013141476486
                        2.7330489062439738
                        2.4849482524636447
                        2.2530446797756150
                        2.0378539832151455
                        1.8394040178760163
                        1.6573456535190365
                        1.4910557068134722
                        1.3397247555547816
                        1.2024288006867651
                        1.0781851465622241
                        1.0352028825284208
                        1.1562436132206275
                        1.2922255225359720
                        1.4449691302350650
                        1.6165248361298920
                        1.8091844650896597
                        2.0255865436429372
                        2.2684082394364578
                        2.5575685658150324
                        1.6982244770409131
                        1.8535479674486533
                        2.0174754880710499
                        2.1989416508696680
                        2.3998344979074930
                        2.6219863113561039
                        2.8670471309572462
                        3.1363200167604534
                        3.4305508885074243
                        3.7496507499431905
                        4.0923140605110281
                        4.4554279988713832
                        4.8336619616972333
                        5.2201073050675895
                        5.6075937617932313
                        5.9900677167022793
                        6.3638827539320370
                        6.7281362820888251
                        7.0837921934052172
                        7.4320591762165348
                        7.7711813373659610
                        8.0941342998261764
                        8.3908386292219988
                        8.6505806558176567
                        8.8645783301249352
                        9.0272543000330078
                        9.1244583832550585
                        9.1486523600570384
                        9.3563924597168061
                        9.4666638800751338
                        9.2197144423742648
                        8.9029973894708487
                        8.5413521298160028
                        8.1524096437803369
                        7.7549721333049946
                        7.3636519353367782
                        6.9894343832945633
                        6.6385795653478756
                        6.3109949260264787
                        5.9999396488959997
                        5.6968232757683955
                        5.3954846976918550
                        5.0926596515775414
                        4.7874363034314171
                        4.4806731780323399
                        4.1744016553381884
                        3.8713056570262533
                        3.5742955218028631
                        3.2861835251496966
                        3.0094532880199317
                        2.7461311374587562
                        2.4977762208838020
                        2.2654698605591366
                        2.0497625046825507
                        1.8507124809178589
                        1.6679973750064183
                        1.5010171779686164
                        1.3489821239013024
                        1.2109843834089908
                        1.0860540680669384
                        1.0275366541079188
                        1.1475172414839099
                        1.2823112720544519
                        1.4337235842385017
                        1.6037870388984681
                        1.7947729164662501
                        2.0093000212949137
                        2.2500085240690287
                        2.5366365770446296
                        1.7148041171086204
                        1.8694627803200624
                        2.0325942527315179
                        2.2131701907241797
                        2.4131088834579161
                        2.6342784192895475
                        2.8783702993763603
                        3.1467331948220467
                        3.4401585556536498
                        3.7585947636756763
                        4.1007526777075110
                        4.4634936774221476
                        4.8414077951057737
                        5.2274795784287815
                        5.6144470777650902
                        5.9962180450722274
                        6.3691916499798907
                        6.7325948277909538
                        7.0875715996907807
                        7.4355121357329983
                        7.7747461780311986
                        8.0981755555832760
                        8.3955781341056297
                        8.6560919913906004
                        8.8709411637114453
                        9.0346553537433244
                        9.1328817381838028
                        9.1577522162732263
                        9.3659006036494383
                        9.4760458771008639
                        9.2278068569761752
                        8.9092950161054850
                        8.5455598429153120
                        8.1544515648771222
                        7.7550351034187013
                        7.3621975444189316
                        6.9871742444053530
                        6.6364030757079047
                        6.3097904221644150
                        6.0003593009346826
                        5.6992013761256258
                        5.3999094721321114
                        5.0990566818232395
                        4.7956284325062071
                        4.4904231300705427
                        4.1854403163714029
                        3.8833508849310498
                        3.5870651525161983
                        3.2994051036346416
                        3.0228716382336468
                        2.7595148912047350
                        2.5109255718853336
                        2.2782225749179594
                        2.0619934989968343
                        1.8623299792483650
                        1.6789390751226063
                        1.5112463490598873
                        1.3584835868767670
                        1.2197605022542366
                        1.0941209229572838
                        1.0197992071169695
                        1.1387173706529945
                        1.2723213735900286
                        1.4224002685110720
                        1.5909692830153933
                        1.7802790533319415
                        1.9929286186739377
                        2.2315208832312364
                        2.5156115851866040
                        1.7317521655534526
                        1.8856954882910773
                        2.0479866336692335
                        2.2276373499702856
                        2.4265960577653396
                        2.6467650827047651
                        2.8898746522145135
                        3.1573158384365341
                        3.4499228664108344
                        3.7676799784189016
                        4.1093143480049367
                        4.4716622064170286
                        4.8492345727766665
                        5.2349088563178254
                        5.6213307527797042
                        6.0023692795675845
                        6.3744707873916784
                        6.7369953521853005
                        7.0912719963595375
                        7.4388770964920855
                        7.7782283223662573
                        8.1021519978587208
                        8.4002791657810781
                        8.6615949446869875
                        8.8773281664753122
                        9.0421163648888236
                        9.1413971789757561
                        9.1669612042278537
                        9.3754946503444319
                        9.4854652384798058
                        9.2358826782197758
                        8.9155089694412057
                        8.5496136515788604
                        8.1562745549024832
                        7.7548245749711669
                        7.3604276636024873
                        6.9845687253323747
                        6.6338620250114591
                        6.3082126175699978
                        6.0004089365962112
                        5.7012268609072629
                        5.4040142017826713
                        5.1051809579949326
                        4.8036079222380481
                        4.5000302428611770
                        4.1964115152109863
                        3.8954049075415063
                        3.5999159336864099
                        3.3127719979943908
                        3.0364880047325214
                        2.7731360018359871
                        2.5243379329650982
                        2.2912513522957728
                        2.0745029881320416
                        1.8742201260463484
                        1.6901416407269637
                        1.5217207550846769
                        1.3682125124266698
                        1.2287454618364987
                        1.1023780610797627
                        1.0120008316057108
                        1.1298528599498759
                        1.2622630032983952
                        1.4110044262961490
                        1.5780746245879009
                        1.7657034784978394
                        1.9764702025657529
                        2.2129401317274785
                        2.4944849423244925
                        1.7490883878928277
                        1.9022557417185381
                        2.0636511906870376
                        2.2423301232160024
                        2.4402713555512388
                        2.6594105285711728
                        2.9015146795438357
                        3.1680148477740587
                        3.4597857616159791
                        3.7768460403842379
                        4.1179386982101369
                        4.4798748497176839
                        4.8570862579855893
                        5.2423424721088127
                        5.6281959952102231
                        6.0084769433972233
                        6.3796802860225128
                        6.7413024632773942
                        7.0948617594746279
                        7.4421248277916107
                        7.7815991414141882
                        8.1060338378943411
                        8.4049094140165531
                        8.6670538116643474
                        8.8836997142498371
                        9.0495935102218457
                        9.1499572690125086
                        9.1762299995780244
                        9.3851241723346342
                        9.4948738477693873
                        9.2439013974529447
                        8.9216087610558819
                        8.5534942261508165
                        8.1578702341447643
                        7.7543415401920108
                        7.3583498714701175
                        6.9816283610042101
                        6.6309659461806126
                        6.3062663272803488
                        6.0000856619735533
                        5.7028870971053382
                        5.4077754531834483
                        5.1109980624911405
                        4.8113299544640121
                        4.5094405416026612
                        4.2072539160856544
                        3.9074012477634346
                        3.6127787309266095
                        3.3262149746148111
                        3.0502354815416385
                        2.7869319931051794
                        2.5379568839835459
                        2.3045068954338659
                        2.0872492942315312
                        1.8863488442003079
                        1.7015781656769524
                        1.5324199478879153
                        1.3781540409657132
                        1.2379290727578050
                        1.1108190751458304
                        1.0041504255431630
                        1.1209312999209343
                        1.2521422319500483
                        1.3995403964296240
                        1.5651054526365606
                        1.7510464009825186
                        1.9599225560173178
                        2.1942613487269797
                        2.4732486513545614
                        1.7668330928824518
                        1.9191536905984934
                        2.0795871435722501
                        2.2572365335697009
                        2.4541115992709482
                        2.6721808698671471
                        2.9132469566671154
                        3.1787791431620150
                        3.4696909148889403
                        3.7860339492083735
                        4.1265663907329354
                        4.4880737559088440
                        4.8649077348705009
                        5.2497288481501221
                        5.6349953158658339
                        6.0144980491621395
                        6.3847818840456056
                        6.7454824671000193
                        7.0983110259325475
                        7.4452279392992123
                        7.7848319550557431
                        8.1097933506290860
                        8.4094387181509194
                        8.6724350761321378
                        8.8900183815050895
                        9.0570452162813830
                        9.1585169015400531
                        9.1855116865085425
                        9.3947413127625887
                        9.5042263374378684
                        9.2518253040594203
                        8.9275667140710445
                        8.5571850271730816
                        8.1592329402996119
                        7.7535895850430697
                        7.3559741969588407
                        6.9783660297638930
                        6.6277266959958797
                        6.3039587629215492
                        5.9993890926448505
                        5.7041720437642257
                        5.4111723835842257
                        5.1164760572454824
                        4.8187519710785409
                        4.5186020095824809
                        4.2179078017012539
                        3.9192747246525071
                        3.6255854530802332
                        3.3396656946233169
                        3.0640480211409099
                        2.8008413020172057
                        2.5517270223329934
                        2.3179410313479753
                        2.1001919354144730
                        1.8986832694229837
                        1.7132229166334704
                        1.5433245657749145
                        1.3882942829685071
                        1.2473019855784088
                        1.1194382672084885
                        1.0037580915818602
                        1.1119594673731653
                        1.2419644373270422
                        1.3880119708250502
                        1.5520637801763426
                        1.7363078497317639
                        1.9432835039218679
                        2.1754799042195965
                        2.4518952809289194
                        1.7850071709245965
                        1.9363997620156430
                        2.0957938651634702
                        2.2723448536374792
                        2.4680941066585253
                        2.6850430093244327
                        2.9250290862193127
                        3.1895587804315474
                        3.4795831057476564
                        3.7951856999655213
                        4.1351389806346905
                        4.4962019434713791
                        4.8726448378015261
                        5.2570175124379351
                        5.6416825081015367
                        6.0203910432184766
                        6.3897388573915858
                        6.7495032699308006
                        7.1015915759336386
                        7.4481607309944809
                        7.7879018334667140
                        8.1134046200805646
                        8.4138387615310635
                        8.6777070660757536
                        8.8962485673681119
                        9.0644317397719058
                        9.1670328281305983
                        9.1947612473879147
                        9.4043002432882098
                        9.5134795258038974
                        9.2596189411215857
                        8.9333574514605494
                        8.5606718383393817
                        8.1603593200112412
                        7.7525745513889915
                        7.3533128561174205
                        6.9747967557257995
                        6.6241583026443280
                        6.3012994041038719
                        5.9983212386600488
                        5.7050741527465873
                        5.4141866652273229
                        5.1215854364802746
                        4.8258336508110104
                        4.5274645711787283
                        4.2283150307656922
                        3.9309613432158955
                        3.6382688286193082
                        3.3530563376958398
                        3.0778598831159843
                        2.8148025537327050
                        2.5655930911149104
                        2.3315057405426074
                        2.1132906148170504
                        1.9111907577056137
                        1.7250504079751683
                        1.5544155100668557
                        1.3986196154128003
                        1.2568551115357790
                        1.1282301878417805
                        1.0118129544883854
                        1.1029436888986511
                        1.2317346319660150
                        1.3764226770543935
                        1.5389514728661577
                        1.7214878399079246
                        1.9265510085887443
                        2.1565914752511510
                        2.4304178924273583
                        1.8036321211512073
                        1.9540044463771427
                        2.1122704128451574
                        2.2876428989380577
                        2.4821957976836727
                        2.6979636516292006
                        2.9368187356295886
                        3.2003041325784839
                        3.4894076274468539
                        3.8042439381716830
                        4.1435987786150443
                        4.5042032962051589
                        4.8802443998430991
                        5.2641591421293695
                        5.6482126592005153
                        6.0261157829295527
                        6.3945159724393516
                        6.7533343143234172
                        7.1046767508765086
                        7.4508990814968572
                        7.7907854410344536
                        8.1168433313223963
                        8.4180828158844954
                        8.6828396621175607
                        8.9023561747395318
                        9.0717148036673374
                        9.1754632454101649
                        9.2039351119058188
                        9.4137566832890378
                        9.5225919181157865
                        9.2672486231410004
                        8.9389574443800659
                        8.5639423581138521
                        8.1612479779289841
                        7.7513042550853234
                        7.3503800421336358
                        6.9709375606536876
                        6.6202768588401217
                        6.2982999121164871
                        5.9968864290549427
                        5.7055883064571141
                        5.4168024446038028
                        5.1262991137187449
                        4.8325369211456878
                        4.5359801124820808
                        4.2384190366823244
                        3.9423982292246247
                        3.6507622305833949
                        3.3663192775284085
                        3.0916051376107610
                        2.8287538949169707
                        2.5794991699449749
                        2.3451522528629326
                        2.1265042788910378
                        1.9238379621495332
                        1.7370345432137357
                        1.5656731825368679
                        1.4091160315330191
                        1.2665790880511990
                        1.1371892115390783
                        1.0200286115479148
                        1.0938901478804380
                        1.2214577393327428
                        1.3647760160380797
                        1.5257704410422515
                        1.7065865123508148
                        1.9097232497535479
                        2.1375920593605795
                        2.4088099784270398
                        1.8227300653102221
                        1.9719780724820719
                        2.1290150600745819
                        2.3031173413026931
                        2.4963923441504570
                        2.7109083756631889
                        2.9485727404989689
                        3.2109651308045799
                        3.4991097402666989
                        3.8131516463234725
                        4.1518887367968888
                        4.5120225786113320
                        4.8876543219114449
                        5.2711056293020450
                        5.6545421849486890
                        6.0316335373755769
                        6.3990794623973857
                        6.7569465395299837
                        7.1075413971311552
                        7.4534203645820021
                        7.7934609113314414
                        8.1200865963831629
                        8.4221455219919721
                        8.6878040440501416
                        8.9083083285499990
                        9.0788572741824562
                        9.1837674242101983
                        9.2129907491197198
                        9.4230674633307005
                        9.5315232538137172
                        9.2746819981178777
                        8.9443446029695274
                        8.5669858326068226
                        8.1618991662398194
                        7.7497882437521033
                        7.3471917536217939
                        6.9668073517733698
                        6.6161004478628137
                        6.2949740734145930
                        5.9950912629831149
                        5.7057117792507884
                        5.4190063234380141
                        5.1305924303355944
                        4.8388259941405612
                        4.5441025309186537
                        4.2481648627266943
                        3.9535236093013648
                        3.6629995554641391
                        3.3793868182064710
                        3.1052172337273529
                        2.8426323925258587
                        2.5933879281651063
                        2.3588301997492693
                        2.1397902240427852
                        1.9365899490936231
                        1.7491477867092965
                        1.5770767449995974
                        1.4197685059066564
                        1.2764637542427879
                        1.1463091182143152
                        1.0284019398911375
                        1.0848051612847425
                        1.2111388432455784
                        1.3530756772664383
                        1.5125228143558755
                        1.6916042614960908
                        1.8927986997003522
                        2.1184779906307562
                        2.3870654121380641
                        1.8423237457177756
                        1.9903305522484881
                        2.1460247928426774
                        2.3187529958240200
                        2.5106573126860314
                        2.7238407252155236
                        2.9602462486617510
                        3.2214905590788534
                        3.5086341799716550
                        3.8218518790596256
                        4.1599523733509099
                        4.5196054810512048
                        4.8948236650046475
                        5.2778101655079923
                        5.6606288806331361
                        6.0369070035641607
                        6.4033970193754538
                        6.7603123586186627
                        7.1101618280216782
                        7.4557033857044518
                        7.7959077439413425
                        8.1231128037267521
                        8.4260026955212360
                        8.6925724639144134
                        8.9140731218304284
                        9.0858228666075743
                        9.1919053680445205
                        9.2218862887788654
                        9.4321901188930444
                        9.5402340852784331
                        9.2818876393975594
                        8.9494978951016585
                        8.5697927152365884
                        8.1623145005303326
                        7.7480375808094452
                        7.3437656489490738
                        6.9624268345731804
                        6.6116490924720479
                        6.2913377628580813
                        5.9929445769273670
                        5.7054442114934705
                        5.4207873501365673
                        5.1344431747113931
                        4.8446674162928855
                        4.5517878061967681
                        4.2574992294591863
                        3.9642768365527644
                        3.6749151611272705
                        3.3921910004119419
                        3.1186286430896267
                        2.8563735058773556
                        2.6071999421374764
                        2.3724868156823635
                        2.1531032346864147
                        1.9494093280633672
                        1.7613603342676280
                        1.5886033668797657
                        1.4305603409341356
                        1.2864976050383737
                        1.1555826533669037
                        1.0369290579900575
                        1.0756954479051363
                        1.2007834309930579
                        1.3413257500326054
                        1.4992111148615144
                        1.6765418643648572
                        1.8757762023224099
                        2.0992459628609429
                        2.3651784074407057
                        1.8624365034907280
                        2.0090710739789127
                        2.1632947343974753
                        2.3345320351810331
                        2.5249612546343836
                        2.7367212811764483
                        2.9717918844274368
                        3.2318273996981323
                        3.5179247325985722
                        3.8302875640488600
                        4.1677337514965724
                        4.5268987040996413
                        4.9017027678688622
                        5.2842273420048652
                        5.6664319823216321
                        6.0419003310350797
                        6.4074377951510572
                        6.7634056456962983
                        7.1125157975794095
                        7.4577283316609701
                        7.7981067153386306
                        8.1259014824613288
                        8.4296311484250963
                        8.6971180358403954
                        8.9196193799866369
                        9.0925758696736839
                        9.1998374896637356
                        9.2305801600930499
                        9.4410825021625556
                        9.5486853753144137
                        9.2888346545558840
                        8.9543969803414345
                        8.5723543404835895
                        8.1624966895485597
                        7.7460646440481890
                        7.3401209160268419
                        6.9578184413510282
                        6.6069447182969076
                        6.2874089182571308
                        5.9904574189486641
                        5.7047875865834807
                        5.4221370115727589
                        5.1378316019397436
                        4.8500301230982726
                        4.5589940849394390
                        4.2663706296290266
                        3.9745984611125080
                        3.6864438678603614
                        3.4046634858111122
                        3.1317705892248166
                        2.8699106417075489
                        2.6208730816284409
                        2.3860661860386408
                        2.1663947406261386
                        1.9622553745632269
                        1.7736392547733184
                        1.6002274289630969
                        1.4414724619837506
                        1.2966671927505576
                        1.1650010390984341
                        1.0456049404326884
                        1.0665684080506713
                        1.1903976491411485
                        1.3295309479479729
                        1.4858384434458854
                        1.6614006225488110
                        1.8586550645498392
                        2.0798930642915421
                        2.3431434894374400
                        1.8830922319691156
                        2.0282077181643176
                        2.1808174550490200
                        2.3504330800614919
                        2.5392706951136055
                        2.7495066812517110
                        2.9831589180881228
                        3.2419202328629492
                        3.5269238903562978
                        3.8384013870310269
                        4.1751775281769599
                        4.5338500906705797
                        4.9082433917266184
                        5.2903132622171916
                        5.6719122323551477
                        6.0465791480847897
                        6.4111724041851138
                        6.7662017272925889
                        7.1145824803453610
                        7.4594767273249632
                        7.8000397968118129
                        8.1284331732480853
                        8.4330085171396207
                        8.7014145336865310
                        8.9249164345822892
                        9.0990808790933431
                        9.2075242954188483
                        9.2390307369568003
                        9.4497024006153409
                        9.5568381016368105
                        9.2954922995341339
                        8.9590218472577010
                        8.5746625998352403
                        8.1624492671881153
                        7.7438829277741737
                        7.3362781478030195
                        6.9530062671538129
                        6.6020111241597860
                        6.2832075186057269
                        5.9876430216704582
                        5.7037462018257875
                        5.4230492155556290
                        5.1407404441788408
                        4.8548854887680423
                        4.5656817706263981
                        4.2747294445328223
                        3.9844303432266271
                        3.6975210249450779
                        3.4167355270015966
                        3.1445728739564123
                        2.8831748044786560
                        2.6343419748534171
                        2.3995085444119691
                        2.1796119876246626
                        1.9750831295830175
                        1.7859475779455910
                        1.6119196522871472
                        1.4524826272918415
                        1.3069564424157162
                        1.1745534048774356
                        1.0544229627086954
                        1.0574324356052863
                        1.1799885921814427
                        1.3176968652580778
                        1.4724086957170292
                        1.6461825302289503
                        1.8414351694944101
                        2.0604168289932905
                        2.3209554758314488
                        1.9043152985775295
                        2.0477469610679713
                        2.1985821112876061
                        2.3664301033939172
                        2.5535469686123767
                        2.7621485556633206
                        2.9942924330676167
                        3.2517107013765982
                        3.5355726091450146
                        3.8461357818417202
                        4.1822290875490016
                        4.5404088131771107
                        4.9143988923025753
                        5.2960256620400128
                        5.6770319425616267
                        6.0509105827875117
                        6.4145729226112496
                        6.7686773722505306
                        7.1163424518038924
                        7.4609313936923512
                        7.8016900726788615
                        8.1306892980745180
                        8.4361130889636157
                        8.7054361876416430
                        8.9299338981757784
                        9.1053025310861782
                        9.2149260672209811
                        9.2471959787693276
                        9.4580071512438421
                        9.5646528567438898
                        9.3018295862364360
                        8.9633524422155690
                        8.5767096079793478
                        8.1621763149440056
                        7.7415068374588790
                        7.3322592136593462
                        6.9480160048219345
                        6.5968739520250585
                        6.2787555585393429
                        5.9845167656983523
                        5.7023266239350649
                        5.4235202540607722
                        5.1431549012661904
                        4.8592073606855831
                        4.5718136090433857
                        4.2825280737644181
                        3.9937158039942165
                        3.7080826426502095
                        3.4283380287748558
                        3.1569638122520331
                        2.8960943571405655
                        2.6475375673653953
                        2.4127496298539758
                        2.1926972225746316
                        1.9878424656522715
                        1.7982433063799467
                        1.6236461208522489
                        1.4635645154167277
                        1.3173458417640963
                        1.1842261004237294
                        1.0633743423226002
                        1.0482972871012999
                        1.1695646481758095
                        1.3058302874632619
                        1.4589268271615981
                        1.6308904844220741
                        1.8241171230874481
                        2.0408153115674310
                        2.2986094699592067
                        1.9261304262343406
                        2.0676930167424235
                        2.2165733372772774
                        2.3824910677584941
                        2.5677448403116390
                        2.7745923505765246
                        3.0051324935168411
                        3.2611370629277742
                        3.5438101960525937
                        3.8534330494143094
                        4.1888347740990211
                        4.5465256210927512
                        4.9201244173777083
                        5.3013240321364165
                        5.6817550478718811
                        6.0548632716538182
                        6.4176128768190473
                        6.7708107744478984
                        7.1177776640198195
                        7.4620764013654098
                        7.8030416518047072
                        8.1326520207222414
                        8.4389236176320216
                        8.7091574704665683
                        8.9346414313416923
                        9.1112052261443375
                        9.2220025312057495
                        9.2550330551912696
                        9.4659532384696236
                        9.5720894307281004
                        9.3078148709753771
                        8.9673682768107763
                        8.5784873463196971
                        8.1616821620979203
                        7.7389514648300322
                        7.3280871160390131
                        6.9428748701139248
                        6.5915606486922830
                        6.2740770109411804
                        5.9810961243969081
                        5.7005376190786667
                        5.4235487362443560
                        5.1450626000232521
                        4.8629720665970003
                        4.5773547573400596
                        4.2897210674923526
                        4.0023998054964022
                        3.7180655860251343
                        3.4394017037900768
                        3.1688702864863643
                        2.9085949103140392
                        2.6603867963643713
                        2.4257201236301619
                        2.2055869045925558
                        2.0004771174525049
                        1.8104783343964042
                        1.6353671663443446
                        1.4746866479225919
                        1.3278114580822298
                        1.1940018425614211
                        1.0724474316271794
                        1.0391745397043559
                        1.1591359332989100
                        1.2939395864168679
                        1.4453991944331588
                        1.6155285596249502
                        1.8067024505000307
                        2.0210871945367232
                        2.2761008669947077
                        1.9485625226359125
                        2.0880469440293425
                        2.2347697774517152
                        2.3985761872468691
                        2.5818108414934549
                        2.7867760175224901
                        3.0156133309498585
                        3.2701338680739223
                        3.5515743651769353
                        3.8602356332945785
                        4.1949422393854094
                        4.5521531517050499
                        4.9253771255165761
                        5.3061697345607770
                        5.6860471419900855
                        6.0584073482693477
                        6.4202672149829630
                        6.7725815224560984
                        7.1188714107818456
                        7.4628970132003380
                        7.8040795648087760
                        8.1343040889196600
                        8.4414191180567960
                        8.7125528630503320
                        8.9390084920425152
                        9.1167528320877604
                        9.2287125008523148
                        9.2624979415058568
                        9.4734958620543636
                        9.5791063629050093
                        9.3134154092398416
                        8.9710479992054819
                        8.5799872688682013
                        8.1609710487727966
                        7.7362323292940019
                        7.3237858196810281
                        6.9376115062699989
                        6.5861004099026519
                        6.2691977681385740
                        5.9774005793242788
                        5.6983900455779844
                        5.4231354783961839
                        5.1464535085872195
                        4.8661583801652724
                        4.5822728218619789
                        4.2962652467180595
                        4.0104291476174910
                        3.7274078220886053
                        3.4498573216188197
                        3.1802179291353400
                        2.9205993597575379
                        2.6728124086973473
                        2.4383451960903532
                        2.2182109664815672
                        2.0129236869193188
                        1.8225972636008285
                        1.6470360837496930
                        1.4858110985848592
                        1.3383237220318429
                        1.2038586320970332
                        1.0816268007739320
                        1.0300781823430241
                        1.1487148605042063
                        1.2820352433603996
                        1.4318340119084510
                        1.6001023794219688
                        1.7891938664274551
                        2.0012319424130454
                        2.2534253757806365
                        1.9716364421301224
                        2.1088054045510249
                        2.2531420934266117
                        2.4146356637156496
                        2.5956812358228506
                        2.7986285610461002
                        3.0256625929643352
                        3.2786318233457013
                        3.5588015121904762
                        3.8664865826725367
                        4.2005009148484251
                        4.5572463036208334
                        4.9301164187121385
                        5.3105261041748889
                        5.6898754858568444
                        6.0615144038963689
                        6.4225122547605902
                        6.7739705501061566
                        7.1196082763160065
                        7.4633796094038174
                        7.8047896385583332
                        8.1356286481157561
                        8.4435786289123449
                        8.7155965873067430
                        8.9430040560624993
                        9.1219083535978821
                        9.2350134801608007
                        9.2695449689027496
                        9.4805884588601754
                        9.5856604453419832
                        9.3185968594067656
                        8.9743689116203980
                        8.5811998524764769
                        8.1600467338226087
                        7.7333650683479961
                        7.3193800377065554
                        6.9322558545982566
                        6.5805240951162843
                        6.2641455496236128
                        5.9734514928422787
                        5.6958966944332522
                        5.4222833349977316
                        5.1473197889630543
                        4.8687474271063208
                        4.5865378460077302
                        4.3021197922432143
                        4.0177526631634827
                        3.7360487056118755
                        3.4596360439335838
                        3.1909314386564473
                        2.9320280919670653
                        2.6847329569352840
                        2.4505442069110102
                        2.2304921682706249
                        2.0251106504907793
                        1.8345361181851228
                        1.6585976510847085
                        1.4968919341371888
                        1.3488459024698134
                        1.2137683539026634
                        1.0908920231575263
                        1.0210254044044330
                        1.1383169098487658
                        1.2701305659486884
                        1.4182419837140293
                        1.5846196355418428
                        1.7715956567305207
                        1.9812500242262590
                        2.2305790600701704
                        1.9953766602630487
                        2.1299588874047707
                        2.2716501878923861
                        2.4306066886639498
                        2.6092795258294424
                        2.8100684654747082
                        3.0352007349861452
                        3.2865579273804063
                        3.5654272720176533
                        3.8721302369134264
                        4.2054626208010348
                        4.5617626691318780
                        4.9343041791906309
                        5.3143585242243814
                        5.6932089796585588
                        6.0641574126416446
                        6.4243256012161629
                        6.7749600626739034
                        7.1199740621873990
                        7.4635115886365914
                        7.8051583393226184
                        8.1366090161576006
                        8.4453809308020021
                        8.7182622930982220
                        8.9465962959179111
                        9.1266335535261329
                        9.2408612099981787
                        9.2761263110831135
                        9.4871821591683871
                        9.5917061580212016
                        9.3233227142425978
                        8.9773064123125320
                        8.5821140692264899
                        8.1589120252669203
                        7.7303650551961461
                        7.3148949544884344
                        6.9268389736105232
                        6.5748640975646472
                        6.2589497604253603
                        5.9692719202375308
                        5.6930720584642509
                        5.4209969505588962
                        5.1476555664907843
                        4.8707225093861959
                        4.5901222241433995
                        4.3072462770161292
                        4.0243213856548235
                        3.7439292802699919
                        3.4686698296914514
                        3.2009350257246488
                        2.9427993743515032
                        2.6960630119321288
                        2.4622306154106665
                        2.2423456065426145
                        2.0369574222307586
                        1.8462209859472090
                        1.6699864388897165
                        1.5078733285895661
                        1.3593321771523135
                        1.2236949412255734
                        1.1002160360904624
                        1.0120376793040092
                        1.1279617055693606
                        1.2582427042228437
                        1.4046372082352266
                        1.5690908363985036
                        1.7539142325530354
                        1.9611432398792580
                        2.2075584048845557
                        2.0198068354072991
                        2.1514890896532081
                        2.2902392387451274
                        2.4464094227456253
                        2.6225134170651807
                        2.8210020775775907
                        3.0441406940477448
                        3.2938360053604490
                        3.5713874396910518
                        3.8771131681352899
                        4.2097823195338237
                        4.5656630194348495
                        4.9379050003259681
                        5.3176344670885365
                        5.6960180920819755
                        6.0663106174038589
                        6.4256860327609664
                        6.7755334369722973
                        7.1199556902912284
                        7.4632812415522740
                        7.8051725781419561
                        8.1372284097309654
                        8.4468042086669997
                        8.7205226863295279
                        8.9497522060343922
                        9.1308885106566303
                        9.2462091395033155
                        9.2821913864210020
                        9.4932251555890779
                        9.5971950120829485
                        9.3275536351991881
                        8.9798333358930063
                        8.5827167538828490
                        8.1575682055223059
                        7.7272469160593614
                        7.3103558593520702
                        6.9213927837102811
                        6.5691541489984135
                        6.2536412787633591
                        5.9648863375952366
                        5.6899320044537479
                        5.4192824053610862
                        5.1474565883040203
                        4.8720688181842433
                        4.5930005103524173
                        4.3116086084424069
                        4.0300886546959562
                        3.7509925607088657
                        3.4768918814740460
                        3.2101529744546509
                        2.9528299373955770
                        2.7067136294816525
                        2.4733121695325671
                        2.2536784694383652
                        2.0483735634385065
                        1.8575666495216722
                        1.6811249232091213
                        1.5186873001864972
                        1.3697251851057105
                        1.2335919419003754
                        1.1095628893151578
                        1.0031422942710148
                        1.1176745695913120
                        1.2463941395072121
                        1.3910385187886373
                        1.5535304250026314
                        1.7361589615313977
                        1.9409152104708948
                        2.1843604165491629
                        2.0449492257770233
                        2.1733649035647023
                        2.3088338883175975
                        2.4619415689726228
                        2.6352712066755873
                        2.8313221261130446
                        3.0523880712139138
                        3.3003878156092762
                        3.5766193528987591
                        3.8813854228199846
                        4.2134190221820150
                        4.5689118405455015
                        4.9408864086288082
                        5.3203235009034848
                        5.6982747518323430
                        6.0679493848942728
                        6.4265733651210614
                        6.7756751056570680
                        7.1195410914971803
                        7.4626776043096565
                        7.8048194821328487
                        8.1374696227957686
                        8.4478256556219605
                        8.7223490927013163
                        8.9524371692472468
                        9.1346311042331399
                        9.2510078086924260
                        9.2876861577290633
                        9.4986619644363036
                        9.6020747781766549
                        9.3312466635895775
                        8.9819191637458647
                        8.5829918360133070
                        8.1560143192529175
                        7.7240239142508393
                        7.3057876590512042
                        6.9159497082738873
                        6.5634290326136905
                        6.2482521448469180
                        5.9603202537884067
                        5.6864933141354100
                        5.4171467193888838
                        5.1467197337205321
                        4.8727729969170407
                        4.5951490809079395
                        4.3151728363753744
                        4.0350101113629867
                        3.7571837462517005
                        3.4842370866449115
                        3.2185102840443757
                        2.9620357387894822
                        2.7165930991167229
                        2.4836914480720278
                        2.2643901547700873
                        2.0592582784416453
                        1.8684753337391113
                        1.6919214720696131
                        1.5292510511011244
                        1.3799529372942602
                        1.2433992708889104
                        1.1188846044609376
                        1.0056572574566157
                        1.1074888349533486
                        1.2346149471398139
                        1.3774715503100316
                        1.5379585175739504
                        1.7183434651822566
                        1.9205721405683844
                        2.1609827694189541
                        2.0708239264253455
                        2.1955359920512632
                        2.3273295210869017
                        2.4770710703080812
                        2.6474177074735605
                        2.8409067468990218
                        3.0598421799663918
                        3.3061349671423010
                        3.5810638617990420
                        3.8849021187778071
                        4.2163368760847794
                        4.5714779403577215
                        4.9432191017027874
                        5.3223972946223666
                        5.6999522407105478
                        6.0690500735217560
                        6.4269683393200916
                        6.7753704719753200
                        7.1187191251787683
                        7.4616903347333242
                        7.8040861694240133
                        8.1373146901332342
                        8.4484210470979825
                        8.7237109816149869
                        8.9546144889437900
                        9.1378164420022537
                        9.2552041522554470
                        9.2925523325866316
                        9.5034325784728201
                        9.6062885935008080
                        9.3343542958916443
                        8.9835290863768182
                        8.5829194132636180
                        8.1542462956768850
                        7.7207071693440766
                        7.3012142360234472
                        6.9105421796415093
                        6.5577241746290902
                        6.2428151176486879
                        5.9555996676079801
                        5.6827730509013389
                        5.4145971686873351
                        5.1454423286152472
                        4.8728225038838534
                        4.5965455967135848
                        4.3179067685572775
                        4.0390435200456318
                        3.7624502978205099
                        3.4906423836006905
                        3.2259333286319779
                        2.9703328702790103
                        2.7256079792333575
                        2.4932668233579500
                        2.2743728904569671
                        2.0695003951171454
                        1.8788357865301973
                        1.7022683787467741
                        1.5394639715915633
                        1.3899249880699021
                        1.2530388828635605
                        1.1281167422087161
                        1.0144239544505244
                        1.0974494080104781
                        1.2229463771890825
                        1.3639720737061015
                        1.5224037423908823
                        1.7004877468069097
                        1.9001240594272395
                        2.1374240193570446
                        2.0974478994806912
                        2.2179219608226476
                        2.3455789004002783
                        2.4916264826220049
                        2.6587901680069377
                        2.8496197107513503
                        3.0663985146057758
                        3.3110019847026105
                        3.5846680693480799
                        3.8876255083131383
                        4.2185065241722633
                        4.5733352234379193
                        4.9448773123831204
                        5.3238297461759061
                        5.7010252241270634
                        6.0695900573947253
                        6.4268526808520067
                        6.7746060032089042
                        7.1174796773331427
                        7.4603097561959846
                        7.8029596666854134
                        8.1367446692079686
                        8.4485644124576697
                        8.7245755699671655
                        8.9562450046122662
                        9.1403963367906346
                        9.2587408178945168
                        9.2967265442210054
                        9.5074715827001625
                        9.6097740083930874
                        9.3368234693860582
                        8.9846229501275712
                        8.5824746847454748
                        8.1522559117648779
                        7.7173047070484444
                        7.2966576402347231
                        6.9052019944244370
                        6.5520750971653712
                        6.2373630734610116
                        5.9507503325962712
                        5.6787877065931618
                        5.4116403624960045
                        5.1436212070990769
                        4.8722047127913928
                        4.5971681981944417
                        4.3197793189237452
                        4.0421483335971323
                        3.7667417855463385
                        3.4960469528911540
                        3.2323504348049821
                        2.9776385227866510
                        2.7336643769163928
                        2.5019338788312210
                        2.2835129975210157
                        2.0789790852352795
                        1.8885230330875169
                        1.7120402880779942
                        1.5492045482304235
                        1.3995278870492571
                        1.2624090944598557
                        1.1371721196364211
                        1.0230964430615278
                        1.0876184452237902
                        1.2114467842574369
                        1.3505916742410567
                        1.5069081622365131
                        1.6826219097165295
                        1.8795869722945744
                        2.1136839155613817
                        2.1248338251525238
                        2.2403930143430366
                        2.3633714547662383
                        2.5053849733746330
                        2.6691954201656204
                        2.8573131193414398
                        3.0719535072915881
                        3.3149210441667927
                        3.5873891849700938
                        3.8895277952553721
                        4.2199070309381419
                        4.5744639555295526
                        4.9458396524410118
                        5.3245976156333067
                        5.7014703227491676
                        6.0695483254973749
                        6.4262097588491686
                        6.7733699367474831
                        7.1158143736677494
                        7.4585275048648132
                        7.8014273987594163
                        8.1357399634099700
                        8.4482282187392214
                        8.7249079080329912
                        8.9572871862121284
                        9.1423192038386586
                        9.2615558483502069
                        9.3001398342190240
                        9.5107075368443089
                        9.6124622523944035
                        9.3385947016127445
                        8.9851542959147300
                        8.5816269167862473
                        8.1500297347493596
                        7.7138204474371034
                        7.2921371962537482
                        6.8999595810515316
                        6.5465167811624290
                        6.2319282721685522
                        5.9457968307938375
                        5.6745521103274454
                        5.4082810474154289
                        5.1412514729411326
                        4.8709056906237292
                        4.5969943591046110
                        4.3207595013882610
                        4.0442848989970074
                        3.7700093870018609
                        3.5003920952585308
                        3.2376922251852321
                        2.9838718594428018
                        2.7406693534174148
                        2.5095872401618159
                        2.2916928892442112
                        2.0875656028847785
                        1.8973992760671321
                        1.7210936186409186
                        1.5583277557954582
                        1.4086202527231161
                        1.2713774523156933
                        1.1459320147928487
                        1.0315734104126020
                        1.0780846966911758
                        1.2002019498213982
                        1.3374080657402076
                        1.4915364805247045
                        1.6647932167240217
                        1.8589869219107874
                        2.0897638615926382
                        2.1529890119896732
                        2.2627331184045498
                        2.3804014064374067
                        2.5180593901041790
                        2.6784110927133785
                        2.8638348264319090
                        3.0764130233868453
                        3.3178393585018802
                        3.5892003121867378
                        3.8905955311040386
                        4.2205292649355609
                        4.5748534821118121
                        4.9460914714481101
                        5.3246827617530095
                        5.7012683738224815
                        6.0689078431414919
                        6.4250270604318980
                        6.7716548331658802
                        7.1137191555552124
                        7.4563390359853345
                        7.7994795044811693
                        8.1342824363393822
                        8.4473853051479546
                        8.7246726637082523
                        8.9576989049601257
                        9.1435315303070994
                        9.2635838277051379
                        9.3027184738815942
                        9.5130636212284212
                        9.6142786604540098
                        9.3396022298662371
                        8.9850702401178977
                        8.5803390953457088
                        8.1475486058649508
                        7.7102536073419746
                        7.2876689244637097
                        6.8948435150296197
                        6.5410832227007983
                        6.2265417138002666
                        5.9407616177380764
                        5.6700782116818401
                        5.4045207074746642
                        5.1383249902211877
                        4.8689086459384058
                        4.5959993579769094
                        4.3208149945937008
                        4.0454131956243256
                        3.7722048932893340
                        3.5036206167364447
                        3.2418915113538840
                        2.9889545531709859
                        2.7465322138494485
                        2.5161226339352158
                        2.2987937608346859
                        2.0951262434686527
                        1.9053164876807787
                        1.7292678883329036
                        1.5666640715097784
                        1.4170285241932203
                        1.2797726763891459
                        1.1542344325901384
                        1.0397089226752436
                        1.0689792264991955
                        1.1893439753265847
                        1.3245452857174653
                        1.4763949951899660
                        1.6470810817161146
                        1.8383686441951696
                        2.0656676082089294
                        2.1819153555497807
                        2.2845649898031573
                        2.3962211516627086
                        2.5292901730939915
                        2.6861969512512229
                        2.8690446911216384
                        3.0797073660756499
                        3.3197314961878634
                        3.5901004290851368
                        3.8908380025799826
                        4.2203833441104659
                        4.5745091929003076
                        4.9456316959933122
                        5.3240791030646187
                        5.7004116346145187
                        6.0676630355451793
                        6.4233039245771606
                        6.7694654849831522
                        7.1112022779243224
                        7.4537515860515308
                        7.7971165951732850
                        8.1323629423488204
                        8.4460161823418120
                        8.7238411782634397
                        8.9574444046424074
                        9.1439843405543603
                        9.2647617942646585
                        9.3043892690117486
                        9.5144625941570297
                        9.6151471674625306
                        9.3397778042369701
                        8.9843145870660461
                        8.5785703894342465
                        8.1447895324371287
                        7.7066001419097521
                        7.2832666803333790
                        6.8898814932095213
                        6.5358082295535815
                        6.2212334649920645
                        5.9356647601891676
                        5.6653743226187176
                        5.4003564208343440
                        5.1348289502172284
                        4.8661922894105103
                        4.5941545115871395
                        4.3199103313848596
                        4.0454910746571708
                        3.7732791092202503
                        3.5056755244886472
                        3.2448824551543871
                        2.9928106278378811
                        2.7511652619821099
                        2.5214387453722630
                        2.3046986302019227
                        2.1015264395842008
                        1.9121210895418509
                        1.7363900333238725
                        1.5740219651949190
                        1.4245457606795900
                        1.2873778887652934
                        1.1618604547142059
                        1.0472917876235800
                        1.0605016142559479
                        1.1790871496650747
                        1.3122164932338099
                        1.4616755539688138
                        1.6296342188625010
                        1.8178176771081520
                        2.0414023043290992
                        2.2116140172311362
                        2.3051867951381730
                        2.4101840183981559
                        2.5386590033769000
                        2.6923288005224482
                        2.8728477560469969
                        3.0818192072482410
                        3.3206228878925884
                        3.5901352044071038
                        3.8903067770398332
                        4.2195178412814244
                        4.5734719338031067
                        4.9444928363071738
                        5.3228134440058692
                        5.6989254708753859
                        6.0658422840093018
                        6.4210747180771510
                        6.7668426063108164
                        7.1083083612574655
                        7.4508084008593273
                        7.7943739060908258
                        8.1300053300301111
                        8.4441328027964272
                        8.7224148689263464
                        8.9565174657409514
                        9.1436554545689398
                        9.2650504451450861
                        9.3050994938334767
                        9.5148460091563295
                        9.6150084902816911
                        9.3390670500584338
                        8.9828423398997634
                        8.5762888304985873
                        8.1417366451294575
                        7.7028621705254002
                        7.2789502984682658
                        6.8851074646566431
                        6.5307316410500559
                        6.2160376498418124
                        5.9305276098867343
                        5.6604476581191233
                        5.3957824403194503
                        5.1307466329403403
                        4.8627308981137617
                        4.5914266562291072
                        4.3180059139623733
                        4.0444729356284250
                        3.7731803360541015
                        3.5064984861325301
                        3.2465992194919656
                        2.9953655974258214
                        2.7544838051936012
                        2.5254384818321905
                        2.3092952408418436
                        2.1066355974738132
                        1.9176607628234432
                        1.7422827145570290
                        1.5801963820509341
                        1.4309378626269145
                        1.2939309949484109
                        1.1685245325200440
                        1.0540219369904620
                        1.0529593328242330
                        1.1697947041569347
                        1.3008196934442625
                        1.4477714357684417
                        1.6127837956084971
                        1.7975354945793181
                        2.0169799839049833
                        2.2421085512796592
                        2.3231933668892203
                        2.4214192472643757
                        2.5457674701204275
                        2.6966811250347846
                        2.8752637879945818
                        3.0828432746188192
                        3.3206447355542105
                        3.5894507203487588
                        3.8891504439679804
                        4.2180768160746014
                        4.5718780120246985
                        4.9428044441383857
                        5.3210125905991325
                        5.6969390337992189
                        6.0635819251065000
                        6.4184858268885227
                        6.7639424716784881
                        7.1052004129743651
                        7.4476728743830943
                        7.7914071858735621
                        8.1273539047411736
                        8.4418672823396678
                        8.7205147112184250
                        8.9550315148934363
                        9.1426389794776016
                        9.2645223982450494
                        9.3049030687088382
                        9.5142600860747635
                        9.6139045465771269
                        9.3375090441499343
                        8.9806939405797191
                        8.5735399827251023
                        8.1384443257774979
                        7.6991058391587840
                        7.2747986599709222
                        6.8806105107799069
                        6.5259445004354967
                        6.2110337635851406
                        5.9254103688657564
                        5.6553385528321715
                        5.3908213503846239
                        5.1260857108806989
                        4.8585199314245421
                        4.5878012279457239
                        4.3150787168049168
                        4.0423282290212373
                        3.7718708763333721
                        3.5060445702046738
                        3.2469892261048898
                        2.9965586443642735
                        2.7564178154350768
                        2.5280407415196051
                        2.3124886743258067
                        2.1103414232032894
                        1.9218014115757468
                        1.7467846686823146
                        1.5849926040543074
                        1.4359696957513013
                        1.2991494759498761
                        1.1738910830410124
                        1.0595084100719966
                        1.0468000233835234
                        1.1620739094300239
                        1.2911331581184537
                        1.4356002265982906
                        1.5974722462708673
                        1.7782351695290793
                        1.9924174900883904
                        2.2735410619633907
                        2.3396502005721472
                        2.4311845115540395
                        2.5517435573743829
                        2.7001944023286455
                        2.8770643288073267
                        3.0834173425692029
                        3.3203362523208647
                        3.5885189795952439
                        3.8878005171305554
                        4.2164728383067853
                        4.5701359704736267
                        4.9409768807328934
                        5.3190852467748152
                        5.6948490087546117
                        6.0612534753276070
                        6.4158734908219727
                        6.7610642303521130
                        7.1021496416474576
                        7.4446085481087953
                        7.7884983095754787
                        8.1247278110828585
                        8.4395850228232066
                        8.7185531375044635
                        8.9534421646980182
                        9.1414509005531821
                        9.2637504334266111
                        9.3044043355008211
                        9.5133287896352765
                        9.6124400574618771
                        9.3356259344047950
                        8.9782851274735955
                        8.5706181954552119
                        8.1350807041476274
                        7.6953809855176863
                        7.2707660228261152
                        6.8762871095247296
                        6.5213359050216893
                        6.2061568726791296
                        5.9203308062909004
                        5.6501635568257650
                        5.3856907366655700
                        5.1211591015078458
                        4.8539579636792128
                        4.5837512840116369
                        4.3116649899110192
                        4.0396456657312670
                        3.7699819900066237
                        3.5049785443973178
                        3.2467425393728805
                        2.9970977026691248
                        2.7576866246916164
                        2.5299709911946527
                        2.3150063054644486
                        2.1133696475515486
                        1.9252638706668671
                        1.7506084887740056
                        1.5891110948520151
                        1.4403246524705777
                        1.3036931143528192
                        1.1785876740364304
                        1.0643356751394860
                        1.0414036047687604
                        1.1552531125278414
                        1.2824669540041130
                        1.4245075773716949
                        1.5831570079365377
                        1.7595827383474784
                        1.9676782937999416
                </DataArray>
                <DataArray type="Float32" Name="jacobian" NumberOfComponents="1" format="ascii">
                        0.0053341988539800
                        0.0057471030115251
                        0.0062076167672675
                        0.0067313737493615
                        0.0073152926645904
                        0.0079587858048289
                        0.0086620888795700
                        0.0094254142103946
                        0.0102484415591577
                        0.0111299217059225
                        0.0120672667246200
                        0.0130559276233258
                        0.0140888772563628
                        0.0151571737963478
                        0.0162510948491518
                        0.0173609849728285
                        0.0184778296620792
                        0.0195929452307574
                        0.0206969123472292
                        0.0217786655416790
                        0.0228234349830613
                        0.0238122019705999
                        0.0247249573953812
                        0.0255440864256031
                        0.0262537703488720
                        0.0268429302414654
                        0.0272945338927175
                        0.0276139963999681
                        0.0285910368473047
                        0.0294081424505767
                        0.0292195730760854
                        0.0288296673739033
                        0.0282562096486140
                        0.0275013991036944
                        0.0265836447457947
                        0.0255238622473744
                        0.0243489722095991
                        0.0230884379779697
                        0.0217709383814563
                        0.0204216091477962
                        0.0190631113432946
                        0.0177167334943028
                        0.0164011178150309
                        0.0151313249269745
                        0.0139186072673931
                        0.0127705934736181
                        0.0116917373496024
                        0.0106838878727101
                        0.0097468809921690
                        0.0088790830614681
                        0.0080778700110448
                        0.0073400634062686
                        0.0066622098901300
                        0.0060406903964222
                        0.0054718207625276
                        0.0049519625495737
                        0.0044775888005413
                        0.0040453206023291
                        0.0036519458854846
                        0.0032944273416694
                        0.0029699037485860
                        0.0026756872784128
                        0.0024092582848182
                        0.0021682590893420
                        0.0019504859458316
                        0.0017538870209007
                        0.0015765373638250
                        0.0014167139021711
                        0.0012644101909364
                        0.0053788749705336
                        0.0058233908743140
                        0.0062975857964788
                        0.0068281545668129
                        0.0074165599168415
                        0.0080642561634660
                        0.0087725079466641
                        0.0095421118265069
                        0.0103730878336592
                        0.0112643324939556
                        0.0122131840923762
                        0.0132147181225531
                        0.0142611703229606
                        0.0153426523801779
                        0.0164485427013266
                        0.0175685864697282
                        0.0186937143281877
                        0.0198157906953560
                        0.0209263753944309
                        0.0220154974252882
                        0.0230689727382906
                        0.0240672838643636
                        0.0249893447834614
                        0.0258163133810888
                        0.0265315715013654
                        0.0271242622888236
                        0.0275751651782312
                        0.0278873745750580
                        0.0288571682702565
                        0.0296571398613631
                        0.0294347698990284
                        0.0290065910546961
                        0.0283940581060474
                        0.0276028859844957
                        0.0266548303744649
                        0.0255735175930315
                        0.0243875859283067
                        0.0231268815996981
                        0.0218186359080716
                        0.0204846083913180
                        0.0191437171007545
                        0.0178144013453037
                        0.0165134914879038
                        0.0152550936162250
                        0.0140501410061517
                        0.0129063658572790
                        0.0118285770135936
                        0.0108191037535398
                        0.0098783015353376
                        0.0090050408701624
                        0.0081971578979100
                        0.0074518863990775
                        0.0067661309160929
                        0.0061365551199879
                        0.0055596822591586
                        0.0050320191742226
                        0.0045501346375859
                        0.0041107065627891
                        0.0037105496676516
                        0.0033466308338703
                        0.0030160769371409
                        0.0027161781764806
                        0.0024443886106003
                        0.0021983254701910
                        0.0019757655696182
                        0.0017746476198629
                        0.0015930452749654
                        0.0014292536091714
                        0.0012732228388342
                        0.0054239497524736
                        0.0058935618116246
                        0.0063817316482117
                        0.0069206797420995
                        0.0075150219580320
                        0.0081680156341461
                        0.0088819968143277
                        0.0096584286280057
                        0.0104977402149270
                        0.0113990239380126
                        0.0123595802281169
                        0.0133741375543172
                        0.0144342230896547
                        0.0155290225709323
                        0.0166470228358747
                        0.0177773668672098
                        0.0189109165913421
                        0.0200400649408666
                        0.0211573326908044
                        0.0222538263543645
                        0.0233159402737331
                        0.0243236843366581
                        0.0252549152005711
                        0.0260895702918341
                        0.0268102400412666
                        0.0274061852965638
                        0.0278560495691875
                        0.0281606406965616
                        0.0291228629790449
                        0.0299053202988512
                        0.0296488768637967
                        0.0291822608298634
                        0.0285306185924482
                        0.0277031802123605
                        0.0267250132980961
                        0.0256223937079962
                        0.0244256055908609
                        0.0231648132988097
                        0.0218657746051647
                        0.0205469355849074
                        0.0192235424956171
                        0.0179112154992823
                        0.0166249747444446
                        0.0153779587488778
                        0.0141807643933066
                        0.0130412123709877
                        0.0119644565464967
                        0.0109533020070515
                        0.0100086239299642
                        0.0091298005560789
                        0.0083151336159234
                        0.0075622736106334
                        0.0068684849963230
                        0.0062307158976154
                        0.0056456988122022
                        0.0051100878885814
                        0.0046205502688677
                        0.0041738246988889
                        0.0037667590332912
                        0.0033963340406082
                        0.0030596784316773
                        0.0027540781555871
                        0.0024769814922394
                        0.0022260014396938
                        0.0019989131497315
                        0.0017936569600309
                        0.0016083064223879
                        0.0014411651689721
                        0.0012821211362563
                        0.0054694965872432
                        0.0059543995222484
                        0.0064555802574104
                        0.0070046164214063
                        0.0076070018610810
                        0.0082671028910407
                        0.0089881991974684
                        0.0097724633483729
                        0.0106208110854817
                        0.0115326033100723
                        0.0125051642926568
                        0.0135329326741780
                        0.0146067902673674
                        0.0157150505782704
                        0.0168453393573378
                        0.0179862026243087
                        0.0191284088168654
                        0.0202648334642524
                        0.0213889075523936
                        0.0224927664116718
                        0.0235633604983151
                        0.0245802781313464
                        0.0255203690230944
                        0.0263623801582506
                        0.0270881301620988
                        0.0276868169409636
                        0.0281350641221556
                        0.0284314939167926
                        0.0293856789087883
                        0.0301501614365316
                        0.0298595255385818
                        0.0293545514398611
                        0.0286640757395075
                        0.0278008162897756
                        0.0267930795226531
                        0.0256696835934097
                        0.0244624378754906
                        0.0232017164300621
                        0.0219117622014186
                        0.0206078188033310
                        0.0193015919378857
                        0.0180059495810883
                        0.0167341224020533
                        0.0154982765056809
                        0.0143086573321707
                        0.0131731583598117
                        0.0120972668284936
                        0.0110842574651661
                        0.0101355240361827
                        0.0092509551179503
                        0.0084293224743147
                        0.0076686960656208
                        0.0069666998355642
                        0.0063205667260867
                        0.0057272408082673
                        0.0051835280944817
                        0.0046862014478006
                        0.0042320713180257
                        0.0038180336156309
                        0.0034411018517973
                        0.0030984282171766
                        0.0027873164753529
                        0.0025052282219832
                        0.0022497845721201
                        0.0020187613445827
                        0.0018100909655002
                        0.0016218254030411
                        0.0014522457653676
                        0.0012911392230071
                        0.0055156200275604
                        0.0060110747836059
                        0.0065230410670403
                        0.0070819687648485
                        0.0076931931664514
                        0.0083614879553999
                        0.0090907344450356
                        0.0098836890192108
                        0.0107417316935890
                        0.0116645115414676
                        0.0126494114433078
                        0.0136906220905144
                        0.0147784289870328
                        0.0159003182942153
                        0.0170430832641183
                        0.0181946804564053
                        0.0193457674185362
                        0.0204896659954303
                        0.0216206748179797
                        0.0227319175410196
                        0.0238108823356014
                        0.0248367728673119
                        0.0257854733904449
                        0.0266345655457575
                        0.0273651067347317
                        0.0279661018887019
                        0.0284122392507002
                        0.0287000439359093
                        0.0296457680295155
                        0.0303918767990380
                        0.0300669621434239
                        0.0295237368831852
                        0.0287947236322926
                        0.0278960969690128
                        0.0268593272536147
                        0.0257156682624546
                        0.0244983389446820
                        0.0232378291051213
                        0.0219568446673223
                        0.0206675256800721
                        0.0193781529512188
                        0.0180989062182845
                        0.0168412478253285
                        0.0156163675950979
                        0.0144341454006832
                        0.0133025326396792
                        0.0122273391611563
                        0.0112123041616877
                        0.0102593399585702
                        0.0093688490789756
                        0.0085400786090399
                        0.0077715229323020
                        0.0070611699495820
                        0.0064065431722579
                        0.0058048059869392
                        0.0052529261962144
                        0.0047477943166444
                        0.0042863056813289
                        0.0038654170920230
                        0.0034821848522018
                        0.0031337889798418
                        0.0028175470710457
                        0.0025309203030597
                        0.0022715149016876
                        0.0020370775753423
                        0.0018255003551685
                        0.0016347828702112
                        0.0014631591515200
                        0.0013002987333655
                        0.0055624200070855
                        0.0060658056559665
                        0.0065866329472045
                        0.0071546148733809
                        0.0077747025320653
                        0.0084516953568867
                        0.0091897719704743
                        0.0099920922335282
                        0.0108604162479276
                        0.0117946554273085
                        0.0127922570433961
                        0.0138471868307771
                        0.0149491676339716
                        0.0160848926079701
                        0.0172403467400056
                        0.0184029050345605
                        0.0195631021061752
                        0.0207146778654681
                        0.0218527635705240
                        0.0229714379035623
                        0.0240587111927396
                        0.0250934281823381
                        0.0260505406007511
                        0.0269064846533867
                        0.0276415617676818
                        0.0282444913324842
                        0.0286880875594783
                        0.0289668542607800
                        0.0299037240186378
                        0.0306310965850874
                        0.0302718134955315
                        0.0296904315038690
                        0.0289231549432001
                        0.0279895821392287
                        0.0269242723796784
                        0.0257608106735132
                        0.0245337163327126
                        0.0232735141858374
                        0.0220013647187781
                        0.0207263940033480
                        0.0194535612148582
                        0.0181904183448855
                        0.0169466804151162
                        0.0157325577119914
                        0.0145575510835835
                        0.0134296556136130
                        0.0123549936774818
                        0.0113377645874770
                        0.0103804001315279
                        0.0094838214744455
                        0.0086477576819623
                        0.0078711349562109
                        0.0071523132022599
                        0.0064891155804857
                        0.0058789347478449
                        0.0053189105052643
                        0.0048060602311319
                        0.0043373705415718
                        0.0039098606575520
                        0.0035206245949512
                        0.0031668578094364
                        0.0028458728738467
                        0.0025551076295470
                        0.0022921298491051
                        0.0020546364059105
                        0.0018404637655768
                        0.0016475507540306
                        0.0014740829066324
                        0.0013096152321622
                        0.0056099853049748
                        0.0061196824091719
                        0.0066479035119773
                        0.0072239945600167
                        0.0078525929880808
                        0.0085383914520037
                        0.0092856751164563
                        0.0100978464373005
                        0.0109769411540954
                        0.0119230790558783
                        0.0129337535857344
                        0.0140027100161923
                        0.0151191268481842
                        0.0162689273292992
                        0.0174373065656080
                        0.0186110649300405
                        0.0197806058886945
                        0.0209400659364752
                        0.0220853809361020
                        0.0232115577984121
                        0.0243071158085339
                        0.0253505578095661
                        0.0263159281176381
                        0.0271785323717479
                        0.0279179183048418
                        0.0285224549517174
                        0.0289631266339133
                        0.0292324791323546
                        0.0301601214677287
                        0.0308684153239471
                        0.0304746579440233
                        0.0298551876037895
                        0.0290498873726925
                        0.0280817456575197
                        0.0269883365005452
                        0.0258054748934893
                        0.0245688781022542
                        0.0233090367128566
                        0.0220455670219492
                        0.0207846631549636
                        0.0195280557463292
                        0.0182807258716671
                        0.0170506616349904
                        0.0158470908492588
                        0.0146791223551551
                        0.0135547811735099
                        0.0124804926700129
                        0.0114609125993376
                        0.0104989939777420
                        0.0095961823026890
                        0.0087526965728823
                        0.0079679039710764
                        0.0072405462559106
                        0.0065687560511667
                        0.0059501640502225
                        0.0053820885273724
                        0.0048616763754085
                        0.0043860029113702
                        0.0039521412089792
                        0.0035572088289674
                        0.0031983985578326
                        0.0028729985151059
                        0.0025784053219826
                        0.0023121343078617
                        0.0020718236869188
                        0.0018552508413992
                        0.0016602945920267
                        0.0014850962839696
                        0.0013191014462508
                        0.0056583950783898
                        0.0061733120725975
                        0.0067078227827499
                        0.0072911525607856
                        0.0079277610826749
                        0.0086222329782554
                        0.0093788709702148
                        0.0102012070315956
                        0.0110914563985090
                        0.0120498827579950
                        0.0130739917378293
                        0.0141572972184353
                        0.0152884376468698
                        0.0164525783556591
                        0.0176341362997167
                        0.0188193421238805
                        0.0199984625075385
                        0.0211660147127369
                        0.0223187175787654
                        0.0234524853378629
                        0.0245563351152488
                        0.0256084380857025
                        0.0265819492653598
                        0.0274510538513905
                        0.0281945465996616
                        0.0288004019079298
                        0.0292378052990388
                        0.0294973959024303
                        0.0304154518267182
                        0.0311043339566104
                        0.0306759749780006
                        0.0300184533456671
                        0.0291753300369689
                        0.0281729500991227
                        0.0270518296306308
                        0.0258499159883688
                        0.0246040287212478
                        0.0233445645973030
                        0.0220896036549079
                        0.0208424837959216
                        0.0196017917505833
                        0.0183699908829711
                        0.0171533619198435
                        0.0159601473730696
                        0.0147990514193537
                        0.0136781156139621
                        0.0126040591663605
                        0.0115819910880929
                        0.0106153879835426
                        0.0097062260780835
                        0.0088552230254536
                        0.0080621968289419
                        0.0073262809665600
                        0.0066459259058867
                        0.0060190057935681
                        0.0054430186043700
                        0.0049152368599023
                        0.0044328153899129
                        0.0039928674719298
                        0.0035925179348853
                        0.0032289403950689
                        0.0028993841206633
                        0.0026011938735391
                        0.0023318263435778
                        0.0020888590701705
                        0.0018700116846208
                        0.0016731063944715
                        0.0014962453001052
                        0.0013287686271380
                        0.0057077215922396
                        0.0062270709862957
                        0.0067670253131888
                        0.0073568421156098
                        0.0080009282322849
                        0.0087038120520157
                        0.0094697922861318
                        0.0103024657208059
                        0.0112041528998827
                        0.0121751995166180
                        0.0132130820270606
                        0.0143110609333692
                        0.0154572271078385
                        0.0166359896571455
                        0.0178309922176192
                        0.0190278978719695
                        0.0202168324411431
                        0.0213926828283361
                        0.0225529349895441
                        0.0236943949078563
                        0.0248065683421654
                        0.0258672997285119
                        0.0268488666938894
                        0.0277243397193144
                        0.0284717605179770
                        0.0290786796991421
                        0.0295125049405901
                        0.0297620090524268
                        0.0306701293831680
                        0.0313392691845575
                        0.0308761571405510
                        0.0301805874701816
                        0.0292998009221650
                        0.0282634666907742
                        0.0271149722038938
                        0.0258943034907213
                        0.0246392931660821
                        0.0233801927046281
                        0.0221335583491670
                        0.0208999421216880
                        0.0196748643783950
                        0.0184583205293929
                        0.0172549024603983
                        0.0160718645157232
                        0.0149174937421488
                        0.0137998350180028
                        0.0127258924357571
                        0.0117012252948847
                        0.0107298363919860
                        0.0098142392847179
                        0.0089556590380341
                        0.0081543738921098
                        0.0074099175624291
                        0.0067210640712922
                        0.0060859324694577
                        0.0055021969414997
                        0.0049672472660348
                        0.0044783055071357
                        0.0040325107433091
                        0.0036269807129693
                        0.0032588575339382
                        0.0029253426544360
                        0.0026237238347689
                        0.0023513975137120
                        0.0021058816759566
                        0.0018848411488101
                        0.0016860452547807
                        0.0015075612813703
                        0.0013386272292423
                        0.0057580325459053
                        0.0062812146444764
                        0.0068259471575765
                        0.0074216141134994
                        0.0080726666502320
                        0.0087836418685336
                        0.0095588499703288
                        0.0104019255880847
                        0.0113152452949158
                        0.0122991850372040
                        0.0133511501630067
                        0.0144641192734384
                        0.0156256190197495
                        0.0168192949555299
                        0.0180280155399840
                        0.0192368753077582
                        0.0204358559304910
                        0.0216202066766820
                        0.0227881699111609
                        0.0239374326259723
                        0.0250579817994919
                        0.0261273359013132
                        0.0271169016218085
                        0.0279986364016220
                        0.0287498284400952
                        0.0293575864925147
                        0.0297875532397850
                        0.0300266653704180
                        0.0309245075735226
                        0.0315735718083501
                        0.0310755293987882
                        0.0303418797869325
                        0.0294235484142158
                        0.0283534976615603
                        0.0271779179260070
                        0.0259387442975864
                        0.0246747392920918
                        0.0234159643250761
                        0.0221774672771571
                        0.0209570799567579
                        0.0197473278376001
                        0.0185457849313486
                        0.0173553717550126
                        0.0161823514674475
                        0.0150345815772280
                        0.0139200970884286
                        0.0128461779548087
                        0.0118188306789215
                        0.0108425866644962
                        0.0099205030536277
                        0.0090543203912319
                        0.0082447853001010
                        0.0074918381507208
                        0.0067945792704874
                        0.0061513706212333
                        0.0055600559188351
                        0.0050181317623787
                        0.0045228749026082
                        0.0040714375407839
                        0.0036609193206094
                        0.0032884227432098
                        0.0029510966509471
                        0.0026461701145974
                        0.0023709800718572
                        0.0021229873088047
                        0.0018998051015742
                        0.0016991532682051
                        0.0015190680268176
                        0.0013486872964131
                        0.0058093928179558
                        0.0063359302790594
                        0.0068849030432603
                        0.0074858810619553
                        0.0081434309527262
                        0.0088621597063203
                        0.0096464212370640
                        0.0104998863661915
                        0.0114249605221517
                        0.0124220112588328
                        0.0134883348734798
                        0.0146165969373847
                        0.0157937368542607
                        0.0170026218455342
                        0.0182253371869397
                        0.0194464045821160
                        0.0206556584685591
                        0.0218487063475820
                        0.0230245408588621
                        0.0241817236302358
                        0.0253107171499285
                        0.0263887114253611
                        0.0273862438744349
                        0.0282741568520469
                        0.0290289842957154
                        0.0296373830822768
                        0.0300632370527317
                        0.0302916677273706
                        0.0311788934631198
                        0.0318075425143718
                        0.0312743654251321
                        0.0305025679874810
                        0.0295467685812828
                        0.0284431938288935
                        0.0272407714184129
                        0.0259833000282475
                        0.0247103945011821
                        0.0234518869398731
                        0.0222213341203544
                        0.0210139091611849
                        0.0198192089546896
                        0.0186324297310213
                        0.0174548370342854
                        0.0162916995772351
                        0.0151504328453351
                        0.0140390485907235
                        0.0129650932721417
                        0.0119350170326703
                        0.0109538816594498
                        0.0100252932515972
                        0.0091515146488046
                        0.0083337672463119
                        0.0075724022118742
                        0.0068668463561377
                        0.0062157001990458
                        0.0056169688095419
                        0.0050682450514008
                        0.0045668492406034
                        0.0041099367255269
                        0.0036945814368617
                        0.0033178415241518
                        0.0029768112665751
                        0.0026686613359582
                        0.0023906710096801
                        0.0021402465725505
                        0.0019149528133448
                        0.0017124629124560
                        0.0015307851324408
                        0.0013589587054312
                        0.0058618657450073
                        0.0063913642329073
                        0.0069441309171738
                        0.0075499604638875
                        0.0082135860777282
                        0.0089397364327767
                        0.0097328463126557
                        0.0105966360228086
                        0.0115335297874575
                        0.0125438611597921
                        0.0136247859210261
                        0.0147686258716304
                        0.0159617062620390
                        0.0171860954026369
                        0.0184230819986185
                        0.0196566074202932
                        0.0208763556079659
                        0.0220782907319725
                        0.0232621536253877
                        0.0244273781370862
                        0.0255648981903223
                        0.0266515702601013
                        0.0276570599592730
                        0.0285510890874137
                        0.0293094362767298
                        0.0299183022407419
                        0.0303398124259506
                        0.0305572857102597
                        0.0314335588476642
                        0.0320414438598166
                        0.0314728998561667
                        0.0306628501902183
                        0.0296696179589881
                        0.0285326674972810
                        0.0273036010382011
                        0.0260279995000548
                        0.0247462575855958
                        0.0234879433182691
                        0.0222651405972271
                        0.0210704216414539
                        0.0198905165460623
                        0.0187182846921850
                        0.0175533519821235
                        0.0163999891007907
                        0.0152651568145605
                        0.0141568298642238
                        0.0130828112422750
                        0.0120499903352703
                        0.0110639600390990
                        0.0101288794794305
                        0.0092475390006769
                        0.0084216392674605
                        0.0076519443611764
                        0.0069382059264058
                        0.0062792575194704
                        0.0056732572876108
                        0.0051178849422753
                        0.0046104954414678
                        0.0041482401126391
                        0.0037281624217987
                        0.0033472738923572
                        0.0030026140684494
                        0.0026912965651226
                        0.0024105452519311
                        0.0021577145483547
                        0.0019303234642879
                        0.0017260008963793
                        0.0015427297378664
                        0.0013694513320700
                        0.0059155140691114
                        0.0064476372657826
                        0.0070038185579427
                        0.0076141038407004
                        0.0082834294766120
                        0.0090166875298502
                        0.0098184296768526
                        0.0106924465469644
                        0.0116411830752541
                        0.0126649245304315
                        0.0137606620507994
                        0.0149203453128180
                        0.0161296567069705
                        0.0173698408411408
                        0.0186213719683565
                        0.0198676006512549
                        0.0210980566722872
                        0.0223090614264886
                        0.0235011054573978
                        0.0246744960187846
                        0.0258206359708207
                        0.0269160411543996
                        0.0279294991619972
                        0.0288296026043484
                        0.0295913733694398
                        0.0302005557155087
                        0.0306175121025302
                        0.0308237635833867
                        0.0316887485487950
                        0.0322755091873299
                        0.0316713373734101
                        0.0308228941837256
                        0.0297922229203930
                        0.0286220018540294
                        0.0273664481446591
                        0.0260728476584747
                        0.0247823071154450
                        0.0235240993079588
                        0.0223088538091262
                        0.0211265963078513
                        0.0199612479027982
                        0.0188033696035118
                        0.0176509619587701
                        0.0165072936526916
                        0.0153788576949571
                        0.0142735774773975
                        0.0131995016733462
                        0.0121639533589264
                        0.0111730558745403
                        0.0102315238512596
                        0.0093426786057107
                        0.0085087028075545
                        0.0077307740341461
                        0.0070089661279439
                        0.0063423400304344
                        0.0057291995793478
                        0.0051673037205850
                        0.0046540355145712
                        0.0041865376135256
                        0.0037618205023271
                        0.0033768484998222
                        0.0030286073152244
                        0.0027141553506089
                        0.0024306633815382
                        0.0021754363666303
                        0.0019459498550259
                        0.0017397903506595
                        0.0015549175327389
                        0.0013801751721805
                        0.0059704006551227
                        0.0065048536487093
                        0.0070641200715685
                        0.0076785162615703
                        0.0083532080159290
                        0.0090932835117277
                        0.0099034434990604
                        0.0107875725021940
                        0.0117481456775402
                        0.0127853946922583
                        0.0138961290256008
                        0.0150719013877881
                        0.0162977223898427
                        0.0175539853508685
                        0.0188203286125597
                        0.0200794988468014
                        0.0213208675365684
                        0.0225411156423005
                        0.0237414881514000
                        0.0249231701959052
                        0.0260780326022671
                        0.0271822418707048
                        0.0282036981153007
                        0.0291098531833441
                        0.0298749702449599
                        0.0304843394738020
                        0.0308965511726476
                        0.0310913262914657
                        0.0319446866714945
                        0.0325099493285799
                        0.0318698595116455
                        0.0309828443251186
                        0.0299146866322740
                        0.0287112578997289
                        0.0274293338759725
                        0.0261178320365276
                        0.0248185074347749
                        0.0235603093515354
                        0.0223524314088309
                        0.0211824039512366
                        0.0200313933178384
                        0.0188876983658812
                        0.0177477075587363
                        0.0166136831515899
                        0.0154916368967862
                        0.0143894257411806
                        0.0133153320684712
                        0.0122771056664627
                        0.0112813980192069
                        0.0103334800007958
                        0.0094372056613822
                        0.0085952409504698
                        0.0078091765700474
                        0.0070794057111732
                        0.0064052117074023
                        0.0057850381809336
                        0.0052167177548491
                        0.0046976573114662
                        0.0042249882682319
                        0.0037956872819749
                        0.0034066720197717
                        0.0030548758656663
                        0.0027373040376636
                        0.0024510764183277
                        0.0021934506173314
                        0.0019618606665539
                        0.0017538521643702
                        0.0015673633808748
                        0.0013911404353290
                        0.0060265890472355
                        0.0065631068563878
                        0.0071251664950039
                        0.0077433696827262
                        0.0084231306542502
                        0.0091697589871451
                        0.0099881319364619
                        0.0108822513296963
                        0.0118546362863215
                        0.0129054661245979
                        0.0140313579087072
                        0.0152234464913800
                        0.0164660426826998
                        0.0177386593218150
                        0.0190200746822423
                        0.0202924162827950
                        0.0215448927071390
                        0.0227745483741482
                        0.0239833903546722
                        0.0251734891629517
                        0.0263371841072514
                        0.0274502823714023
                        0.0284797842618039
                        0.0293919865334727
                        0.0301603909775468
                        0.0307698377007726
                        0.0311771314061006
                        0.0313601840763315
                        0.0322015814254387
                        0.0327449577553197
                        0.0320686298751862
                        0.0311428267982077
                        0.0300370943234516
                        0.0288004796543955
                        0.0274922641855120
                        0.0261629274918603
                        0.0248548129978430
                        0.0235965204311206
                        0.0223958252693379
                        0.0212378106912153
                        0.0201009392750769
                        0.0189712818480756
                        0.0178436270538038
                        0.0167192257772894
                        0.0156035944423525
                        0.0145045075423648
                        0.0134304678908592
                        0.0123896433848351
                        0.0113892095614477
                        0.0104349925013656
                        0.0095313791993205
                        0.0086815190766802
                        0.0078874151976470
                        0.0071497776677987
                        0.0064681084104231
                        0.0058409867062268
                        0.0052663153582574
                        0.0047415227945114
                        0.0042637283213467
                        0.0038298751404807
                        0.0034368355564499
                        0.0030814924568518
                        0.0027607999121697
                        0.0024718289194357
                        0.0022117915480191
                        0.0019780819143716
                        0.0017682058491487
                        0.0015800817323819
                        0.0014023576211050
                        0.0060841439104204
                        0.0066224832961978
                        0.0071870728547482
                        0.0078088122432206
                        0.0084933779444209
                        0.0092463202511585
                        0.0100727155799553
                        0.0109767046993847
                        0.0119608662536998
                        0.0130253329073290
                        0.0141665236872750
                        0.0153751386111024
                        0.0166347622598261
                        0.0179239971385995
                        0.0192207353934497
                        0.0205064684018094
                        0.0217702368896846
                        0.0230094540343048
                        0.0242268992950303
                        0.0254255388926441
                        0.0265981825857705
                        0.0277202672611205
                        0.0287578785256143
                        0.0296761411118594
                        0.0304477919331203
                        0.0310572259177041
                        0.0314594446529162
                        0.0316305361141734
                        0.0324596289351381
                        0.0329807146387943
                        0.0322677982348122
                        0.0313029537174731
                        0.0301595173628326
                        0.0288896981445487
                        0.0275552336462265
                        0.0262080997261342
                        0.0248911715357634
                        0.0236326749090956
                        0.0224389841030079
                        0.0212927804283632
                        0.0201698707110782
                        0.0190541298978889
                        0.0179387580853574
                        0.0168239892822952
                        0.0157148298531076
                        0.0146189547957528
                        0.0135450726212203
                        0.0125017589774802
                        0.0114967075068721
                        0.0105362967416856
                        0.0096254455040302
                        0.0087677861825225
                        0.0079657335341537
                        0.0072203130236322
                        0.0065312428716441
                        0.0058972357702454
                        0.0053162631414723
                        0.0047857744033755
                        0.0043028772065620
                        0.0038644825547344
                        0.0034674191488773
                        0.0031085213494867
                        0.0027846940280032
                        0.0024929610784335
                        0.0022304905467603
                        0.0019946379304545
                        0.0017828701273519
                        0.0015930869115122
                        0.0014138375842499
                        0.0061431313865611
                        0.0066830648531617
                        0.0072499430280204
                        0.0078749748972529
                        0.0085641092198394
                        0.0093231515521135
                        0.0101573957028057
                        0.0110711404456246
                        0.0120670396944920
                        0.0131451878581642
                        0.0143018042675975
                        0.0155271407087118
                        0.0168040310620852
                        0.0181101376837925
                        0.0194224393123753
                        0.0207217729121946
                        0.0219970061849964
                        0.0232459277001108
                        0.0244721021002459
                        0.0256794042942130
                        0.0268611178884345
                        0.0279922976937450
                        0.0290380974153453
                        0.0299624503532744
                        0.0307373240672373
                        0.0313466734749648
                        0.0317436755805783
                        0.0319025734559901
                        0.0327190163322191
                        0.0332173901348328
                        0.0324675038296462
                        0.0314633264104354
                        0.0302820164870009
                        0.0289789345158239
                        0.0276182283688238
                        0.0262533079285822
                        0.0249275263839937
                        0.0236687125793421
                        0.0224818553330641
                        0.0213472765910813
                        0.0202381726257222
                        0.0191362527694644
                        0.0180331388514911
                        0.0169280418880231
                        0.0158254427258821
                        0.0147328987087245
                        0.0136593077723542
                        0.0126136411369368
                        0.0116041027471166
                        0.0106376192263476
                        0.0097196390219640
                        0.0088542766370878
                        0.0080443583249415
                        0.0072912245437709
                        0.0065948091892322
                        0.0059539579750190
                        0.0053667111427614
                        0.0048305400030280
                        0.0043425420591355
                        0.0038995980175473
                        0.0034984950292507
                        0.0031360209314111
                        0.0028090332089044
                        0.0025145102043779
                        0.0022495771858304
                        0.0020115520567432
                        0.0017978633519253
                        0.0016063933285742
                        0.0014255915924939
                        0.0062036193843016
                        0.0067449306946268
                        0.0073138732073585
                        0.0079419762762222
                        0.0086354681193167
                        0.0094004202648527
                        0.0102423581782994
                        0.0111657547982510
                        0.0121733541796334
                        0.0132652222370741
                        0.0144373798320503
                        0.0156796202213152
                        0.0169740041889363
                        0.0182972246521363
                        0.0196253189960564
                        0.0209384506227132
                        0.0222253090128559
                        0.0234840660805601
                        0.0247190868202109
                        0.0259351703487785
                        0.0271260789326961
                        0.0282664728909945
                        0.0293205547150565
                        0.0302510444742388
                        0.0310291347990777
                        0.0316383455968105
                        0.0320300039347306
                        0.0321764814677066
                        0.0329799243333478
                        0.0334551471147193
                        0.0326678780986801
                        0.0316240381086004
                        0.0304046444123539
                        0.0290682025090751
                        0.0276812282722653
                        0.0262985067787662
                        0.0249638181969541
                        0.0237045721434873
                        0.0225243864235954
                        0.0214012633757517
                        0.0203058312314133
                        0.0192176621462879
                        0.0181268089573556
                        0.0170314529228381
                        0.0159355331418538
                        0.0148464699833277
                        0.0137733329590814
                        0.0127254748563293
                        0.0117116003193413
                        0.0107391782395345
                        0.0098141836340040
                        0.0089412122050718
                        0.0081235022508837
                        0.0073627102324602
                        0.0066589868186886
                        0.0060113121283590
                        0.0054177970043497
                        0.0048759367899114
                        0.0043828211933333
                        0.0039353030022135
                        0.0035301300543905
                        0.0031640456418534
                        0.0028338615193143
                        0.0025365118057601
                        0.0022690799873841
                        0.0020288471567452
                        0.0018132038203579
                        0.0016200156439842
                        0.0014376313796218
                        0.0062656778140811
                        0.0068081585989700
                        0.0073789544620700
                        0.0080099263687029
                        0.0087075869372669
                        0.0094782812098490
                        0.0103277770484668
                        0.0112607347403650
                        0.0122800018352061
                        0.0133856258996169
                        0.0145734325237413
                        0.0158327487105901
                        0.0171448417798120
                        0.0184854067490695
                        0.0198295114632280
                        0.0211566260859309
                        0.0224552568369596
                        0.0237239682771248
                        0.0249679432316851
                        0.0261929230086030
                        0.0273931547579777
                        0.0285428913768625
                        0.0296053628743496
                        0.0305420519678576
                        0.0313233695785190
                        0.0319324051027274
                        0.0323186064558520
                        0.0324524419093413
                        0.0332425294480382
                        0.0336941434975062
                        0.0328690470009316
                        0.0317851762095523
                        0.0305274479975626
                        0.0291575104678049
                        0.0277442088746815
                        0.0263436479735128
                        0.0249999862076014
                        0.0237401922614502
                        0.0225665258115341
                        0.0214547066190056
                        0.0203728347738690
                        0.0192983718857433
                        0.0182198100469327
                        0.0171342933109770
                        0.0160452020053695
                        0.0149597990360581
                        0.0138873060790323
                        0.0128374417008571
                        0.0118193999346327
                        0.0108411848040066
                        0.0099092941858509
                        0.0090288042160429
                        0.0082033667053971
                        0.0074349565895895
                        0.0067239441114517
                        0.0060694468419939
                        0.0054696494254616
                        0.0049220744430491
                        0.0044238068545205
                        0.0039716742750977
                        0.0035623875828740
                        0.0031926474468499
                        0.0028592213879910
                        0.0025590004180535
                        0.0022890270096304
                        0.0020465460100976
                        0.0018289100205846
                        0.0016339689015396
                        0.0014499691954215
                        0.0063293787742764
                        0.0068728259728144
                        0.0074452747129385
                        0.0080789294164041
                        0.0087805901614315
                        0.0095568803380471
                        0.0104138177861023
                        0.0113562604053639
                        0.0123871707168717
                        0.0135065877969238
                        0.0147101464133319
                        0.0159867016657422
                        0.0173167089225258
                        0.0186748378255391
                        0.0200351585508835
                        0.0213764281052208
                        0.0226869647448135
                        0.0239657363934341
                        0.0252187634830144
                        0.0264527499225441
                        0.0276624353888701
                        0.0288216520036502
                        0.0298926341786027
                        0.0308356008738918
                        0.0316201732307485
                        0.0322290138952903
                        0.0326096585476099
                        0.0327306347544552
                        0.0335070059210212
                        0.0339345342969161
                        0.0330711330394315
                        0.0319468242279456
                        0.0306504700767170
                        0.0292468629988423
                        0.0278071427261787
                        0.0263886813966309
                        0.0250359691446329
                        0.0237755122826072
                        0.0226082235428028
                        0.0215075744014177
                        0.0204391741199860
                        0.0193783985758097
                        0.0183121863010229
                        0.0172366359893296
                        0.0161545513788266
                        0.0150730162860809
                        0.0140013836331245
                        0.0129497202796766
                        0.0119276967432022
                        0.0109438438733232
                        0.0100051781965874
                        0.0091172558045933
                        0.0082841444966555
                        0.0075081416337921
                        0.0067898414776856
                        0.0061285036505878
                        0.0055223910830752
                        0.0049690577384970
                        0.0044655874690603
                        0.0040087857657568
                        0.0035953289816375
                        0.0032218770180388
                        0.0028851545040708
                        0.0025820102642318
                        0.0023094463165573
                        0.0020646716313867
                        0.0018450008328834
                        0.0016482686417500
                        0.0014626178535658
                        0.0063947966899404
                        0.0069390106642380
                        0.0075129203333520
                        0.0081490863065831
                        0.0088545974734123
                        0.0096363579749416
                        0.0105006403215874
                        0.0114525074780093
                        0.0124950463716304
                        0.0136282967374260
                        0.0148477076983877
                        0.0161416584509295
                        0.0174897756091942
                        0.0188656769854036
                        0.0202424071984194
                        0.0215979901474069
                        0.0229205519235636
                        0.0242094760345889
                        0.0254716426211052
                        0.0267147410335163
                        0.0279340125575635
                        0.0291028548260026
                        0.0301824817597111
                        0.0311318198869378
                        0.0319196911412405
                        0.0325283342813062
                        0.0329033357685348
                        0.0330112398253233
                        0.0337735274875834
                        0.0341764734675693
                        0.0332742570753548
                        0.0321090635235681
                        0.0307737510532905
                        0.0293362623772591
                        0.0278700005737645
                        0.0264335560186292
                        0.0250717058897223
                        0.0238104727347666
                        0.0226494316871030
                        0.0215598374552761
                        0.0205048431830128
                        0.0194577619708283
                        0.0184039848633709
                        0.0173385563072900
                        0.0162636848591737
                        0.0151862525435265
                        0.0141157211984845
                        0.0130624869081885
                        0.0120366823030205
                        0.0110473557063961
                        0.0101020376899801
                        0.0092067641799028
                        0.0083660224663897
                        0.0075824377297012
                        0.0068568342603129
                        0.0061886197812430
                        0.0055761411783122
                        0.0050169887965713
                        0.0045082495577255
                        0.0040467101453580
                        0.0036290148913048
                        0.0032517847200836
                        0.0029117025673107
                        0.0026055758087601
                        0.0023303663735958
                        0.0020832475408401
                        0.0018614957037568
                        0.0016629310023586
                        0.0014755907780357
                        0.0064620084017287
                        0.0070067916468401
                        0.0075819775305697
                        0.0082204966706685
                        0.0089297264302671
                        0.0097168517944210
                        0.0105884019190531
                        0.0115496495968281
                        0.0126038135291061
                        0.0137509423407225
                        0.0149863050854318
                        0.0162978023786000
                        0.0176642167481099
                        0.0190580886904883
                        0.0204514096914269
                        0.0218214506942800
                        0.0231561420639798
                        0.0244552967276832
                        0.0257266790329097
                        0.0269789890827636
                        0.0282079803247150
                        0.0293866018665621
                        0.0304750204945064
                        0.0314308393512526
                        0.0322220703294073
                        0.0328305301779142
                        0.0331998152029418
                        0.0332944383030176
                        0.0340422690034595
                        0.0344201156166943
                        0.0334785399997534
                        0.0322719748752758
                        0.0308973303247967
                        0.0294257097657801
                        0.0279327523277505
                        0.0264782205928337
                        0.0251071359364924
                        0.0238450156284849
                        0.0226901045868023
                        0.0216114694309367
                        0.0205698392382397
                        0.0195364853570183
                        0.0184952562415766
                        0.0174401324504578
                        0.0163727080281123
                        0.0152996395176735
                        0.0142304740579032
                        0.0131759164470526
                        0.0121465457223087
                        0.0111519173859068
                        0.0102000711135757
                        0.0092975229081971
                        0.0084491840400627
                        0.0076580142721565
                        0.0069250754096766
                        0.0062499306910054
                        0.0056310177417594
                        0.0050659690982090
                        0.0045518794415467
                        0.0040855202278090
                        0.0036635063465398
                        0.0032824214840732
                        0.0029389079519466
                        0.0026297322486773
                        0.0023518163995662
                        0.0021022980065123
                        0.0018784148030428
                        0.0016779728109442
                        0.0014889020483166
                        0.0065310931987989
                        0.0070762496319038
                        0.0076525336292710
                        0.0082932608600091
                        0.0090060950118484
                        0.0097984996767896
                        0.0106772599914654
                        0.0116478607739373
                        0.0127136578844054
                        0.0138747161254559
                        0.0151261303061724
                        0.0164553208845908
                        0.0178402122319567
                        0.0192522428804921
                        0.0206623238903809
                        0.0220469535602954
                        0.0233938637190415
                        0.0247033122889988
                        0.0259839748271091
                        0.0272455900486463
                        0.0284844356302332
                        0.0296729978086610
                        0.0307703678291975
                        0.0317327921817913
                        0.0325274604500039
                        0.0331357682455681
                        0.0334992767562282
                        0.0335804141605561
                        0.0343134079996706
                        0.0346656176357914
                        0.0336841043179650
                        0.0324356399567715
                        0.0310212475950358
                        0.0295152063057162
                        0.0279953678851701
                        0.0265226242002364
                        0.0251421996990901
                        0.0238790846210659
                        0.0227301989826861
                        0.0216624470642760
                        0.0206341631710157
                        0.0196145958875606
                        0.0185860547194787
                        0.0175414459195866
                        0.0164817289997456
                        0.0154133104582858
                        0.0143457979862615
                        0.0132901833048479
                        0.0122574749522950
                        0.0112577244538632
                        0.0102994753267788
                        0.0093897242089578
                        0.0085338117378165
                        0.0077350402882830
                        0.0069947180477302
                        0.0063125724807644
                        0.0056871398150107
                        0.0051161013866279
                        0.0045965648474000
                        0.0041252902872021
                        0.0036988658291724
                        0.0033138396287077
                        0.0029668143312607
                        0.0026545159760687
                        0.0023738266985726
                        0.0021218482731069
                        0.0018957791727660
                        0.0016934116731144
                        0.0015025664432364
                        0.0066021327853698
                        0.0071474676587032
                        0.0077246783678826
                        0.0083674819545350
                        0.0090838242040603
                        0.0098814425971321
                        0.0107673749454866
                        0.0117473178572421
                        0.0128247679452121
                        0.0139998126798958
                        0.0152673787205283
                        0.0166144057775881
                        0.0180179470576955
                        0.0194483151198660
                        0.0208753134650924
                        0.0222746481997841
                        0.0236338506399032
                        0.0249536411594394
                        0.0262436361774742
                        0.0275146435431597
                        0.0287634788006120
                        0.0299621506464343
                        0.0310686445628188
                        0.0320378147457034
                        0.0328360147557720
                        0.0334442189836529
                        0.0338019044139956
                        0.0338693555606316
                        0.0345871262060369
                        0.0349131402992519
                        0.0338910756940790
                        0.0326001427621930
                        0.0311455441225756
                        0.0296047541277659
                        0.0280578178568082
                        0.0265667166860594
                        0.0251768387090819
                        0.0239126250754229
                        0.0227696740507963
                        0.0217127502797117
                        0.0206978196914057
                        0.0196921249203578
                        0.0186764388112687
                        0.0176425820905271
                        0.0165908590848089
                        0.0155274009404802
                        0.0144618501939696
                        0.0134054625943860
                        0.0123696582134240
                        0.0113649726476425
                        0.0104004476508097
                        0.0094835612769618
                        0.0086200896840006
                        0.0078136870223980
                        0.0070659180098469
                        0.0063766842889086
                        0.0057446296177355
                        0.0051674915609354
                        0.0046423965108454
                        0.0041660973760097
                        0.0037351583238348
                        0.0033460936844212
                        0.0029954673046598
                        0.0026799650421818
                        0.0023964289925380
                        0.0021419247904859
                        0.0019136108748641
                        0.0017092660589718
                        0.0015165994829165
                        0.0066752111658756
                        0.0072205317146427
                        0.0077985053235285
                        0.0084432679652618
                        0.0091630407903986
                        0.0099658276896357
                        0.0108589131461012
                        0.0118482030607503
                        0.0129373369179745
                        0.0141264308658530
                        0.0154102499591964
                        0.0167752535338593
                        0.0181976114907230
                        0.0196464867810312
                        0.0210905481533361
                        0.0225046900247920
                        0.0238762421099148
                        0.0252064067276570
                        0.0265057736470392
                        0.0277862531869534
                        0.0290452140369213
                        0.0302541723201928
                        0.0313699756201569
                        0.0323460477354490
                        0.0331478910518891
                        0.0337560578219152
                        0.0341078875013240
                        0.0341614562562456
                        0.0348636110840601
                        0.0351628498736213
                        0.0340995844991184
                        0.0327655710254975
                        0.0312702639497065
                        0.0296943573263653
                        0.0281200742393639
                        0.0266104490256840
                        0.0252109957335645
                        0.0239455840432964
                        0.0228084913791244
                        0.0217623622583245
                        0.0207608175455077
                        0.0197691083879030
                        0.0187664717843979
                        0.0177436308784266
                        0.0167002135890772
                        0.0156420498036137
                        0.0145787904297231
                        0.0135219314374848
                        0.0124832855452810
                        0.0114738597280600
                        0.0105031879814205
                        0.0095792306485390
                        0.0087082061570154
                        0.0078941305703344
                        0.0071388364524335
                        0.0064424107675966
                        0.0058036148092111
                        0.0052202506684512
                        0.0046894698743240
                        0.0042080227293789
                        0.0037724524468382
                        0.0033792412764667
                        0.0030249150697020
                        0.0027061196538031
                        0.0024196567751653
                        0.0021625554547901
                        0.0019319331446189
                        0.0017255553901098
                        0.0015310174678200
                        0.0067504144277953
                        0.0072955314480949
                        0.0078741136047645
                        0.0085207344172545
                        0.0092438805423723
                        0.0100518116397633
                        0.0109520500876054
                        0.0119507065816223
                        0.0130515646020684
                        0.0142547750033562
                        0.0155549485572305
                        0.0169380656076288
                        0.0183794012653712
                        0.0198469452725862
                        0.0213082040612997
                        0.0227372407540754
                        0.0241211832966871
                        0.0254617376596637
                        0.0267705025115000
                        0.0280605269827863
                        0.0293297499069958
                        0.0305491793644587
                        0.0316744908443738
                        0.0326576370646413
                        0.0334632526724440
                        0.0340714662405172
                        0.0344174219782309
                        0.0344569170324711
                        0.0351430574098453
                        0.0354149197809805
                        0.0343097674059730
                        0.0329320176767576
                        0.0313954551551360
                        0.0297840229399840
                        0.0281821110724803
                        0.0266537736552616
                        0.0252446148444948
                        0.0239779101994380
                        0.0228466149102702
                        0.0218112694984534
                        0.0208231697519891
                        0.0198455872275321
                        0.0188562222780067
                        0.0178446875295849
                        0.0168099127648510
                        0.0157574002573984
                        0.0146967822494958
                        0.0136397704192189
                        0.0125985504776396
                        0.0115845873977217
                        0.0106079009701334
                        0.0096769346327393
                        0.0087983562214241
                        0.0079765546294781
                        0.0072136426156310
                        0.0065099047483611
                        0.0058642309602601
                        0.0052744971120805
                        0.0047378869898184
                        0.0042511533520048
                        0.0038108217292491
                        0.0034133441316664
                        0.0030552091883343
                        0.0027330227374752
                        0.0024435457114044
                        0.0021837698769728
                        0.0019507705573912
                        0.0017423001293303
                        0.0015458375132367
                        0.0068278303937502
                        0.0073725610607619
                        0.0079516099975912
                        0.0086000075496356
                        0.0093264920343520
                        0.0101395645674804
                        0.0110469738493338
                        0.0120550293060499
                        0.0131676592462139
                        0.0143850559752203
                        0.0157016845275487
                        0.0171030487279985
                        0.0185635178152604
                        0.0200498843224503
                        0.0215284640244660
                        0.0229724688145510
                        0.0243688256428767
                        0.0257197682543325
                        0.0270379431009882
                        0.0283375777082276
                        0.0296171998666615
                        0.0308472935978624
                        0.0319823258417559
                        0.0329727348201481
                        0.0337822695112226
                        0.0343906329540862
                        0.0347307118103953
                        0.0347559472299899
                        0.0354256689505337
                        0.0356695323630463
                        0.0345217690768768
                        0.0330995823808371
                        0.0315211711757303
                        0.0298737619814876
                        0.0282439051217716
                        0.0266966448030408
                        0.0252776414693378
                        0.0240095537527965
                        0.0228840108759993
                        0.0218594618967502
                        0.0208848938936525
                        0.0199216079021795
                        0.0189457650458772
                        0.0179458535674352
                        0.0169200829384749
                        0.0158736011737600
                        0.0148159944654954
                        0.0137591652005400
                        0.0127156518277992
                        0.0116973633139549
                        0.0107147982823182
                        0.0097768838269420
                        0.0088907444808411
                        0.0080611534280512
                        0.0072905168316136
                        0.0065793302112752
                        0.0059266243657784
                        0.0053303592087746
                        0.0047877587578557
                        0.0042955839072969
                        0.0038503461566495
                        0.0034484692919448
                        0.0030864055112666
                        0.0027607206179906
                        0.0024681341138910
                        0.0022055996980191
                        0.0019701492183888
                        0.0017595218756384
                        0.0015610775766501
                        0.0069075481045871
                        0.0074517205100900
                        0.0080311118300561
                        0.0086812284511521
                        0.0094110413614684
                        0.0102292745775313
                        0.0111438888966692
                        0.0121613855770122
                        0.0132858392971373
                        0.0145174921774806
                        0.0158506738198243
                        0.0172704151550924
                        0.0187501685303805
                        0.0202555043290743
                        0.0217515180500941
                        0.0232105498184810
                        0.0246193273182053
                        0.0259806388460587
                        0.0273082211813616
                        0.0286175233509449
                        0.0299076828380893
                        0.0311486428879992
                        0.0322936229152893
                        0.0332915003088950
                        0.0341051191437667
                        0.0347137552005865
                        0.0350479704602671
                        0.0350587663970345
                        0.0357116602842349
                        0.0359268807995168
                        0.0347357439952151
                        0.0332683732099307
                        0.0316474722482548
                        0.0299635905678739
                        0.0283054366337002
                        0.0267390188613124
                        0.0253100224561973
                        0.0240404663631312
                        0.0229206477523324
                        0.0219069328813122
                        0.0209460124981263
                        0.0199972230468951
                        0.0190351818583728
                        0.0180472379253822
                        0.0170308578438792
                        0.0159908085912347
                        0.0149366027982388
                        0.0138803083083118
                        0.0128347956387265
                        0.0118124032068708
                        0.0108241009418245
                        0.0098792997323511
                        0.0089855879825319
                        0.0081481348904505
                        0.0073696538683572
                        0.0066508656814490
                        0.0059909553491671
                        0.0053879782662192
                        0.0048392076721117
                        0.0043414190678064
                        0.0038911141052686
                        0.0034846906501575
                        0.0031185653505780
                        0.0027892638772547
                        0.0024934635414124
                        0.0022280789785015
                        0.0019900969893979
                        0.0017772434680743
                        0.0015767564741498
                        0.0069896570818554
                        0.0075331172291469
                        0.0081127509530720
                        0.0087645585762390
                        0.0094977181112778
                        0.0103211531599718
                        0.0112430202523016
                        0.0122700059504639
                        0.0134063349350782
                        0.0146523102240280
                        0.0160021386064118
                        0.0174403828713530
                        0.0189395670430015
                        0.0204640127984925
                        0.0219775638660753
                        0.0234516671425833
                        0.0248728537579753
                        0.0262444962787278
                        0.0275814683993576
                        0.0289004876137793
                        0.0302013238783428
                        0.0314533620304700
                        0.0326085321309419
                        0.0336141012450779
                        0.0344319880848513
                        0.0350410401842609
                        0.0353694225528443
                        0.0353656061260600
                        0.0360012588239349
                        0.0361871712448937
                        0.0349518585038667
                        0.0334385085112921
                        0.0317744270318168
                        0.0300535312082345
                        0.0283666902168645
                        0.0267808548467443
                        0.0253417061929355
                        0.0240706010971442
                        0.0229564962698078
                        0.0219536796354618
                        0.0210065535498490
                        0.0200724922850949
                        0.0191245626073814
                        0.0181489583092880
                        0.0171423802031274
                        0.0161091874707572
                        0.0150587917679442
                        0.0140034011352504
                        0.0129561972847168
                        0.0119299331214564
                        0.0109360417735879
                        0.0099844174785598
                        0.0090831192922503
                        0.0082377240823378
                        0.0074512666927077
                        0.0067247081848972
                        0.0060574022364484
                        0.0054475123887204
                        0.0048923712951772
                        0.0043887765477290
                        0.0039332248747591
                        0.0035220909778385
                        0.0031517570352377
                        0.0028187084936136
                        0.0025195795882977
                        0.0022512447050835
                        0.0020106437741146
                        0.0017954891040811
                        0.0015928938801504
                        0.0070742462998262
                        0.0076168687071284
                        0.0081966794533097
                        0.0088501872759434
                        0.0095867430286035
                        0.0104154416119965
                        0.0113446179962626
                        0.0123811397955954
                        0.0135293892426110
                        0.0147897452921021
                        0.0161563073332520
                        0.0176131756884131
                        0.0191319335507077
                        0.0206756248900707
                        0.0222068076045333
                        0.0236960126380696
                        0.0251295783159575
                        0.0265114944780406
                        0.0278578228193647
                        0.0291866005211633
                        0.0304982549772397
                        0.0317615937888008
                        0.0329272125692971
                        0.0339407151339068
                        0.0347630732352548
                        0.0353727067336111
                        0.0356953057834647
                        0.0356767121444405
                        0.0362947071199915
                        0.0364506252639620
                        0.0351702931269230
                        0.0336101190460231
                        0.0319021144859385
                        0.0301436143226123
                        0.0284276559175985
                        0.0268221150092618
                        0.0253726428304800
                        0.0240999124675162
                        0.0229915295235005
                        0.0219997034622918
                        0.0210665511884087
                        0.0201474832721619
                        0.0192140066727885
                        0.0182511428475978
                        0.0172548036109195
                        0.0162289137586761
                        0.0151827568794778
                        0.0141286562006259
                        0.0130800837883680
                        0.0120501918154102
                        0.0110508679600143
                        0.0100924886594479
                        0.0091835897400590
                        0.0083301669563925
                        0.0075355907194568
                        0.0068010778965628
                        0.0061261662054452
                        0.0055091412799357
                        0.0049474067717085
                        0.0044377911328527
                        0.0039767921148504
                        0.0035607647040589
                        0.0031860580599257
                        0.0028491174206261
                        0.0025465329755662
                        0.0022751374832854
                        0.0020318218977945
                        0.0018142844823726
                        0.0016095103018022
                        0.0071614027717420
                        0.0077031065184365
                        0.0082830780765181
                        0.0089383422550699
                        0.0096783779061448
                        0.0105124185944208
                        0.0114489619356119
                        0.0124950574903477
                        0.0136552587904823
                        0.0149300409697084
                        0.0163134144695635
                        0.0177890232539164
                        0.0193274951893054
                        0.0208905640962512
                        0.0224394646489977
                        0.0239437875000598
                        0.0253896830587534
                        0.0267817951490444
                        0.0281374295801905
                        0.0294759991603587
                        0.0307986160279368
                        0.0320734901484377
                        0.0332498338233022
                        0.0342715309181047
                        0.0350985835817322
                        0.0357089872483280
                        0.0360258731506449
                        0.0359923467446286
                        0.0365922655337879
                        0.0367174826656015
                        0.0353912452707364
                        0.0337833504936832
                        0.0320306260980492
                        0.0302338800827921
                        0.0284883305759692
                        0.0268627656665940
                        0.0254027846760613
                        0.0241283566122112
                        0.0230257232423239
                        0.0220450103572263
                        0.0211260466671471
                        0.0202222730442801
                        0.0193036246299709
                        0.0183539321090223
                        0.0173682948028053
                        0.0163501768366412
                        0.0153087071799686
                        0.0142562997481707
                        0.0132066964174375
                        0.0121734333648675
                        0.0111688437378345
                        0.0102037842781527
                        0.0092872728153783
                        0.0084257343835638
                        0.0076228885766058
                        0.0068802235953451
                        0.0061974772342493
                        0.0055730723756783
                        0.0050044967952890
                        0.0044886201649439
                        0.0040219485976706
                        0.0036008218538905
                        0.0032215581679414
                        0.0028805628682151
                        0.0025743811301415
                        0.0022998025346940
                        0.0020536666432348
                        0.0018336569888195
                        0.0016266270149894
                        0.0072512096190603
                        0.0077919828432428
                        0.0083721689480039
                        0.0090293042578215
                        0.0097729382956132
                        0.0106124087850532
                        0.0115563660851335
                        0.0126120518135943
                        0.0137842133437976
                        0.0150734484344570
                        0.0164736998813229
                        0.0179681609397418
                        0.0195264864637748
                        0.0211090630733467
                        0.0226757606630337
                        0.0241952033125191
                        0.0256533597164587
                        0.0270555686142316
                        0.0284204416899611
                        0.0297688285826550
                        0.0311025560086646
                        0.0323892138361278
                        0.0335765778042444
                        0.0346067509572533
                        0.0354387422184513
                        0.0360501300182467
                        0.0363613956092704
                        0.0363127916536433
                        0.0368942153928291
                        0.0369880048557658
                        0.0356149324209190
                        0.0339583664396433
                        0.0321600685769264
                        0.0303243806896200
                        0.0285487195716828
                        0.0269027783646759
                        0.0254320868432631
                        0.0241558916911928
                        0.0230590562986157
                        0.0220896118806182
                        0.0211850896732658
                        0.0202969497796796
                        0.0193935404085625
                        0.0184574815996187
                        0.0174830364201117
                        0.0164731824723575
                        0.0154368683039635
                        0.0143865747947324
                        0.0133362936674883
                        0.0122999300642505
                        0.0112902532861764
                        0.0103185978034743
                        0.0093944676666183
                        0.0085247264037622
                        0.0077134553509815
                        0.0069624289865276
                        0.0062716013632416
                        0.0056395487008527
                        0.0050638575855094
                        0.0045414511446513
                        0.0040688530337058
                        0.0036423938073420
                        0.0032583639391571
                        0.0029131297385764
                        0.0026031905793408
                        0.0023252912098448
                        0.0020762170562926
                        0.0018536359615586
                        0.0016442659416360
                        0.0073437434414293
                        0.0078836813997483
                        0.0084642352060633
                        0.0091234277984910
                        0.0098708095771473
                        0.0107157922608840
                        0.0116671822732409
                        0.0127324379231762
                        0.0139165342852171
                        0.0152202247445404
                        0.0166374077241726
                        0.0181508295641070
                        0.0197291497105420
                        0.0213313645991209
                        0.0229159327727072
                        0.0244504832373819
                        0.0259208107567848
                        0.0273329947608199
                        0.0287070209321143
                        0.0300652428471326
                        0.0314102343761837
                        0.0327089401223800
                        0.0339076408888688
                        0.0349465933865828
                        0.0357837887354071
                        0.0363964019825623
                        0.0367021652314168
                        0.0366383514376203
                        0.0372008627392383
                        0.0372624788388203
                        0.0358415959628801
                        0.0341353519767117
                        0.0322905671465097
                        0.0304151832221494
                        0.0286088390923800
                        0.0269421314884005
                        0.0254605082694902
                        0.0241824786004618
                        0.0230915115655454
                        0.0221335264545512
                        0.0212437401472334
                        0.0203716151192350
                        0.0194838940555112
                        0.0185619648962712
                        0.0175992304318130
                        0.0165981564345830
                        0.0155674861724283
                        0.0145197447970577
                        0.0134691547921158
                        0.0124299757617414
                        0.0114154039033312
                        0.0104372483649609
                        0.0095055026474253
                        0.0086274765674727
                        0.0078076241727495
                        0.0070480198342942
                        0.0063488494076609
                        0.0057088588642408
                        0.0051257495852085
                        0.0045965124051996
                        0.0041177000173654
                        0.0036856419711242
                        0.0032966058709177
                        0.0029469210271882
                        0.0026330407625103
                        0.0023516634138370
                        0.0020995172387834
                        0.0018742531096090
                        0.0016624494361119
                        0.0074390707328917
                        0.0079784364716595
                        0.0085596519028050
                        0.0092211703251361
                        0.0099724665480664
                        0.0108230135817554
                        0.0117818016621290
                        0.0128565510017976
                        0.0140525111890788
                        0.0153706299172111
                        0.0168047846529660
                        0.0183372747906982
                        0.0199357354408741
                        0.0215577224974304
                        0.0231602307318061
                        0.0247098631687343
                        0.0261922504002043
                        0.0276142639165611
                        0.0289973387075397
                        0.0303654060446086
                        0.0317218225326926
                        0.0330328587918792
                        0.0342432363141767
                        0.0352912947840758
                        0.0361339819054985
                        0.0367480918975867
                        0.0370484988752086
                        0.0369693574604088
                        0.0375125427178358
                        0.0375412219439634
                        0.0360715057110387
                        0.0343145180220151
                        0.0324222695551882
                        0.0305063731840100
                        0.0286687190557065
                        0.0269808124528767
                        0.0254880132212606
                        0.0242080821154503
                        0.0231230772504337
                        0.0221767812390723
                        0.0213020707790379
                        0.0204463872400552
                        0.0195748453082050
                        0.0186675776319717
                        0.0177171024368081
                        0.0167253490034089
                        0.0157008315839311
                        0.0146560981808745
                        0.0136055841247048
                        0.0125638898580361
                        0.0115446296526588
                        0.0105600841767086
                        0.0096207388678427
                        0.0087343561807809
                        0.0079057718494363
                        0.0071373716329760
                        0.0064295870477122
                        0.0057813495022649
                        0.0051904916909378
                        0.0046540881677057
                        0.0041687347799070
                        0.0037307711957036
                        0.0033364497144017
                        0.0029820667036462
                        0.0026640304253165
                        0.0023789917351774
                        0.0021236185741891
                        0.0018955432461606
                        0.0016811999279330
                        0.0075372429899247
                        0.0080765674220257
                        0.0086589354042489
                        0.0093231325253195
                        0.0100784955641622
                        0.0109345883009065
                        0.0119006521271445
                        0.0129847401669390
                        0.0141924356632600
                        0.0155249221868575
                        0.0169760768391596
                        0.0185277457081226
                        0.0201465020439961
                        0.0217884019733743
                        0.0234089174837187
                        0.0249735922456593
                        0.0264679049590341
                        0.0278995770355586
                        0.0292915761989972
                        0.0306694927022491
                        0.0320375047978495
                        0.0333611757441938
                        0.0345835963141068
                        0.0356411126781526
                        0.0364896022150763
                        0.0371055135204344
                        0.0374007420269752
                        0.0373061721058076
                        0.0378296243650854
                        0.0378245870985863
                        0.0363049650089550
                        0.0344961062630083
                        0.0325553507611479
                        0.0305980587478723
                        0.0287284067187759
                        0.0270188205305962
                        0.0255145733501455
                        0.0242326725316525
                        0.0231537488082384
                        0.0222194147419144
                        0.0213601703761313
                        0.0205214049095648
                        0.0196665782321588
                        0.0187745426107304
                        0.0178369071449888
                        0.0168550406929564
                        0.0158372060327751
                        0.0147959540833809
                        0.0137459165545968
                        0.0127020223276284
                        0.0116782957973634
                        0.0106874864091964
                        0.0097405737922160
                        0.0088457782509576
                        0.0080083240931815
                        0.0072309172124363
                        0.0065142457876683
                        0.0058574401012206
                        0.0052584797111415
                        0.0047145396119938
                        0.0042222752559555
                        0.0037780510184811
                        0.0033781152959838
                        0.0030187390338782
                        0.0026962889902101
                        0.0024073689632907
                        0.0021485838670693
                        0.0019175457117743
                        0.0017005393305305
                        0.0076382900276525
                        0.0081785442586221
                        0.0087628229826781
                        0.0094301115716534
                        0.0101896154958068
                        0.0110511023332623
                        0.0120241880193282
                        0.0131173563222340
                        0.0143365907954098
                        0.0156833500159223
                        0.0171515243810093
                        0.0187224911030493
                        0.0203617132655497
                        0.0220236776776878
                        0.0236622673611329
                        0.0252419309083774
                        0.0267480106489408
                        0.0281891433249545
                        0.0295899219829984
                        0.0309776857037343
                        0.0323574770565692
                        0.0336941124338394
                        0.0349289722541875
                        0.0359963262176959
                        0.0368509525982460
                        0.0374690072851985
                        0.0377592714115307
                        0.0376491919690943
                        0.0381525146120793
                        0.0381129675955280
                        0.0365423154839817
                        0.0346803939690153
                        0.0326900176718771
                        0.0306903752042200
                        0.0287879705926449
                        0.0270561700228932
                        0.0255401700716430
                        0.0242562276253814
                        0.0231835313469761
                        0.0222614801757837
                        0.0214181482028912
                        0.0205968326935888
                        0.0197593071624424
                        0.0188831163505737
                        0.0179589353893466
                        0.0169875495877453
                        0.0159769492004205
                        0.0149396697978002
                        0.0138905246851367
                        0.0128447603165939
                        0.0118168045676083
                        0.0108198739672435
                        0.0098654451403022
                        0.0089622010424094
                        0.0081157597832963
                        0.0073291532533860
                        0.0066033335254230
                        0.0059376392100167
                        0.0053302090172557
                        0.0047783335051206
                        0.0042787448688453
                        0.0038278497803781
                        0.0034219088284941
                        0.0030571803931164
                        0.0027299981544473
                        0.0024369228987188
                        0.0021744957682301
                        0.0019403074468676
                        0.0017204880535342
                        0.0077422108801373
                        0.0082851187285126
                        0.0088723999757321
                        0.0095431642268899
                        0.0103066875598234
                        0.0111731953823630
                        0.0121528661485807
                        0.0132547294790207
                        0.0144852323620342
                        0.0158461370399274
                        0.0173313490679480
                        0.0189217491122774
                        0.0205816288648109
                        0.0222638246440178
                        0.0239205568547597
                        0.0255151412648754
                        0.0270328035233401
                        0.0284831698883899
                        0.0298925616186215
                        0.0312901662362026
                        0.0326819376198413
                        0.0340318977266367
                        0.0352796274103448
                        0.0363572297726226
                        0.0372183522477678
                        0.0378389355820907
                        0.0381244917485775
                        0.0379988456849731
                        0.0384816574168157
                        0.0384067975936144
                        0.0367839381109614
                        0.0348676957645670
                        0.0328265114505439
                        0.0307834875087552
                        0.0288475028954978
                        0.0270928923003561
                        0.0255647960247141
                        0.0242787338827494
                        0.0232124417016985
                        0.0223030489741325
                        0.0214761389047585
                        0.0206728671132736
                        0.0198532839119499
                        0.0189935971741778
                        0.0180835229335174
                        0.0171232406900563
                        0.0161204486391690
                        0.0150876505511757
                        0.0140398284105283
                        0.0129925371501061
                        0.0119606031554186
                        0.0109577100502961
                        0.0099958358026933
                        0.0090841315561245
                        0.0082286138808920
                        0.0074326443806907
                        0.0066974424547040
                        0.0060225593124452
                        0.0054062992872200
                        0.0048460783951821
                        0.0043387195019704
                        0.0038806891292751
                        0.0034682796854885
                        0.0030977563295564
                        0.0027654360698871
                        0.0024678484473018
                        0.0022014759636515
                        0.0019638905066824
                        0.0017410633049052
                        0.0078489615827749
                        0.0083976013364662
                        0.0089892940612447
                        0.0096636608799549
                        0.0104306909296590
                        0.0113015114300053
                        0.0122870957743323
                        0.0133971252101573
                        0.0146385515850186
                        0.0160134491324456
                        0.0175157238808402
                        0.0191257178277314
                        0.0208064752415048
                        0.0225090881712015
                        0.0241840334173530
                        0.0257934547486895
                        0.0273224861460582
                        0.0287818277427348
                        0.0301996433840073
                        0.0316070798097955
                        0.0330110543019868
                        0.0343747361813512
                        0.0356358064962229
                        0.0367241038061305
                        0.0375921081218855
                        0.0382156567917284
                        0.0384968124619055
                        0.0383555729799609
                        0.0388175152344877
                        0.0387065364011699
                        0.0370302398609103
                        0.0350583529151897
                        0.0329650991544043
                        0.0308775838132506
                        0.0289071144310923
                        0.0271290314706108
                        0.0255884511000534
                        0.0243001830907736
                        0.0232405068844538
                        0.0223442117596770
                        0.0215343058288774
                        0.0207497420403278
                        0.0199488049866002
                        0.0191063340135485
                        0.0182110606419117
                        0.0172625372178132
                        0.0162681519295736
                        0.0152403622094761
                        0.0141943077953254
                        0.0131458449073659
                        0.0121101953342234
                        0.0111015120476076
                        0.0101322813273481
                        0.0092121301996250
                        0.0083474794723629
                        0.0075420238472041
                        0.0067972512262594
                        0.0061129250952396
                        0.0054875148852071
                        0.0049185631691701
                        0.0044029882790500
                        0.0039373268530141
                        0.0035179196269524
                        0.0031410605419033
                        0.0028030748936483
                        0.0025004856168366
                        0.0022297358630619
                        0.0019883938444079
                        0.0017622760202994
                        0.0079584392935878
                        0.0085184816426607
                        0.0091159321518103
                        0.0097932680587203
                        0.0105626136905752
                        0.0114365813440777
                        0.0124271340810808
                        0.0135446523633541
                        0.0147965899362868
                        0.0161853117881271
                        0.0177046899907553
                        0.0193344702234320
                        0.0210363570560621
                        0.0227595914814620
                        0.0244528192163244
                        0.0260769723786804
                        0.0276171250337279
                        0.0290851472426478
                        0.0305111723929481
                        0.0319284299186086
                        0.0333448587815966
                        0.0347227034664877
                        0.0359976325516483
                        0.0370971139255295
                        0.0379724156150735
                        0.0385994306723192
                        0.0388765585089515
                        0.0387197411811596
                        0.0391604905492370
                        0.0390125964606590
                        0.0372815895009873
                        0.0352526774910329
                        0.0331060257364653
                        0.0309728344198075
                        0.0289668993968517
                        0.0271646138591612
                        0.0256111154997116
                        0.0243205486534475
                        0.0232677450256450
                        0.0223850644796277
                        0.0215928318833128
                        0.0208277238116764
                        0.0200462105726924
                        0.0192217289335905
                        0.0183420002104442
                        0.0174059291894702
                        0.0164205777214240
                        0.0153983443206967
                        0.0143545175997700
                        0.0133052497898019
                        0.0122661567511254
                        0.0112518655314167
                        0.0102753813201089
                        0.0093468182855660
                        0.0084730102561586
                        0.0076579906669818
                        0.0069035181016184
                        0.0062095669115981
                        0.0055747668608444
                        0.0049967798217637
                        0.0044726115809928
                        0.0039988628230021
                        0.0035719218507905
                        0.0031881193262160
                        0.0028438076728215
                        0.0025355336261318
                        0.0022597392576205
                        0.0020140352314149
                        0.0017841248462717
                        0.0080704627109068
                        0.0086529020771076
                        0.0092557135079006
                        0.0099336878008002
                        0.0107031478262695
                        0.0115785523445915
                        0.0125728443469108
                        0.0136970332912475
                        0.0149590089267118
                        0.0163613716403531
                        0.0178979054440439
                        0.0195476875881384
                        0.0212709737255238
                        0.0230150348147400
                        0.0247265937577733
                        0.0263653325059271
                        0.0279163054858195
                        0.0293926619100765
                        0.0308266448354274
                        0.0322537039546412
                        0.0336828658366532
                        0.0350753597324551
                        0.0363647159548247
                        0.0374759180556419
                        0.0383589647880692
                        0.0389900297444390
                        0.0392635903202354
                        0.0390912771219747
                        0.0395105652393041
                        0.0393249962063729
                        0.0375379958606413
                        0.0354506583805649
                        0.0332492473462278
                        0.0310691506059942
                        0.0290267170063610
                        0.0271994491652000
                        0.0256325669810488
                        0.0243396163493851
                        0.0232940098154462
                        0.0224255660323311
                        0.0216517889439940
                        0.0209069915520246
                        0.0201457753133555
                        0.0193401381131421
                        0.0184767651730677
                        0.0175538942422186
                        0.0165782460458283
                        0.0155621494656380
                        0.0145210350748561
                        0.0134713475979921
                        0.0124290968662960
                        0.0114093908162710
                        0.0104257685719000
                        0.0094888472643371
                        0.0086058868689355
                        0.0077812697211645
                        0.0070170320302687
                        0.0063133622098332
                        0.0056690490728871
                        0.0050818671914540
                        0.0045488971768348
                        0.0040667848854581
                        0.0036319418108261
                        0.0032407076243404
                        0.0028894343286891
                        0.0025746703220193
                        0.0022928432443175
                        0.0020416116277277
                        0.0018065829671952
                        0.0081847476122487
                        0.0087969172711947
                        0.0094040209171178
                        0.0100807303095859
                        0.0108487909921423
                        0.0117245645823242
                        0.0127218824087047
                        0.0138523031122318
                        0.0151240973075193
                        0.0165400616748609
                        0.0180938577470540
                        0.0197638492185243
                        0.0215087727820933
                        0.0232738522752918
                        0.0250038275887623
                        0.0266571045246178
                        0.0282187437412130
                        0.0297032446670055
                        0.0311450507540481
                        0.0325819204987213
                        0.0340240097969251
                        0.0354314741975748
                        0.0367356243152376
                        0.0378588829857528
                        0.0387499409853535
                        0.0393853876684066
                        0.0396556085503491
                        0.0394677521721226
                        0.0398652894248240
                        0.0396414329505234
                        0.0377975108296267
                        0.0356507963368427
                        0.0333937547853511
                        0.0311660122045798
                        0.0290864915364867
                        0.0272338157689115
                        0.0256533023385688
                        0.0243579262441571
                        0.0233196985000673
                        0.0224658392570229
                        0.0217109616227666
                        0.0209869728955234
                        0.0202465780964330
                        0.0194603150943658
                        0.0186138149526183
                        0.0177046324209593
                        0.0167391334217036
                        0.0157295663033004
                        0.0146914958042763
                        0.0136416542797125
                        0.0125964433337695
                        0.0115714548290189
                        0.0105807716228069
                        0.0096355250804291
                        0.0087434114002237
                        0.0079091705154559
                        0.0071351234538400
                        0.0064216780835482
                        0.0057677853483896
                        0.0051713324836651
                        0.0046294706204544
                        0.0041388807980918
                        0.0036959806265448
                        0.0032970938628705
                        0.0029385397187173
                        0.0026168313953153
                        0.0023283438407995
                        0.0020707555859190
                        0.0018295672813890
                </DataArray>
            </PointData>
        </Piece>
    </StructuredGrid>
</VTKFile>