<?xml version="1.0"?>
<VTKFile type="StructuredGrid" version="0.1" byte_order="LittleEndian" header_type="UInt32" compressor="vtkZLibDataCompressor">
  <StructuredGrid WholeExtent="0 30 0 40 0 0">
  <Piece Extent="0 30 0 40 0 0">
    <PointData>
      <DataArray type="Float32" Name="orthogonality" format="ascii" RangeMin="0" RangeMax="0.04894787445664406">
        0.048558425 0.048029304 0.047556568 0.047124837 0.04671609 0.046312515
        0.045898024 0.045458555 0.044981644 0.04445584 0.043870166 0.04321369
        0.042475194 0.041642744 0.04070323 0.039641757 0.03844117 0.0370819
        0.03554253 0.03380117 0.03183754 0.029635321 0.02718419 0.024481304
        0.021532087 0.01835048 0.014958829 0.011387489 0.0076740617 0.003862213
        0 0.04736204 0.047378756 0.047272276 0.0470729 0.04680249
        0.04647525 0.046098176 0.04567257 0.045195643 0.04466184 0.044063713
        0.04339244 0.04263803 0.041789304 0.04083361 0.039756376 0.0385407
        0.03716725 0.035614822 0.033861693 0.03188769 0.02967649 0.027217688
        0.024508301 0.02155357 0.018367246 0.014971502 0.011396537 0.0076798364
        0.003864998 5.4300372e-08 0.0467826 0.046979934 0.047028173 0.046970118
        0.046811786 0.046563927 0.046237327 0.045839794 0.04537501 0.044842668
        0.04423913 0.043558188 0.042791586 0.041929275 0.040959347 0.039867748
        0.038637985 0.03725105 0.03568604 0.033921454 0.031937268 0.029717205
        0.027250813 0.024534984 0.021574782 0.018383782 0.01498398 0.011405424
        0.007685482 0.0038676832 1.8052064e-07 0.046410296 0.046662193 0.046782233
        0.04681202 0.04674252 0.04657255 0.046306532 0.04595109 0.045512017
        0.04499246 0.044392284 0.0437082 0.042934164 0.042061705 0.041080013
        0.03997582 0.038733196 0.03733361 0.035756536 0.033980798 0.03198658
        0.029757716 0.027283754 0.024561483 0.02159582 0.018400155 0.014996313
        0.011414189 0.0076910295 0.0038702947 3.5670405e-07 0.046139248 0.046412893
        0.04656796 0.046649102 0.0466413 0.04653494 0.046326537 0.046017542
        0.045611862 0.045113325 0.04452385 0.04384258 0.043065693 0.042186502
        0.04119555 0.04008055 0.038826335 0.03741495 0.035826348 0.034039762
        0.032035667 0.02979807 0.027316555 0.02458785 0.021616725 0.018416403
        0.015008535 0.011422862 0.0076965066 0.0038728556 5.637112e-07 0.04592943
        0.046213355 0.04638713 0.046498895 0.046532504 0.046474315 0.046315093
        0.04605068 0.045681085 0.045208536 0.044635266 0.043961853 0.043186296
        0.042303648 0.0413059 0.04018191 0.038917374 0.037495047 0.03589547
        0.034098353 0.032084547 0.029838284 0.027349241 0.024614101 0.02163752
        0.018432548 0.0150206685 0.011431464 0.007701931 0.003875382 7.8841134e-07
        0.04576119 0.04605046 0.046235006 0.0463658 0.046427313 0.046404622
        0.04628521 0.04606048 0.045726255 0.04528188 0.04472845 0.04406686
        0.043296274 0.0424132 0.041411035 0.04027983 0.039006256 0.037573863
        0.03596387 0.034156553 0.032133207 0.029878357 0.027381811 0.02464025
        0.021658216 0.018448606 0.015032727 0.011440007 0.0077073155 0.003877885
        1.0215246e-06 0.04562326 0.045915436 0.046106547 0.04624965 0.046330325
        0.046333678 0.046245687 0.04605483 0.0457533 0.045337223 0.044805627
        0.04415873 0.04339611 0.042515323 0.041510973 0.04037428 0.039092924
        0.037651345 0.036031503 0.034214325 0.032181624 0.029918274 0.027414264
        0.024666293 0.021678818 0.01846458 0.015044718 0.011448501 0.0077126683
        0.0038803723 1.2561919e-06 0.045508523 0.04580229 0.045997567 0.046148922
        0.046243045 0.046265632 0.04620223 0.0460396 0.045767225 0.045378204
        0.044869114 0.044238772 0.043486476 0.0426103 0.0416058 0.04046525
        0.03917735 0.03772744 0.03609832 0.03427163 0.032229766 0.029958013
        0.027446585 0.024692228 0.021699326 0.018480476 0.015056646 0.01145695
        0.0077179954 0.0038828496 1.4871687e-06 0.045412183 0.045706797 0.04590479
        0.046061844 0.046165623 0.046202578 0.0461584 0.046019018 0.045772046
        0.04540808 0.044921197 0.044308405 0.04356814 0.042698506 0.04169567
        0.040552787 0.03925951 0.03780212 0.03616428 0.034328427 0.032277603
        0.029997554 0.027478758 0.024718044 0.021719735 0.01849629 0.015068514
        0.011465359 0.0077233016 0.0038853216 1.7103462e-06 0.04533086 0.045625888
        0.04582569 0.04598678 0.046097632 0.046145465 0.046116382 0.045996048
        0.045770917 0.045429636 0.044964015 0.044369068 0.043641977 0.042780418
        0.041780803 0.040636964 0.03933941 0.037875343 0.036229342 0.03438468
        0.032325096 0.030036869 0.027510768 0.024743734 0.021740042 0.018512025
        0.0150803225 0.011473729 0.0077285897 0.0038877917 1.9224517e-06 0.04526211
        0.045557283 0.04575831 0.045922317 0.046038453 0.04609463 0.046077482
        0.04597275 0.04576625 0.045445204 0.044999495 0.044422172 0.043708898
        0.042856555 0.041861475 0.0407179 0.03941708 0.037947103 0.036293473
        0.034440342 0.032372218 0.03007593 0.027542597 0.024769282 0.02176024
        0.018527675 0.015092071 0.011482064 0.007733863 0.0038902622 2.1208484e-06
        0.0452041 0.04549927 0.04570113 0.045867287 0.045987435 0.0460501
        0.046042472 0.045950547 0.045759864 0.045456696 0.04502935 0.04446904
        0.04376982 0.042927496 0.041937996 0.040795743 0.03949257 0.038017392
        0.036356643 0.034495387 0.03241893 0.030114712 0.027574223 0.02479468
        0.021780321 0.01854324 0.015103761 0.011490363 0.007739122 0.0038927358
        2.303396e-06 0.04515545 0.04545052 0.04565296 0.045820728 0.045943975
        0.046011757 0.04601178 0.045930408 0.045753155 0.045465678 0.045055065
        0.04451092 0.043825656 0.042993836 0.04201072 0.040870674 0.039565954
        0.03808622 0.036418825 0.034549773 0.032465197 0.030153187 0.027605627
        0.02481991 0.02180028 0.018558715 0.015115389 0.011498626 0.0077443686
        0.0038952138 2.4683525e-06 0.04511511 0.045410033 0.045612875 0.045781873
        0.04590755 0.04597941 0.045985647 0.04591302 0.04574717 0.04547341
        0.045077927 0.044548936 0.04387729 0.04305619 0.04208003 0.040942896
        0.039637316 0.038153607 0.03648001 0.03460347 0.032510992 0.030191325
        0.027636785 0.024844963 0.021820104 0.018574093 0.015126954 0.011506855
        0.0077496036 0.0038976974 2.6142986e-06 0.045082267 0.045377027 0.045580152
        0.04575011 0.04587772 0.045952875 0.0459642 0.04589886 0.045742713
        0.045480933 0.045099046 0.044584114 0.043925554 0.04311516 0.042146314
        0.041012634 0.03970676 0.03821958 0.036540177 0.03465645 0.032556277
        0.0302291 0.02766768 0.02486982 0.021839786 0.018589372 0.015138453
        0.0115150465 0.0077548274 0.0039001878 2.740086e-06 0.04505632 0.04535091
        0.045554243 0.045724962 0.045854136 0.045931984 0.045947514 0.045888282
        0.045740418 0.045489088 0.04511937 0.04461739 0.04397124 0.043171354
        0.042209975 0.04108012 0.0397744 0.038284168 0.03659932 0.034708686
        0.032601025 0.030266482 0.02769829 0.024894467 0.021859318 0.018604545
        0.015149884 0.011523202 0.00776004 0.0039026851 2.8447953e-06 0.045036808
        0.045331236 0.04553473 0.04570607 0.04583653 0.04591661 0.04593565
        0.045881573 0.04574081 0.0454986 0.045139737 0.04464959 0.0440151
        0.043225348 0.04227142 0.041145604 0.039840356 0.03834742 0.036657438
        0.03476015 0.0326452 0.030303445 0.02772859 0.02491889 0.021878688
        0.018619606 0.015161243 0.0115313195 0.0077652414 0.00390519 2.927705e-06
        0.045023408 0.045317695 0.045521323 0.045693185 0.045824725 0.04590667
        0.045928672 0.045878977 0.04574432 0.045510076 0.04516088 0.044681486
        0.04405782 0.043277707 0.042331047 0.04120933 0.03990476 0.03840938
        0.036714524 0.03481082 0.032688774 0.030339958 0.02775856 0.02494307
        0.021897886 0.018634548 0.015172527 0.011539396 0.0077704303 0.0039077024
        2.9882697e-06 0.04501591 0.04531008 0.045513835 0.045686148 0.045818612
        0.045902148 0.045926668 0.045880727 0.04575134 0.04552407 0.04518345
        0.04471377 0.04410006 0.043328978 0.042389255 0.041271545 0.039967734
        0.038470093 0.036770582 0.03486067 0.032731716 0.030375997 0.027788177
        0.024966996 0.021916902 0.018649368 0.015183734 0.01154743 0.0077756066
        0.003910222 3.0261033e-06 0.045014206 0.045308292 0.045512177 0.045684896
        0.04581817 0.04590308 0.045929767 0.04588706 0.045762252 0.045541085
        0.045208063 0.04474709 0.044142433 0.04337967 0.042446423 0.0413325
        0.04002942 0.038529612 0.036825612 0.034909677 0.032773998 0.03041153
        0.027817419 0.02499065 0.021935726 0.018664056 0.0151948575 0.011555422
        0.007780769 0.0039127492 3.040968e-06 0.045018286 0.045312323 0.04551635
        0.04568946 0.04582345 0.045909572 0.04593815 0.045898255 0.04577743
        0.045561608 0.045235284 0.04478206 0.044185515 0.043430272 0.042502914
        0.041392427 0.04008994 0.03858798 0.03687961 0.034957822 0.032815587
        0.030446533 0.027846266 0.025014017 0.021954346 0.01867861 0.015205895
        0.011563366 0.0077859163 0.0039152834 3.0327687e-06 0.045028232 0.04532226
        0.045526456 0.045699943 0.04583461 0.04592181 0.045952052 0.04591462
        0.04579728 0.045586128 0.045265675 0.04481926 0.04422986 0.043481253
        0.042559076 0.041451547 0.040149406 0.03864525 0.03693258 0.03500508
        0.032856457 0.030480977 0.027874693 0.025037078 0.021972755 0.018693015
        0.01521684 0.011571262 0.007791047 0.003917823 3.0015506e-06 0.045044225
        0.04533829 0.045542695 0.04571657 0.045851868 0.04594006 0.045971796
        0.045936536 0.045822244 0.04561516 0.04529979 0.04485924 0.04427599
        0.043533046 0.042615235 0.041510075 0.04020794 0.038701452 0.036984514
        0.035051428 0.03289658 0.030514833 0.027902681 0.02505982 0.021990936
        0.01870727 0.015227692 0.011579106 0.0077961595 0.0039203684 2.9475016e-06
        0.04506655 0.045360703 0.04556536 0.045739647 0.045875575 0.0459647
        0.045997787 0.045964457 0.045852832 0.04564925 0.0453382 0.04490257
        0.044324398 0.043586064 0.042671688 0.0415682 0.040265635 0.038756628
        0.037035413 0.03509684 0.032935917 0.030548077 0.027930206 0.025082225
        0.022008883 0.018721366 0.015238442 0.011586895 0.0078012524 0.003922918
        2.8709594e-06 0.04509561 0.04538991 0.045594882 0.045769624 0.04590619
        0.045996204 0.04603054 0.04599894 0.04588962 0.04568899 0.04538149
        0.044949796 0.04437557 0.04364068 0.042728703 0.04162609 0.040322576
        0.038810804 0.037085265 0.03514129 0.032974448 0.030580677 0.027957246
        0.025104279 0.022026582 0.018735297 0.015249089 0.011594626 0.007806323
        0.00392547 2.7724216e-06 0.045131944 0.045426454 0.04563182 0.045807075
        0.045944314 0.04603521 0.046070717 0.046040647 0.045933295 0.045735065
        0.04543029 0.045001466 0.044429947 0.043697238 0.04278652 0.041683875
        0.040378835 0.03886399 0.037134055 0.035184752 0.033012137 0.030612608
        0.027983777 0.025125964 0.022044022 0.018749053 0.015259625 0.0116022965
        0.0078113694 0.003928024 2.6525631e-06 0.04517625 0.045471054 0.04567691
        0.04585276 0.045990728 0.046082523 0.046119135 0.04609042 0.04598467
        0.04578822 0.045485277 0.04505814 0.04448796 0.04375604 0.042845327
        0.041741684 0.040434454 0.038916197 0.03718176 0.035227194 0.03304895
        0.030643841 0.028009782 0.025147263 0.022061193 0.018762628 0.015270046
        0.011609901 0.007816389 0.0039305775 2.5122574e-06 0.04522943 0.04552463
        0.0457311 0.045907665 0.046046443 0.046139166 0.046176832 0.046149276
        0.046044707 0.04584932 0.045547154 0.04512036 0.04455 0.043817345
        0.042905286 0.041799583 0.04048946 0.038967412 0.037228364 0.035268582
        0.033084862 0.03067435 0.028035235 0.025168164 0.022078084 0.018776013
        0.015280346 0.011617437 0.007821378 0.0039331294 2.352607e-06 0.045292653
        0.045588367 0.04579562 0.045973044 0.04611275 0.04620646 0.046245117
        0.046218466 0.04611454 0.04591933 0.04561668 0.045188665 0.04461642
        0.043881357 0.042966496 0.04185762 0.04054386 0.03901762 0.037273824
        0.035308883 0.03311983 0.030704103 0.028060114 0.025188645 0.02209468
        0.0187892 0.01529052 0.0116249 0.007826335 0.003935677 2.1749809e-06
        0.045367412 0.045663796 0.045872055 0.04605054 0.04619134 0.046286095
        0.046325654 0.046299547 0.04619554 0.045999344 0.045694645 0.045263566
        0.0446875 0.043948207 0.043029007 0.04191579 0.04059763 0.039066788
        0.03731811 0.035348054 0.03315383 0.030733077 0.0280844 0.025208695
        0.022110974 0.01880218 0.015300561 0.011632285 0.007831255 0.003938217
        1.9810668e-06 0.04545567 0.045752935 0.045962505 0.04614233 0.046284415
        0.04638029 0.04642056 0.04639443 0.046289295 0.046090562 0.04578185
        0.04534552 0.044763442 0.04401796 0.04309281 0.041974057 0.040650714
        0.03911486 0.037361167 0.035386056 0.033186816 0.030761236 0.028108068
        0.025228294 0.02212695 0.018814947 0.015310463 0.011639587 0.007836135
        0.003940748 1.7729367e-06 0.045560032 0.04585846 0.046069767 0.046251304
        0.04639494 0.046491947 0.046532545 0.046505474 0.04639766 0.046194274
        0.04587906 0.045434874 0.044844355 0.044090573 0.043157812 0.04203233
        0.040703043 0.03916177 0.037402943 0.035422843 0.033218756 0.030788556
        0.028131096 0.025247429 0.0221426 0.01882749 0.015320218 0.011646801
        0.00784097 0.003943265 1.5531368e-06 0.04568402 0.045984037 0.0461977
        0.046381477 0.04652695 0.046624947 0.04666511 0.046635542 0.04652273
        0.0463118 0.04598694 0.045531858 0.04493019 0.044165913 0.04322386
        0.042090476 0.04075451 0.039207444 0.037443377 0.035458367 0.03324961
        0.030815007 0.028153464 0.02526608 0.022157907 0.0188398 0.015329821
        0.011653921 0.007845755 0.0039457646 1.3248075e-06 0.045832593 0.046134822
        0.04635179 0.04653852 0.046686072 0.04678454 0.04682273 0.046788063
        0.046666786 0.046444386 0.04610597 0.04563647 0.045020748 0.044243705
        0.043290716 0.042148303 0.04080497 0.039251782 0.0374824 0.035492573
        0.03327934 0.030840559 0.02817515 0.025284233 0.022172865 0.018851869
        0.015339263 0.011660939 0.007850484 0.003948242 1.0918532e-06 0.046012986
        0.046318453 0.046540193 0.046730805 0.046880376 0.04697786 0.047011063
        0.046966955 0.046832096 0.046593018 0.04623631 0.045748454 0.04511561
        0.044323556 0.043358054 0.042205583 0.040854275 0.039294675 0.03751994
        0.03552541 0.03330791 0.030865181 0.028196128 0.02530187 0.022187455
        0.018863684 0.015348534 0.011667849 0.007855151 0.003950691 8.5918373e-07
        0.04623646 0.046546914 0.046775803 0.046971273 0.047121704 0.047214568
        0.047237 0.047176372 0.047020607 0.046758167 0.046377636 0.04586718
        0.04521413 0.044404928 0.043425478 0.04226204 0.04090224 0.039336007
        0.03755591 0.035556827 0.033335276 0.03088885 0.028216382 0.025318978
        0.022201668 0.018875236 0.0153576275 0.011674643 0.007859748 0.003953104
        6.3307846e-07 0.04652208 0.046840876 0.047080684 0.047280915 0.04742757
        0.047507316 0.047508243 0.047419995 0.04723334 0.046939425 0.046528976
        0.0459916 0.045315422 0.04448714 0.04349252 0.04231736 0.040948663
        0.039375655 0.03759024 0.03558677 0.03336141 0.030911539 0.028235896
        0.025335541 0.022215493 0.018886516 0.015366533 0.011681311 0.007864265
        0.0039554737 4.217471e-07 0.04690699 0.047241446 0.047496572 0.047694996
        0.047823045 0.04787093 0.047831655 0.04769965 0.04746953 0.047135077
        0.046688538 0.046120215 0.045418363 0.044569418 0.043558657 0.04237122
        0.040993355 0.0394135 0.037622854 0.035615202 0.033386283 0.030933231
        0.028254652 0.02535155 0.02222892 0.018897515 0.015375243 0.011687844
        0.007868693 0.0039577885 2.36185e-07 0.047481846 0.047851227 0.048109677
        0.048270162 0.04833814 0.048317242 0.048209004 0.048012726 0.04772538
        0.047341578 0.046853513 0.046250988 0.045521546 0.04465084 0.043623317
        0.04242327 0.0410361 0.039449424 0.037653692 0.03564208 0.03340987
        0.03095391 0.028272642 0.025366995 0.022241939 0.018908221 0.015383744
        0.01169423 0.007873019 0.0039600343 9.1002306e-08 0.048558425 0.04877801
        0.048906546 0.048947874 0.048907388 0.04878959 0.0485966 0.048327602
        0.04797887 0.04754396 0.047013894 0.046377316 0.0456207 0.044728704
        0.043684874 0.042472627 0.041076515 0.03948335 0.03768285 0.035667572
        0.03343235 0.030973725 0.02828997 0.025381941 0.022254586 0.018918648
        0.015392035 0.011700459 0.007877228 0.003962197 0
      </DataArray>
      <DataArray type="Float32" Name="aspect_ratio" format="ascii" RangeMin="1.0000197887420654" RangeMax="10.152159690856934">
        2.9879236 2.5261555 2.1642458 1.8550584 1.5909886 1.3655044
        1.1730025 1.0086832 1.1514895 1.3355352 1.5464236 1.7871543
        2.0607362 2.370051 2.7176673 3.1055999 3.5350084 4.0058427
        4.516442 5.063115 5.6397433 6.2374525 6.8444324 7.44598
        8.024836 8.561872 9.037139 9.431217 9.726751 9.909984
        10.034073 2.985084 2.5236561 2.1621578 1.8533853 1.5896763
        1.3644835 1.1722087 1.0080637 1.152135 1.3362223 1.5471584
        1.7879435 2.061587 2.370972 2.7186675 3.1066902 3.5362015
        4.007152 4.517882 5.0647006 5.641486 6.2393603 6.8465095
        7.448224 8.027239 8.56442 9.039813 9.433993 9.7296
        9.912874 10.036989 2.9836097 2.5219517 2.1604848 1.8519055
        1.5884417 1.363487 1.1714178 1.00744 1.1527886 1.3369185
        1.5479021 1.7887408 2.062445 2.3718982 2.719672 3.1077833
        3.5373955 4.0084615 4.519321 5.0662837 5.643225 6.2412643
        6.848582 7.450463 8.029636 8.566963 9.042483 9.436766
        9.732448 9.915764 10.039907 2.9824731 2.520728 2.1592474
        1.8507365 1.5873992 1.3625973 1.1706815 1.0068423 1.1534271
        1.3376062 1.5486411 1.7895354 2.0633008 2.3728228 2.7206738
        3.1088727 3.538585 4.0097647 4.5207524 5.0678577 5.644954
        6.243157 6.8506427 7.45269 8.032023 8.569497 9.045145
        9.439533 9.7352915 9.9186535 10.042828 2.9814587 2.5197055
        2.1582367 1.8497695 1.586509 1.3618087 1.1700057 1.0062778
        1.1540438 1.33828 1.549372 1.7903253 2.0641544 2.3737457
        2.7216742 3.1099606 3.539772 4.011064 4.5221796 5.069426
        5.646676 6.245042 6.852695 7.4549093 8.034402 8.572023
        9.047801 9.442295 9.738132 9.921543 10.04575 2.9805017
        2.518785 2.157352 1.8489295 1.5857285 1.361103 1.169386
        1.0057478 1.1546353 1.3389364 1.5500917 1.7911091 2.0650046
        2.3746676 2.7226744 3.1110487 3.5409591 4.0123634 4.5236053
        5.0709925 5.6483955 6.2469234 6.854743 7.4571233 8.036776
        8.574545 9.050453 9.445055 9.7409725 9.924432 10.048673
        2.979576 2.5179229 2.1565428 1.8481714 1.5850254 1.3604624
        1.1688149 1.0052503 1.1552008 1.3395734 1.5507984 1.7918849
        2.065851 2.375588 2.723675 3.112138 3.5421479 4.0136647
        4.525032 5.072559 5.650114 6.248803 6.8567886 7.459335
        8.039147 8.5770645 9.053103 9.447814 9.743813 9.927322
        10.051599 2.9786696 2.517097 2.1557817 1.847468 1.5843775
        1.3598711 1.1682837 1.0047822 1.155741 1.34019 1.5514902
        1.7926508 2.0666916 2.376506 2.7246757 3.1132286 3.5433388
        4.014968 4.526461 5.074127 5.6518335 6.250683 6.858834
        7.461545 8.041517 8.579582 9.055753 9.450571 9.746653
        9.930213 10.054525 2.977775 2.5162952 2.1550531 1.8468026
        1.5837693 1.3593178 1.167785 1.0043393 1.1562576 1.3407863
        1.5521662 1.7934058 2.0675256 2.3774211 2.7256758 3.1143208
        3.5445323 4.016274 4.5278935 5.0756984 5.6535554 6.2525644
        6.86088 7.4637556 8.043887 8.5821 9.058401 9.453329
        9.749493 9.933105 10.057454 2.9768887 2.5155096 2.154347
        1.8461642 1.5831904 1.3587933 1.1673126 1.003918 1.1567532
        1.3413633 1.552826 1.7941488 2.068352 2.378332 2.7266748
        3.1154137 3.545728 4.0175834 4.529329 5.0772724 5.6552796
        6.2544475 6.862927 7.4659667 8.046257 8.584618 9.06105
        9.456088 9.752334 9.935999 10.060385 2.9760077 2.514736
        2.153657 1.8455455 1.5826335 1.3582913 1.1668612 1.003515
        1.1572299 1.3419222 1.5534701 1.7948793 2.0691695 2.3792377
        2.7276716 3.1165073 3.546926 4.018896 4.5307684 5.0788503
        5.657007 6.256334 6.8649764 7.468179 8.048628 8.587136
        9.0637 9.458847 9.755177 9.938894 10.063318 2.9751303
        2.5139706 2.152979 1.8449416 1.5820931 1.3578067 1.1664268
        1.0031271 1.1576902 1.3424644 1.554099 1.7955972 2.0699778
        2.3801374 2.7286658 3.1176007 3.5481262 4.0202127 4.5322113
        5.0804324 5.6587386 6.258223 6.867028 7.470394 8.051
        8.589656 9.06635 9.461607 9.758019 9.941791 10.066253
        2.974256 2.5132115 2.15231 1.844349 1.5815659 1.3573358
        1.166006 1.0027518 1.1581362 1.3429917 1.5547135 1.7963027
        2.0707762 2.381031 2.7296572 3.1186938 3.5493279 4.021532
        4.533659 5.082019 5.6604743 6.2601156 6.869083 7.472611
        8.053374 8.592176 9.069002 9.464369 9.760865 9.944689
        10.069188 2.9733834 2.5124571 2.1516478 1.8437651 1.5810486
        1.356876 1.1655965 1.0023873 1.15857 1.3435056 1.5553147
        1.7969961 2.0715654 2.381918 2.7306445 3.1197863 3.5505311
        4.0228543 4.5351105 5.0836096 5.6622143 6.2620125 6.8711405
        7.47483 8.05575 8.594699 9.071655 9.467132 9.763711
        9.947589 10.072126 2.9725125 2.5117066 2.150991 1.843188
        1.5805393 1.356425 1.1651961 1.0020317 1.1589934 1.3440076
        1.5559036 1.7976781 2.0723448 2.382798 2.731628 3.1208773
        3.5517359 4.02418 4.5365663 5.085205 5.6639585 6.263913
        6.873202 7.477052 8.058128 8.597223 9.07431 9.469896
        9.76656 9.950491 10.075067 2.9716425 2.5109587 2.1503384
        1.8426163 1.5800366 1.3559812 1.1648033 1.0016835 1.1594077
        1.3444992 1.5564814 1.7983494 2.0731146 2.3836708 2.7326074
        3.121967 3.5529413 4.0255084 4.538026 5.0868053 5.6657076
        6.265818 6.875267 7.4792776 8.060509 8.5997505 9.076967
        9.472662 9.769409 9.953394 10.078009 2.9707732 2.5102131
        2.1496892 1.842049 1.5795391 1.3555434 1.1644167 1.0013416
        1.1598142 1.3449816 1.557049 1.7990105 2.073876 2.3845367
        2.7335823 3.123055 3.554148 4.0268397 4.53949 5.0884104
        5.667462 6.2677274 6.877336 7.4815063 8.062893 8.602279
        9.079626 9.4754305 9.772261 9.956299 10.080953 2.9699047
        2.5094693 2.1490426 1.8414851 1.5790457 1.3551102 1.1640352
        1.001005 1.1602142 1.3454559 1.5576077 1.7996625 2.0746286
        2.385396 2.7345526 3.1241415 3.555355 4.028174 4.540958
        5.09002 5.6692204 6.2696414 6.879409 7.483738 8.065279
        8.60481 9.082287 9.4782 9.775114 9.959207 10.083898
        2.9690363 2.5087268 2.1483982 1.8409243 1.5785558 1.3546811
        1.1636583 1.0006729 1.1606083 1.3459231 1.5581582 1.800306
        2.0753734 2.3862488 2.7355192 3.1252263 3.5565631 4.029511
        4.5424304 5.0916348 5.6709843 6.2715607 6.881486 7.485974
        8.067669 8.607344 9.0849495 9.480972 9.777969 9.962115
        10.086845 2.9681687 2.5079858 2.1477556 1.8403655 1.5780689
        1.3542553 1.1632848 1.0003448 1.1609976 1.3463842 1.5587015
        1.8009418 2.0761108 2.3870957 2.7364814 3.1263092 3.557772
        4.030851 4.5439067 5.093254 5.6727533 6.273484 6.883568
        7.488213 8.070062 8.60988 9.087615 9.483746 9.780827
        9.965026 10.089794 2.9673011 2.5072455 2.1471145 1.839809
        1.5775841 1.3538322 1.1629145 1.0000198 1.1613828 1.3468399
        1.5592386 1.8015709 2.0768418 2.3879368 2.73744 3.1273909
        3.5589817 4.032193 4.5453877 5.0948787 5.6745276 6.2754126
        6.8856535 7.490456 8.072457 8.612419 9.090282 9.486522
        9.783686 9.967938 10.092746 2.9664342 2.5065062 2.1464746
        1.8392538 1.5771016 1.3534114 1.1625468 1.0003024 1.1617644
        1.347291 1.5597701 1.8021939 2.0775669 2.3887732 2.7383955
        3.1284714 3.560192 4.033539 4.5468726 5.0965085 5.6763067
        6.277346 6.8877444 7.492703 8.074857 8.614962 9.092953
        9.4893 9.786547 9.970853 10.095698 2.9655674 2.5057678
        2.1458356 1.8387 1.5766206 1.3529927 1.1621813 1.0006225
        1.162143 1.3477381 1.5602969 1.8028117 2.078287 2.3896055
        2.7393482 3.1295512 3.561404 4.034887 4.548362 5.098143
        5.6780915 6.279285 6.8898396 7.4949546 8.077259 8.617507
        9.095626 9.492081 9.78941 9.97377 10.098654 2.9647012
        2.50503 2.1451979 1.8381475 1.5761409 1.3525755 1.1618176
        1.0009408 1.1625191 1.348182 1.5608196 1.8034252 2.0790026
        2.390434 2.7402987 3.1306305 3.5626175 4.0362387 4.5498557
        5.099783 5.6798816 6.281229 6.891939 7.4972095 8.079665
        8.620055 9.098302 9.4948635 9.792275 9.976688 10.10161
        2.9638352 2.504293 2.1445608 1.8375959 1.5756625 1.3521597
        1.1614555 1.0012575 1.1628929 1.348623 1.5613391 1.804035
        2.0797148 2.3912601 2.741248 3.13171 3.563833 4.037594
        4.551354 5.1014285 5.6816773 6.2831783 6.8940444 7.4994693
        8.082076 8.622606 9.10098 9.497649 9.795143 9.979609
        10.1045685 2.9629703 2.5035567 2.1439245 1.8370453 1.5751852
        1.3517451 1.1610947 1.0015732 1.1632652 1.349062 1.561856
        1.8046422 2.0804248 2.3920844 2.7421963 3.1327906 3.5650506
        4.038953 4.5528574 5.1030793 5.683479 6.2851334 6.896154
        7.501734 8.08449 8.625161 9.103662 9.500437 9.798013
        9.982532 10.107529 2.962106 2.5028214 2.143289 1.8364955
        1.5747087 1.3513316 1.160735 1.0018878 1.1636362 1.3494992
        1.5623711 1.8052475 2.0811331 2.3929079 2.7431452 3.1338725
        3.5662713 4.040316 4.554366 5.1047354 5.685286 6.2870936
        6.898269 7.5040026 8.086907 8.62772 9.106345 9.503227
        9.800885 9.9854555 10.110492 2.961243 2.5020876 2.142655
        1.8359467 1.5742332 1.3509189 1.1603762 1.0022018 1.1640064
        1.3499357 1.5628854 1.8058523 2.0818415 2.3937318 2.744095
        3.1349568 3.5674953 4.0416837 4.5558796 5.1063976 5.687099
        6.2890596 6.900389 7.5062757 8.08933 8.630281 9.109033
        9.506021 9.80376 9.988382 10.113456 2.9603817 2.501355
        2.1420217 1.8353987 1.5737585 1.350507 1.1600181 1.0025153
        1.164376 1.3503718 1.5633997 1.8064575 2.0825505 2.3945572
        2.7450476 3.1360443 3.5687237 4.043056 4.557399 5.108066
        5.688918 6.2910314 6.902515 7.508554 8.091757 8.632847
        9.111724 9.508817 9.806636 9.991311 10.116422 2.9595227
        2.5006244 2.1413898 1.8348519 1.5732845 1.3500956 1.1596605
        1.0028288 1.164746 1.3508086 1.563915 1.8070644 2.083262
        2.3953857 2.7460034 3.1371357 3.5699565 4.044434 4.558924
        5.1097403 5.6907434 6.2930093 6.9046464 7.5108376 8.094188
        8.635417 9.114418 9.511616 9.809516 9.994243 10.11939
        2.9586668 2.4998965 2.14076 1.8343064 1.5728115 1.349685
        1.159303 1.0031427 1.1651169 1.351247 1.5644329 1.8076745
        2.0839775 2.3962185 2.7469642 3.1382325 3.5711951 4.0458183
        4.560456 5.111421 5.6925755 6.294994 6.9067836 7.5131264
        8.096623 8.637991 9.117115 9.514418 9.812398 9.997175
        10.122359 2.9578154 2.4991722 2.1401327 1.8337625 1.5723395
        1.3492745 1.1589452 1.0034577 1.1654897 1.3516884 1.5649549
        1.8082898 2.0846987 2.3970573 2.747931 3.1393356 3.5724401
        4.047209 4.5619946 5.113109 5.694414 6.2969847 6.908927
        7.515421 8.099065 8.64057 9.119817 9.517223 9.815283
        10.000111 10.125331 2.9569702 2.498453 2.139509 1.8332208
        1.5718685 1.3488641 1.1585865 1.0037744 1.1658657 1.3521345
        1.5654829 1.808912 2.0854273 2.397904 2.7489054 3.140446
        3.5736923 4.0486064 4.56354 5.1148043 5.69626 6.298982
        6.911077 7.5177217 8.101511 8.643152 9.122523 9.520033
        9.818171 10.003049 10.1283045 2.9561338 2.4977407 2.13889
        1.8326821 1.5713986 1.348453 1.1582259 1.0040945 1.1662468
        1.3525875 1.5660193 1.8095437 2.0861657 2.39876 2.7498891
        3.141565 3.5749528 4.0500126 4.565094 5.1165075 5.698114
        6.3009877 6.9132338 7.5200286 8.103963 8.645741 9.125234
        9.522845 9.821061 10.005989 10.13128 2.9553113 2.4970393
        2.138278 1.832147 1.5709294 1.3480403 1.1578616 1.0044197
        1.1666354 1.3530502 1.5665671 1.8101875 2.0869164 2.399628
        2.7508838 3.1426945 3.576223 4.051428 4.5666566 5.1182194
        5.699976 6.303001 6.9153986 7.5223427 8.106422 8.648335
        9.127949 9.525662 9.823956 10.008932 10.134257 2.95451
        2.4963539 2.1376758 1.8316164 1.57046 1.3476233 1.1574904
        1.0047532 1.1670353 1.3535265 1.5671297 1.8108467 2.087682
        2.4005098 2.751891 3.1438353 3.5775037 4.0528526 4.568229
        5.1199408 5.7018476 6.305023 6.9175715 7.524665 8.108889
        8.650936 9.13067 9.528484 9.826854 10.011877 10.137237
        2.9537432 2.495693 2.1370876 1.83109 1.5699868 1.3471974
        1.1571071 1.0050999 1.1674515 1.3540211 1.5677116 1.8115246
        2.0884655 2.401408 2.7529132 3.1449895 3.5787969 4.0542893
        4.569813 5.121673 5.703729 6.307056 6.9197545 7.526996
        8.111362 8.653544 9.133397 9.531311 9.829756 10.014826
        10.140218 2.9530392 2.4950716 2.1365175 1.8305643 1.569502
        1.3467526 1.156703 1.0054666 1.1678905 1.3545398 1.5683174
        1.8122255 2.0892699 2.4023254 2.7539525 3.1461592 3.580104
        4.05574 4.571409 5.123418 5.7056236 6.3091006 6.921949
        7.5293384 8.113848 8.656161 9.136133 9.534144 9.832663
        10.017777 10.1432 2.9524636 2.4945138 2.1359646 1.8300239
        1.5689853 1.3462706 1.1562637 1.0058634 1.1683611 1.3550895
        1.5689526 1.8129535 2.090099 2.4032648 2.7550118 3.1473472
        3.5814285 4.057206 4.573021 5.1251774 5.707533 6.3111596
        6.9241576 7.531694 8.1163435 8.65879 9.138877 9.536985
        9.835575 10.020733 10.146185 2.9522188 2.4940434 2.1353948
        1.8294197 1.568393 1.3457192 1.1557686 1.0063025 1.168872
        1.3556767 1.5696217 1.8137118 2.090955 2.4042282 2.7560925
        3.1485548 3.5827706 4.058689 4.5746493 5.1269536 5.709458
        6.313234 6.9263806 7.5340633 8.118854 8.661429 9.141632
        9.539835 9.838493 10.023692 10.149172 2.9531689 2.494022
        2.1349277 1.8287827 1.5677315 1.345102 1.155222 1.0067793
        1.1694179 1.3562951 1.5703185 1.8144944 2.0918324 2.4052105
        2.7571898 3.149777 3.5841262 4.0601845 4.576289 5.1287403
        5.711393 6.315318 6.928613 7.5364413 8.121371 8.664076
        9.144393 9.542689 9.841416 10.026654 10.15216
      </DataArray>
      <DataArray type="Float32" Name="jacobian" format="ascii" RangeMin="0.0012034287210553885" RangeMax="0.03646159917116165">
        0.0012034287 0.0014250744 0.0016648222 0.0019435294 0.0022671304 0.0026423081
        0.003076528 0.0035780512 0.004155915 0.0048198663 0.0055802236 0.006447655
        0.007432837 0.008545972 0.009796134 0.011190417 0.012732882 0.01442329
        0.016255682 0.018216865 0.02028497 0.022428257 0.024604462 0.02676093
        0.028835848 0.030760704 0.032464057 0.033876386 0.034935545 0.035592277
        0.03603749 0.0012046428 0.0014259263 0.0016653991 0.0019439193 0.002267413
        0.0026425512 0.0030767873 0.0035783744 0.0041563436 0.0048204376 0.0055809733
        0.0064486186 0.0074340506 0.008547474 0.009797965 0.011192626 0.012735523
        0.014426423 0.016259372 0.018221175 0.020289954 0.022433959 0.024610903
        0.026768113 0.028843746 0.03076927 0.03247322 0.03388605 0.034945592
        0.035602573 0.03604796 0.0012052711 0.0014264932 0.0016659125 0.0019443807
        0.0022678357 0.0026429584 0.003077211 0.0035788498 0.0041569076 0.0048211273
        0.0055818264 0.0064496715 0.007435342 0.008549044 0.009799858 0.01119489
        0.012738215 0.014429605 0.016263107 0.018225528 0.020294981 0.022439701
        0.024617383 0.026775332 0.02885168 0.03077787 0.03248241 0.033895735
        0.034955658 0.035612885 0.036058445 0.0012057513 0.0014270203 0.0016664623
        0.0019449416 0.0022684024 0.0026435347 0.0030778106 0.0035794952 0.004157629
        0.004821959 0.005582805 0.0064508356 0.0074367314 0.008550702 0.009801829
        0.011197228 0.012740975 0.014432853 0.016266908 0.018229948 0.020300075
        0.022445511 0.02462393 0.026782615 0.028859673 0.030786522 0.032491647
        0.033905458 0.03496575 0.03562321 0.03606893 0.0012061767 0.0014275104
        0.0016670033 0.001945529 0.0022690315 0.0026442038 0.0030785236 0.0035802645
        0.004158475 0.0048229094 0.0055838926 0.006452098 0.007438209 0.008552437
        0.009803871 0.011199629 0.012743796 0.014436157 0.016270766 0.018234424
        0.020305226 0.022451377 0.024630532 0.02678995 0.028867714 0.030795217
        0.032500923 0.03391521 0.034975864 0.035633553 0.036079425 0.0012065757
        0.0014279764 0.00166753 0.0019461184 0.0022696839 0.0026449196 0.0030793047
        0.0035811176 0.0041594133 0.0048239534 0.0055850707 0.006453444 0.0074397605
        0.008554238 0.009805971 0.011202082 0.012746664 0.014439507 0.016274668
        0.018238941 0.020310417 0.022457283 0.024637174 0.026797324 0.028875792
        0.030803947 0.032510225 0.033924986 0.034985997 0.035643905 0.036089923
        0.0012069598 0.0014284273 0.0016680451 0.0019467035 0.0022703437 0.0026456576
        0.0030801247 0.0035820247 0.0041604172 0.0048250696 0.0055863215 0.006454859
        0.007441376 0.008556096 0.009808119 0.011204578 0.01274957 0.014442894
        0.016278602 0.018243494 0.020315643 0.022463225 0.02464385 0.02680473
        0.028883899 0.030812701 0.032519553 0.033934783 0.034996144 0.03565427
        0.036100432 0.0012073348 0.001428868 0.0016685515 0.0019472833 0.0022710043
        0.0026464057 0.0030809662 0.003582966 0.0041614664 0.004826239 0.0055876295
        0.006456331 0.007443045 0.008558002 0.009810312 0.011207112 0.012752511
        0.014446311 0.016282568 0.018248076 0.0203209 0.022469195 0.024650553
        0.026812162 0.028892033 0.030821482 0.0325289 0.033944596 0.035006303
        0.035664644 0.036110945 0.0012077037 0.0014293022 0.0016690516 0.0019478583
        0.0022716632 0.0026471575 0.0030818193 0.003583928 0.004162546 0.004827447
        0.0055889813 0.0064578485 0.007444758 0.008559949 0.009812539 0.011209679
        0.012755481 0.014449755 0.01628656 0.018252684 0.02032618 0.022475189
        0.024657281 0.026819618 0.028900187 0.030830279 0.03253826 0.033954427
        0.035016477 0.035675026 0.03612146 0.0012080687 0.0014297316 0.0016695473
        0.0019484295 0.00227232 0.0026479103 0.003082678 0.0035849023 0.004163645
        0.0048286817 0.0055903657 0.0064594015 0.007446507 0.00856193 0.009814799
        0.011212273 0.012758476 0.014453222 0.016290575 0.018257314 0.020331483
        0.022481207 0.024664031 0.026827097 0.028908363 0.030839097 0.03254764
        0.033964265 0.035026662 0.03568542 0.03613199 0.0012084309 0.0014301577
        0.0016700397 0.0019489977 0.0022729747 0.0026486623 0.0030835387 0.003585883
        0.0041647563 0.004829935 0.0055917734 0.006460982 0.007448284 0.008563939
        0.009817084 0.0112148905 0.012761492 0.014456712 0.016294612 0.018261967
        0.02033681 0.022487246 0.024670802 0.026834594 0.028916555 0.03084793
        0.032557037 0.033974122 0.035036854 0.03569582 0.03614252 0.0012087909
        0.0014305813 0.0016705296 0.0019495636 0.002273627 0.002649413 0.0030843997
        0.0035868664 0.0041658743 0.0048311986 0.0055931965 0.0064625805 0.0074500823
        0.008565969 0.00981939 0.011217529 0.012764529 0.014460221 0.016298667
        0.018266639 0.020342156 0.022493305 0.024677593 0.02684211 0.028924765
        0.030856777 0.032566443 0.033983987 0.035047058 0.035706226 0.03615306
        0.0012091495 0.0014310032 0.0016710177 0.0019501274 0.0022742776 0.0026501617
        0.0030852596 0.0035878501 0.0041669942 0.004832468 0.0055946284 0.0064641917
        0.0074518947 0.008568014 0.009821712 0.011220183 0.012767582 0.014463747
        0.01630274 0.018271329 0.02034752 0.022499382 0.024684401 0.02684964
        0.028932989 0.03086564 0.032575864 0.033993863 0.035057273 0.03571664
        0.036163606 0.0012095069 0.0014314237 0.0016715042 0.0019506897 0.0022749263
        0.0026509087 0.0030861176 0.0035888324 0.004168114 0.0048337393 0.0055960645
        0.0064658094 0.007453716 0.00857007 0.009824046 0.0112228505 0.01277065
        0.014467289 0.01630683 0.018276038 0.020352904 0.022505479 0.024691228
        0.02685719 0.028941229 0.030874515 0.032585297 0.03400375 0.035067495
        0.035727065 0.03617416 0.0012098636 0.001431843 0.0016719896 0.0019512506
        0.002275573 0.0026516535 0.003086973 0.0035898117 0.0041692313 0.0048350077
        0.0055974997 0.006467428 0.0074555404 0.008572131 0.009826387 0.011225527
        0.012773729 0.014470844 0.016310938 0.018280765 0.020358305 0.022511592
        0.02469807 0.026864754 0.028949484 0.030883403 0.032594737 0.034013648
        0.035077725 0.0357375 0.036184717 0.0012102196 0.0014322615 0.0016724739
        0.0019518101 0.0022762185 0.002652396 0.0030878251 0.0035907873 0.004170344
        0.004836272 0.0055989306 0.0064690434 0.0074573634 0.008574193 0.009828731
        0.01122821 0.012776818 0.014474412 0.01631506 0.018285507 0.020363724
        0.022517724 0.02470493 0.026872335 0.028957753 0.030892305 0.03260419
        0.034023553 0.03508796 0.035747938 0.036195282 0.0012105751 0.0014326792
        0.0016729572 0.0019523682 0.0022768618 0.002653136 0.0030886738 0.0035917577
        0.0041714506 0.004837529 0.0056003537 0.006470652 0.0074591804 0.0085762525
        0.0098310765 0.011230897 0.012779914 0.0144779915 0.016319195 0.018290266
        0.020369159 0.022523873 0.024711804 0.026879929 0.028966034 0.030901218
        0.032613657 0.03403347 0.03509821 0.035758384 0.036205854 0.0012109302
        0.0014330964 0.0016734396 0.0019529251 0.002277503 0.0026538728 0.0030895183
        0.0035927224 0.004172549 0.0048387763 0.0056017665 0.006472249 0.007460988
        0.008578304 0.009833417 0.011233584 0.012783016 0.01448158 0.016323345
        0.01829504 0.020374611 0.022530036 0.024718694 0.026887538 0.028974328
        0.030910142 0.03262313 0.034043394 0.035108466 0.035768837 0.036216434
        0.001211285 0.0014335129 0.0016739211 0.0019534805 0.0022781424 0.0026546062
        0.0030903576 0.0035936802 0.0041736388 0.004840012 0.0056031654 0.0064738323
        0.007462782 0.008580345 0.009835751 0.01123627 0.012786122 0.0144851785
        0.016327506 0.01829983 0.02038008 0.022536218 0.024725601 0.02689516
        0.028982634 0.030919077 0.032632615 0.034053326 0.03511873 0.035779294
        0.03622702 0.0012116396 0.0014339287 0.0016744016 0.0019540344 0.002278779
        0.002655336 0.0030911914 0.00359463 0.0041747172 0.004841234 0.005604549
        0.006475398 0.0074645593 0.008582371 0.009838075 0.011238952 0.01278923
        0.014488785 0.01633168 0.018304635 0.020385565 0.022542415 0.024732523
        0.026902797 0.028990952 0.030928021 0.03264211 0.03406327 0.035129
        0.03578976 0.036237612 0.0012119939 0.001434344 0.001674881 0.0019545862
        0.0022794127 0.0026560612 0.0030920187 0.0035955703 0.004175783 0.0048424406
        0.005605913 0.0064769434 0.007466316 0.00858438 0.009840388 0.011241629
        0.012792339 0.014492397 0.016335865 0.018309454 0.020391066 0.022548627
        0.02473946 0.026910445 0.028999284 0.030936977 0.032651614 0.03407322
        0.035139278 0.035800237 0.03624821 0.0012123479 0.0014347585 0.0016753591
        0.0019551362 0.002280043 0.0026567813 0.0030928382 0.0035964998 0.0041768346
        0.004843628 0.0056072553 0.006478465 0.007468051 0.008586369 0.009842686
        0.011244298 0.012795447 0.014496016 0.016340064 0.018314289 0.020396583
        0.022554856 0.02474641 0.026918108 0.029007625 0.030945944 0.032661125
        0.034083176 0.035149563 0.035810716 0.036258817 0.0012127017 0.0014351724
        0.0016758358 0.0019556836 0.0022806693 0.0026574952 0.0030936487 0.0035974167
        0.0041778693 0.004844795 0.0056085736 0.006479961 0.0074697593 0.008588337
        0.009844968 0.011246959 0.012798555 0.014499642 0.016344272 0.018319137
        0.020402115 0.022561101 0.024753375 0.026925784 0.029015979 0.03095492
        0.032670643 0.03409314 0.035159856 0.035821207 0.03626943 0.0012130552
        0.0014355853 0.0016763108 0.001956228 0.002281291 0.0026582018 0.0030944487
        0.0035983191 0.004178885 0.004845938 0.0056098644 0.0064814272 0.0074714394
        0.008590279 0.009847231 0.011249609 0.012801662 0.014503273 0.016348492
        0.018324 0.020407664 0.02256736 0.024760354 0.02693347 0.029024342
        0.030963903 0.032680172 0.034103114 0.035170153 0.0358317 0.036280047
        0.0012134083 0.0014359971 0.0016767837 0.0019567688 0.0022819068 0.0026588999
        0.0030952361 0.0035992044 0.004179878 0.004847054 0.005611124 0.006482861
        0.0074730883 0.008592196 0.009849476 0.011252249 0.012804766 0.01450691
        0.016352722 0.018328877 0.020413227 0.022573635 0.024767349 0.02694117
        0.029032717 0.030972898 0.03268971 0.034113094 0.03518046 0.035842203
        0.036290675 0.001213761 0.0014364076 0.001677254 0.0019573055 0.0022825159
        0.0026595877 0.003096009 0.0036000698 0.0041808463 0.0048481394 0.005612349
        0.0064842594 0.0074747037 0.008594084 0.009851701 0.011254878 0.012807869
        0.014510552 0.016356964 0.018333768 0.020418806 0.022579925 0.024774354
        0.026948882 0.0290411 0.0309819 0.032699253 0.03412308 0.035190772
        0.03585271 0.036301307 0.0012141131 0.0014368164 0.0016777212 0.0019578366
        0.0022831163 0.0026602629 0.0030967642 0.0036009117 0.0041817846 0.00484919
        0.005613536 0.0064856187 0.007476284 0.0085959425 0.009853904 0.011257495
        0.01281097 0.0145142 0.016361218 0.018338675 0.0204244 0.022586228
        0.024781374 0.026956605 0.029049493 0.03099091 0.032708805 0.034133073
        0.03520109 0.035863224 0.036311947 0.0012144645 0.001437223 0.0016781844
        0.0019583611 0.0022837068 0.0026609232 0.0030974986 0.0036017261 0.004182689
        0.004850201 0.005614681 0.006486937 0.0074778264 0.008597772 0.009856086
        0.011260102 0.012814067 0.014517854 0.016365482 0.018343594 0.020430008
        0.022592546 0.024788406 0.026964338 0.029057896 0.030999927 0.03271836
        0.03414307 0.035211418 0.03587375 0.036322594 0.001214815 0.0014376271
        0.0016786427 0.0019588775 0.0022842847 0.0026615649 0.0030982078 0.003602508
        0.004183554 0.004851168 0.00561578 0.0064882105 0.00747933 0.00859957
        0.009858248 0.011262697 0.012817165 0.014521513 0.016369756 0.018348528
        0.020435631 0.022598878 0.024795448 0.02697208 0.029066306 0.031008951
        0.032727923 0.034153078 0.035221748 0.035884276 0.036333244 0.0012151641
        0.0014380278 0.0016790947 0.0019593837 0.0022848465 0.0026621842 0.0030988865
        0.0036032514 0.0041843737 0.004852085 0.0056168283 0.006489437 0.0074807936
        0.008601337 0.00986039 0.011265283 0.012820261 0.014525179 0.016374042
        0.018353473 0.020441268 0.022605222 0.024802502 0.026979832 0.029074721
        0.031017981 0.032737494 0.034163088 0.035232086 0.035894807 0.036343906
        0.0012155115 0.001438424 0.0016795387 0.0019598766 0.0022853888 0.0026627753
        0.0030995281 0.0036039492 0.004185141 0.0048529464 0.005617822 0.0064906147
        0.0074822167 0.008603074 0.009862512 0.01126786 0.012823357 0.014528852
        0.01637834 0.018358434 0.020446919 0.022611577 0.024809567 0.026987592
        0.029083144 0.031027015 0.032747064 0.034173105 0.035242427 0.03590535
        0.03635457 0.0012158564 0.0014388143 0.001679972 0.0019603525 0.0022859054
        0.0026633316 0.0031001247 0.0036045928 0.004185848 0.0048537464 0.0056187576
        0.006491741 0.007483599 0.008604782 0.009864617 0.01127043 0.012826454
        0.014532531 0.016382648 0.018363405 0.02045258 0.022617944 0.02481664
        0.026995357 0.029091572 0.031036055 0.03275664 0.034183122 0.035252776
        0.035915893 0.036365245 0.0012161982 0.0014391966 0.0016803913 0.0019608059
        0.0022863892 0.0026638433 0.0031006655 0.003605172 0.0041864864 0.0048544784
        0.0056196316 0.006492816 0.0074849413 0.008606463 0.009866705 0.011272993
        0.012829553 0.014536218 0.016386965 0.01836839 0.020458253 0.02262432
        0.02482372 0.027003128 0.029100005 0.031045096 0.03276622 0.034193143
        0.035263125 0.035926446 0.03637592 0.0012165353 0.0014395679 0.001680791
        0.001961229 0.00228683 0.0026642983 0.003101138 0.0036056752 0.004187047
        0.0048551373 0.0056204414 0.0064938394 0.007486246 0.008608119 0.00986878
        0.011275552 0.012832654 0.014539911 0.016391292 0.018373383 0.020463936
        0.022630703 0.024830803 0.0270109 0.029108437 0.03105414 0.0327758
        0.034203168 0.03527348 0.035937 0.03638661 0.0012168656 0.0014399234
        0.0016811637 0.0019616105 0.002287213 0.0026646806 0.0031015263 0.0036060894
        0.004187521 0.004855718 0.005621187 0.0064948136 0.007487516 0.008609751
        0.009870844 0.011278107 0.012835757 0.014543612 0.016395628 0.018378384
        0.020469625 0.02263709 0.02483789 0.027018676 0.029116869 0.03106318
        0.03278538 0.034213193 0.035283837 0.03594756 0.0363973 0.0012171856
        0.0014402556 0.0016814965 0.001961933 0.002287518 0.0026649688 0.0031018115
        0.0036064002 0.0041879 0.0048562186 0.005621869 0.006495741 0.0074887546
        0.008611366 0.009872897 0.01128066 0.012838863 0.014547316 0.01639997
        0.018383393 0.020475317 0.022643479 0.024844978 0.027026447 0.029125297
        0.031072218 0.032794956 0.034223214 0.035294194 0.035958126 0.036408
        0.001217489 0.001440551 0.0016817689 0.0019621698 0.0022877147 0.0026651353
        0.0031019726 0.0036065953 0.00418818 0.00485664 0.005622492 0.006496627
        0.0074899653 0.008612963 0.009874943 0.01128321 0.01284197 0.014551024
        0.016404316 0.018388402 0.020481009 0.022649866 0.024852058 0.02703421
        0.029133718 0.031081246 0.032804526 0.034233235 0.03530455 0.03596869
        0.036418706 0.001217763 0.0014407849 0.0016819441 0.001962277 0.0022877615
        0.0026651463 0.003101988 0.0036066656 0.0041883597 0.004856986 0.0056230617
        0.006497477 0.0074911537 0.008614548 0.0098769795 0.011285756 0.012845075
        0.014554731 0.016408658 0.018393407 0.020486694 0.02265624 0.024859127
        0.02704196 0.029142125 0.031090263 0.032814085 0.03424325 0.035314906
        0.035979263 0.03642942 0.0012179785 0.0014409035 0.0016819515 0.001962185
        0.0022876025 0.0026649677 0.0031018439 0.0036066107 0.0041884473 0.0048572677
        0.0056235874 0.006498298 0.0074923225 0.00861612 0.009879009 0.011288295
        0.012848172 0.01455843 0.01641299 0.018398399 0.020492364 0.022662597
        0.024866173 0.027049689 0.029150508 0.03109926 0.03282363 0.034253247
        0.03532525 0.035989832 0.03644014 0.0012180464 0.0014407662 0.0016816497
        0.0019617886 0.0022871809 0.002664582 0.0031015477 0.0036064503 0.004188465
        0.0048575047 0.0056240857 0.0064991023 0.007493481 0.008617683 0.009881031
        0.011290828 0.012851263 0.014562118 0.016417312 0.018403374 0.020498011
        0.02266893 0.024873193 0.02705739 0.029158866 0.031108232 0.03283315
        0.034263235 0.035335593 0.0360004 0.036450867 0.0012175915 0.001440205
        0.0016810416 0.001961191 0.0022866402 0.0026641374 0.0031012322 0.003606295
        0.0041885017 0.004857767 0.0056246114 0.006499934 0.0074946648 0.00861927
        0.009883073 0.011293377 0.012854367 0.014565817 0.016421637 0.018408353
        0.02050366 0.02267526 0.02488021 0.027065083 0.029167218 0.031117199
        0.03284267 0.034273215 0.035345934 0.036010973 0.0364616
      </DataArray>
    </PointData>
    <CellData>
    </CellData>
    <Points>
      <DataArray type="Float32" Name="Points" NumberOfComponents="3" format="ascii" RangeMin="0.9141650044859748" RangeMax="1.023721330627253">
        0.76816654 -0.00120648 0.49790782 0.76852995 -0.0012065237 0.49792588
        0.76895446 -0.0012065747 0.49794695 0.76945007 -0.0012066341 0.49797145
        0.77002835 -0.0012067031 0.4979999 0.77070254 -0.0012067832 0.498033
        0.7714879 -0.0012068761 0.4980713 0.7724019 -0.0012069836 0.49811566
        0.77346444 -0.0012071078 0.49816692 0.77469796 -0.001207251 0.49822602
        0.77612764 -0.0012074157 0.49829397 0.7777819 -0.0012076047 0.49837196
        0.779692 -0.0012078207 0.49846116 0.7818921 -0.0012080672 0.49856284
        0.7844194 -0.0012083468 0.49867827 0.78731334 -0.0012086626 0.49880862
        0.790615 -0.0012090174 0.498955 0.7943664 -0.0012094132 0.49911836
        0.7986087 -0.0012098518 0.49929935 0.8033807 -0.001210334 0.49949834
        0.80871654 -0.0012108594 0.49971518 0.81464285 -0.0012114265 0.49994922
        0.8211764 -0.0012120319 0.5001991 0.8283205 -0.0012126708 0.5004627
        0.8360625 -0.0012133365 0.5007375 0.8443714 -0.0012140208 0.50101984
        0.85319614 -0.0012147138 0.5013059 0.8624657 -0.001215405 0.5015911
        0.87208974 -0.0012160832 0.50187105 0.881962 -0.001216738 0.50214124
        0.8919643 -0.0012173596 0.5023978 0.76813036 -0.00046049658 0.49790725
        0.76849407 -0.00046014975 0.49792534 0.7689189 -0.0004598777 0.4979464
        0.7694148 -0.00045967102 0.49797094 0.7699933 -0.00045952116 0.49799943
        0.7706678 -0.00045942096 0.49803254 0.7714535 -0.00045936488 0.49807087
        0.77236784 -0.00045934902 0.49811527 0.77343076 -0.00045937058 0.49816656
        0.77466464 -0.00045942763 0.49822566 0.7760948 -0.00045951863 0.49829367
        0.77774954 -0.0004596423 0.4983717 0.77966017 -0.0004597972 0.49846092
        0.78186095 -0.0004599815 0.49856266 0.78438896 -0.00046019268 0.49867812
        0.78728366 -0.00046042763 0.49880853 0.79058623 -0.00046068255 0.49895498
        0.79433864 -0.0004609532 0.4991184 0.79858214 -0.0004612355 0.49929947
        0.8033554 -0.00046152572 0.49949855 0.80869263 -0.00046182092 0.49971548
        0.8146207 -0.00046211906 0.4999496 0.821156 -0.00046241863 0.50019956
        0.82830215 -0.00046271845 0.5004633 0.83604634 -0.00046301718 0.50073814
        0.8443576 -0.000463313 0.5010206 0.85318494 -0.00046360347 0.5013068
        0.8624571 -0.00046388563 0.5015921 0.87208396 -0.00046415618 0.5018721
        0.8819591 -0.000464412 0.5021424 0.8919643 -0.00046465086 0.502399
        0.7680941 0.00028548244 0.49790555 0.768458 0.00028605555 0.49792367
        0.76888305 0.0002865691 0.49794477 0.7693792 0.00028701345 0.4979693
        0.769958 0.00028738487 0.49799782 0.77063286 0.0002876841 0.49803093
        0.77141887 0.00028791447 0.49806932 0.7723336 0.00028808074 0.49811372
        0.77339685 0.0002881879 0.49816504 0.77463114 0.00028824102 0.4982242
        0.77606183 0.0002882451 0.49829224 0.77771705 0.00028820554 0.4983703
        0.7796283 0.0002881283 0.49845955 0.78182966 0.00028802035 0.49856135
        0.7843584 0.00028788988 0.49867687 0.7872539 0.00028774643 0.4988073
        0.79055744 0.00028760047 0.49895382 0.79431087 0.0002874629 0.4991173
        0.79855543 0.0002873438 0.49929848 0.80333006 0.00028725158 0.49949762
        0.8086688 0.00028719186 0.49971464 0.81459844 0.0002871673 0.49994886
        0.8211356 0.00028717765 0.5001989 0.8282837 0.0002872205 0.5004628
        0.8360302 0.00028729188 0.5007377 0.84434384 0.0002873872 0.5010203
        0.8531737 0.00028750164 0.50130653 0.8624485 0.00028763054 0.501592
        0.8720782 0.00028776948 0.50187206 0.8819562 0.000287914 0.5021425
        0.8919643 0.00028805892 0.50239915 0.7680579 0.0010314555 0.49790278
        0.76842195 0.0010321892 0.4979209 0.76884717 0.0010328853 0.497942
        0.76934355 0.0010335259 0.49796656 0.7699226 0.0010340972 0.4979951
        0.77059776 0.0010345902 0.49802825 0.7713841 0.0010350016 0.49806663
        0.7722992 0.0010353321 0.49811107 0.7733629 0.0010355851 0.49816242
        0.7745976 0.0010357664 0.4982216 0.7760287 0.0010358832 0.49828967
        0.7776845 0.0010359442 0.49836776 0.77959627 0.0010359593 0.4984571
        0.78179836 0.001035941 0.4985589 0.7843278 0.0010359028 0.49867448
        0.7872241 0.0010358609 0.49880502 0.79052854 0.0010358327 0.49895158
        0.794283 0.001035836 0.49911514 0.7985288 0.0010358867 0.49929637
        0.8033047 0.0010359985 0.4994956 0.8086449 0.0010361794 0.4997127
        0.81457615 0.0010364328 0.499947 0.8211152 0.001036757 0.5001972
        0.82826537 0.001037146 0.5004611 0.83601403 0.0010375904 0.5007362
        0.8443301 0.0010380794 0.5010189 0.85316247 0.0010386009 0.50130516
        0.86244 0.0010391426 0.5015907 0.8720724 0.0010396925 0.50187093
        0.8819533 0.0010402385 0.5021414 0.8919643 0.0010407681 0.50239813
        0.7680217 0.0017774206 0.49789888 0.7683858 0.0017782801 0.497917
        0.7688112 0.0017791219 0.49793813 0.7693078 0.0017799255 0.49796268
        0.76988715 0.0017806715 0.49799126 0.7705625 0.0017813441 0.4980244
        0.7713492 0.0017819322 0.49806282 0.77226466 0.0017824306 0.4981073
        0.7733287 0.0017828387 0.49815866 0.7745639 0.0017831605 0.49821788
        0.7759955 0.0017834037 0.498286 0.77765185 0.0017835788 0.49836412
        0.7795642 0.0017836994 0.4984535 0.78176695 0.0017837824 0.49855536
        0.7842971 0.0017838472 0.498671 0.78719425 0.0017839166 0.49880156
        0.7904996 0.0017840146 0.4989482 0.79425514 0.0017841661 0.49911183
        0.7985021 0.0017843934 0.49929312 0.8032793 0.0017847148 0.49949244
        0.8086209 0.0017851414 0.49970964 0.8145539 0.0017856773 0.49994403
        0.82109475 0.0017863191 0.50019425 0.82824695 0.0017870574 0.50045836
        0.8359978 0.0017878776 0.5007335 0.84431624 0.0017887626 0.50101626
        0.8531512 0.0017896931 0.5013027 0.8624314 0.0017906494 0.50158834
        0.8720666 0.0017916114 0.50186867 0.8819504 0.00179256 0.5021392
        0.8919643 0.0017934748 0.50239605 0.76798546 0.0025233764 0.49789387
        0.76834977 0.00252434 0.49791196 0.7687753 0.0025253033 0.4979331
        0.769272 0.002526245 0.4979577 0.76985157 0.0025271438 0.49798626
        0.77052724 0.0025279792 0.49801943 0.7713142 0.0025287347 0.4980579
        0.77223 0.0025293983 0.4981024 0.7732945 0.0025299648 0.49815378
        0.7745301 0.0025304346 0.49821302 0.77596223 0.0025308141 0.49828118
        0.77761906 0.0025311143 0.49835935 0.7795321 0.0025313515 0.49844876
        0.7817355 0.0025315464 0.49855068 0.7842664 0.0025317243 0.49866635
        0.7871644 0.0025319138 0.49879697 0.79047066 0.0025321464 0.4989437
        0.7942272 0.0025324535 0.49910736 0.7984753 0.0025328635 0.49928874
        0.8032538 0.0025334002 0.49948815 0.80859697 0.0025340775 0.49970543
        0.8145316 0.0025349 0.4999399 0.8210743 0.0025358635 0.50019026
        0.82822853 0.0025369541 0.5004544 0.8359816 0.002538153 0.5007297
        0.8443024 0.002539436 0.50101256 0.85313994 0.0025407774 0.5012991
        0.8624228 0.0025421497 0.5015848 0.87206084 0.002543525 0.50186527
        0.88194746 0.002544877 0.5021359 0.8919643 0.0025461775 0.50239277
        0.7679492 0.0032693213 0.4978877 0.76831365 0.0032703741 0.49790585
        0.7687393 0.0032714412 0.49792698 0.7692362 0.0032725031 0.4979516
        0.769816 0.003273537 0.49798018 0.7704919 0.0032745197 0.49801335
        0.77127916 0.003275431 0.49805182 0.77219534 0.003276254 0.49809635
        0.7732602 0.003276978 0.49814776 0.7744962 0.0032775993 0.49820706
        0.77592885 0.0032781214 0.49827522 0.7775863 0.0032785549 0.49835345
        0.7794998 0.003278918 0.4984429 0.7817039 0.0032792343 0.49854484
        0.7842356 0.0032795342 0.4986606 0.7871344 0.0032798524 0.49879128
        0.79044163 0.0032802273 0.49893802 0.7941992 0.0032806967 0.49910182
        0.7984485 0.0032812967 0.49928325 0.8032284 0.0032820543 0.49948275
        0.808573 0.0032829873 0.49970013 0.8145093 0.0032841011 0.49993467
        0.82105386 0.0032853894 0.50018513 0.8282101 0.0032868355 0.5004494
        0.8359654 0.0032884155 0.50072473 0.8442886 0.003290099 0.50100774
        0.8531287 0.003291853 0.5012944 0.86241424 0.0032936425 0.5015802
        0.87205505 0.003295432 0.5018607 0.88194454 0.0032971879 0.5021314
        0.8919643 0.0032988747 0.5023884 0.76791304 0.0040152534 0.49788043
        0.7682775 0.004016384 0.49789858 0.76870334 0.0040175435 0.49791974
        0.76920044 0.004018711 0.49794436 0.7697804 0.0040198653 0.49797294
        0.7704565 0.0040209815 0.49800617 0.77124405 0.0040220376 0.49804464
        0.77216053 0.0040230122 0.4980892 0.7732258 0.0040238905 0.49814066
        0.7744623 0.004024663 0.49819997 0.77589536 0.0040253317 0.4982682
        0.7775534 0.004025905 0.49834642 0.7794675 0.0040264013 0.4984359
        0.7816723 0.004026847 0.49853793 0.7842047 0.004027277 0.4986537
        0.7871044 0.004027732 0.49878445 0.79041255 0.0040282565 0.4989313
        0.7941712 0.004028896 0.4990951 0.7984217 0.004029691 0.49927667
        0.80320287 0.004030675 0.49947622 0.808549 0.0040318687 0.49969366
        0.8144869 0.0040332777 0.49992833 0.82103336 0.0040348945 0.5001789
        0.82819164 0.0040367 0.5004432 0.8359492 0.004038663 0.5007187
        0.84427476 0.0040407493 0.5010018 0.85311735 0.0040429174 0.50128853
        0.86240566 0.0040451256 0.50157446 0.8720493 0.0040473305 0.501855
        0.8819416 0.0040494907 0.50212586 0.8919643 0.0040515643 0.5023829
        0.7678768 0.004761171 0.49787205 0.7682414 0.0047623715 0.49789023
        0.76866734 0.0047636116 0.49791136 0.7691646 0.0047648745 0.497936
        0.76974475 0.0047661373 0.49796462 0.7704211 0.004767376 0.49799782
        0.77120894 0.0047685658 0.49803635 0.7721257 0.004769684 0.4980809
        0.77319133 0.004770711 0.4981324 0.77442825 0.004771634 0.49819174
        0.77586186 0.0047724503 0.49825996 0.77752036 0.0047731674 0.49833825
        0.7794352 0.0047738026 0.4984278 0.78164065 0.0047743847 0.49852988
        0.78417385 0.004774953 0.4986457 0.7870743 0.0047755516 0.49877653
        0.7903834 0.004776233 0.4989234 0.79414314 0.0047770487 0.49908733
        0.7983948 0.0047780457 0.49926892 0.8031773 0.0047792625 0.49946856
        0.80852497 0.0047807214 0.4996861 0.81446457 0.00478243 0.49992085
        0.82101285 0.004784379 0.5001715 0.82817316 0.004786546 0.500436
        0.8359329 0.0047888956 0.50071156 0.84426093 0.004791386 0.50099474
        0.8531061 0.00479397 0.50128156 0.8623971 0.0047965976 0.50156754
        0.87204343 0.0047992193 0.5018482 0.8819387 0.0048017846 0.5021191
        0.8919643 0.004804245 0.50237626 0.76784056 0.0055070724 0.49786255
        0.76820534 0.005508336 0.49788073 0.76863134 0.005509651 0.4979019
        0.76912874 0.005510999 0.49792653 0.7697091 0.0055123605 0.49795514
        0.7703857 0.0055137114 0.4979884 0.7711738 0.005515026 0.4980269
        0.77209085 0.005516279 0.4980715 0.7731568 0.0055174488 0.49812302
        0.7743942 0.005518519 0.4981824 0.7758283 0.0055194832 0.4982507
        0.77748734 0.0055203456 0.498329 0.7794028 0.005521124 0.4984186
        0.7816089 0.0055218493 0.4985207 0.78414285 0.0055225603 0.49863657
        0.7870442 0.0055233105 0.49876744 0.79035425 0.0055241557 0.49891442
        0.794115 0.0055251536 0.49907836 0.79836786 0.005526359 0.49926004
        0.8031517 0.0055278135 0.4994598 0.8085009 0.0055295434 0.49967742
        0.81444216 0.005531556 0.49991226 0.8209923 0.0055338414 0.50016296
        0.8281547 0.005536373 0.50042754 0.83591664 0.005539111 0.5007032
        0.84424704 0.0055420077 0.5009865 0.85309476 0.0055450094 0.50127345
        0.86238843 0.0055480576 0.50155956 0.87203765 0.005551096 0.50184035
        0.8819358 0.005554067 0.5021113 0.8919643 0.0055569145 0.5023685
        0.7678043 0.006252956 0.49785194 0.7681692 0.006254277 0.4978701
        0.7685954 0.0062556593 0.4978913 0.7690929 0.0062570865 0.49791592
        0.76967347 0.0062585385 0.4979446 0.7703502 0.0062599927 0.49797785
        0.7711386 0.0062614228 0.4980164 0.772056 0.0062628035 0.498061
        0.7731223 0.006264109 0.49811253 0.7743601 0.0062653227 0.49817193
        0.7757946 0.006266433 0.49824023 0.77745426 0.006267443 0.4983186
        0.7793703 0.006268368 0.49840823 0.7815771 0.0062692394 0.49851036
        0.78411186 0.006270101 0.49862632 0.78701407 0.006271008 0.49875724
        0.79032505 0.006272023 0.49890426 0.7940869 0.0062732114 0.49906832
        0.7983409 0.0062746303 0.49925005 0.80312616 0.0062763286 0.49944988
        0.8084768 0.0062783333 0.4996676 0.81441975 0.006280654 0.49990255
        0.8209717 0.006283279 0.50015336 0.8281362 0.006286178 0.500418
        0.83590037 0.0062893075 0.5006938 0.8442332 0.006292613 0.5009772
        0.8530835 0.006296033 0.5012642 0.86237985 0.006299504 0.50155044
        0.87203187 0.0063029593 0.5018313 0.88193285 0.0063063367 0.5021023
        0.8919643 0.0063095717 0.5023596 0.76776814 0.0069988207 0.4978402
        0.7681331 0.0070001944 0.4978584 0.7685594 0.0070016384 0.49787956
        0.7690571 0.007003138 0.49790424 0.76963776 0.0070046736 0.49793288
        0.77031475 0.007006224 0.49796617 0.7711034 0.007007762 0.4980047
        0.7720211 0.007009262 0.49804935 0.7730878 0.007010699 0.4981009
        0.77432597 0.00701205 0.49816033 0.77576095 0.0070133046 0.4982287
        0.7774211 0.0070144613 0.49830708 0.77933776 0.007015535 0.49839675
        0.7815453 0.007016557 0.49849895 0.78408074 0.007017573 0.49861497
        0.78698385 0.007018642 0.49874595 0.7902958 0.0070198346 0.49889302
        0.7940587 0.0070212176 0.49905714 0.798314 0.007022857 0.49923897
        0.8031005 0.0070248037 0.49943885 0.80845267 0.0070270896 0.49965665
        0.81439734 0.007029723 0.49989167 0.82095116 0.0070326915 0.50014263
        0.82811767 0.0070359614 0.5004074 0.8358841 0.007039484 0.50068325
        0.8442193 0.0070432005 0.5009667 0.85307217 0.007047041 0.50125384
        0.8623712 0.0070509347 0.5015402 0.872026 0.007054809 0.5018211
        0.88192993 0.0070585925 0.50209224 0.8919643 0.0070622154 0.50234956
        0.7677319 0.007744663 0.49782735 0.768097 0.007746087 0.49784556
        0.7685234 0.0077475887 0.49786675 0.7690213 0.007749154 0.4978914
        0.7696021 0.0077507677 0.49792007 0.77027935 0.0077524073 0.49795336
        0.77106816 0.0077540465 0.49799195 0.7719862 0.00775566 0.4980366
        0.77305317 0.0077572204 0.49808818 0.77429175 0.007758706 0.49814764
        0.7757273 0.007760101 0.498216 0.777388 0.007761403 0.49829444
        0.7793052 0.007762626 0.49838415 0.7815134 0.0077638007 0.49848643
        0.78404963 0.0077649755 0.49860245 0.78695357 0.0077662137 0.4987335
        0.7902665 0.007767588 0.49888065 0.7940305 0.0077691725 0.49904484
        0.7982869 0.007771038 0.49922675 0.80307484 0.007773239 0.4994267
        0.8084285 0.0077758105 0.4996446 0.81437486 0.007778761 0.49987972
        0.8209306 0.007782076 0.5001307 0.82809913 0.00778572 0.5003956
        0.8358678 0.0077896393 0.50067157 0.84420544 0.0077937674 0.50095516
        0.85306084 0.0077980296 0.5012424 0.86236256 0.007802348 0.5015288
        0.87202024 0.0078066415 0.50180984 0.881927 0.007810832 0.50208104
        0.8919643 0.007814842 0.50233847 0.76769567 0.008490483 0.49781337
        0.76806086 0.008491953 0.49783158 0.7684874 0.008493508 0.49785277
        0.7689854 0.008495136 0.49787745 0.7695664 0.008496822 0.49790615
        0.7702439 0.008498544 0.49793944 0.7710329 0.008500279 0.49797803
        0.77195126 0.008501999 0.49802274 0.7730186 0.008503678 0.49807432
        0.7742576 0.008505291 0.4981338 0.77569354 0.008506822 0.49820223
        0.7773547 0.00850827 0.4982807 0.7792726 0.008509642 0.49837047
        0.78148144 0.008510972 0.49847275 0.78401846 0.00851231 0.49858883
        0.7869232 0.008513721 0.49871996 0.7902371 0.008515282 0.49886715
        0.7940022 0.0085170735 0.4990314 0.79825985 0.008519171 0.4992134
        0.80304915 0.008521634 0.49941343 0.8084043 0.008524495 0.49963143
        0.8143524 0.008527766 0.49986663 0.82091 0.008531433 0.5001177
        0.8280806 0.008535453 0.5003827 0.8358515 0.008539771 0.50065875
        0.84419155 0.008544313 0.50094247 0.8530495 0.008548999 0.50122976
        0.862354 0.008553742 0.5015163 0.8720144 0.008558456 0.5017974
        0.8819241 0.008563054 0.5020687 0.8919643 0.0085674515 0.5023262
        0.7676595 0.009236279 0.4977983 0.76802474 0.0092377905 0.4978165
        0.76845145 0.009239396 0.4978377 0.76894957 0.009241083 0.4978624
        0.7695308 0.009242836 0.4978911 0.7702084 0.009244638 0.49792442
        0.7709977 0.009246459 0.497963 0.7719163 0.009248281 0.4980077
        0.77298397 0.009250072 0.49805933 0.7742233 0.009251809 0.49811888
        0.77565974 0.009253474 0.49818733 0.7773215 0.009255061 0.49826583
        0.77923995 0.009256583 0.49835563 0.7814495 0.00925807 0.49845797
        0.7839873 0.009259572 0.4985741 0.7868929 0.009261161 0.49870527
        0.79020774 0.009262915 0.49885252 0.79397386 0.009264921 0.49901685
        0.79823273 0.009267257 0.4991989 0.8030234 0.0092699835 0.49939904
        0.8083801 0.00927314 0.4996171 0.81432986 0.009276737 0.4998524
        0.82088935 0.009280758 0.50010365 0.828062 0.0092851585 0.50036865
        0.83583516 0.009289878 0.5006448 0.8441776 0.009294837 0.50092864
        0.8530382 0.009299948 0.50121605 0.86234534 0.009305118 0.50150263
        0.8720086 0.009310251 0.50178385 0.8819212 0.009315256 0.5020552
        0.8919643 0.009320042 0.5023128 0.76762325 0.009982049 0.49778208
        0.7679886 0.009983601 0.4978003 0.76841545 0.009985252 0.4978215
        0.76891375 0.009986993 0.49784622 0.7694951 0.009988811 0.49787492
        0.7701729 0.009990683 0.49790826 0.7709625 0.00999259 0.4979469
        0.77188134 0.009994506 0.4979916 0.77294934 0.009996404 0.49804327
        0.7741891 0.009998259 0.4981028 0.77562594 0.010000054 0.4981713
        0.7772882 0.0100017795 0.49824983 0.7792072 0.010003449 0.49833965
        0.7814174 0.010005094 0.49844205 0.783956 0.010006765 0.49855825
        0.7868625 0.010008534 0.49868944 0.7901783 0.010010487 0.49883682
        0.7939455 0.0100127105 0.4990012 0.7982056 0.01001529 0.4991833
        0.80299765 0.010018288 0.49938354 0.80835587 0.010021746 0.4996017
        0.81430733 0.010025674 0.49983707 0.8208687 0.010030052 0.5000884
        0.82804346 0.010034837 0.5003535 0.8358188 0.010039958 0.5006298
        0.8441637 0.010045336 0.5009137 0.8530268 0.010050873 0.5012012
        0.8623367 0.01005647 0.5014879 0.8720028 0.010062024 0.5017692
        0.88191825 0.010067438 0.5020406 0.8919643 0.010072612 0.50229824
        0.767587 0.010727791 0.49776474 0.7679525 0.01072938 0.49778298
        0.76837945 0.010731075 0.4978042 0.76887786 0.010732868 0.4978289
        0.7694594 0.0107347425 0.49785763 0.7701374 0.010736685 0.49789098
        0.77092725 0.010738671 0.49792963 0.77184635 0.010740678 0.49797437
        0.7729147 0.0107426755 0.49802604 0.77415484 0.010744644 0.49808562
        0.77559215 0.010746562 0.49815413 0.7772549 0.010748425 0.4982327
        0.7791745 0.010750242 0.49832258 0.78138536 0.010752044 0.49842504
        0.7839247 0.010753885 0.49854127 0.78683203 0.01075584 0.49867254
        0.7901488 0.010757995 0.49881995 0.7939171 0.010760443 0.4989844
        0.79817843 0.010763271 0.4991666 0.80297184 0.010766546 0.4993669
        0.8083316 0.01077031 0.49958515 0.81428474 0.010774572 0.4998206
        0.82084805 0.010779312 0.500072 0.8280248 0.010784483 0.50033724
        0.8358025 0.010790011 0.50061363 0.84414977 0.0107958075 0.50089765
        0.8530155 0.010801773 0.50118524 0.86232805 0.010807798 0.501472
        0.87199694 0.010813775 0.5017534 0.8819153 0.010819597 0.5020249
        0.8919643 0.010825159 0.5022826 0.7675508 0.011473504 0.49774632
        0.7679164 0.011475126 0.49776456 0.76834345 0.011476863 0.4977858
        0.76884204 0.0114787035 0.4978105 0.7694237 0.011480635 0.49783924
        0.77010196 0.011482641 0.4978726 0.770892 0.011484702 0.49791127
        0.77181137 0.011486792 0.497956 0.7728801 0.011488887 0.4980077
        0.77412057 0.011490963 0.49806732 0.7755583 0.011493002 0.49813586
        0.77722156 0.011494997 0.49821448 0.7791418 0.011496958 0.4983044
        0.7813533 0.011498918 0.4984069 0.78389335 0.011500932 0.49852315
        0.7868016 0.011503074 0.49865448 0.7901193 0.011505438 0.49880198
        0.7938887 0.011508116 0.4989665 0.7981512 0.011511197 0.49914876
        0.802946 0.011514755 0.49934912 0.8083073 0.0115188295 0.49956745
        0.81426215 0.011523431 0.49980304 0.8208273 0.011528538 0.50005454
        0.8280062 0.011534097 0.5003199 0.8357861 0.011540033 0.50059634
        0.8441358 0.011546253 0.5008804 0.8530041 0.011552647 0.5011681
        0.8623194 0.011559101 0.50145495 0.8719911 0.0115655 0.50173646
        0.88191235 0.0115717305 0.5020081 0.8919643 0.011577683 0.5022658
        0.7675146 0.012219184 0.49772674 0.7678803 0.01222084 0.49774498
        0.76830745 0.012222616 0.49776623 0.7688062 0.012224501 0.49779096
        0.7693881 0.012226484 0.4978197 0.7700665 0.012228551 0.49785307
        0.77085674 0.012230679 0.49789175 0.77177644 0.01223285 0.49793655
        0.7728454 0.012235037 0.49798828 0.7740863 0.012237216 0.4980479
        0.77552444 0.0122393705 0.4981165 0.7771882 0.012241494 0.49819514
        0.77910894 0.012243599 0.49828508 0.78132117 0.012245717 0.4983876
        0.78386194 0.012247904 0.49850392 0.786771 0.012250239 0.49863532
        0.79008967 0.012252813 0.49878284 0.7938602 0.012255727 0.49894744
        0.79812396 0.012259069 0.4991298 0.8029201 0.012262914 0.49933025
        0.808283 0.012267305 0.49954867 0.81423956 0.01227225 0.4997843
        0.8208066 0.012277725 0.5000359 0.82798755 0.012283677 0.50030136
        0.8357697 0.012290025 0.5005779 0.8441219 0.012296667 0.50086206
        0.8529927 0.012303492 0.5011499 0.86231077 0.012310377 0.5014368
        0.8719853 0.012317199 0.50171834 0.88190943 0.012323839 0.5019901
        0.8919643 0.012330179 0.50224787 0.7674784 0.012964833 0.4977061
        0.7678442 0.01296652 0.49772432 0.76827145 0.012968332 0.4977456
        0.76877034 0.012970258 0.4977703 0.7693524 0.01297229 0.49779907
        0.77003103 0.012974412 0.49783245 0.7708215 0.012976607 0.49787116
        0.77174145 0.012978852 0.49791595 0.77281076 0.012981124 0.4979677
        0.77405196 0.012983403 0.49802738 0.7754905 0.012985668 0.49809596
        0.7771548 0.012987918 0.49817464 0.77907616 0.012990164 0.49826464
        0.781289 0.012992439 0.49836722 0.7838305 0.012994801 0.4984836
        0.7867404 0.012997329 0.49861506 0.7900601 0.013000121 0.49876264
        0.79383165 0.013003275 0.4989273 0.79809666 0.013006884 0.49910972
        0.8028942 0.013011022 0.49931026 0.8082586 0.013015732 0.49952874
        0.8142169 0.013021027 0.49976447 0.8207859 0.013026875 0.50001615
        0.8279689 0.013033222 0.50028175 0.8357533 0.013039983 0.5005584
        0.8441079 0.013047052 0.50084263 0.8529813 0.013054308 0.5011305
        0.86230206 0.013061624 0.5014176 0.8719795 0.013068872 0.5016992
        0.8819065 0.01307592 0.50197095 0.8919643 0.013082648 0.50222886
        0.76744217 0.013710447 0.49768427 0.7678081 0.013712162 0.4977025
        0.7682355 0.013714007 0.4977238 0.7687345 0.013715972 0.49774855
        0.76931673 0.01371805 0.49777734 0.7699955 0.013720225 0.49781075
        0.7707862 0.01372248 0.49784943 0.77170646 0.013724796 0.49789426
        0.77277607 0.01372715 0.49794605 0.77401763 0.013729521 0.49800572
        0.7754566 0.013731894 0.49807432 0.77712137 0.013734266 0.49815306
        0.77904326 0.013736649 0.4982431 0.7812568 0.013739081 0.4983457
        0.78379905 0.01374162 0.49846214 0.7867098 0.013744346 0.49859363
        0.7900304 0.013747359 0.49874127 0.7938031 0.013750756 0.49890602
        0.79806936 0.013754638 0.4990885 0.80286825 0.013759075 0.49928913
        0.8082342 0.013764111 0.4995077 0.81419426 0.013769757 0.49974352
        0.82076514 0.013775984 0.49999532 0.82795024 0.01378273 0.50026095
        0.83573693 0.013789906 0.5005377 0.8440939 0.013797403 0.50082207
        0.85296994 0.013805093 0.50111 0.8622934 0.013812843 0.5013972
        0.87197363 0.013820512 0.5016789 0.8819035 0.01382797 0.50195074
        0.8919643 0.013835087 0.5022087 0.7674059 0.014456023 0.49766135
        0.76777196 0.014457766 0.49767962 0.7681995 0.014459643 0.4977009
        0.76869863 0.014461643 0.49772567 0.769281 0.014463763 0.49775442
        0.76996005 0.014465986 0.49778786 0.770751 0.014468298 0.4978266
        0.7716715 0.014470681 0.49787143 0.7727414 0.01447311 0.49792323
        0.7739833 0.01447557 0.49798292 0.7754227 0.0144780455 0.4980516
        0.7770879 0.014480536 0.49813035 0.7790104 0.014483056 0.4982204
        0.7812245 0.014485643 0.49832305 0.7837675 0.014488359 0.49843958
        0.78667915 0.014491286 0.49857113 0.79000074 0.0144945225 0.49871883
        0.7937745 0.014498172 0.4988836 0.79804194 0.01450233 0.49906617
        0.80284226 0.014507072 0.49926686 0.8082098 0.01451244 0.49948552
        0.81417155 0.0145184435 0.49972147 0.82074434 0.01452505 0.49997333
        0.8279316 0.014532199 0.5002391 0.83572054 0.014539793 0.5005159
        0.84408 0.014547721 0.5008004 0.85295856 0.0145558445 0.50108844
        0.8622847 0.014564027 0.5013757 0.8719678 0.014572122 0.5016574
        0.8819006 0.01457999 0.50192934 0.8919643 0.0145874955 0.5021874
        0.76736975 0.015201564 0.49763733 0.76773584 0.015203331 0.4976556
        0.7681635 0.015205235 0.49767688 0.7686628 0.015207269 0.49770167
        0.7692454 0.015209426 0.49773043 0.7699246 0.015211696 0.49776387
        0.7707157 0.0152140595 0.49780264 0.7716364 0.015216503 0.4978475
        0.7727067 0.015219004 0.49789932 0.77394897 0.015221548 0.49795905
        0.7753888 0.015224122 0.49802774 0.7770545 0.015226726 0.49810654
        0.7789775 0.015229381 0.49819663 0.78119224 0.015232124 0.49829933
        0.783736 0.015235018 0.49841586 0.7866484 0.015238148 0.49854746
        0.78997093 0.015241615 0.49869525 0.7937458 0.01524552 0.4988601
        0.7980145 0.01524996 0.49904275 0.8028163 0.015255013 0.4992435
        0.80818534 0.015260717 0.49946225 0.81414884 0.0152670825 0.49969825
        0.82072353 0.015274074 0.49995023 0.82791287 0.015281627 0.500216
        0.8357041 0.015289642 0.500493 0.84406596 0.0152980015 0.50077754
        0.8529472 0.015306562 0.5010657 0.8622761 0.015315179 0.501353
        0.8719619 0.015323699 0.5016349 0.8818977 0.015331977 0.5019069
        0.8919643 0.015339872 0.502165 0.7673335 0.015947063 0.49761218
        0.7676997 0.015948854 0.49763045 0.7681275 0.015950782 0.49765176
        0.7686269 0.015952846 0.49767652 0.7692097 0.01595504 0.49770534
        0.76988906 0.01595735 0.4977388 0.7706805 0.015959762 0.49777755
        0.77160144 0.015962262 0.49782243 0.772672 0.015964828 0.4978743
        0.77391464 0.015967451 0.497934 0.7753548 0.015970118 0.49800277
        0.777021 0.015972836 0.4980816 0.77894455 0.015975622 0.49817172
        0.78115994 0.015978519 0.49827445 0.7837044 0.015981594 0.49839103
        0.78661764 0.015984932 0.4985227 0.78994113 0.015988631 0.49867052
        0.7937171 0.015992796 0.49883544 0.7979871 0.015997525 0.4990182
        0.8027902 0.016002893 0.49921903 0.80816084 0.01600894 0.49943784
        0.8141261 0.01601567 0.49967396 0.82070273 0.016023053 0.49992597
        0.82789415 0.016031014 0.5001919 0.83568764 0.016039452 0.5004689
        0.84405196 0.016048243 0.5007536 0.8529358 0.016057244 0.5010418
        0.8622674 0.016066294 0.50132924 0.87195605 0.01607524 0.5016112
        0.8818947 0.01608393 0.50188327 0.8919643 0.016092213 0.5021414
        0.76729727 0.016692521 0.4975859 0.7676636 0.016694333 0.4976042
        0.7680915 0.016696284 0.49762553 0.7685911 0.016698377 0.4976503
        0.769174 0.0167006 0.49767914 0.7698536 0.016702946 0.49771258
        0.7706452 0.016705403 0.49775138 0.77156645 0.016707953 0.49779627
        0.77263725 0.016710583 0.49784812 0.77388024 0.016713278 0.4979079
        0.7753208 0.016716037 0.49797666 0.7769875 0.01671886 0.4980555
        0.77891153 0.016721778 0.4981457 0.7811276 0.016724829 0.49824846
        0.78367275 0.016728085 0.4983651 0.7865868 0.016731631 0.49849683
        0.7899113 0.016735569 0.4986447 0.79368836 0.016740002 0.4988097
        0.79795957 0.016745023 0.49899247 0.8027641 0.016750714 0.49919343
        0.80813634 0.016757106 0.49941233 0.8141033 0.016764209 0.4996485
        0.82068187 0.016771981 0.4999006 0.8278754 0.016780356 0.50016665
        0.8356712 0.016789222 0.50044376 0.84403795 0.016798448 0.50072855
        0.85292435 0.016807886 0.50101686 0.8622587 0.016817372 0.5013043
        0.8719502 0.016826749 0.5015864 0.8818918 0.016835846 0.50185853
        0.8919643 0.016844518 0.50211674 0.7672611 0.017437937 0.49755853
        0.7676275 0.017439764 0.4975768 0.76805556 0.017441738 0.49759814
        0.7685553 0.017443852 0.49762297 0.76913834 0.017446106 0.4976518
        0.76981807 0.017448485 0.49768528 0.7706099 0.017450979 0.49772406
        0.7715314 0.017453577 0.49776897 0.77260256 0.017456263 0.49782085
        0.77384585 0.017459027 0.49788067 0.77528685 0.017461868 0.49794945
        0.77695394 0.017464798 0.49802834 0.77887857 0.017467843 0.49811855
        0.78109515 0.017471049 0.49822137 0.7836411 0.017474487 0.49833804
        0.786556 0.017478246 0.4984698 0.7898814 0.017482428 0.49861774
        0.79365957 0.017487131 0.4987828 0.7979321 0.017492454 0.49896568
        0.802738 0.017498469 0.49916667 0.8081118 0.017505215 0.49938565
        0.81408054 0.017512694 0.49962193 0.820661 0.017520864 0.49987417
        0.8278566 0.01752965 0.50014025 0.8356547 0.017538944 0.5004175
        0.84402394 0.017548608 0.5007023 0.8529129 0.017558487 0.50099075
        0.86225 0.017568413 0.50127834 0.87194437 0.017578216 0.50156045
        0.8818888 0.017587725 0.50183266 0.8919643 0.017596787 0.502091
        0.76722485 0.01818331 0.49753004 0.7675914 0.01818515 0.49754834
        0.76801956 0.018187141 0.49756968 0.7685194 0.018189277 0.49759448
        0.76910263 0.018191552 0.49762332 0.7697826 0.01819396 0.49765682
        0.7705746 0.018196488 0.49769565 0.7714964 0.018199125 0.4977406
        0.7725678 0.018201863 0.49779248 0.77381146 0.018204695 0.49785233
        0.7752528 0.018207615 0.4979211 0.7769204 0.018210646 0.49800003
        0.7788455 0.018213816 0.49809027 0.7810627 0.018217178 0.49819314
        0.78360933 0.0182208 0.49830988 0.78652513 0.018224778 0.4984417
        0.7898515 0.018229205 0.4985897 0.7936308 0.018234186 0.4987548
        0.7979045 0.018239815 0.49893773 0.80271184 0.018246165 0.49913883
        0.8080872 0.018253267 0.49935788 0.8140577 0.018261123 0.49959427
        0.8206401 0.018269693 0.49984655 0.8278379 0.018278899 0.5001128
        0.8356382 0.018288624 0.50039005 0.8440099 0.018298728 0.500675
        0.85290146 0.018309047 0.5009635 0.86224127 0.018319411 0.50125116
        0.87193847 0.01832964 0.5015334 0.8818859 0.018339563 0.50180566
        0.8919643 0.018349014 0.50206405 0.76718867 0.018928634 0.49750042
        0.7675553 0.018930487 0.49751872 0.76798356 0.018932492 0.49754006
        0.7684836 0.018934643 0.49756488 0.76906693 0.018936938 0.49759376
        0.7697471 0.018939368 0.49762726 0.77053934 0.018941924 0.49766612
        0.77146137 0.018944599 0.49771106 0.77253306 0.018947382 0.497763
        0.773777 0.01895027 0.49782285 0.7752188 0.018953271 0.49789166
        0.77688676 0.0189564 0.4979706 0.7788124 0.018959695 0.49806088
        0.78103024 0.018963214 0.49816382 0.78357756 0.018967021 0.49828058
        0.7864942 0.01897122 0.49841246 0.7898215 0.018975899 0.49856052
        0.7936019 0.01898116 0.49872568 0.79787683 0.018987104 0.49890867
        0.8026856 0.01899379 0.49910986 0.8080626 0.019001253 0.499329
        0.8140349 0.019009497 0.49956545 0.8206192 0.019018473 0.49981785
        0.82781905 0.019028097 0.5000841 0.8356217 0.019038254 0.50036156
        0.8439958 0.0190488 0.50064653 0.85289 0.019059565 0.50093514
        0.86223257 0.01907037 0.5012229 0.8719326 0.019081028 0.5015052
        0.8818829 0.019091362 0.5017776 0.8919643 0.019101202 0.502036
        0.7671524 0.01967391 0.49746966 0.7675192 0.019675774 0.49748802
        0.76794755 0.019677786 0.49750933 0.7684477 0.019679952 0.4975342
        0.7690312 0.019682258 0.49756306 0.7697116 0.019684708 0.4975966
        0.77050406 0.019687288 0.49763542 0.7714263 0.019689992 0.49768043
        0.77249825 0.019692814 0.49773237 0.77374256 0.019695755 0.49779224
        0.7751847 0.019698828 0.49786112 0.77685314 0.019702055 0.4979401
        0.77877927 0.019705474 0.49803042 0.7809977 0.019709148 0.49813333
        0.7835458 0.019713148 0.49825016 0.7864632 0.019717569 0.49838206
        0.7897915 0.019722505 0.49853018 0.79357296 0.019728059 0.49869546
        0.79784924 0.019734317 0.4988785 0.8026594 0.019741347 0.49907973
        0.80803794 0.019749183 0.49929896 0.814012 0.019757813 0.4995355
        0.82059824 0.019767199 0.499788 0.8278003 0.019777246 0.5000544
        0.8356052 0.01978784 0.5003319 0.84398174 0.019798828 0.500617
        0.8528786 0.01981004 0.5009057 0.86222386 0.01982128 0.5011935
        0.8719267 0.019832369 0.5014759 0.8818799 0.019843116 0.5017483
        0.8919643 0.019853344 0.5020068 0.7671162 0.020419138 0.49743783
        0.76748306 0.020421006 0.49745616 0.76791155 0.020423025 0.4974775
        0.7684119 0.020425197 0.49750236 0.7689956 0.020427514 0.49753127
        0.7696761 0.020429973 0.4975648 0.7704688 0.020432571 0.49760365
        0.7713913 0.020435296 0.49764866 0.7724635 0.020438151 0.49770063
        0.7737081 0.020441145 0.49776053 0.7751506 0.020444287 0.49782944
        0.77681947 0.020447608 0.4979084 0.7787461 0.02045115 0.4979988
        0.78096515 0.020454982 0.49810177 0.7835139 0.020459177 0.49821863
        0.78643215 0.020463824 0.4983506 0.7897614 0.020469025 0.49849877
        0.793544 0.020474875 0.4986641 0.7978215 0.020481456 0.49884725
        0.8026331 0.020488836 0.49904853 0.80801326 0.020497043 0.49926785
        0.8139891 0.020506069 0.49950445 0.8205773 0.020515865 0.49975705
        0.82778144 0.020526342 0.50002354 0.83558863 0.020537375 0.50030106
        0.8439677 0.020548807 0.50058633 0.8528671 0.020560464 0.5008751
        0.86221516 0.02057215 0.501163 0.8719209 0.020583667 0.5014454
        0.881877 0.020594824 0.5017179 0.8919643 0.020605443 0.5019765
        0.76708 0.021164313 0.49740484 0.76744694 0.021166183 0.4974232
        0.76787555 0.021168202 0.49744457 0.768376 0.021170374 0.49746943
        0.7689599 0.021172697 0.49749833 0.76964056 0.02117516 0.4975319
        0.7704335 0.021177767 0.49757078 0.77135617 0.021180509 0.49761578
        0.7724287 0.021183394 0.4976678 0.7736736 0.02118643 0.4977277
        0.77511644 0.02118964 0.49779662 0.77678573 0.021193052 0.4978757
        0.77871287 0.021196721 0.49796605 0.78093255 0.021200713 0.49806908
        0.78348196 0.021205103 0.498186 0.78640103 0.021209987 0.49831802
        0.7897313 0.021215456 0.49846625 0.79351497 0.021221604 0.49863163
        0.7977938 0.021228516 0.49881482 0.8026068 0.021236252 0.49901623
        0.8079886 0.021244839 0.4992356 0.81396616 0.021254262 0.4994723
        0.82055634 0.021264475 0.49972495 0.8277626 0.021275382 0.4999915
        0.8355721 0.021286856 0.5002692 0.8439536 0.021298738 0.5005545
        0.8528556 0.021310842 0.50084335 0.8622064 0.02132297 0.50113136
        0.871915 0.021334918 0.5014139 0.881874 0.021346489 0.50168645
        0.8919643 0.021357497 0.5019451 0.76704377 0.021909436 0.49737078
        0.7674108 0.0219113 0.4973891 0.7678396 0.021913316 0.4974105
        0.7683401 0.021915484 0.49743536 0.7689242 0.0219178 0.4974643
        0.76960504 0.021920264 0.49749786 0.77039814 0.021922868 0.49753678
        0.77132106 0.021925623 0.4975818 0.7723938 0.02192853 0.4976338
        0.7736391 0.021931604 0.49769378 0.7750823 0.021934876 0.49776274
        0.77675194 0.021938382 0.4978418 0.7786796 0.021942178 0.49793223
        0.7808998 0.021946333 0.49803528 0.78345 0.021950927 0.49815223
        0.7863699 0.021956049 0.4982843 0.7897011 0.021961793 0.49843258
        0.79348594 0.02196825 0.498598 0.797766 0.021975499 0.4987813
        0.8025805 0.021983596 0.49898273 0.80796385 0.021992564 0.4992022
        0.8139432 0.022002393 0.499439 0.82053536 0.022013025 0.49969175
        0.8277437 0.022024365 0.4999584 0.83555555 0.022036282 0.50023615
        0.8439395 0.022048613 0.50052154 0.8528442 0.022061165 0.5008105
        0.8621977 0.02207374 0.5010986 0.8719091 0.022086121 0.50138116
        0.88187104 0.022098105 0.50165385 0.8919643 0.022109503 0.5019125
        0.7670075 0.022654507 0.49733558 0.7673747 0.022656359 0.4973539
        0.7678036 0.022658363 0.4973753 0.7683043 0.02266052 0.4974002
        0.7688884 0.022662822 0.49742913 0.76956946 0.022665273 0.49746272
        0.7703628 0.022667872 0.49750164 0.77128595 0.022670629 0.4975467
        0.77235895 0.022673551 0.49759874 0.7736045 0.022676662 0.49765873
        0.7750481 0.022679994 0.4977277 0.77671814 0.022683593 0.4978068
        0.7786463 0.022687517 0.49789727 0.7808671 0.022691842 0.49800035
        0.783418 0.022696642 0.49811733 0.78633875 0.022702008 0.49824947
        0.7896709 0.022708036 0.4983978 0.79345685 0.022714805 0.4985633
        0.7977382 0.022722397 0.49874663 0.80255413 0.022730863 0.4989482
        0.8079391 0.02274022 0.49916774 0.81392026 0.022750458 0.49940458
        0.8205143 0.022761514 0.49965742 0.8277248 0.022773292 0.49992415
        0.835539 0.022785654 0.500202 0.8439254 0.022798438 0.50048745
        0.8528327 0.02281144 0.5007765 0.86218894 0.022824459 0.5010647
        0.87190324 0.022837274 0.50134736 0.8818681 0.022849672 0.50162005
        0.8919643 0.022861458 0.5018788 0.76697135 0.023399517 0.49729925
        0.7673386 0.023401354 0.49731764 0.7677676 0.023403341 0.497339
        0.7682684 0.023405472 0.49736392 0.7688527 0.023407754 0.49739286
        0.76953393 0.023410182 0.49742645 0.7703274 0.023412768 0.49746543
        0.7712508 0.023415515 0.4975105 0.772324 0.023418449 0.49756256
        0.7735699 0.023421591 0.49762258 0.77501374 0.023424985 0.49769154
        0.7766843 0.02342868 0.49777067 0.7786129 0.023432737 0.49786118
        0.7808343 0.023437232 0.4979643 0.78338593 0.023442246 0.49808136
        0.7863075 0.023447866 0.4982135 0.78964067 0.02345418 0.49836192
        0.7934277 0.023461273 0.49852747 0.7977103 0.023469212 0.49871087
        0.8025277 0.023478052 0.49891245 0.8079143 0.023487804 0.4991321
        0.81389725 0.023498453 0.49936906 0.8204933 0.023509938 0.499622
        0.8277059 0.023522157 0.49988878 0.83552235 0.02353497 0.5001667
        0.8439113 0.023548204 0.5004523 0.8528212 0.023561662 0.5007414
        0.8621802 0.023575125 0.5010297 0.87189734 0.023588372 0.5013124
        0.88186514 0.023601182 0.5015852 0.8919643 0.023613362 0.501844
        0.7669351 0.02414447 0.49726182 0.76730245 0.024146283 0.4972802
        0.7677316 0.024148237 0.4973016 0.7682325 0.02415034 0.49732652
        0.76881695 0.024152584 0.49735546 0.76949835 0.024154983 0.49738908
        0.770292 0.024157539 0.49742806 0.77121556 0.024160275 0.49747315
        0.77228904 0.024163213 0.49752522 0.7735352 0.024166385 0.49758527
        0.7749794 0.02416984 0.49765432 0.7766503 0.024173632 0.49773347
        0.7785795 0.024177827 0.49782398 0.7808015 0.024182502 0.49792716
        0.78335375 0.024187736 0.49804425 0.78627616 0.024193613 0.49817643
        0.7896103 0.024200223 0.4983249 0.7933985 0.024207644 0.4984905
        0.7976824 0.02421594 0.49867398 0.80250126 0.024225162 0.49887565
        0.80788946 0.024235316 0.49909535 0.8138742 0.024246382 0.4993324
        0.82047224 0.024258299 0.49958542 0.827687 0.02427096 0.4998523
        0.8355058 0.024284223 0.5001303 0.84389716 0.024297914 0.500416
        0.85280967 0.024311826 0.5007052 0.8621715 0.024325738 0.5009935
        0.87189144 0.024339417 0.5012763 0.88186216 0.024352644 0.5015492
        0.8919643 0.024365213 0.50180805 0.76689893 0.024889365 0.49722326
        0.76726633 0.02489114 0.49724168 0.76769555 0.024893051 0.49726307
        0.76819664 0.024895106 0.497288 0.7687812 0.024897303 0.497317
        0.7694627 0.024899658 0.49735063 0.7702565 0.024902176 0.4973896
        0.7711803 0.024904892 0.4974347 0.772254 0.02490783 0.4974868
        0.7735004 0.024911031 0.49754688 0.77494496 0.02491455 0.49761593
        0.7766163 0.024918446 0.49769512 0.778546 0.024922784 0.49778566
        0.7807686 0.024927644 0.4978889 0.78332156 0.024933105 0.49800602
        0.7862448 0.024939252 0.49813825 0.7895799 0.024946166 0.49828675
        0.7933693 0.024953922 0.49845245 0.7976545 0.024962584 0.49863598
        0.8024748 0.024972187 0.49883774 0.8078646 0.024982749 0.4990575
        0.8138512 0.024994235 0.4992946 0.82045114 0.025006589 0.49954772
        0.8276681 0.025019698 0.4998147 0.83548915 0.025033416 0.5000928
        0.84388304 0.025047567 0.50037855 0.85279816 0.025061933 0.50066787
        0.8621627 0.025076292 0.50095624 0.87188554 0.025090408 0.5012391
        0.8818592 0.02510405 0.50151205 0.8919643 0.025117008 0.501771
        0.7668627 0.025634198 0.49718362 0.7672302 0.02563592 0.49720198
        0.76765954 0.025637772 0.49722344 0.7681607 0.025639763 0.49724838
        0.7687454 0.025641894 0.49727738 0.76942706 0.025644187 0.49731103
        0.770221 0.02564666 0.49735 0.7711449 0.025649345 0.49739513
        0.7722189 0.025652282 0.49744728 0.7734656 0.025655515 0.49750736
        0.77491045 0.025659105 0.49757645 0.7765822 0.02566311 0.49765566
        0.77851236 0.0256676 0.49774626 0.78073555 0.025672657 0.4978495
        0.7832893 0.025678353 0.49796665 0.7862134 0.025684778 0.49809897
        0.7895495 0.025692005 0.49824753 0.79333997 0.025700102 0.49841323
        0.7976265 0.025709134 0.49859685 0.8024483 0.02571913 0.49879867
        0.80783975 0.025730101 0.49901855 0.81382805 0.025742017 0.49925572
        0.82043004 0.02575481 0.4995089 0.8276491 0.02576837 0.49977598
        0.8354725 0.025782544 0.5000542 0.84386885 0.025797155 0.50034
        0.85278666 0.025811981 0.50062937 0.86215395 0.02582679 0.50091785
        0.87187964 0.02584134 0.50120085 0.88185626 0.025855398 0.50147384
        0.8919643 0.02586875 0.5017328 0.76682645 0.02637897 0.49714282
        0.7671941 0.026380613 0.49716124 0.7676235 0.026382385 0.49718267
        0.76812476 0.026384287 0.4972076 0.76870954 0.026386332 0.4972366
        0.7693913 0.02638855 0.49727032 0.7701854 0.026390966 0.49730933
        0.7711095 0.026393618 0.4973545 0.77218366 0.026396556 0.49740663
        0.7734306 0.026399827 0.49746674 0.7748759 0.026403492 0.49753585
        0.776548 0.026407616 0.4976151 0.7784787 0.026412271 0.49770573
        0.7807025 0.026417533 0.497809 0.78325695 0.026423478 0.4979262
        0.7861819 0.026430186 0.49805856 0.7895191 0.026437731 0.49820718
        0.79331064 0.026446182 0.49837294 0.7975985 0.02645559 0.4985566
        0.8024217 0.026465988 0.4987585 0.80781484 0.026477376 0.49897844
        0.813805 0.026489722 0.4992157 0.82040894 0.02650296 0.49946895
        0.82763016 0.026516972 0.49973613 0.8354559 0.026531609 0.5000144
        0.8438547 0.02654668 0.5003003 0.8527751 0.026561966 0.5005898
        0.8621452 0.026577227 0.50087833 0.87187374 0.026592214 0.5011614
        0.8818533 0.02660669 0.50143445 0.8919643 0.026620433 0.5016935
        0.7667903 0.027123675 0.49710092 0.7671579 0.027125211 0.49711934
        0.7675874 0.027126864 0.4971408 0.7680887 0.027128648 0.49716577
        0.7686736 0.027130585 0.4971948 0.7693554 0.027132712 0.49722847
        0.7701497 0.027135063 0.49726754 0.77107394 0.027137687 0.49731272
        0.7721483 0.02714063 0.49736485 0.77339554 0.02714395 0.497425
        0.7748411 0.027147705 0.49749413 0.7765137 0.02715196 0.4975734
        0.7784449 0.027156789 0.49766406 0.78066933 0.027162265 0.4977674
        0.7832246 0.02716847 0.4978846 0.7861504 0.027175471 0.498017
        0.7894885 0.027183348 0.49816567 0.7932813 0.027192159 0.49833155
        0.7975704 0.02720195 0.49851528 0.8023951 0.027212752 0.4987172
        0.8077899 0.027224563 0.49893722 0.81378186 0.027237346 0.49917457
        0.8203878 0.027251033 0.49942788 0.8276112 0.027265502 0.49969515
        0.83543926 0.0272806 0.49997354 0.84384054 0.027296139 0.5002595
        0.8527636 0.027311888 0.5005491 0.86213636 0.0273276 0.5008377
        0.8718678 0.027343025 0.5011208 0.8818503 0.02735792 0.5013939
        0.8919643 0.027372055 0.501653 0.76675403 0.027868314 0.4970579
        0.76712173 0.027869683 0.49707633 0.76755124 0.027871164 0.49709782
        0.7680526 0.02787279 0.4971228 0.7686375 0.027874598 0.49715185
        0.7693194 0.027876627 0.49718556 0.77011377 0.027878918 0.4972246
        0.77103823 0.027881522 0.4972698 0.77211285 0.027884485 0.497322
        0.7733603 0.027887866 0.49738216 0.7748063 0.027891725 0.4974513
        0.7764793 0.027896129 0.4975306 0.77841103 0.027901145 0.4976213
        0.78063613 0.027906852 0.49772465 0.7831921 0.027913325 0.49784192
        0.7861188 0.027920634 0.49797437 0.7894579 0.02792885 0.49812308
        0.7932519 0.027938027 0.498289 0.79754233 0.027948212 0.4984728
        0.8023685 0.027959427 0.4986748 0.80776495 0.027971666 0.49889487
        0.81375873 0.027984893 0.4991323 0.8203667 0.02799903 0.4993857
        0.8275922 0.028013958 0.49965307 0.8354226 0.028029526 0.4999315
        0.84382635 0.02804553 0.5002176 0.85275203 0.028061742 0.50050724
        0.8621276 0.02807791 0.50079596 0.8718619 0.028093776 0.50107914
        0.8818473 0.028109087 0.5013523 0.8919643 0.028123615 0.5016115
        0.76671785 0.028612884 0.49701378 0.76708543 0.028613945 0.49703223
        0.7675149 0.028615184 0.49705374 0.7680162 0.028616622 0.49707875
        0.7686012 0.028618295 0.49710777 0.7692832 0.028620237 0.4971415
        0.7700777 0.028622488 0.49718058 0.77100235 0.02862509 0.49722582
        0.7720772 0.028628096 0.49727803 0.77332497 0.02863156 0.4973382
        0.77477133 0.028635543 0.49740738 0.77644485 0.02864011 0.4974867
        0.7783771 0.028645333 0.49757743 0.7806028 0.028651284 0.4976808
        0.78315955 0.028658038 0.49779814 0.78608716 0.028665666 0.49793062
        0.7894273 0.02867423 0.4980794 0.7932224 0.028683785 0.49824536
        0.7975142 0.028694369 0.4984292 0.8023419 0.028706003 0.4986313
        0.8077399 0.028718676 0.49885142 0.81373554 0.028732348 0.49908894
        0.82034546 0.028746942 0.49934244 0.8275732 0.028762339 0.49960986
        0.8354059 0.028778372 0.4998884 0.84381217 0.028794847 0.5001745
        0.85274047 0.028811526 0.50046426 0.86211884 0.028828152 0.50075305
        0.871856 0.028844459 0.5010363 0.88184434 0.028860189 0.5013096
        0.8919643 0.028875113 0.50156873
        <InformationKey name="L2_NORM_RANGE" location="vtkDataArray" length="2">
          <Value index="0">
            0.91416500449
          </Value>
          <Value index="1">
            1.0237213306
          </Value>
        </InformationKey>
      </DataArray>
    </Points>
  </Piece>
  </StructuredGrid>
</VTKFile>
