<?xml version="1.0"?>
<VTKFile type="StructuredGrid" version="0.1" byte_order="LittleEndian" header_type="UInt32" compressor="vtkZLibDataCompressor">
  <StructuredGrid WholeExtent="0 30 0 40 0 0">
  <Piece Extent="0 30 0 40 0 0">
    <PointData>
      <DataArray type="Float32" Name="orthogonality" format="ascii" RangeMin="0" RangeMax="0.9999410510063171">
        0 0.0006195993 0.0012524611 0.00191312 0.002616221 0.0033769864
        0.0042115306 0.0051371744 0.006172808 0.0073393527 0.008660438 0.010163603
        0.0118828975 0.013865059 0.016184324 0.018976243 0.022509243 0.02732296
        0.034470875 0.04590532 0.06502995 0.09740662 0.15145555 0.23829761
        0.3676173 0.5347832 0.7092673 0.852057 0.94423395 0.98969555
        0.999787 4.32977e-05 0.0005788192 0.0012145085 0.0018780216 0.002583702
        0.0033468062 0.0041835094 0.0051111956 0.006148815 0.007317348 0.008640478
        0.01014581 0.011867487 0.013852442 0.016175354 0.018972741 0.02251488
        0.027344141 0.03451538 0.045969997 0.065049335 0.09708607 0.1498271
        0.23285526 0.35377398 0.50884974 0.67563057 0.82261163 0.9263683
        0.9821084 0.99994105 0.00017282105 0.0004469722 0.0010804138 0.0017412656
        0.0024434926 0.0032022954 0.0040338165 0.004955398 0.005985937 0.007146345
        0.008460223 0.009955078 0.011664967 0.013636802 0.015945444 0.018728033
        0.022256183 0.027074205 0.034237064 0.045673408 0.06466102 0.09630914
        0.14773007 0.2271018 0.34011933 0.4833857 0.64079565 0.7892864
        0.9050173 0.9732318 0.99947244 0.00037823085 0.00022878066 0.00084908225
        0.0014956542 0.0021819195 0.002922836 0.0037343062 0.0046334057 0.005638728
        0.0067708367 0.008052932 0.009512065 0.011181783 0.013108457 0.015366441
        0.018092457 0.021557735 0.026305405 0.03338484 0.04470185 0.06345446
        0.09450953 0.14435221 0.21988957 0.32526743 0.45748836 0.60542405
        0.75334644 0.8797242 0.9617449 0.998377 0.0006471062 6.6160515e-05
        0.000527157 0.0011447029 0.0017991484 0.0025049606 0.0032775302 0.004133364
        0.005090416 0.0061685243 0.007390062 0.008781132 0.010374202 0.012214411
        0.014374695 0.016990058 0.020329243 0.024930552 0.03183133 0.042903677
        0.06124976 0.09147867 0.13946591 0.21098651 0.30895156 0.43080246
        0.56929886 0.71482843 0.8500242 0.9469071 0.99621046 0.00096537644
        0.00042588514 0.00012439878 0.0006958356 0.0013000965 0.0019508607 0.0026626778
        0.0034511199 0.0043330914 0.005327242 0.006454593 0.007739699 0.009213239
        0.010918271 0.012925215 0.015365798 0.018503817 0.022868596 0.02947832
        0.04015981 0.057903558 0.08704927 0.13288938 0.2002067 0.2909455
        0.40299422 0.53212583 0.6736566 0.81542283 0.9277394 0.99218243
        0.0013169298 0.00083464815 0.00034383257 0.00016402239 0.00069933286 0.001274679
        0.001903422 0.0025998126 0.0033792711 0.004258768 0.005257412 0.0063975644
        0.0077073644 0.009226868 0.011022794 0.013221899 0.016080363 0.020114021
        0.026314229 0.036450442 0.053386 0.08118283 0.124583125 0.18751158
        0.27116415 0.3738481 0.4936328 0.6296773 0.77538574 0.9030049
        0.9850619 0.0016860472 0.0012758631 0.00086002 0.0004321775 1.6591724e-05
        0.0004974735 0.0010223127 0.0016036727 0.0022550782 0.0029913553 0.00382917
        0.0047880798 0.0058929645 0.0071800016 0.008711056 0.010606244 0.013111449
        0.016724432 0.022401959 0.031844106 0.04777269 0.07396698 0.11465643
        0.1730326 0.2497147 0.34336606 0.45374534 0.58286345 0.72949773
        0.87124765 0.9731615 0.0020545353 0.0017268794 0.0013968416 0.0010604297
        0.0007103524 0.0003370212 6.966524e-05 0.0005203306 0.0010263211 0.0015999983
        0.0022552207 0.0030083181 0.0038804086 0.0049031544 0.0061326902 0.007681118
        0.009781653 0.0129097095 0.017980004 0.026611676 0.04137166 0.06575366
        0.10351181 0.15721366 0.22702771 0.3118827 0.41270193 0.53343153
        0.6775039 0.83100015 0.9542676 0.0024116726 0.0021711804 0.0019317142
        0.0016916833 0.0014454646 0.0011851493 0.0009024718 0.0005888487 0.00023522445
        0.00016817314 0.0006322513 0.0011699446 0.0017983972 0.002544461 0.0034580561
        0.0046423734 0.0063161803 0.008929063 0.013347389 0.021099681 0.03458771
        0.05702093 0.091717094 0.14071594 0.20382683 0.28013888 0.3712832
        0.4822938 0.61995846 0.7808378 0.92538065 0.0027471052 0.002595553
        0.0024483847 0.0023063812 0.002165558 0.0020197015 0.0018623971 0.0016871163
        0.0014871062 0.0012551951 0.0009834379 0.00066231017 0.00027867404 0.0001894285
        0.00078547734 0.0016031816 0.0028455306 0.0049334853 0.0086798975 0.015514897
        0.02766786 0.048068948 0.07963899 0.123975 0.18059732 0.24865788
        0.33012304 0.4304008 0.5580326 0.7195873 0.88247144 0.0030441107
        0.0029788092 0.0029209773 0.0028736175 0.0028342688 0.0027983356 0.0027611672
        0.0027181888 0.002664832 0.002596389 0.0025077185 0.0023925288 0.0022414972
        0.0020373843 0.0017430688 0.0012745127 0.00044532894 0.0011347475 0.0042210147
        0.010139206 0.020941552 0.039286114 0.06773459 0.10751565 0.15791726
        0.21807529 0.29000247 0.37891558 0.4935665 0.6479402 0.8221657
        0.0032895904 0.0033025297 0.003325527 0.0033635409 0.0034154255 0.0034780225
        0.0035482445 0.003623244 0.0037003774 0.0037771058 0.0038507544 0.0039178818
        0.003972554 0.004001803 0.00397445 0.0038158852 0.0033565334 0.0022379225
        0.0002352734 0.0052810386 0.014773501 0.031109678 0.056530207 0.09196248
        0.1365117 0.18924166 0.25200242 0.3294105 0.4291696 0.5687139
        0.74325734 0.0034710485 0.0035509951 0.0036429865 0.0037536053 0.0038827634
        0.0040285056 0.0041890503 0.0043629864 0.0045492696 0.004747158 0.0049560224
        0.0051747956 0.0054004034 0.0056235706 0.0058184834 0.0059194895 0.005773647
        0.005054687 0.0031284255 0.0011140999 0.009370817 0.023791099 0.046331283
        0.07767777 0.11680014 0.16266216 0.21682455 0.2830615 0.3672037
        0.4861609 0.6480136 0.0035786587 0.0037132222 0.0038612084 0.00403047
        0.004221711 0.0044339336 0.004666394 0.004918817 0.00519142 0.0054848795
        0.0058001843 0.006138159 0.0064980458 0.006873675 0.0072439876 0.007551724
        0.007660186 0.0072752256 0.0058239913 0.0023061442 0.0048041223 0.017423285
        0.037257954 0.06480718 0.098950244 0.13854712 0.18481061 0.24057592
        0.30940983 0.40473625 0.5421698 0.0036045117 0.0037822935 0.0039743334
        0.004189414 0.004428795 0.0046922164 0.004979732 0.005291939 0.005630021
        0.00599574 0.0063913306 0.0068190866 0.0072801 0.0077707903 0.008274311
        0.008741272 0.009050765 0.008940426 0.007898315 0.005031272 0.0010196177
        0.011952627 0.029255677 0.05328701 0.0828784 0.116799615 0.1559066
        0.20210469 0.25664878 0.3279189 0.43330064 0.003542673 0.0037546384
        0.0039812424 0.004231887 0.004508196 0.0048104743 0.0051393867 0.0054961937
        0.005882812 0.0063018315 0.0067564356 0.0072500617 0.0077852816 0.0083607
        0.008963254 0.009550981 0.010018338 0.010134278 0.009446986 0.007168442
        0.00210097 0.007249216 0.022178197 0.042942733 0.06836607 0.09715203
        0.1298213 0.16742216 0.20906886 0.2577498 0.3284877 0.0033887578
        0.0036288626 0.0038836051 0.004162716 0.00446805 0.0048003537 0.0051607704
        0.0055510765 0.0059737572 0.006432041 0.006929853 0.007471534 0.008060871
        0.008698357 0.009374395 0.010054103 0.010646921 0.010952588 0.010578421
        0.008839183 0.0046928064 0.0031622858 0.015852863 0.033566654 0.05515303
        0.07927934 0.106169134 0.13611737 0.16638187 0.19499847 0.23270899
        0.0031386225 0.003403812 0.003683292 0.003986836 0.0043164445 0.004673235
        0.0050587463 0.005475176 0.0059254714 0.006413375 0.006943412 0.0075206663
        0.0081499545 0.008833455 0.009564798 0.010315923 0.011010901 0.011479697
        0.011387628 0.010149764 0.006874278 0.00044112903 0.010125593 0.0249709
        0.043000642 0.062877566 0.084574066 0.107745975 0.1281213 0.13962175
        0.14851491 0.0027893481 0.0030793012 0.003382843 0.0037094809 0.004061331
        0.0044398517 0.0048469375 0.0052851597 0.0057578646 0.006269236 0.006824311
        0.0074288105 0.00808846 0.008806977 0.009581054 0.010389219 0.011169831
        0.011782443 0.011949067 0.011182399 0.008735586 0.0036606693 0.0048825326
        0.017017402 0.031732395 0.04771751 0.064742245 0.08193564 0.09382095
        0.09115993 0.07648809 0.002331479 0.002648564 0.0029781207 0.0033290102
        0.0037034878 0.004103365 0.0045308955 0.0049890163 0.0054814504 0.0060127913
        0.0065885386 0.007214992 0.007898706 0.008644844 0.009453028 0.010308192
        0.011162655 0.011904915 0.012312359 0.011992715 0.010339375 0.0065686014
        3.588237e-05 0.009592435 0.021195294 0.033594687 0.046407927 0.058345426
        0.06303333 0.049008194 0.016083406 0.0017685704 0.0021167677 0.0024758251
        0.0028535193 0.0032523146 0.0036744247 0.004122498 0.004599852 0.0051105935
        0.0056597125 0.0062531484 0.0068977377 0.007600809 0.008368884 0.0092043895
        0.010098438 0.011016863 0.011876192 0.012507361 0.012609726 0.01171125
        0.009184139 0.004425376 0.0026914964 0.011384883 0.020493938 0.029529136
        0.036876075 0.035529535 0.012606278 0.03393561 0.0010548506 0.0014440949
        0.001841758 0.0022537631 0.0026829948 0.0031322318 0.003604646 0.0041040406
        0.004634982 0.0052029146 0.0058142543 0.0064763934 0.007197434 0.007985236
        0.008844968 0.009773786 0.010750743 0.011719755 0.012564023 0.013072197
        0.0129031185 0.011579869 0.008606332 0.0038385012 0.0020849933 0.008128107
        0.013750222 0.017108567 0.010810906 0.018736666 0.07476294 0.00025031486
        0.0006896474 0.0011343273 0.0015878854 0.0020538436 0.0025357117 0.0030373237
        0.0035630825 0.0041181133 0.0047083977 0.0053408993 0.006023628 0.0067655146
        0.0075758034 0.008462445 0.00942867 0.01046674 0.011547889 0.01260738
        0.013522797 0.014083381 0.013962557 0.012769752 0.010337815 0.0071458835
        0.004073952 0.0016733544 0.001956216 0.012542005 0.047222868 0.109574735
        0.0004631421 1.9993715e-05 0.00050599995 0.0009966145 0.0014958514 0.0020078244
        0.0025369318 0.003088106 0.0036669793 0.004280038 0.004934779 0.0056398283
        0.0064049596 0.0072408402 0.00815828 0.009166721 0.010271927 0.011473002
        0.0127583295 0.014096336 0.015409798 0.016526679 0.017165132 0.01713188
        0.01673258 0.016671577 0.01750158 0.021396218 0.036115713 0.07529795
        0.14197642 0.0010301379 0.0005142308 2.9077878e-06 0.0005219515 0.0010472062
        0.001583209 0.0021347764 0.0027072497 0.0033066722 0.0039399606 0.004615084
        0.005341246 0.0061290427 0.0069905785 0.007939595 0.008991965 0.010167452
        0.011494124 0.013015678 0.014795401 0.01689615 0.019309156 0.021868678
        0.024353418 0.026878461 0.029950233 0.034117073 0.04171368 0.060559202
        0.10383951 0.17365901 0.0014858833 0.0009443344 0.00040263662 0.00013923104
        0.00068577024 0.0012418457 0.0018126119 0.0024037557 0.0030216796 0.0036736904
        0.0043682023 0.0051149805 0.0059254467 0.006813172 0.007794936 0.008893304
        0.010142649 0.011601343 0.013371105 0.015615182 0.018545082 0.022327367
        0.026923917 0.032086022 0.037717905 0.044094704 0.05173647 0.06311562
        0.08600638 0.13282607 0.20454423 0.001830408 0.0012684526 0.0007070059
        0.00014637293 0.000418096 0.0009915372 0.0015793979 0.0021876728 0.0028230974
        0.0034933488 0.004207277 0.0049752076 0.0058094016 0.006724943 0.0077417535
        0.008889338 0.010217255 0.01181542 0.013846143 0.016577575 0.020378618
        0.025604295 0.03235818 0.04036787 0.04930723 0.05918304 0.07045536
        0.085698895 0.11252568 0.16230801 0.23469701 0.0020745615 0.0014957802
        0.000917839 0.0003411411 0.00023909488 0.00082824676 0.0014320293 0.0020567272
        0.0027093964 0.0033980783 0.004132058 0.0049222303 0.0057817157 0.006727157
        0.0077817244 0.008982109 0.010393613 0.012138934 0.014443581 0.017685823
        0.022401571 0.02914971 0.038193658 0.04924523 0.061728053 0.07533493
        0.0904188 0.109602556 0.14020662 0.19231965 0.26422757 0.0022264817
        0.0016330582 0.0010405469 0.0004492776 0.00014566761 0.00074989494 0.0013693775
        0.002010685 0.002681193 0.0033893106 0.0041447678 0.0049590426 0.005846143
        0.006824317 0.007920086 0.009177554 0.010678289 0.012578931 0.015170708
        0.018947247 0.024621693 0.032974344 0.044451207 0.058761727 0.07506013
        0.09267035 0.11177354 0.13496703 0.1691429 0.22293103 0.29330412
        0.0022949325 0.001688035 0.0010819054 0.00047666425 0.00013275951 0.0007521975
        0.0013878805 0.002046666 0.0027362553 0.003465435 0.004244393 0.0050852103
        0.0060028085 0.0070170886 0.008158013 0.009477301 0.01107324 0.013137471
        0.016029304 0.020362906 0.027039463 0.03708063 0.051143274 0.068955064
        0.08938323 0.111316346 0.13467674 0.1619398 0.19943139 0.25422248
        0.32213134 0.0022882852 0.0016683526 0.0010488562 0.0004295889 0.00019469665
        0.00083006074 0.0014829967 0.0021606574 0.0028710803 0.003623443 0.0044284076
        0.0052986788 0.006250119 0.007304323 0.00849477 0.0098809535 0.011578263
        0.013814219 0.017018333 0.02193028 0.029650472 0.04146433 0.058274306
        0.079856135 0.10477556 0.13140559 0.15929498 0.19067584 0.23117602
        0.28629377 0.3509413 0.0022145761 0.0015815971 0.00094855414 0.0003148043
        0.00032510338 0.0009774643 0.0016490421 0.0023472954 0.0030806102 0.0038585712
        0.0046923324 0.005595241 0.006584126 0.00768231 0.008926842 0.0103851035
        0.0121898465 0.014605149 0.018132467 0.023641545 0.032443367 0.04611198
        0.06583753 0.091485456 0.12131085 0.15307488 0.18580374 0.2213368
        0.2644865 0.31925467 0.37996852 0.0020813507 0.0014350946 0.0007881227
        0.00013925118 0.0005172024 0.0011877762 0.0018795134 0.0026001898 0.0033585536
        0.004164611 0.0050300257 0.0059688077 0.006998772 0.00814499 0.00944811
        0.010983452 0.012901259 0.01550256 0.019362023 0.025483385 0.035399374
        0.05099981 0.07381298 0.10385041 0.13905595 0.17646416 0.21438745
        0.2540913 0.29947755 0.35321537 0.40942195 0.0018955983 0.0012358128
        0.0005745243 9.0094974e-05 0.0007639849 0.0014539338 0.0021672728 0.0029121053
        0.003697554 0.0045340615 0.0054338155 0.006411504 0.0074859406 0.008683956
        0.010049796 0.011666692 0.013702346 0.016494798 0.020692576 0.027436445
        0.038491454 0.05609229 0.082164936 0.116941825 0.15806782 0.20171545
        0.24523969 0.28911433 0.33626446 0.38826892 0.43944827 0.0016637165
        0.0009902957 0.0003144674 0.00036633963 0.0010583447 0.001768591 0.0025047036
        0.003275121 0.0040893503 0.004958279 0.0058946298 0.006913778 0.008035541
        0.009288495 0.010720446 0.0124224285 0.014579381 0.017566016 0.022104627
        0.029474871 0.041683596 0.061340824 0.09083956 0.13073044 0.17839074
        0.22897263 0.27856436 0.32658634 0.37495446 0.4244671 0.47009027
        0.001391521 0.0007046567 1.4384453e-05 0.00068270374 0.0013931217 0.0021241675
        0.0028837614 0.0036806783 0.0045248126 0.0054275002 0.0064020013 0.0074643753
        0.008635433 0.00994547 0.011445756 0.013234931 0.015514729 0.018695751
        0.023573086 0.031565677 0.044929937 0.06668228 0.09976214 0.14516307
        0.20005359 0.25838235 0.3145782 0.36669087 0.41563225 0.4617893
        0.5012427 0.0010842996 0.00038463107 0.00031951652 0.0010324705 0.0017610447
        0.002512785 0.0032958982 0.0041194903 0.0049938345 0.005930708 0.0069438955
        0.008050126 0.009271174 0.010638984 0.012208158 0.014084622 0.016486235
        0.019858196 0.025066417 0.033667766 0.048173618 0.072037295 0.108834155
        0.16015856 0.22306795 0.29009768 0.35351557 0.40961036 0.45833832
        0.5001075 0.53261065 0.00074691547 3.569225e-05 0.00068112 0.0014088365
        0.0021545633 0.0029260747 0.0037318459 0.0045812926 0.0054850453 0.0064552967
        0.0075063277 0.008655496 0.009925479 0.011349776 0.012986108 0.0149472505
        0.017466253 0.021021081 0.026545394 0.03573056 0.051345207 0.07730819
        0.117929935 0.17560339 0.24742776 0.32428607 0.39563617 0.45551807
        0.5030391 0.53914887 0.5636749 0.00038396489 0.00033676467 0.0010641936
        0.0018046737 0.0025655776 0.003354875 0.004181272 0.005054456 0.0059853722
        0.0069865803 0.0080728 0.009261948 0.01057751 0.012054382 0.013753126
        0.015792787 0.018420393 0.022144262 0.02796153 0.037692316 0.05436093
        0.08237684 0.12689325 0.19134791 0.27311245 0.3611453 0.44123712
        0.5045639 0.54958844 0.5784598 0.59366614 0 0.00072957046
        0.0014669768 0.0022196686 0.0029952792 0.003801963 0.00464865 0.0055452874
        0.0065031247 0.0075350762 0.008656287 0.009885211 0.011246111 0.012775229
        0.014535862 0.016653093 0.01938746 0.023276702 0.029379923 0.039644446
        0.05735232 0.08742213 0.13591288 0.20742029 0.29958257 0.39900783
        0.48728728 0.5528692 0.5942061 0.6150114 0.62019664
      </DataArray>
      <DataArray type="Float32" Name="aspect_ratio" format="ascii" RangeMin="1.1977912187576294" RangeMax="19.146516799926758">
        18.598436 18.506102 18.37189 18.151247 17.84821 17.46827
        17.01819 16.505754 15.939471 15.328291 14.681326 14.007592
        13.315787 12.614119 11.910183 11.210924 10.522664 9.851191
        9.201862 8.579536 7.987902 7.427232 6.888645 6.3428593
        5.7300467 4.9908013 4.171657 3.4551327 3.0198936 2.9550784
        3.2746298 18.59798 18.465944 18.29234 18.033224 17.693214
        17.278337 16.795824 16.253838 15.661183 15.0270195 14.360574
        13.670891 12.966618 12.255835 11.545942 10.84361 10.154782
        9.484737 8.838126 8.218842 7.629321 7.0684686 6.5268383
        5.9787474 5.3795204 4.6961904 3.9784958 3.3651867 2.9883523
        2.9206104 3.2333803 18.597528 18.428226 18.217758 17.922745
        17.54835 17.10109 16.588615 16.01944 15.402629 14.7475195
        14.06343 13.359417 12.644066 11.925325 11.210399 10.505685
        9.816768 9.148434 8.5046625 7.888446 7.301107 6.7404537
        6.19693 5.648619 5.0635962 4.428001 3.790788 3.2560112
        2.921355 2.852143 3.1521647 18.597088 18.395697 18.15339
        17.827269 17.422966 16.94743 16.40869 15.815568 15.177374
        14.503607 13.803682 13.086681 12.361149 11.6349325 10.915073
        10.20774 9.5182 8.850801 8.2089205 7.5947485 7.008665
        6.4476957 5.90264 5.3554525 4.784616 4.1889267 3.6135478
        3.1372168 2.8356366 2.7673304 3.024092 18.596664 18.369246
        18.101032 17.749512 17.320704 16.821915 16.261486 15.648502
        14.992477 14.3030615 13.589757 12.861676 12.127342 11.394527
        10.670146 9.960179 9.269625 8.602446 7.9614773 7.3482037
        6.7622094 6.1999893 5.653025 5.107028 4.548777 3.9850602
        3.455597 3.0194855 2.7383318 2.6679928 2.8572648 18.596272
        18.349747 18.062458 17.692163 17.245169 16.72905 16.152384
        15.524458 14.854948 14.15362 13.430051 12.693386 11.952139
        11.214032 10.485889 9.773542 9.081766 8.414191 7.7731695
        7.1595516 6.5722404 6.007385 5.457339 4.911309 4.362576
        3.8226972 3.3253624 2.9136374 2.6386917 2.5584435 2.6668696
        18.595917 18.337608 18.03849 17.656479 17.198061 16.670982
        16.083982 15.446475 14.7682495 14.059154 13.328819 12.586421
        11.840471 11.098668 10.36777 9.653505 8.960467 8.291998
        7.6500187 7.034798 6.4446373 5.875453 5.32056 4.7723417
        4.229155 3.7052352 3.2283869 2.8282135 2.5461137 2.445029
        2.4695718 18.595613 18.333328 18.030138 17.643978 17.181417
        16.650267 16.059332 15.418093 14.736383 14.024097 13.290897
        12.545979 11.797863 11.054239 10.321837 9.606314 8.912123
        8.242363 7.598557 6.9804287 6.3857126 5.810144 5.248001
        4.6945214 4.1520953 3.6364264 3.1700418 2.771209 2.4708195
        2.3355696 2.283115 18.595367 18.335773 18.035126 17.651297
        17.19082 16.6615 16.072132 15.432185 14.751504 14.039984
        13.3073015 12.562663 11.814605 11.070825 10.338046 9.621885
        8.926694 8.255356 7.609027 6.9869037 6.3861766 5.802421
        5.230858 4.6693163 4.1235046 3.6099596 3.146693 2.7425117
        2.4170024 2.236961 2.1148653 18.595186 18.34314 18.049868
        17.67309 17.219254 16.696077 16.112293 15.4773245 14.800976
        14.093127 13.363449 12.621155 11.874799 11.132098 10.399788
        9.683467 8.98741 8.314308 7.6649723 7.0380898 6.4303184
        5.837095 5.2545624 4.6829505 4.130823 3.615267 3.150564
        2.7378001 2.3851292 2.1532228 1.9585732 18.59507 18.356813
        18.077122 17.713474 17.27213 16.760649 16.187626 15.562374
        14.894617 14.19418 13.470707 12.733414 11.990873 11.250837
        10.520074 9.8041935 9.107421 8.432285 7.7792645 7.1465354
        6.5302076 5.9255447 5.329553 4.7447133 4.1822205 3.6597667
        3.188734 2.7640429 2.383255 2.0949404 1.8284055 18.59502
        18.377426 18.118155 17.774328 17.35193 16.858267 16.301714
        15.691407 15.036934 14.348029 13.634289 12.904918 12.168513
        11.432878 10.704836 9.990041 9.292696 8.615196 7.9576964
        7.3178535 6.691187 6.0727243 5.4602566 4.8584194 4.280999
        3.7465668 3.2644143 2.8246047 2.415583 2.0710752 1.7385886
        18.59503 18.403992 18.170984 17.852695 17.454739 16.984089
        16.448833 15.857877 15.220626 14.546691 13.845602 13.126549
        12.398159 11.668297 10.9438715 10.230602 9.532704 8.852459
        8.189713 7.5415897 6.902989 6.2686453 5.6370716 5.015014
        4.4189043 3.8685267 3.371798 2.9150143 2.4791791 2.0826042
        1.6888392 18.595095 18.435734 18.234053 17.946224 17.577417
        17.134209 16.624344 16.05644 15.439693 14.783566 14.097508
        13.390693 12.671785 11.948732 11.228544 10.517037 9.818468
        9.135026 8.466266 7.8087792 7.1568146 6.5047708 5.851832
        5.206835 4.588951 4.0195265 3.5057182 3.0309489 2.5703986
        2.1284466 1.6800616 18.595203 18.471571 18.305176 18.051619
        17.715565 17.303148 16.821724 16.2796 15.685727 15.049412
        14.38002 13.686712 12.978204 12.262541 11.54686 10.8371
        10.137584 9.4504385 8.774948 8.10718 7.4407234 6.769615
        6.093671 5.423798 4.7819967 4.191468 3.659111 3.1662073
        2.6835613 2.2041628 1.7095072 18.595346 18.51058 18.382484
        18.166048 17.865396 17.486181 17.035347 16.520863 15.951438
        15.336212 14.684472 14.005379 13.307711 12.599633 11.888433
        11.180198 10.479342 9.787962 9.105092 8.426298 7.744523
        7.053424 6.3534126 5.6574345 4.990371 4.377514 3.825906
        3.3152897 2.813349 2.3046525 1.7736079 18.59552 18.55193
        18.46429 18.286959 18.023497 17.67905 17.260141 16.774405
        16.230299 15.636806 15.003148 14.338496 13.651716 12.95111
        12.244138 11.537059 10.834407 10.138271 9.4474745 8.757109
        8.059491 7.347899 6.6232963 5.9006133 5.2076244 4.571879
        4.0008903 3.4733567 2.9549105 2.4246237 1.8674977 18.595713
        18.595186 18.549715 18.413006 18.18804 17.87946 17.49336
        17.037043 16.518723 15.947246 15.331778 14.681524 14.005454
        13.312031 12.608909 11.90254 11.197605 10.496217 9.797014
        9.094657 8.380866 7.648534 6.899132 6.149495 5.430273
        4.7714024 4.1811385 3.6375594 3.1051307 2.5600228 1.9864986
        18.595926 18.640007 18.638048 18.543106 18.357578 18.085604
        17.732855 17.306309 16.813963 16.26453 15.6671505 15.031077
        14.365408 13.678784 12.979078 12.272958 11.56527 10.85818
        10.150181 9.435537 8.705404 7.952292 7.178117 6.401522
        5.655986 4.973932 4.3646016 3.8058145 3.261595 2.7073188
        2.1258044 18.596155 18.687586 18.731615 18.68063 18.536432
        18.302654 17.98455 17.588785 17.123142 16.596237 16.01719
        15.395342 14.739935 14.059824 13.363121 12.656739 11.9457245
        11.232326 10.514928 9.787437 9.040469 8.266137 7.466734
        6.6626177 5.890076 5.18416 4.555361 3.9815655 3.4269164
        2.8675632 2.2845325 18.5964 18.736462 18.827532 18.821346
        18.719122 18.523989 18.240803 17.875935 17.436977 16.932459
        16.37152 15.763588 15.118086 14.444092 13.74998 13.042925
        12.328191 11.608138 10.881075 10.140592 9.376792 8.581382
        7.7569494 6.9254427 6.1258826 5.3960257 4.7478347 4.1595597
        3.5959077 3.0348847 2.455718 18.596659 18.794819 18.94171
        18.988342 18.935293 18.785154 18.542362 18.21299 17.804457
        17.325235 16.784521 16.191898 15.557017 14.889254 14.1973095
        13.488692 12.768953 12.040623 11.301983 10.546335 9.763265
        8.944021 8.091412 7.2289557 6.3985667 5.641067 4.9703097
        4.365196 3.7912338 3.2288864 2.6554704 18.596937 18.849974
        19.049515 19.145905 19.139128 19.03128 18.826414 18.530329
        18.150295 17.694738 17.172913 16.594553 15.969537 15.307516
        14.617511 13.907346 13.182849 12.446724 11.697249 10.927473
        10.126504 9.285126 8.406263 7.5147986 6.655326 5.871671
        5.1797237 4.5592957 3.9769857 3.416197 2.85291 18.597237
        18.85027 19.049911 19.146517 19.14006 19.032627 18.828255
        18.53273 18.153307 17.698397 17.177235 16.599546 15.975192
        15.313814 14.624417 13.914811 13.190798 12.45504 11.705743
        10.935831 10.134232 9.291521 8.410557 7.516539 6.654834
        5.8701534 5.1791244 4.562507 3.988794 3.4449832 2.9071066
        18.597563 18.796751 18.944933 18.99313 18.941885 18.793747
        18.553108 18.22599 17.819769 17.34287 16.804445 16.21404
        15.581276 14.91549 14.225356 13.518336 12.799913 12.07249
        11.334127 10.577746 9.792373 8.968625 8.109102 7.2382984
        6.4004707 5.6391153 4.9702954 4.375788 3.826789 3.3140903
        2.8142874 18.597912 18.738653 18.830812 18.826166 18.725895
        18.533073 18.252504 17.890493 17.454569 16.953192 16.395437
        15.790677 15.148273 14.477253 13.785931 13.081403 12.368811
        11.650294 10.923779 10.182215 9.4147625 8.612076 7.7763886
        6.931254 6.119539 5.3833375 4.738188 4.167177 3.6444457
        3.164041 2.7028697 18.59828 18.688446 18.7318 18.680824
        18.5373 18.304815 17.988577 17.595182 17.13234 16.608582
        16.032951 15.414697 14.762986 14.086586 13.393518 12.690572
        11.982601 11.271529 10.5551815 9.82655 9.0749035 8.29087
        7.476223 6.653525 5.8643603 5.149702 4.52492 3.9747045
        3.4761472 3.0258675 2.6007504 18.598665 18.640642 18.637276
        18.541744 18.356436 18.085457 17.734434 17.310274 16.820894
        16.274918 15.681382 15.049449 14.388111 13.705908 13.0105915
        12.308667 11.604729 10.900505 10.1937475 9.4775095 8.741177
        7.9753065 7.181105 6.3800054 5.612249 4.917797 4.312092
        3.781665 3.3065236 2.8851304 2.4939804 18.599068 18.59709
        18.550905 18.414347 18.190384 17.883621 17.500101 17.047043
        16.532581 15.965455 15.354725 14.709486 14.038598 13.350408
        12.652432 11.9509325 11.250276 10.552032 9.8539095 9.14904
        8.426926 7.678 6.9027925 6.1214848 5.372978 4.6964264
        4.1076636 3.595282 3.1420639 2.7475371 2.3875537 18.599482
        18.557333 18.471846 18.297472 18.037727 17.697697 17.283823
        16.80364 16.2655 15.678274 15.0510645 14.39293 13.712623
        13.018327 12.317361 11.615773 10.917738 10.224702 9.534357
        8.839939 8.1310625 7.3979955 6.640468 5.877269 5.1459374
        4.485036 3.9111288 3.4150639 2.982188 2.6123238 2.2804766
        18.599909 18.52144 18.400282 18.191454 17.898981 17.528399
        17.086529 16.581207 16.021008 15.414938 14.772157 14.101708
        13.412261 12.71187 12.007684 11.3055725 10.609553 9.92098
        9.237564 8.55267 7.8560266 7.137688 6.396464 5.649583
        4.9331903 4.285497 3.724174 3.2425144 2.828163 2.4805107
        2.1736336 18.600351 18.489265 18.33596 18.095982 17.773813
        17.375406 16.90794 16.379538 15.798983 15.175424 14.518087
        13.836017 13.137823 12.431452 11.723917 11.020938 10.326409
        9.641627 8.9643545 8.288113 7.602757 6.8980827 6.171846
        5.439523 4.7357955 4.0987697 3.5476465 3.078355 2.6805425
        2.3525298 2.0674982 18.600805 18.460632 18.278576 18.01065
        17.661762 17.23824 16.747583 16.198189 15.599039 14.95942
        14.2886305 13.595726 12.889276 12.177142 11.466227 10.76213
        10.068655 9.387075 8.715238 8.046856 7.3719254 6.6799498
        5.9674935 5.248047 4.5547047 3.9257152 3.3822803 2.9231832
        2.5397756 2.2287934 1.9626789 18.601273 18.435316 18.227713
        17.93489 17.562136 17.116114 16.604624 16.0363 15.42032
        14.766097 14.083004 13.3801155 12.665975 11.9483795 11.234141
        10.5287695 9.836003 9.157126 8.490111 7.8288956 7.163644
        6.4835453 5.783832 5.0757284 4.3905406 3.7668805 3.2284853
        2.777265 2.406013 2.1095083 1.8597119 18.601753 18.413067
        18.182894 17.868034 17.474104 17.008074 16.478004 15.892755
        15.261671 14.59429 13.900056 13.188069 12.466856 11.744164
        11.026736 10.320013 9.6277 8.951123 8.288415 7.633784
        6.977599 6.3087316 5.6209435 4.922859 4.2436833 3.6225646
        3.0863876 2.6405594 2.2791252 1.9946858 1.7590326 18.602247
        18.393623 18.143623 17.80937 17.396772 16.913067 16.36655
        15.766277 15.121751 14.442619 13.738394 13.018202 12.290563
        11.563187 10.842761 10.134683 9.442646 8.768053 8.109236
        7.460721 6.813135 6.155049 5.47863 4.789507 4.1143227
        3.4928493 2.9558299 2.5126967 2.1586761 1.8841045 1.660894
        18.60275 18.37674 18.10942 17.758207 17.32926 16.83005
        16.269077 15.655576 14.999183 14.309648 13.596546 12.869033
        12.135623 11.403999 10.680814 9.971433 9.279565 8.606718
        7.9514656 7.308706 6.6693926 6.021843 5.3565264 4.6756225
        4.0025554 3.3776627 2.8363898 2.3929687 2.043908 1.7772851
        1.565284 18.603268 18.362198 18.07987 17.713942 17.27079
        16.75809 16.184525 15.559476 14.892705 14.19405 13.473144
        12.739168 12.00064 11.265222 10.53954 9.828949 9.137197
        8.465921 7.813981 7.176708 6.545468 5.9084096 5.254239
        4.581173 3.9085042 3.2768564 2.7273917 2.2803001 1.9337105
        1.6734564 1.4718331 18.603794 18.349844 18.054665 17.67612
        17.220778 16.696487 16.112083 15.477081 14.801348 14.094799
        13.36712 12.627517 11.88451 11.145752 10.417854 9.706173
        9.014514 8.34468 7.6958547 7.063869 6.440606 5.8141747
        5.171509 4.506302 3.8324697 3.1902897 2.6278934 2.173185
        1.8265649 1.5715158 1.3797176 18.60433 18.339602 18.033659
        17.644531 17.178947 16.644901 16.051361 15.407949 14.724627
        14.011376 13.277928 12.533514 11.78666 11.045015 10.315184
        9.602543 8.9109745 8.242475 7.596592 6.9697328 6.354419
        5.738899 5.108408 4.4515247 3.7751086 3.1179092 2.5366135
        2.0695515 1.7204499 1.4699842 1.2875711 18.60487 18.33042
        18.014763 17.616089 17.141264 16.598417 15.9966345 15.345642
        14.6554785 13.936191 13.197551 12.4488125 11.698508 10.954285
        10.222746 9.509294 8.817896 8.150755 7.5078197 6.886126
        6.2789655 5.6749887 5.0581164 4.411928 3.73537 3.0643282
        2.4636307 1.9819995 1.6265477 1.3761061 1.1977912
      </DataArray>
      <DataArray type="Float32" Name="jacobian" format="ascii" RangeMin="-4.239947156747803e-05" RangeMax="0.011973596177995205">
        0.0118886875 0.011826912 0.01173273 0.011577846 0.011365556 0.01110022
        0.010787069 0.010432002 0.010041369 0.009621751 0.009179758 0.0087218415
        0.008254132 0.007782304 0.0073114582 0.006846024 0.006389658 0.005945133
        0.0055142273 0.005097623 0.0046948805 0.0043045785 0.0039246925 0.0035528853
        0.0031842918 0.0028001966 0.002349306 0.0017659394 0.0010631116 0.00039432631
        -4.239947e-05 0.011888395 0.011852033 0.011783132 0.011652965 0.011464415
        0.011221469 0.010929035 0.010592743 0.010218737 0.009813458 0.009383437
        0.008935108 0.008474631 0.0080077555 0.007539677 0.0070749177 0.00661718
        0.0061691743 0.0057324246 0.005307075 0.0048918067 0.004483987 0.0040802164
        0.0036770948 0.0032705138 0.0028487884 0.0023809017 0.0018272026 0.0011881101
        0.0005445558 2.5497842e-05 0.011888106 0.011875696 0.011830751 0.011724136
        0.011558343 0.011336996 0.011064683 0.010746767 0.010389178 0.009998205
        0.009580285 0.009141812 0.008688958 0.00822752 0.0077627674 0.0072992872
        0.006840797 0.006389905 0.0059478194 0.005514074 0.005086384 0.0046608765
        0.004232955 0.003798785 0.0033561552 0.002900976 0.0024195008 0.0018919529
        0.0013089863 0.00069122337 8.624908e-05 0.011887823 0.011896109 0.011872087
        0.011786273 0.011640812 0.011439004 0.0111851385 0.010884318 0.010542259
        0.010165084 0.009759113 0.009330671 0.008885906 0.008430622 0.007970118
        0.007509001 0.0070509547 0.006598425 0.0061522387 0.0057112286 0.0052720606
        0.0048296126 0.0043783044 0.0039145066 0.00343888 0.002954828 0.0024617405
        0.0019538929 0.001420787 0.00084329257 0.00016839213 0.011887552 0.0119126765
        0.011905835 0.01183727 0.011708846 0.011523588 0.011285531 0.010999551
        0.01067117 0.010306351 0.009911292 0.009492237 0.009055287 0.008606225
        0.008150347 0.0076922397 0.0072355107 0.006782398 0.0063332934 0.0058862744
        0.0054369248 0.004978927 0.00450599 0.0040152967 0.0035110782 0.0030038718
        0.0025028328 0.0020112142 0.0015217738 0.0009957191 0.00028013103 0.011887298
        0.011924806 0.011930703 0.01187504 0.011759474 0.011586826 0.01136094
        0.0110865105 0.010768905 0.010413955 0.010027754 0.009616467 0.009186141
        0.008742528 0.008290893 0.007835782 0.0073806965 0.00692764 0.00647655
        0.0060247467 0.005566779 0.005095287 0.00460361 0.0040902677 0.0035634325
        0.0030400762 0.0025363236 0.0020603205 0.0016092173 0.0011413462 0.0004250296
        0.011887066 0.011932221 0.011946048 0.011898492 0.011791084 0.011626514
        0.0114085 0.011141622 0.010831142 0.010482797 0.010102609 0.009696679
        0.009271011 0.0088313185 0.008382834 0.007930044 0.007476336 0.0070234765
        0.0065709683 0.0061154393 0.005650538 0.0051681115 0.0046615126 0.004130991
        0.0035886553 0.003056871 0.0025563908 0.0020972837 0.0016802244 0.0012719384
        0.00059844146 0.011886865 0.0119345905 0.011951143 0.011906445 0.01180198
        0.011640391 0.011425345 0.011161375 0.010853693 0.010507997 0.010130271
        0.009726586 0.009302914 0.008864944 0.008417871 0.007966127 0.0075129843
        0.007059998 0.0066062957 0.00614794 0.0056779017 0.0051875715 0.0046707066
        0.0041295066 0.0035796384 0.003047544 0.002556627 0.002116933 0.0017310109
        0.0013791549 0.0007830993 0.0118867 0.011932662 0.011947477 0.01190112
        0.011795093 0.011632059 0.011415697 0.01115055 0.01084184 0.010495265
        0.010116805 0.0097125275 0.009288394 0.008850075 0.008402738 0.0079507595
        0.007497315 0.0070437794 0.006588988 0.006128587 0.0056551145 0.0051598325
        0.0046372004 0.004091378 0.0035409613 0.0030151098 0.0025383404 0.0021195796
        0.0017615765 0.0014590361 0.000960783 0.011886575 0.011927616 0.011937451
        0.011886149 0.011775289 0.011607597 0.0113868145 0.011117537 0.010805028
        0.010455021 0.010073519 0.009666603 0.009240235 0.008800079 0.008351276
        0.007898155 0.0074438076 0.006989468 0.0065337527 0.006072032 0.005596621
        0.0050988984 0.004574191 0.0040284568 0.0034825136 0.002967061 0.0025066594
        0.0021086235 0.0017744448 0.0015100105 0.0011168743 0.0118864905 0.011918564
        0.011919275 0.011858854 0.011739018 0.011562621 0.011333523 0.011056427
        0.010736683 0.0103801 0.009992735 0.009580702 0.009149981 0.0087062325
        0.008254578 0.007799303 0.0073434296 0.00688809 0.00643177 0.005969717
        0.005494251 0.0049971123 0.0044745975 0.003934196 0.0033981455 0.0028975618
        0.0024561952 0.0020795865 0.0017670919 0.0015300767 0.0012323455 0.011886448
        0.011905118 0.011892196 0.011818154 0.011684913 0.011495526 0.011254033
        0.010965297 0.01063481 0.010268488 0.009872471 0.009452927 0.009015865
        0.008566943 0.008111261 0.007653061 0.007195304 0.006739056 0.0062827547
        0.00582167 0.005348332 0.004855036 0.0043390715 0.0038090982 0.0032879694
        0.0028062332 0.0023861988 0.002031675 0.0017397075 0.0015221746 0.0012972499
        0.011886445 0.011887937 0.011857621 0.01176627 0.011616071 0.01141033
        0.01115332 0.010850106 0.0105063515 0.010128105 0.009721606 0.009293081
        0.008848565 0.008393709 0.007933577 0.007472357 0.0070129507 0.0065563773
        0.006101078 0.005642447 0.005173349 0.0046867183 0.004180752 0.003664896
        0.003161953 0.0027012196 0.0023032196 0.0019701933 0.0016970875 0.0014932688
        0.001316498 0.011886478 0.011867544 0.011816683 0.011705021 0.011535065
        0.011310417 0.011035616 0.010715957 0.010357291 0.009965813 0.009547857
        0.009109701 0.008657391 0.008196552 0.007732194 0.007268431 0.0068080914
        0.0063521513 0.005899086 0.005444466 0.0049815495 0.004503916 0.004010522
        0.003511239 0.003028331 0.0025894286 0.002213145 0.0019003775 0.0016443689
        0.001450782 0.0013016204 0.011886544 0.011844657 0.011770911 0.011636822
        0.01144525 0.01120012 0.010906253 0.010569182 0.010194944 0.009789867
        0.009360365 0.008912747 0.008453041 0.00798682 0.007519007 0.0070536197
        0.006593392 0.006139249 0.0056897053 0.0052405214 0.004785354 0.004318371
        0.0038391168 0.0033576 0.0028952349 0.0024778158 0.0021220914 0.0018278662
        0.0015871181 0.0014018413 0.0012666462 0.011886635 0.011819882 0.011721597
        0.011563711 0.011349453 0.011083074 0.010769677 0.0104150195 0.010025306
        0.009606969 0.0091664735 0.008710127 0.008243908 0.0077732974 0.007303103
        0.0068372143 0.0063782507 0.0059270705 0.005482218 0.005039639 0.0045933565
        0.004138047 0.0036736785 0.0032101837 0.002767965 0.002370974 0.0020342364
        0.0017567071 0.00152951 0.0013516011 0.0012226687 0.011886748 0.011793765
        0.011669893 0.011487482 0.011250128 0.010962396 0.010629646 0.010257833
        0.009853291 0.009422527 0.008972013 0.008508016 0.008036423 0.007562592
        0.0070911827 0.0066259303 0.0061693187 0.005722123 0.0052829054 0.004847774
        0.004411081 0.003967921 0.0035185504 0.0030726788 0.0026496416 0.0022716383
        0.0019521569 0.0016895203 0.0014743465 0.0013033489 0.0011770319 0.011886878
        0.011766586 0.01161641 0.011409106 0.011148612 0.010839782 0.010488198
        0.01009997 0.00968152 0.009239379 0.008779988 0.0083095245 0.007833751
        0.007357868 0.0068863584 0.0064227805 0.005969465 0.0055270907 0.0050942246
        0.004667117 0.0042404043 0.0038095245 0.0033749114 0.002945958 0.0025409358
        0.0021804236 0.0018765576 0.0016272068 0.0014227574 0.0012584043 0.0011332962
        0.011887024 0.011738576 0.011561637 0.011329341 0.011045934 0.010716513
        0.0103468355 0.009943116 0.009511818 0.009059444 0.008592358 0.00811661
        0.0076378034 0.0071609486 0.00669033 0.0062293117 0.0057800584 0.005343145
        0.0049171303 0.004498389 0.0040818052 0.0036630924 0.00324278 0.002829888
        0.002441661 0.0020971985 0.0018074559 0.0015699884 0.0013751573 0.0012172038
        0.0010929909 0.0118871825 0.011708992 0.011504187 0.011246238 0.010939655
        0.010589728 0.010202335 0.009783739 0.009340384 0.008878698 0.008404913
        0.007924914 0.0074441 0.006967264 0.0064984662 0.0060408576 0.0055964235
        0.005165623 0.004746999 0.004337035 0.0039308327 0.003524333 0.0031180948
        0.002720724 0.0023484686 0.00201906 0.0017423958 0.0015158141 0.0013297994
        0.0011780364 0.0010548354 0.011887352 0.01167877 0.011445898 0.011162471
        0.010833205 0.010463512 0.010059326 0.009626898 0.0091726 0.008702731
        0.008223353 0.007740145 0.00725828 0.006782312 0.0063160635 0.005862464
        0.0054233167 0.004998963 0.004587925 0.004186782 0.0037908286 0.0033961893
        0.003003407 0.0026206588 0.0022632566 0.0019476941 0.001682939 0.0014661902
        0.0012881603 0.0011422491 0.0010203206 0.011887533 0.011642847 0.011377237
        0.01106463 0.010709855 0.010318364 0.009896053 0.0094490675 0.008983613
        0.008505775 0.008021361 0.0075357705 0.0070538805 0.006579947 0.0061175036
        0.0056692176 0.005236675 0.0048200754 0.0044179037 0.0040268223 0.0036423027
        0.0032606279 0.0028822813 0.00251496 0.0021730114 0.0018716964 0.0016190661
        0.0014122018 0.0012421261 0.0011021589 0.0009820224 0.011887722 0.011609136
        0.011313197 0.010973911 0.010596126 0.010185249 0.009747071 0.009287579
        0.008812773 0.008328499 0.007840299 0.007353288 0.0068720547 0.00640057
        0.0059420965 0.00549906 0.00507285 0.0046635414 0.0042695883 0.003887732
        0.0035135993 0.0031436002 0.0027781406 0.0024244704 0.002096087 0.0018071918
        0.0015650608 0.0013667104 0.0012034986 0.001068786 0.0009504495 0.011887919
        0.011609329 0.011313326 0.0109739145 0.010595958 0.010184872 0.009746459
        0.009286718 0.008811657 0.008327132 0.007838691 0.007351456 0.006870022
        0.006398366 0.0059397584 0.0054966398 0.005070427 0.004661242 0.0042676157
        0.0038863928 0.003513312 0.0031448537 0.0027813974 0.002430053 0.0021040908
        0.001817448 0.0015772654 0.0013807346 0.0012195049 0.0010870053 0.000969226
        0.011888127 0.011642787 0.011376407 0.011062922 0.010707192 0.010314701
        0.009891375 0.009443388 0.00897697 0.008498227 0.008012989 0.007526667
        0.007044152 0.006569716 0.0061069136 0.0056584547 0.0052260077 0.004809922
        0.0044089262 0.0040200204 0.0036390407 0.003262506 0.0028908215 0.002531229
        0.0021973278 0.0019035153 0.0016574031 0.001456613 0.001293063 0.0011602022
        0.001041869 0.011888346 0.011679315 0.011445772 0.01116145 0.010831104
        0.010460191 0.01005469 0.009620896 0.00916522 0.008694002 0.008213341
        0.007728944 0.0072460137 0.006769137 0.006302183 0.0058481637 0.005409036
        0.004985417 0.0045762733 0.004178799 0.0037889576 0.0034033163 0.0030222987
        0.002653271 0.0023102027 0.002008063 0.0017550658 0.0015493518 0.0013831572
        0.0012499623 0.0011312562 0.011888574 0.011711149 0.01150672 0.011248734
        0.01094174 0.010591072 0.010202661 0.0097828265 0.009338072 0.00887488
        0.008399543 0.007917997 0.0074356953 0.006957491 0.006487526 0.0060290876
        0.005584405 0.005154361 0.004738179 0.0043332814 0.003935801 0.0035423797
        0.0031534336 0.0027763692 0.0024254192 0.0021160613 0.0018571127 0.0016472691
        0.0014791304 0.0013462291 0.0012276429 0.011888814 0.0117416615 0.011565556
        0.011333583 0.011050022 0.010720011 0.010349358 0.009944341 0.009511487
        0.00905737 0.008588423 0.008110767 0.0076300735 0.007151439 0.0066792616
        0.0062170965 0.005767447 0.0053314804 0.004908706 0.0044968193 0.004092171
        0.0036915087 0.0032952265 0.0029107016 0.0025523563 0.002236165 0.001971605
        0.0017580001 0.0015883675 0.0014562747 0.0013384203 0.011889065 0.011769663
        0.011619904 0.011412495 0.0111514 0.010841513 0.010488468 0.010098441
        0.009677924 0.009233524 0.00877176 0.00829889 0.007820758 0.007342665
        0.006869237 0.0064042746 0.0059505505 0.0055095204 0.0050810077 0.004663028
        0.0042522093 0.0038454488 0.0034431044 0.0030524337 0.0026879222 0.002365965
        0.0020967128 0.0018801757 0.0017098344 0.0015792638 0.0014628874 0.011889325
        0.0117954025 0.011670164 0.011485924 0.011246316 0.0109559605 0.010620282
        0.010245308 0.009837453 0.009403305 0.008949424 0.008482155 0.008007478
        0.007530858 0.0070571196 0.00659029 0.0061333985 0.005688199 0.0052548554
        0.0048317593 0.004415887 0.0040043434 0.003597449 0.0032022444 0.0028331222
        0.0025067849 0.002234045 0.0020156496 0.0018455805 0.0017173694 0.0016033795
        0.011889597 0.0118188085 0.011716104 0.011553422 0.011334065 0.011062367
        0.010743521 0.0103833815 0.009988248 0.009564653 0.009119152 0.008658142
        0.008187694 0.0077134045 0.007240264 0.0067725023 0.006313393 0.0058649927
        0.0054278383 0.0050007547 0.004581151 0.004166419 0.0037568584 0.0033591948
        0.0029875352 0.0026587143 0.0023841432 0.0021653303 0.0019967742 0.0018718935
        0.0017612817 0.01188988 0.011839945 0.01175778 0.011614964 0.011414486
        0.011160396 0.010857648 0.010511908 0.010129336 0.009716381 0.009279566
        0.0088253 0.008359713 0.007888499 0.007416784 0.0069489754 0.0064885803
        0.006037963 0.005598064 0.005168208 0.0047463346 0.004330226 0.003920208
        0.0035226033 0.0031510105 0.0028221514 0.002547902 0.002330509 0.002164967
        0.0020444838 0.001938234 0.011890172 0.0118589 0.011795294 0.011670609
        0.011487537 0.011249861 0.0109623 0.0106303245 0.010259947 0.00985751
        0.009429481 0.008982258 0.0085219955 0.008054459 0.0075848815 0.0071178274
        0.0066570234 0.0062051467 0.0057635745 0.005332204 0.0049096188 0.004494125
        0.0040861587 0.0036915834 0.0033232442 0.0029974245 0.002726229 0.0025125397
        0.0023517674 0.0022367674 0.0021356603 0.011890475 0.011875796 0.011828832
        0.011720549 0.011553369 0.011330825 0.011057414 0.010738415 0.010379687
        0.009987461 0.0095681315 0.009128062 0.0086734155 0.008210001 0.007743135
        0.00727752 0.0068170913 0.006364845 0.0059226314 0.005490996 0.0050692954
        0.0046565263 0.004253375 0.0038652392 0.0035039654 0.0031849814 0.002920244
        0.002713038 0.0025590106 0.0024504536 0.0023547553 0.011890786 0.011890777
        0.011858636 0.011765072 0.011612269 0.011403532 0.011143153 0.010836228
        0.010488469 0.010105991 0.009695104 0.0092621315 0.008813222 0.00835421
        0.0078904815 0.007426855 0.0069674696 0.006515646 0.0060737426 0.0056430358
        0.005223798 0.0048159203 0.004420548 0.0040426888 0.0036929704 0.003385455
        0.0031313777 0.0029339886 0.00278883 0.0026872978 0.0025962745 0.011891106
        0.0119039975 0.0118849715 0.011804519 0.011664612 0.011468353 0.011219845
        0.010924023 0.010586452 0.010213135 0.009810301 0.009384216 0.0089410115
        0.008486532 0.008026214 0.0075649857 0.0071071787 0.0066564493 0.0062156995
        0.0057870196 0.005371754 0.0049709296 0.004586445 0.004223111 0.0038901942
        0.0035997874 0.003361559 0.0031779588 0.00304381 0.002949098 0.0028602947
        0.011891434 0.011915604 0.0119081065 0.011839245 0.011710807 0.011525717
        0.011287913 0.0110021755 0.010673944 0.010309112 0.009913826 0.0094943
        0.009056633 0.008606676 0.008149905 0.0076913447 0.007235518 0.006786425
        0.0063475445 0.005921865 0.0055119675 0.0051202984 0.004749903 0.0044057546
        0.004095759 0.003829368 0.0036134627 0.0034483913 0.003327185 0.0032376514
        0.0031458682 0.011891768 0.011925723 0.011928277 0.011869569 0.01175123
        0.011576031 0.011347764 0.011071076 0.010751288 0.010394197 0.010005872
        0.00959247 0.009160062 0.008714494 0.008261278 0.007805529 0.0073519563
        0.00690491 0.0064684795 0.006046631 0.0056433524 0.0052628308 0.0049097696
        0.0045898957 0.0043099974 0.004076205 0.0038908664 0.0037500425 0.0036431185
        0.003554665 0.003450559 0.011892109 0.011934451 0.011945654 0.011895723
        0.0117861545 0.01161959 0.011399693 0.011130997 0.010818718 0.010468565
        0.010086537 0.009678739 0.009251214 0.008809798 0.008360034 0.007907121
        0.0074559557 0.0070112427 0.006577709 0.0061603705 0.0057647927 0.005397261
        0.005064783 0.0047747344 0.0045334455 0.004343152 0.004199192 0.0040896544
        0.003997073 0.0039015622 0.003769823 0.011892453 0.011941825 0.011960305
        0.01191779 0.011815669 0.01165647 0.011443754 0.011181952 0.010876195
        0.010532113 0.010155644 0.009752846 0.009329732 0.008892133 0.008445617
        0.007995464 0.007546751 0.0071045426 0.006674223 0.006261919 0.0058749383
        0.005522051 0.0052133664 0.004959213 0.0047667925 0.004634235 0.0045463773
        0.0044770325 0.004396314 0.0042790934 0.0040962216 0.011892799 0.011948524
        0.011973596 0.011937817 0.011842473 0.011689999 0.011483857 0.01122839
        0.010928646 0.0105901845 0.010218887 0.009820767 0.0094018085 0.008967838
        0.008524448 0.008076998 0.0076307487 0.0071911337 0.006764218 0.0063573113
        0.005979631 0.0056428327 0.005360946 0.005148536 0.005014711 0.0049524168
        0.0049312334 0.0049039684 0.0048246942 0.0046663713 0.004408389
      </DataArray>
    </PointData>
    <CellData>
    </CellData>
    <Points>
      <DataArray type="Float32" Name="Points" NumberOfComponents="3" format="ascii" RangeMin="0.6872322993446182" RangeMax="0.79718511653014">
        0.49417478 -0.013477072 0.47738653 0.5016108 -0.013497838 0.4781221
        0.5090214 -0.0135181835 0.4788428 0.51636904 -0.013538017 0.47954533
        0.5236172 -0.0135572525 0.4802267 0.5307316 -0.013575814 0.48088416
        0.5376805 -0.0135936355 0.48151544 0.5444352 -0.013610665 0.48211867
        0.5509707 -0.013626861 0.4826924 0.5572655 -0.013642198 0.48323566
        0.56330234 -0.013656661 0.48374793 0.56906766 -0.013670243 0.48422906
        0.5745518 -0.013682952 0.48467922 0.5797489 -0.013694801 0.48509896
        0.5846563 -0.013705812 0.485489 0.58927447 -0.013716015 0.4858504
        0.5936067 -0.01372544 0.48618424 0.59765863 -0.0137341255 0.4864919
        0.6014378 -0.013742109 0.4867747 0.6049534 -0.013749432 0.48703408
        0.6082159 -0.013756135 0.48727152 0.6112369 -0.013762258 0.48748842
        0.6140283 -0.013767843 0.48768628 0.6166026 -0.013772929 0.4878664
        0.61897254 -0.013777554 0.48803023 0.62115085 -0.013781755 0.48817903
        0.62315 -0.013785565 0.48831403 0.6249822 -0.013789016 0.48843625
        0.6266592 -0.013792136 0.48854676 0.62819254 -0.013794956 0.48864663
        0.62959296 -0.013797504 0.4887369 0.49417478 -0.013175326 0.47739497
        0.50161064 -0.013195336 0.47813052 0.50902104 -0.013215006 0.47885123
        0.51636845 -0.013234246 0.47955376 0.5236164 -0.013252967 0.48023513
        0.5307306 -0.013271095 0.4808926 0.5376792 -0.013288559 0.48152384
        0.54443365 -0.013305307 0.48212704 0.5509688 -0.013321295 0.48270077
        0.5572633 -0.013336495 0.48324403 0.5632997 -0.013350885 0.48375624
        0.56906456 -0.01336446 0.48423734 0.57454824 -0.013377226 0.48468748
        0.5797447 -0.013389192 0.48510715 0.58465135 -0.013400381 0.48549715
        0.5892687 -0.013410825 0.48585844 0.5935999 -0.01342057 0.48619226
        0.59765035 -0.013429681 0.4864998 0.6014274 -0.013438261 0.48678243
        0.6049396 -0.013446464 0.48704156 0.60819644 -0.013454512 0.48727852
        0.61120784 -0.013462721 0.48749474 0.61398345 -0.013471496 0.4876914
        0.6165325 -0.013481325 0.48786968 0.6188635 -0.013492962 0.48803067
        0.6209858 -0.013508465 0.48817548 0.6229127 -0.013533359 0.48830512
        0.6246683 -0.013576609 0.48842135 0.62629104 -0.013642919 0.48852682
        0.6278218 -0.013722421 0.48862463 0.6292761 -0.013791238 0.48871672
        0.49417478 -0.012873574 0.4774032 0.50161046 -0.012892179 0.47813877
        0.5090207 -0.012910515 0.47885948 0.51636785 -0.012928494 0.47956207
        0.5236156 -0.012946032 0.4802434 0.5307296 -0.012963048 0.48090088
        0.53767794 -0.012979477 0.4815322 0.5444321 -0.012995261 0.48213536
        0.5509669 -0.013010357 0.48270908 0.55726105 -0.0130247325 0.48325235
        0.56329703 -0.013038372 0.48376456 0.56906146 -0.01305126 0.48424563
        0.57454455 -0.013063405 0.48469573 0.5797404 -0.0130748125 0.48511538
        0.58464634 -0.013085507 0.48550534 0.5892628 -0.013095528 0.4858666
        0.5935929 -0.013104935 0.48620033 0.5976418 -0.01311383 0.48650774
        0.6014166 -0.013122385 0.48679024 0.6049252 -0.013130881 0.4870491
        0.60817623 -0.013139752 0.48728567 0.61117786 -0.013149621 0.48750114
        0.6139375 -0.013161292 0.48769662 0.6164615 -0.013175728 0.48787308
        0.61875534 -0.013194342 0.48803142 0.6208263 -0.013220713 0.4881725
        0.6226894 -0.01326414 0.48829752 0.6243759 -0.013340056 0.4884084
        0.62593925 -0.013459658 0.4885087 0.6274466 -0.01361296 0.48860326
        0.6289364 -0.013760917 0.4886957 0.49417478 -0.012571816 0.47741124
        0.5016102 -0.012588442 0.47814685 0.5090203 -0.012604854 0.4788676
        0.5163673 -0.012620971 0.47957018 0.5236148 -0.012636708 0.48025158
        0.5307286 -0.012651988 0.48090908 0.5376767 -0.012666743 0.48154038
        0.54443055 -0.012680916 0.48214358 0.5509651 -0.012694464 0.48271734
        0.5572588 -0.012707354 0.4832606 0.5632944 -0.012719567 0.4837728
        0.5690583 -0.012731091 0.48425388 0.57454085 -0.012741931 0.484704
        0.57973605 -0.012752093 0.48512363 0.5846412 -0.012761604 0.48551354
        0.5892568 -0.012770508 0.4858748 0.5935857 -0.012778885 0.48620844
        0.5976331 -0.0127868755 0.4865158 0.6014056 -0.01279473 0.48679814
        0.6049106 -0.0128028765 0.48705676 0.60815555 -0.012811983 0.4872929
        0.6111472 -0.012823019 0.48750764 0.6138909 -0.012837227 0.48770198
        0.6163903 -0.0128560625 0.48787665 0.61864877 -0.012881527 0.48803243
        0.62067294 -0.012918298 0.48817015 0.6224798 -0.012978088 0.48829105
        0.62410426 -0.013080618 0.48839733 0.62560666 -0.01324362 0.4884927
        0.62707263 -0.013463908 0.48858297 0.6285739 -0.013699217 0.488674
        0.49417478 -0.012270054 0.4774191 0.5016101 -0.012284218 0.47815475
        0.50902 -0.012298204 0.47887552 0.5163668 -0.012311942 0.47957817
        0.5236141 -0.012325347 0.48025963 0.53072757 -0.01233834 0.48091716
        0.53767544 -0.012350856 0.48154846 0.544429 -0.01236284 0.48215175
        0.5509632 -0.012374246 0.48272547 0.5572566 -0.012385043 0.48326877
        0.5632918 -0.012395211 0.48378104 0.5690552 -0.012404738 0.48426208
        0.5745372 -0.012413627 0.4847122 0.57973176 -0.012421887 0.48513186
        0.5846362 -0.012429547 0.4855218 0.58925086 -0.012436658 0.485883
        0.5935786 -0.012443317 0.48621663 0.5976244 -0.012449714 0.4865239
        0.60139453 -0.012456188 0.4868061 0.60489583 -0.012463322 0.48706448
        0.60813475 -0.01247205 0.48730022 0.61111647 -0.012483721 0.48751426
        0.6138443 -0.012500053 0.48770744 0.61631984 -0.012523003 0.4878804
        0.61854506 -0.0125550805 0.48803377 0.62052673 -0.0126016885 0.48816845
        0.622284 -0.012675872 0.48828578 0.6238535 -0.012799792 0.488388
        0.625296 -0.012996577 0.48847878 0.62670654 -0.013273586 0.48856425
        0.628191 -0.013597704 0.48865205 0.49417478 -0.011968287 0.47742677
        0.5016099 -0.01197961 0.47816244 0.5090196 -0.011990778 0.4788833
        0.51636624 -0.012001726 0.479586 0.5236134 -0.012012368 0.4802675
        0.5307267 -0.01202263 0.48092505 0.53767425 -0.012032446 0.48155642
        0.5444276 -0.01204176 0.4821597 0.55096143 -0.01205053 0.48273352
        0.5572545 -0.012058724 0.48327684 0.5632893 -0.01206632 0.48378912
        0.5690522 -0.012073306 0.48427022 0.5745337 -0.012079686 0.48472038
        0.5797276 -0.012085469 0.48514003 0.5846313 -0.012090687 0.48552996
        0.5892451 -0.012095398 0.48589116 0.59357166 -0.012099724 0.48622477
        0.59761596 -0.012103898 0.486532 0.60138375 -0.012108359 0.48681408
        0.6048814 -0.01211386 0.48707226 0.6081143 -0.012121622 0.48730758
        0.6110862 -0.012133403 0.48752093 0.6137985 -0.012151424 0.48771304
        0.61625135 -0.012178142 0.48788437 0.61844563 -0.01221648 0.48803553
        0.62038916 -0.012272224 0.48816743 0.622103 -0.012358903 0.48828167
        0.62362415 -0.012499607 0.48838043 0.62500995 -0.01272107 0.48846707
        0.6263558 -0.013041887 0.48854747 0.6277939 -0.013447827 0.48863044
        0.49417478 -0.011666516 0.47743422 0.50160974 -0.011674742 0.47816998
        0.5090193 -0.011682823 0.4788909 0.51636577 -0.011690695 0.47959363
        0.52361274 -0.011698279 0.48027515 0.5307258 -0.011705498 0.4809328
        0.5376732 -0.011712288 0.48156422 0.54442626 -0.011718594 0.48216757
        0.5509598 -0.011724372 0.48274142 0.5572526 -0.0117295915 0.48328477
        0.56328696 -0.0117342295 0.4837971 0.5690495 -0.011738278 0.48427826
        0.5745304 -0.011741733 0.4847284 0.5797238 -0.011744608 0.48514807
        0.58462673 -0.011746937 0.48553804 0.58923966 -0.011748788 0.48589924
        0.5935652 -0.011750303 0.48623282 0.597608 -0.011751767 0.48654002
        0.60137355 -0.011753715 0.486822 0.60486764 -0.011757087 0.48707998
        0.6080947 -0.0117634 0.48731494 0.6110571 -0.011774842 0.48752767
        0.61375475 -0.011794148 0.48771873 0.61618626 -0.011824258 0.48788854
        0.61835235 -0.011868398 0.48803768 0.62026197 -0.011932426 0.4881672
        0.62193805 -0.012029694 0.48827875 0.6234172 -0.012183029 0.48837456
        0.62475115 -0.012420763 0.48845762 0.62602824 -0.012770933 0.48853308
        0.6273939 -0.013243094 0.48861 0.49417478 -0.011364738 0.4774415
        0.5016096 -0.011369734 0.4781773 0.5090191 -0.011374582 0.4788983
        0.51636535 -0.011379227 0.4796011 0.52361214 -0.011383588 0.48028266
        0.53072506 -0.011387592 0.48094037 0.5376723 -0.011391173 0.48157182
        0.54442513 -0.011394277 0.48217526 0.55095845 -0.011396862 0.48274913
        0.55725086 -0.011398893 0.48329252 0.56328493 -0.01140035 0.4838049
        0.56904703 -0.011401223 0.4842861 0.57452756 -0.011401507 0.4847363
        0.5797204 -0.011401219 0.48515597 0.58462274 -0.0114003895 0.48554596
        0.5892348 -0.0113991 0.4859072 0.5935594 -0.011397512 0.48624077
        0.59760076 -0.01139596 0.48654795 0.60136425 -0.011395083 0.48682985
        0.60485506 -0.011396005 0.48708764 0.60807663 -0.011400546 0.48732224
        0.61103016 -0.011411326 0.48753437 0.6137141 -0.0114315925 0.48772445
        0.61612606 -0.011464724 0.48789293 0.6182669 -0.011514141 0.48804027
        0.6201469 -0.01158551 0.48816767 0.6217906 -0.011691496 0.488277
        0.6232338 -0.011853777 0.48837036 0.6245219 -0.012100367 0.4884504
        0.62573135 -0.012465388 0.4885214 0.62700576 -0.012981183 0.48859167
        0.49417478 -0.011062957 0.47744858 0.50160956 -0.011064724 0.47818446
        0.50901884 -0.011066343 0.4789055 0.51636505 -0.011067758 0.47960836
        0.5236117 -0.0110688945 0.48029 0.53072447 -0.011069677 0.48094773
        0.5376715 -0.01107004 0.48157924 0.5444242 -0.01106993 0.4821827
        0.55095726 -0.011069306 0.48275664 0.5572494 -0.011068133 0.4833001
        0.5632832 -0.011066388 0.4838125 0.569045 -0.011064063 0.48429373
        0.5745251 -0.011061151 0.48474398 0.5797175 -0.011057667 0.48516372
        0.5846193 -0.011053648 0.4855537 0.5892308 -0.011049178 0.48591495
        0.59355444 -0.011044445 0.48624855 0.5975946 -0.011039832 0.48655567
        0.60135627 -0.011036075 0.4868375 0.60484403 -0.011034479 0.48709515
        0.60806066 -0.011037163 0.48732945 0.6110061 -0.011047164 0.48754105
        0.6136776 -0.011068205 0.4877303 0.6160722 -0.011104054 0.48789752
        0.6181909 -0.011158213 0.4880433 0.6200456 -0.011235939 0.48816893
        0.621662 -0.0113488445 0.48827636 0.6230751 -0.011516841 0.48836777
        0.624324 -0.011766016 0.4884454 0.62547123 -0.012132517 0.4885126
        0.62664723 -0.012667319 0.48857644 0.49417478 -0.010761172 0.47745547
        0.50160944 -0.010759796 0.4781914 0.50901866 -0.010758271 0.47891247
        0.51636475 -0.0107565485 0.4796154 0.52361137 -0.010754551 0.48029712
        0.530724 -0.010752203 0.4809549 0.5376709 -0.010749441 0.4815865
        0.54442346 -0.010746215 0.48218995 0.55095637 -0.010742478 0.48276395
        0.55724835 -0.010738198 0.48330748 0.5632819 -0.010733354 0.4838199
        0.56904346 -0.010727932 0.48430118 0.57452327 -0.0107219275 0.48475146
        0.57971525 -0.010715355 0.48517123 0.5846166 -0.010708253 0.48556125
        0.58922756 -0.010700715 0.4859225 0.5935505 -0.010692947 0.48625612
        0.5975896 -0.01068538 0.48656324 0.6013497 -0.010678843 0.486845
        0.6048348 -0.010674819 0.4871025 0.608047 -0.010675704 0.48733652
        0.6109853 -0.010684927 0.4875476 0.61364585 -0.010706655 0.4877361
        0.6160252 -0.010744981 0.48790225 0.618125 -0.010803397 0.48804674
        0.61995846 -0.010886597 0.4881709 0.6215524 -0.011004904 0.48827678
        0.62294084 -0.011176094 0.4883667 0.62415755 -0.011423219 0.48844245
        0.6252511 -0.011780445 0.48850667 0.6263306 -0.012309609 0.4885648
        0.49417478 -0.010459382 0.4774622 0.5016094 -0.010455029 0.47819817
        0.50901854 -0.010450534 0.4789193 0.51636463 -0.010445847 0.47962224
        0.5236111 -0.010440894 0.480304 0.5307237 -0.010435603 0.48096183
        0.53767055 -0.01042991 0.48159346 0.5444229 -0.010423764 0.482197
        0.5509558 -0.010417116 0.48277104 0.55724764 -0.010409939 0.48331457
        0.563281 -0.010402209 0.48382708 0.5690423 -0.010393911 0.4843084
        0.5745219 -0.010385043 0.48475865 0.57971364 -0.010375614 0.48517847
        0.5846147 -0.01036567 0.48556852 0.5892252 -0.010355307 0.48592982
        0.5935476 -0.010344755 0.48626342 0.5975859 -0.010334486 0.4865705
        0.60134465 -0.01032542 0.48685223 0.6048275 -0.010319198 0.48710963
        0.60803586 -0.010318476 0.4873434 0.6109679 -0.010327046 0.4875541
        0.6136191 -0.0103494655 0.48774192 0.61598545 -0.010390102 0.48790717
        0.6180694 -0.010452368 0.48805055 0.6198854 -0.010540293 0.48817348
        0.6214613 -0.010662782 0.4882782 0.62283015 -0.010835304 0.4883669
        0.62402153 -0.011077296 0.48844135 0.625072 -0.01141797 0.4885034
        0.6260649 -0.011919748 0.488557 0.49417478 -0.010157588 0.47746873
        0.5016094 -0.010150551 0.47820473 0.50901854 -0.010143387 0.47892588
        0.5163645 -0.010136052 0.4796289 0.523611 -0.01012847 0.48031068
        0.5307235 -0.010120571 0.48096856 0.5376703 -0.01011229 0.48160022
        0.5444227 -0.010103579 0.48220378 0.5509554 -0.010094391 0.48277786
        0.5572472 -0.010084698 0.48332143 0.56328046 -0.010074472 0.48383397
        0.5690417 -0.010063701 0.48431528 0.5745211 -0.01005238 0.48476562
        0.5797127 -0.010040525 0.48518544 0.5846135 -0.010028177 0.48557553
        0.58922374 -0.010015442 0.48593682 0.59354573 -0.0100025665 0.48627043
        0.5975834 -0.009990061 0.4865775 0.60134107 -0.009978926 0.4868592
        0.6048221 -0.009970948 0.48711646 0.60802734 -0.009969015 0.48735005
        0.6109541 -0.009977232 0.4875604 0.6135974 -0.010000497 0.4877477
        0.6159531 -0.01004339 0.48791218 0.6180241 -0.0101091955 0.48805463
        0.61982626 -0.0102012325 0.48817664 0.62138814 -0.010326952 0.48828048
        0.6227422 -0.010499496 0.4883683 0.6239148 -0.010734532 0.48844185
        0.62493294 -0.011054781 0.48850253 0.6258563 -0.01151561 0.48855296
        0.49417478 -0.009855789 0.47747505 0.5016094 -0.009846461 0.4782111
        0.50901854 -0.009837035 0.47893226 0.5163645 -0.009827469 0.4796353
        0.523611 -0.009817688 0.48031712 0.5307235 -0.009807624 0.48097503
        0.5376703 -0.0097972145 0.48160675 0.5444226 -0.009786407 0.48221034
        0.55095536 -0.009775164 0.48278442 0.5572471 -0.009763447 0.483328
        0.56328034 -0.009751235 0.48384058 0.5690415 -0.009738513 0.48432192
        0.5745209 -0.009725279 0.48477226 0.57971233 -0.009711545 0.4851921
        0.584613 -0.009697354 0.4855822 0.5892231 -0.00968282 0.4859435
        0.5935448 -0.009668204 0.48627713 0.59758204 -0.009654052 0.48658422
        0.6013389 -0.009641433 0.48686585 0.6048185 -0.00963226 0.487123
        0.60802114 -0.0096296165 0.48735645 0.61094373 -0.009637877 0.48756647
        0.61358064 -0.009662224 0.4877533 0.61592764 -0.009707399 0.48791718
        0.6179885 -0.009776527 0.48805895 0.61978006 -0.009872221 0.48818025
        0.6213315 -0.010000515 0.4882834 0.622675 -0.010172311 0.48837072
        0.6238346 -0.010399659 0.48844376 0.62483066 -0.010698449 0.48850366
        0.6257033 -0.011112408 0.4885522 0.49417478 -0.0095539875 0.47748116
        0.5016094 -0.009542853 0.47821724 0.50901854 -0.009531665 0.47893843
        0.5163646 -0.00952038 0.4796415 0.52361107 -0.009508926 0.48032334
        0.53072363 -0.009497235 0.48098126 0.53767043 -0.009485247 0.48161298
        0.5444228 -0.009472908 0.48221663 0.55095553 -0.00946018 0.4827907
        0.5572473 -0.009447029 0.48333433 0.5632805 -0.009433429 0.48384687
        0.56904167 -0.009419368 0.48432824 0.574521 -0.00940484 0.4847786
        0.57971245 -0.009389859 0.48519844 0.58461314 -0.009374469 0.48558855
        0.5892231 -0.009358789 0.48594987 0.59354466 -0.009343091 0.48628345
        0.5975816 -0.009327954 0.48659053 0.60133797 -0.0093145 0.48687214
        0.60481644 -0.00930475 0.48712924 0.60801715 -0.009301953 0.4873625
        0.6109364 -0.009310704 0.4875723 0.6135682 -0.009336412 0.4877588
        0.6159085 -0.009383943 0.4879222 0.61796165 -0.0094562555 0.4880634
        0.6197453 -0.009555294 0.48818418 0.6212895 -0.009685758 0.48828688
        0.62262595 -0.00985648 0.48837388 0.62377757 -0.0100762155 0.4884467
        0.62476015 -0.010354476 0.48850638 0.6255999 -0.010721946 0.4885541
        0.49417478 -0.009252181 0.47748712 0.50160944 -0.009239799 0.47822317
        0.50901866 -0.009227417 0.47894442 0.5163647 -0.009214995 0.4796475
        0.52361125 -0.009202458 0.48032933 0.53072387 -0.00918974 0.48098728
        0.5376707 -0.00917678 0.48161897 0.5444231 -0.009163528 0.48222262
        0.5509559 -0.009149942 0.48279673 0.5572477 -0.009135987 0.48334035
        0.56328094 -0.00912164 0.4838529 0.56904215 -0.009106884 0.48433426
        0.57452154 -0.009091716 0.4847846 0.579713 -0.0090761455 0.4852045
        0.5846137 -0.00906022 0.48559457 0.5892236 -0.00904406 0.48595586
        0.5935452 -0.00902795 0.48628947 0.597582 -0.009012486 0.4865965
        0.60133797 -0.008998846 0.48687807 0.6048157 -0.00898913 0.4871351
        0.6080149 -0.008986723 0.4873683 0.6109316 -0.008996398 0.4875779
        0.6135596 -0.0090237465 0.48776406 0.6158948 -0.009073724 0.4879271
        0.6179422 -0.009149133 0.48806792 0.6197204 -0.009251309 0.48818833
        0.62125987 -0.009383731 0.4882908 0.6225924 -0.009553371 0.48837766
        0.62374 -0.009766088 0.4884505 0.6247161 -0.010025848 0.48851034
        0.6255377 -0.010350942 0.488558 0.49417478 -0.008950373 0.47749287
        0.5016095 -0.008937356 0.47822896 0.5090188 -0.008924405 0.47895017
        0.51636493 -0.00891147 0.47965324 0.5236115 -0.008898482 0.4803351
        0.53072417 -0.008885372 0.48099303 0.5376711 -0.0088720815 0.48162472
        0.5444235 -0.008858556 0.48222837 0.5509564 -0.008844754 0.48280245
        0.55724823 -0.008830642 0.48334607 0.5632816 -0.008816193 0.48385862
        0.56904286 -0.0088013895 0.48433998 0.5745223 -0.008786226 0.4847903
        0.5797138 -0.008770712 0.48521015 0.58461463 -0.008754893 0.48560023
        0.58922464 -0.008738892 0.48596153 0.5935462 -0.008723001 0.48629513
        0.59758294 -0.008707834 0.48660213 0.60133874 -0.00869461 0.48688367
        0.60481596 -0.00868549 0.48714063 0.6080141 -0.008683969 0.48737368
        0.61092895 -0.00869496 0.48758316 0.6135541 -0.008724196 0.48776913
        0.61588573 -0.008776705 0.4879319 0.6179291 -0.008855152 0.48807243
        0.61970377 -0.008960328 0.48819262 0.6212407 -0.009094632 0.48829496
        0.6225716 -0.009263379 0.48838183 0.6237185 -0.009469952 0.4884549
        0.62469345 -0.009713701 0.4885151 0.6255083 -0.01000226 0.4885633
        0.49417478 -0.008648559 0.47749844 0.50160956 -0.008635567 0.4782345
        0.5090189 -0.0086227 0.47895572 0.5163651 -0.008609909 0.47965878
        0.5236118 -0.008597122 0.4803406 0.5307245 -0.008584271 0.48099852
        0.5376715 -0.008571292 0.48163024 0.54442406 -0.008558135 0.48223382
        0.550957 -0.008544754 0.4828079 0.55724895 -0.008531114 0.4833515
        0.5632824 -0.008517186 0.48386404 0.56904376 -0.008502954 0.48434538
        0.5745233 -0.0084884055 0.48479572 0.57971495 -0.008473551 0.4852155
        0.58461577 -0.008458433 0.48560557 0.58922595 -0.008443179 0.48596683
        0.5935476 -0.008428079 0.4863004 0.59758437 -0.00841377 0.4866074
        0.60134006 -0.008401489 0.48688892 0.604817 -0.008393459 0.4871458
        0.60801446 -0.008393251 0.48737884 0.61092806 -0.0084058875 0.48758814
        0.6135514 -0.008437218 0.48777398 0.6158805 -0.0084923245 0.4879366
        0.61792135 -0.008573759 0.48807693 0.61969405 -0.00868185 0.488197
        0.62123007 -0.008818036 0.4882993 0.6225614 -0.008986183 0.48838633
        0.6237099 -0.009187597 0.4884597 0.62468773 -0.009417891 0.48852053
        0.62550426 -0.009676122 0.48856962 0.49417478 -0.008346742 0.47750378
        0.5016096 -0.00833446 0.47823986 0.5090191 -0.0083223535 0.47896105
        0.51636535 -0.008310372 0.4796641 0.52361214 -0.008298443 0.4803459
        0.53072494 -0.008286496 0.4810038 0.53767204 -0.008274466 0.48163548
        0.5444247 -0.0082623 0.48223904 0.55095774 -0.008249952 0.4828131
        0.5572498 -0.008237383 0.48335665 0.5632833 -0.008224566 0.4838692
        0.56904477 -0.008211475 0.48435047 0.57452446 -0.008198102 0.4848008
        0.5797162 -0.008184454 0.48522058 0.5846172 -0.008170573 0.48561063
        0.58922744 -0.008156582 0.48597184 0.5935492 -0.0081427805 0.48630542
        0.5975861 -0.00812981 0.48661235 0.6013418 -0.008118932 0.48689383
        0.6048186 -0.008112406 0.4871507 0.6080157 -0.008113868 0.48738366
        0.61092865 -0.008128422 0.4875929 0.6135508 -0.008162008 0.48777863
        0.6158785 -0.008219757 0.4879411 0.6179181 -0.008304135 0.48808137
        0.6196902 -0.00841508 0.48820138 0.62122667 -0.008553193 0.4883038
        0.6225598 -0.0087210825 0.48839104 0.6237119 -0.008918314 0.48846483
        0.6246954 -0.009137571 0.48852637 0.6255195 -0.009371332 0.48857656
        0.49417478 -0.008044922 0.47750896 0.50160974 -0.008034058 0.478245
        0.50901926 -0.008023408 0.47896618 0.51636565 -0.008012913 0.47966918
        0.5236125 -0.008002498 0.48035094 0.5307254 -0.007992092 0.48100883
        0.53767264 -0.00798163 0.48164046 0.54442537 -0.007971057 0.482244
        0.5509585 -0.007960322 0.48281804 0.5572507 -0.00794939 0.48336157
        0.5632843 -0.007938226 0.48387405 0.5690459 -0.007926808 0.48435533
        0.5745257 -0.007915121 0.48480558 0.5797176 -0.00790317 0.48522535
        0.5846187 -0.007890999 0.48561534 0.5892291 -0.00787873 0.48597658
        0.59355104 -0.007866664 0.48631006 0.59758806 -0.007855448 0.486617
        0.60134387 -0.00784636 0.48689845 0.6048207 -0.007841689 0.48715532
        0.6080178 -0.007845112 0.4873882 0.61093044 -0.0078618005 0.4875974
        0.6135521 -0.007897765 0.48778304 0.61587924 -0.007958187 0.4879455
        0.6179186 -0.008045465 0.48808572 0.6196912 -0.0081592165 0.4882058
        0.6212293 -0.008299326 0.48830834 0.62256545 -0.008467304 0.48839587
        0.6237225 -0.008661288 0.48847017 0.6247137 -0.008871709 0.48853248
        0.6255494 -0.009086247 0.48858392 0.49417478 -0.0077430992 0.47751397
        0.50160986 -0.0077343835 0.47824994 0.5090195 -0.007725889 0.47897106
        0.51636595 -0.007717551 0.47967404 0.5236129 -0.0077092974 0.4803558
        0.53072596 -0.007701053 0.4810136 0.53767323 -0.0076927543 0.4816452
        0.5444261 -0.007684341 0.4822487 0.55095935 -0.0076757683 0.48282272
        0.5572516 -0.0076669925 0.48336622 0.56328535 -0.0076579815 0.48387864
        0.5690471 -0.0076487116 0.48435992 0.574527 -0.007639166 0.48481014
        0.57971907 -0.0076293494 0.48522988 0.5846203 -0.0076193027 0.4856198
        0.5892309 -0.007609151 0.48598102 0.593553 -0.007599192 0.48631448
        0.5975902 -0.0075900825 0.4866214 0.60134625 -0.0075831083 0.4869028
        0.6048233 -0.0075805774 0.4871596 0.6080205 -0.007586201 0.4873925
        0.61093324 -0.007605197 0.4876017 0.613555 -0.007643633 0.48778734
        0.6158824 -0.0077067367 0.48794976 0.61792237 -0.007796869 0.48809004
        0.6196963 -0.007913391 0.48821017 0.621237 -0.008055569 0.48831296
        0.6225771 -0.00822397 0.48840082 0.6237401 -0.008415561 0.48847565
        0.6247405 -0.008619097 0.4885388 0.62559026 -0.008818923 0.48859152
        0.49417478 -0.007441273 0.47751877 0.5016099 -0.0074354974 0.4782547
        0.5090197 -0.0074299085 0.47897577 0.5163663 -0.0074244426 0.4796787
        0.52361333 -0.007419023 0.4803604 0.5307265 -0.0074135787 0.4810182
        0.5376739 -0.0074080457 0.48164973 0.54442686 -0.0074023665 0.4822532
        0.55096024 -0.007396493 0.48282716 0.5572526 -0.0073903855 0.4833706
        0.5632865 -0.0073840097 0.48388302 0.56904835 -0.007377343 0.4843642
        0.5745284 -0.0073703686 0.4848144 0.57972056 -0.0073630917 0.4852341
        0.584622 -0.0073555526 0.48562405 0.58923274 -0.007347876 0.4859852
        0.5935551 -0.007340364 0.48631862 0.59759253 -0.0073336735 0.4866255
        0.60134876 -0.0073290984 0.4869069 0.6048261 -0.007328959 0.4871637
        0.60802364 -0.007336989 0.4873965 0.6109369 -0.0073584374 0.48760572
        0.6135593 -0.0073994207 0.4877914 0.6158876 -0.0074652103 0.48795387
        0.61792886 -0.007558157 0.48809424 0.6197051 -0.007677418 0.48821455
        0.62124896 -0.007821745 0.48831758 0.6225937 -0.007990897 0.4884058
        0.62376344 -0.0081809 0.4884812 0.62477386 -0.008379325 0.48854518
        0.6256392 -0.008568409 0.4885992 0.49417478 -0.007139444 0.47752336
        0.50161004 -0.007137369 0.47825927 0.5090199 -0.0071353987 0.47898027
        0.5163666 -0.0071334676 0.47968313 0.5236138 -0.007131504 0.48036477
        0.530727 -0.007129439 0.48102254 0.53767455 -0.0071272133 0.48165405
        0.54442763 -0.007124773 0.48225743 0.55096114 -0.007122073 0.48283136
        0.5572536 -0.007119073 0.48337477 0.5632876 -0.007115745 0.4838871
        0.5690496 -0.0071120663 0.4843683 0.5745298 -0.0071080225 0.48481843
        0.57972217 -0.00710362 0.48523808 0.58462375 -0.007098901 0.485628
        0.5892347 -0.0070939916 0.4859891 0.59355724 -0.007089195 0.48632252
        0.5975949 -0.0070851706 0.48662937 0.6013515 -0.007083217 0.4869107
        0.60482925 -0.007085661 0.4871675 0.60802734 -0.0070962487 0.48740035
        0.61094135 -0.0071202526 0.4876096 0.6135648 -0.007163827 0.4877953
        0.6158945 -0.0072322907 0.48795786 0.61793786 -0.0073280013 0.48809838
        0.6197169 -0.0074499673 0.4882189 0.62126464 -0.0075965053 0.48832217
        0.6226146 -0.0077666845 0.48841083 0.6237916 -0.007955775 0.48848677
        0.62481266 -0.0081505515 0.48855165 0.62569433 -0.008332077 0.48860693
        0.49417478 -0.006837612 0.47752777 0.50161016 -0.006840323 0.4782636
        0.50902015 -0.006842965 0.47898456 0.51636696 -0.006845481 0.47968736
        0.5236143 -0.0068478123 0.48036897 0.5307276 -0.006849899 0.48102662
        0.53767526 -0.00685169 0.4816581 0.5444284 -0.00685314 0.48226145
        0.55096203 -0.006854211 0.48283532 0.5572547 -0.006854873 0.48337865
        0.5632888 -0.0068551004 0.48389098 0.56905097 -0.006854877 0.4843721
        0.5745313 -0.006854194 0.4848222 0.5797238 -0.006853062 0.48524183
        0.58462554 -0.0068515274 0.4856317 0.5892367 -0.0068497183 0.48599276
        0.5935594 -0.006847943 0.48632613 0.59759736 -0.006846864 0.48663297
        0.6013543 -0.0068477793 0.48691428 0.60483253 -0.006853021 0.48717105
        0.60803133 -0.006866341 0.48740393 0.61094636 -0.006893027 0.4876132
        0.6135712 -0.006939262 0.487799 0.6159029 -0.007010412 0.48796168
        0.6179488 -0.0071088597 0.48810235 0.6197311 -0.007233515 0.48822314
        0.62128323 -0.0073823542 0.48832673 0.62263876 -0.007553884 0.4884158
        0.6238232 -0.0077428105 0.48849234 0.62485504 -0.007935475 0.48855796
        0.6257528 -0.008112586 0.4886145 0.49417478 -0.006535777 0.47753203
        0.5016103 -0.0065439227 0.47826776 0.5090204 -0.0065517626 0.47898868
        0.5163673 -0.006559258 0.47969142 0.5236147 -0.0065663625 0.48037294
        0.5307282 -0.0065730354 0.48103055 0.5376759 -0.006579239 0.48166195
        0.54442924 -0.006584939 0.48226526 0.550963 -0.00659011 0.48283908
        0.55725574 -0.0065947296 0.48338237 0.56329 -0.0065987837 0.48389465
        0.5690523 -0.006602262 0.48437572 0.5745328 -0.0066051655 0.4848258
        0.57972544 -0.0066075088 0.48524538 0.5846274 -0.0066093444 0.48563516
        0.5892387 -0.0066108066 0.48599622 0.59356165 -0.006612206 0.4863296
        0.5975999 -0.0066142073 0.48663637 0.6013572 -0.0066181114 0.4869177
        0.60483605 -0.0066262474 0.48717445 0.6080357 -0.006642368 0.48740736
        0.61095196 -0.006671768 0.4876167 0.61357856 -0.0067206584 0.48780257
        0.6159126 -0.0067944503 0.4879654 0.6179616 -0.006895567 0.4881063
        0.6197478 -0.007022855 0.48822737 0.6213047 -0.007174013 0.48833132
        0.6226662 -0.0073470646 0.48842078 0.62385845 -0.007536259 0.4884979
        0.6249012 -0.0077277264 0.48856437 0.6258151 -0.007902379 0.48862204
        0.49417478 -0.0062339394 0.47753605 0.5016104 -0.0062468704 0.47827175
        0.5090206 -0.006259327 0.4789926 0.5163677 -0.006271276 0.47969526
        0.52361524 -0.006282686 0.48037675 0.5307288 -0.006293521 0.48103434
        0.5376767 -0.006303755 0.4816657 0.54443014 -0.0063133626 0.482269
        0.550964 -0.0063223233 0.48284274 0.5572569 -0.0063306233 0.483386
        0.5632913 -0.006338254 0.48389825 0.5690537 -0.006345211 0.4843793
        0.57453436 -0.0063514984 0.48482934 0.5797272 -0.006357136 0.48524883
        0.58462936 -0.006362181 0.48563862 0.58924085 -0.006366769 0.48599967
        0.5935641 -0.006371212 0.48633298 0.59760267 -0.0063761743 0.48663974
        0.60136044 -0.006382952 0.48692107 0.6048399 -0.006393868 0.48717785
        0.60804063 -0.0064126644 0.48741078 0.61095846 -0.0064446367 0.4876202
        0.6135873 -0.0064960136 0.48780626 0.61592436 -0.006572261 0.48796925
        0.61797714 -0.0066758543 0.48811042 0.61976796 -0.006805602 0.48823178
        0.6213304 -0.0069589294 0.48833618 0.6226986 -0.007133363 0.48842615
        0.62389946 -0.0073226895 0.4885039 0.62495416 -0.0075129257 0.48857126
        0.6258855 -0.0076854858 0.48863015 0.49417478 -0.0059320997 0.4775399
        0.5016106 -0.0059487657 0.47827557 0.5090209 -0.0059648757 0.47899637
        0.5163681 -0.005980401 0.47969902 0.5236158 -0.005995309 0.4803805
        0.53072953 -0.006009572 0.48103803 0.5376775 -0.006023164 0.48166937
        0.5444311 -0.0060360623 0.4822726 0.5509651 -0.006048251 0.48284635
        0.5572581 -0.0060597183 0.4833896 0.5632927 -0.0060704555 0.4839018
        0.56905526 -0.006080461 0.48438278 0.5745361 -0.0060897414 0.48483282
        0.57972914 -0.006098319 0.48525232 0.58463144 -0.006106247 0.4856421
        0.58924323 -0.0061136647 0.4860031 0.5935668 -0.006120881 0.48633638
        0.5976057 -0.006128554 0.48664317 0.601364 -0.0061379704 0.48692447
        0.60484433 -0.0061514345 0.4871813 0.60804635 -0.00617267 0.4874143
        0.61096615 -0.006206955 0.48762384 0.6135978 -0.0062605334 0.48781005
        0.6159386 -0.006338926 0.48797336 0.617996 -0.0064446833 0.48811483
        0.6197924 -0.00657659 0.4882366 0.6213614 -0.0067317896 0.48834145
        0.6227374 -0.0069072647 0.48843202 0.62394816 -0.0070963074 0.4885105
        0.6250162 -0.00728489 0.4885788 0.6259666 -0.007455119 0.48863906
        0.49417478 -0.0056302575 0.47754356 0.5016107 -0.005649853 0.4782792
        0.50902116 -0.005668868 0.479 0.5163685 -0.005687271 0.47970265
        0.5236163 -0.0057050297 0.48038408 0.5307302 -0.0057221176 0.4810416
        0.53767836 -0.0057385066 0.4816729 0.5444321 -0.005754177 0.48227614
        0.55096626 -0.005769111 0.48284987 0.55725944 -0.005783298 0.48339307
        0.5632942 -0.0057967277 0.48390526 0.5690569 -0.0058094 0.48438627
        0.57453793 -0.0058213207 0.48483625 0.57973117 -0.005832509 0.48525575
        0.58463377 -0.005843021 0.48564553 0.5892458 -0.0058529894 0.48600647
        0.59356964 -0.005862721 0.48633978 0.59760904 -0.0058728624 0.48664656
        0.601368 -0.005884684 0.4869279 0.6048493 -0.005900464 0.4871848
        0.6080528 -0.00592389 0.48741785 0.61097497 -0.005960213 0.48762754
        0.6136101 -0.006015678 0.48781398 0.6159554 -0.0060958667 0.48797762
        0.61801845 -0.006203422 0.4881195 0.6198215 -0.0063371244 0.48824176
        0.62139803 -0.006493842 0.48834714 0.622783 -0.0066699907 0.48843837
        0.62400484 -0.00685836 0.48851767 0.6250878 -0.00704497 0.48858705
        0.62605876 -0.007212855 0.48864877 0.49417478 -0.0053284126 0.47754702
        0.5016109 -0.0053501274 0.47828266 0.50902146 -0.0053712805 0.47900346
        0.516369 -0.0053918352 0.47970608 0.5236169 -0.005411761 0.48038754
        0.53073096 -0.0054310267 0.48104507 0.53767926 -0.0054496056 0.48167634
        0.5444332 -0.005467475 0.48227957 0.55096745 -0.005484617 0.4828533
        0.5572608 -0.0055010165 0.4833965 0.5632958 -0.005516666 0.48390868
        0.5690587 -0.005531561 0.48438966 0.57453996 -0.0055457046 0.48483965
        0.57973343 -0.005559116 0.48525915 0.5846363 -0.0055718464 0.4856489
        0.5892486 -0.0055840267 0.4860099 0.5935728 -0.0055959527 0.4863432
        0.59761274 -0.0056082592 0.48664996 0.6013724 -0.0056221923 0.48693135
        0.6048548 -0.0056399903 0.48718828 0.6080602 -0.0056652925 0.48742148
        0.61098516 -0.0057033002 0.48763135 0.6136244 -0.005760247 0.4878181
        0.6159752 -0.0058417767 0.48798212 0.618045 -0.0059506423 0.4881245
        0.6198558 -0.0060856487 0.48824733 0.6214413 -0.0062433886 0.48835334
        0.6228365 -0.006419692 0.4884453 0.6240709 -0.006606847 0.48852554
        0.6251703 -0.006791011 0.48859614 0.62616336 -0.0069563133 0.48865935
        0.49417478 -0.005026566 0.4775503 0.501611 -0.005049662 0.47828594
        0.5090218 -0.0050722454 0.47900674 0.51636946 -0.0050942744 0.4797094
        0.52361757 -0.0051157153 0.48039085 0.53073174 -0.0051365374 0.48104838
        0.5376802 -0.0051567117 0.48167968 0.54443425 -0.005176213 0.4822829
        0.55096877 -0.005195022 0.4828566 0.55726236 -0.005213122 0.4833998
        0.56329745 -0.0052305013 0.483912 0.5690606 -0.005247155 0.484393
        0.5745421 -0.005263083 0.484843 0.5797358 -0.005278301 0.48526248
        0.58463895 -0.0052928575 0.48565224 0.58925164 -0.0053068763 0.48601323
        0.59357625 -0.0053206435 0.48634654 0.59761673 -0.005334775 0.48665333
        0.60137725 -0.005350485 0.48693475 0.604861 -0.005369961 0.48719177
        0.6080685 -0.005396772 0.48742512 0.61099684 -0.0054360493 0.48763525
        0.61364096 -0.005493996 0.48782232 0.61599827 -0.0055763135 0.48798683
        0.618076 -0.005685886 0.4881298 0.6198962 -0.005821569 0.4882533
        0.62149197 -0.0059796954 0.48836008 0.6228989 -0.0061554993 0.48845294
        0.6241475 -0.0063407817 0.48853418 0.62526506 -0.0065219277 0.4886061
        0.62628186 -0.0066842944 0.48867095 0.49417478 -0.0047247177 0.47755337
        0.5016112 -0.0047485144 0.47828904 0.5090221 -0.004771862 0.47900987
        0.51636994 -0.0047947187 0.47971252 0.5236182 -0.0048170495 0.480394
        0.5307326 -0.0048388205 0.4810515 0.5376812 -0.0048600016 0.48168284
        0.5444355 -0.0048805675 0.48228607 0.5509702 -0.004900495 0.4828598
        0.5572639 -0.0049197674 0.48340303 0.5632993 -0.00493837 0.4839152
        0.5690627 -0.004956295 0.48439622 0.5745444 -0.0049735396 0.4848462
        0.5797384 -0.004990117 0.48526573 0.5846419 -0.005006071 0.48565552
        0.5892549 -0.005021517 0.4860165 0.59358 -0.005036731 0.48634982
        0.5976211 -0.005052305 0.4866567 0.6013826 -0.0050694104 0.48693818
        0.6048679 -0.005090172 0.48719525 0.6080779 -0.0051180664 0.48742878
        0.6110101 -0.0051581245 0.4876392 0.6136599 -0.005216494 0.48782673
        0.616025 -0.0052989265 0.48799178 0.6181122 -0.005408456 0.48813543
        0.61994314 -0.0055440217 0.48825976 0.621551 -0.005701717 0.48836744
        0.6229714 -0.005876186 0.48846123 0.624236 -0.006058768 0.48854366
        0.62537366 -0.006236167 0.488617 0.6264158 -0.0063950224 0.4886836
        0.49417478 -0.004422867 0.4775563 0.50161135 -0.0044467435 0.47829196
        0.5090225 -0.0044702445 0.4790128 0.5163705 -0.0044933255 0.4797155
        0.52361894 -0.004515952 0.480397 0.53073347 -0.004538091 0.48105454
        0.5376823 -0.0045597097 0.48168588 0.54443675 -0.0045807837 0.4822891
        0.5509716 -0.0046012867 0.48286286 0.55726564 -0.004621202 0.4834061
        0.5633012 -0.0046405126 0.48391834 0.56906486 -0.004659208 0.48439935
        0.5745469 -0.004677285 0.48484936 0.5797412 -0.004694752 0.4852689
        0.584645 -0.004711648 0.4856587 0.58925843 -0.0047280816 0.48601973
        0.59358406 -0.004744314 0.4863531 0.59762585 -0.004760908 0.48665997
        0.60138845 -0.0047789887 0.48694152 0.60487545 -0.004800596 0.48719877
        0.6080883 -0.0048290887 0.4874325 0.61102504 -0.0048693665 0.48764324
        0.61368155 -0.0049274866 0.48783123 0.6160556 -0.005009233 0.48799697
        0.61815405 -0.005117807 0.48814148 0.6199977 -0.0052522686 0.48826668
        0.6216196 -0.005408504 0.4883754 0.6230555 -0.0055805887 0.48847035
        0.6243382 -0.005759446 0.4885541 0.62549794 -0.0059321756 0.488629
        0.626567 -0.006086686 0.48869747 0.49417478 -0.0041210144 0.47755894
        0.50161153 -0.0041444097 0.4782947 0.50902283 -0.0041675023 0.47901556
        0.516371 -0.00419025 0.4797183 0.52361965 -0.0042126183 0.4803998
        0.5307344 -0.004234574 0.48105738 0.5376834 -0.0042560864 0.48168874
        0.54443806 -0.004277128 0.48229203 0.55097324 -0.004297676 0.4828658
        0.5572674 -0.00431771 0.48340908 0.56330323 -0.004337214 0.48392132
        0.5690672 -0.004356175 0.48440236 0.5745495 -0.0043745884 0.4848524
        0.57974416 -0.004392459 0.48527196 0.5846483 -0.0044098236 0.48566177
        0.58926225 -0.0044267806 0.48602286 0.5935884 -0.004443575 0.4863563
        0.59763104 -0.004460737 0.4866632 0.60139483 -0.004479333 0.48694485
        0.6048838 -0.0045013013 0.48720223 0.6080999 -0.0045298557 0.48743623
        0.6110418 -0.00456972 0.48764732 0.613706 -0.004626818 0.4878359
        0.6160906 -0.004706939 0.48800245 0.6182021 -0.00481346 0.48814785
        0.6200607 -0.0049456065 0.4882742 0.62169886 -0.005099103 0.4883841
        0.62315273 -0.0052675023 0.4884804 0.62445587 -0.0054413676 0.4885656
        0.62564 -0.005608261 0.4886422 0.6267376 -0.0057572788 0.48871264
        0.49417478 -0.0038191606 0.47756147 0.5016117 -0.003841569 0.47829723
        0.5090232 -0.0038637458 0.47901815 0.51637155 -0.003885649 0.47972092
        0.5236204 -0.003907245 0.48040244 0.5307354 -0.0039285035 0.4810601
        0.5376846 -0.0039493935 0.48169148 0.5444395 -0.003969891 0.4822948
        0.55097485 -0.0039899717 0.48286858 0.55726933 -0.004009615 0.4834119
        0.56330544 -0.0040288055 0.48392418 0.5690697 -0.0040475307 0.48440522
        0.5745523 -0.004065783 0.48485532 0.5797473 -0.0040835673 0.4852749
        0.5846519 -0.0041009146 0.48566478 0.5892663 -0.004117916 0.4860259
        0.5935931 -0.004134796 0.48635936 0.59763664 -0.0041520502 0.48666635
        0.60140175 -0.004170672 0.48694813 0.6048929 -0.004192481 0.48720565
        0.60811263 -0.0042205104 0.4874399 0.6110604 -0.004259262 0.48765147
        0.6137335 -0.004314467 0.4878407 0.6161303 -0.00439188 0.48800814
        0.618257 -0.0044950494 0.4881547 0.62013304 -0.0046234126 0.48828232
        0.6217903 -0.0047726003 0.4883936 0.6232648 -0.0049357107 0.48849136
        0.6245911 -0.005103029 0.48857823 0.625802 -0.0052626254 0.48865673
        0.6269299 -0.005404638 0.48872924 0.49417478 -0.003517305 0.4775638
        0.5016119 -0.003538278 0.47829962 0.50902355 -0.0035590807 0.47902057
        0.51637214 -0.0035796743 0.47972333 0.5236212 -0.0036000286 0.4804049
        0.5307363 -0.003620114 0.4810626 0.5376858 -0.0036399036 0.481694
        0.5444409 -0.0036593722 0.48229736 0.5509766 -0.0036784983 0.4828712
        0.5572713 -0.0036972633 0.48341456 0.5633077 -0.0037156513 0.48392686
        0.56907225 -0.00373365 0.484408 0.5745553 -0.0037512525 0.4848581
        0.57975066 -0.0037684618 0.48527774 0.5846557 -0.003785305 0.48566762
        0.58927065 -0.0038018636 0.48602882 0.5935982 -0.0038183434 0.48636234
        0.5976426 -0.0038351966 0.48666942 0.6014092 -0.0038533343 0.4869513
        0.6049028 -0.0038744358 0.48720905 0.6081266 -0.0039013159 0.4874436
        0.611081 -0.003938196 0.48765564 0.61376417 -0.003990547 0.48784566
        0.616175 -0.0040640207 0.48801407 0.6183194 -0.004162322 0.48816195
        0.62021583 -0.0042851456 0.48829105 0.6218953 -0.0044281166 0.48840395
        0.62339383 -0.0045839814 0.48850343 0.6247464 -0.0047428487 0.4885922
        0.62598664 -0.0048933355 0.48867273 0.6271465 -0.0050264373 0.48874745
        0.49417478 -0.0032154482 0.4775659 0.50161207 -0.0032345867 0.47830176
        0.50902396 -0.0032536075 0.47902277 0.51637274 -0.003272474 0.4797256
        0.52362204 -0.0032911596 0.4804072 0.5307374 -0.0033096373 0.48106492
        0.5376871 -0.0033278824 0.4816964 0.5444425 -0.0033458732 0.48229977
        0.55097836 -0.0033635893 0.48287365 0.5572734 -0.003381014 0.48341706
        0.56331015 -0.0033981327 0.4839294 0.569075 -0.0034149347 0.48441055
        0.5745584 -0.0034314126 0.48486072 0.5797542 -0.0034475694 0.48528042
        0.58465976 -0.003463428 0.48567036 0.5892753 -0.003479062 0.48603156
        0.5936035 -0.0034946539 0.48636517 0.59764904 -0.0035106076 0.48667237
        0.60141724 -0.0035277412 0.48695436 0.60491353 -0.003547569 0.4872123
        0.6081418 -0.0035726463 0.4874472 0.6111036 -0.0036068507 0.4876598
        0.6137981 -0.0036553023 0.48785067 0.616225 -0.0037234619 0.4880203
        0.6183899 -0.0038151466 0.48816967 0.62031025 -0.003930349 0.4883005
        0.6220158 -0.0040648 0.48841524 0.623542 -0.004211043 0.48851672
        0.6249245 -0.0043591466 0.4886076 0.626197 -0.0044983034 0.48869038
        0.6273904 -0.0046201935 0.48876736 0.49417478 -0.00291359 0.47756785
        0.5016123 -0.0029305434 0.47830376 0.5090244 -0.0029474192 0.47902477
        0.5163734 -0.0029641856 0.47972766 0.5236229 -0.0029808185 0.48040932
        0.5307385 -0.002997294 0.48106706 0.53768843 -0.0030135913 0.4816986
        0.5444441 -0.0030296908 0.482302 0.5509802 -0.003045575 0.4828759
        0.5572756 -0.003061229 0.4834194 0.56331265 -0.0030766402 0.48393178
        0.5690779 -0.0030917996 0.48441297 0.57456166 -0.0031067005 0.4848632
        0.5797579 -0.0031213458 0.4852829 0.584664 -0.0031357554 0.48567292
        0.5892801 -0.0031499926 0.4860342 0.5936092 -0.0031642152 0.48636785
        0.59765583 -0.003178775 0.48667514 0.6014258 -0.0031943836 0.48695728
        0.604925 -0.0032123658 0.48721546 0.60815823 -0.0032349736 0.48745075
        0.61112815 -0.0032656658 0.48766398 0.6138354 -0.0033091044 0.48785576
        0.61628056 -0.0033704373 0.48802674 0.6184691 -0.0034535113 0.4881778
        0.6204174 -0.0035586425 0.48831064 0.62215346 -0.003681811 0.48842758
        0.62371206 -0.0038155569 0.48853135 0.62512857 -0.003950093 0.4886246
        0.6264364 -0.0040752483 0.4887098 0.62766486 -0.00418327 0.48878917
        0.49417478 -0.0026117307 0.4775696 0.5016125 -0.002626191 0.47830555
        0.5090248 -0.002640602 0.47902662 0.516374 -0.0026549369 0.47972953
        0.52362376 -0.0026691747 0.48041123 0.5307396 -0.0026832952 0.48106903
        0.5376898 -0.0026972797 0.48170057 0.5444457 -0.0027111121 0.48230407
        0.5509822 -0.0027247784 0.48287803 0.55727786 -0.0027382653 0.4834215
        0.5633152 -0.0027515627 0.48393396 0.5690809 -0.0027646632 0.4844152
        0.5745651 -0.0027775622 0.48486546 0.5797618 -0.0027902615 0.48528525
        0.58466846 -0.0028027787 0.48567533 0.58928525 -0.0028151665 0.48603666
        0.5936152 -0.0028275563 0.48637038 0.597663 -0.0028402403 0.48667777
        0.6014349 -0.0028538124 0.48696008 0.6049372 -0.0028693827 0.4872185
        0.60817575 -0.0028888525 0.48745418 0.6111547 -0.0029151791 0.48766807
        0.6138761 -0.0029524395 0.48786092 0.6163419 -0.0030053048 0.48803338
        0.61855775 -0.0030775168 0.48818645 0.6205386 -0.0031697105 0.4883216
        0.6223107 -0.0032782832 0.48844108 0.6239071 -0.0033960508 0.4885475
        0.6253624 -0.0035136396 0.4886434 0.6267089 -0.0036216406 0.48873124
        0.6279737 -0.0037128918 0.488813 0.49417478 -0.0023098704 0.47757116
        0.5016127 -0.002321569 0.47830713 0.5090252 -0.002333236 0.47902825
        0.51637465 -0.002344848 0.47973123 0.5236246 -0.0023563877 0.48041293
        0.53074074 -0.0023678378 0.4810708 0.53769124 -0.0023791841 0.48170236
        0.5444474 -0.0023904124 0.4823059 0.5509842 -0.0024015114 0.48287994
        0.5572802 -0.002412471 0.48342344 0.56331795 -0.0024232832 0.48393592
        0.569084 -0.0024339424 0.48441723 0.5745686 -0.0024444454 0.48486754
        0.5797659 -0.0024547947 0.48528737 0.5846731 -0.0024650039 0.4856775
        0.5892906 -0.0024751152 0.4860389 0.59362143 -0.0024852306 0.48637274
        0.59767056 -0.0024955785 0.4866802 0.6014444 -0.0025066219 0.4869627
        0.60495013 -0.0025192313 0.4872214 0.6081945 -0.002534907 0.4874575
        0.61118305 -0.0025560167 0.48767215 0.6139201 -0.002585901 0.4878661
        0.61640906 -0.0026285427 0.48804024 0.6186562 -0.0026873695 0.4881955
        0.6206753 -0.0027632744 0.48833337 0.62249 -0.0028532662 0.48845586
        0.62413085 -0.0029508271 0.48856533 0.62563056 -0.0030474048 0.48866427
        0.6270192 -0.003134628 0.48875493 0.6283208 -0.0032061632 0.48883912
        0.49417478 -0.002008009 0.47757253 0.5016129 -0.0020167148 0.47830853
        0.5090257 -0.0020253945 0.4790297 0.51637536 -0.00203403 0.4797327
        0.52362555 -0.0020426065 0.48041445 0.53074193 -0.0020511108 0.48107237
        0.53769267 -0.0020595307 0.481704 0.54444915 -0.0020678553 0.48230755
        0.55098623 -0.002076076 0.4828816 0.55728257 -0.0020841851 0.48342517
        0.5633207 -0.002092177 0.4839377 0.56908715 -0.0021000488 0.48441905
        0.5745723 -0.0021077977 0.4848694 0.5797701 -0.0021154264 0.48528934
        0.5846779 -0.0021229456 0.4856795 0.58929616 -0.0021303848 0.48604098
        0.5936279 -0.0021378156 0.48637488 0.59767836 -0.0021453956 0.4866825
        0.6014544 -0.0021534467 0.48696512 0.60496366 -0.0021625732 0.4872241
        0.60821414 -0.0021738259 0.48746067 0.6112132 -0.0021888865 0.48767605
        0.61396724 -0.0022101859 0.4878713 0.61648214 -0.002240748 0.48804724
        0.6187652 -0.002283375 0.48820508 0.6208291 -0.0023390641 0.48834607
        0.62269443 -0.0024056437 0.48847204 0.624388 -0.0024778165 0.48858508
        0.62593865 -0.0025485083 0.48868743 0.627373 -0.002610932 0.4887811
        0.6287109 -0.0026600913 0.4888676 0.49417478 -0.0017061469 0.4775737
        0.50161314 -0.0017116631 0.47830975 0.5090261 -0.0017171488 0.47903094
        0.516376 -0.0017225905 0.47973397 0.5236265 -0.0017279764 0.4804158
        0.5307431 -0.0017332957 0.4810737 0.53769416 -0.0017385394 0.4817054
        0.54445094 -0.0017436995 0.48230898 0.5509883 -0.0017487697 0.48288307
        0.557285 -0.0017537448 0.4834267 0.56332356 -0.0017586213 0.48393926
        0.5690904 -0.0017633974 0.48442066 0.5745761 -0.0017680725 0.48487106
        0.5797744 -0.0017726488 0.48529103 0.5846828 -0.001777133 0.4856813
        0.5893019 -0.0017815416 0.48604283 0.5936346 -0.0017859135 0.48637682
        0.59768647 -0.0017903312 0.48668453 0.6014647 -0.001794963 0.48696736
        0.60497767 -0.0018001242 0.48722658 0.60823464 -0.0018063661 0.48746365
        0.61124486 -0.001814583 0.48767987 0.6140174 -0.0018261014 0.4878764
        0.616561 -0.0018426465 0.4880544 0.61888504 -0.0018659437 0.4882151
        0.6210017 -0.0018967795 0.48835972 0.6229278 -0.0019340031 0.48848984
        0.62468433 -0.0019743494 0.48860708 0.6262939 -0.0020133266 0.48871332
        0.6277769 -0.0020467162 0.48881006 0.6291489 -0.0020716216 0.4888987
        0.49417478 -0.0014042842 0.47757468 0.5016134 -0.0014064485 0.47831076
        0.5090266 -0.0014085693 0.47903198 0.5163767 -0.0014106366 0.47973505
        0.5236274 -0.0014126416 0.4804169 0.5307443 -0.0014145762 0.48107484
        0.53769565 -0.0014164337 0.48170656 0.5444527 -0.0014182087 0.4823102
        0.55099046 -0.001419897 0.48288432 0.5572875 -0.0014214955 0.48342797
        0.5633264 -0.0014230028 0.4839406 0.56909376 -0.0014244185 0.48442203
        0.5745799 -0.0014257431 0.48487252 0.5797788 -0.001426978 0.4852925
        0.5846879 -0.0014281258 0.48568282 0.58930767 -0.001429189 0.48604444
        0.59364146 -0.0014301714 0.48637852 0.5976948 -0.0014310766 0.48668635
        0.6014753 -0.0014319086 0.48696932 0.60499215 -0.0014326718 0.48722884
        0.6082558 -0.0014333703 0.48746642 0.6112778 -0.0014340086 0.48768348
        0.6140702 -0.0014345906 0.4878814 0.6166454 -0.0014351206 0.48806164
        0.61901623 -0.0014356025 0.48822555 0.6211953 -0.0014360403 0.48837444
        0.6231951 -0.0014364374 0.48850948 0.62502795 -0.001436797 0.48863176
        0.6267056 -0.0014371221 0.48874232 0.62823945 -0.0014374158 0.48884225
        0.6296404 -0.0014376814 0.48893252
        <InformationKey name="L2_NORM_RANGE" location="vtkDataArray" length="2">
          <Value index="0">
            0.68723229934
          </Value>
          <Value index="1">
            0.79718511653
          </Value>
        </InformationKey>
      </DataArray>
    </Points>
  </Piece>
  </StructuredGrid>
</VTKFile>
