<?xml version="1.0"?>
<VTKFile type="StructuredGrid" version="0.1" byte_order="LittleEndian">
    <StructuredGrid WholeExtent="0 30 0 40 0 0">
        <Piece Extent="0 30 0 40 0 0">
            <Points>
                <DataArray type="Float32" NumberOfComponents="3" format="ascii">
                        0.1697338475831615        0.0420103658105922    0.0
                        0.1704697238881110        0.0420103658105922    0.0
                        0.1713352804667264        0.0420103658105922    0.0
                        0.1723528742582377        0.0420103658105922    0.0
                        0.1735485257580832        0.0420103658105922    0.0
                        0.1749524459828030        0.0420103658105922    0.0
                        0.1765996105741776        0.0420103658105922    0.0
                        0.1785303731431349        0.0420103658105922    0.0
                        0.1807911034352147        0.0420103658105922    0.0
                        0.1834348269534815        0.0420103658105922    0.0
                        0.1865218307675993        0.0420103658105922    0.0
                        0.1901201848876194        0.0420103658105922    0.0
                        0.1943061094950946        0.0420103658105922    0.0
                        0.1991640956179708        0.0420103658105922    0.0
                        0.2047866613571786        0.0420103658105922    0.0
                        0.2112735995398058        0.0420103658105922    0.0
                        0.2187305494029024        0.0420103658105922    0.0
                        0.2272667105533854        0.0420103658105922    0.0
                        0.2369915205408083        0.0420103658105922    0.0
                        0.2480101488987005        0.0420103658105922    0.0
                        0.2604177327668451        0.0420103658105922    0.0
                        0.2742924032600802        0.0420103658105922    0.0
                        0.2896873329957752        0.0420103658105922    0.0
                        0.3066222673397614        0.0420103658105922    0.0
                        0.3250752606307799        0.0420103658105922    0.0
                        0.3449755774827285        0.0420103658105922    0.0
                        0.3661988719598283        0.0420103658105922    0.0
                        0.3885657498277652        0.0420103658105922    0.0
                        0.4118445917960293        0.0420103658105922    0.0
                        0.4357590524131539        0.0420103658105922    0.0
                        0.4600000000000000        0.0420103658105922    0.0
                        0.1699850086177431        0.0420249278963214    0.0
                        0.1707163820187490        0.0420225322598771    0.0
                        0.1716494361127458        0.0420362503712373    0.0
                        0.1727576325994052        0.0420644802851541    0.0
                        0.1740266954821801        0.0421037926767518    0.0
                        0.1754601325274606        0.0421497595812059    0.0
                        0.1770821190029118        0.0421957202632344    0.0
                        0.1789427449965323        0.0422338096702293    0.0
                        0.1811112943238319        0.0422587582866515    0.0
                        0.1836614349403280        0.0422710064564507    0.0
                        0.1866661073510901        0.0422753936875801    0.0
                        0.1902021087383702        0.0422776907465824    0.0
                        0.1943495167375636        0.0422808986853375    0.0
                        0.1991884335814587        0.0422847532991962    0.0
                        0.2048034124978166        0.0422886397315461    0.0
                        0.2112879838742181        0.0422923900009843    0.0
                        0.2187443976863601        0.0422959837990649    0.0
                        0.2272804424245554        0.0422994133447680    0.0
                        0.2370050938798513        0.0423026664352782    0.0
                        0.2480234054849729        0.0423057295488729    0.0
                        0.2604304951702020        0.0423085903457362    0.0
                        0.2743044959334214        0.0423112386773604    0.0
                        0.2896985864599301        0.0423136669716380    0.0
                        0.3066325201272857        0.0423158703905993    0.0
                        0.3250843616400805        0.0423178468641855    0.0
                        0.3449833889604893        0.0423195970325137    0.0
                        0.3662052729093992        0.0423211241225003    0.0
                        0.3885706395376939        0.0423224337917941    0.0
                        0.4118478931367209        0.0423235340068958    0.0
                        0.4357607145405452        0.0423244349888271    0.0
                        0.4600000000000000        0.0423251468228117    0.0
                        0.1702096477466742        0.0420375416419654    0.0
                        0.1709729968247588        0.0420392552409839    0.0
                        0.1719994159145593        0.0420774654897887    0.0
                        0.1731919894619800        0.0421430508376343    0.0
                        0.1745026974989708        0.0422250463322371    0.0
                        0.1759269695080251        0.0423119424637666    0.0
                        0.1774994312328472        0.0423914891939940    0.0
                        0.1792888810741759        0.0424533553467010    0.0
                        0.1813797820675876        0.0424928514689548    0.0
                        0.1838544984407989        0.0425126413302663    0.0
                        0.1867918730117336        0.0425205255687237    0.0
                        0.1902752017384551        0.0425254245475444    0.0
                        0.1943889852724913        0.0425320602858446    0.0
                        0.1992108650804232        0.0425399276673686    0.0
                        0.2048189846918379        0.0425479492640118    0.0
                        0.2113014167399142        0.0425558151639701    0.0
                        0.2187573647920687        0.0425634815353048    0.0
                        0.2272933323808661        0.0425709321386421    0.0
                        0.2370178711542773        0.0425781444870596    0.0
                        0.2480359257730245        0.0425850935036833    0.0
                        0.2604425939299578        0.0425917553714830    0.0
                        0.2743160075347774        0.0425981091995366    0.0
                        0.2897093478540726        0.0426041377274846    0.0
                        0.3066423725363092        0.0426098276820560    0.0
                        0.3250931527445664        0.0426151699476051    0.0
                        0.3449909758179276        0.0426201596005844    0.0
                        0.3662115254382316        0.0426247958481739    0.0
                        0.3885754442910856        0.0426290819277572    0.0
                        0.4118511570283747        0.0426330250890474    0.0
                        0.4357623681557928        0.0426366367273244    0.0
                        0.4600000000000000        0.0426399278350312    0.0
                        0.1704088242444268        0.0420484006878766    0.0
                        0.1712530288636427        0.0420645837370348    0.0
                        0.1723881901759813        0.0421390934735072    0.0
                        0.1736419140927268        0.0422477490175010    0.0
                        0.1749554807186323        0.0423694246912464    0.0
                        0.1763400339315114        0.0424869643997878    0.0
                        0.1778526478259849        0.0425871845027928    0.0
                        0.1795776025231856        0.0426620394832775    0.0
                        0.1816049899051636        0.0427095450911328    0.0
                        0.1840190057689535        0.0427341972473287    0.0
                        0.1869012231362571        0.0427452114853048    0.0
                        0.1903400900934852        0.0427530082892946    0.0
                        0.1944246630468300        0.0427632161393868    0.0
                        0.1992314358261377        0.0427751597747925    0.0
                        0.2048334042372248        0.0427874475149708    0.0
                        0.2113139133245075        0.0427996621536545    0.0
                        0.2187694535473017        0.0428117403676923    0.0
                        0.2273053706892744        0.0428236619976164    0.0
                        0.2370298311744933        0.0428354011800366    0.0
                        0.2480476789771900        0.0428469288729522    0.0
                        0.2604539910137763        0.0428582171590811    0.0
                        0.2743268954959367        0.0428692412387660    0.0
                        0.2897195730226646        0.0428799803263139    0.0
                        0.3066517818397338        0.0428904181467508    0.0
                        0.3251015955005181        0.0429005432238480    0.0
                        0.3449983063082500        0.0429103490208447    0.0
                        0.3662176061496070        0.0429198339867534    0.0
                        0.3885801495981592        0.0429290015887655    0.0
                        0.4118543770232443        0.0429378605050252    0.0
                        0.4357640122814440        0.0429464250957000    0.0
                        0.4600000000000000        0.0429547088472508    0.0
                        0.1705924088976785        0.0420581400328773    0.0
                        0.1715715376838442        0.0421038632907667    0.0
                        0.1728136313217926        0.0422256839993848    0.0
                        0.1740908097726499        0.0423778110637107    0.0
                        0.1753724557186462        0.0425313439605225    0.0
                        0.1767016442118727        0.0426687476023713    0.0
                        0.1781559020074515        0.0427804353097873    0.0
                        0.1798258450599323        0.0428622424268546    0.0
                        0.1818007961681115        0.0429145134830716    0.0
                        0.1841642194051746        0.0429427576582210    0.0
                        0.1869994309242027        0.0429567565305007    0.0
                        0.1903994240923497        0.0429676030291649    0.0
                        0.1944578372724295        0.0429814088871941    0.0
                        0.1992508404838384        0.0429973913329930    0.0
                        0.2048471401065085        0.0430139435934583    0.0
                        0.2113258626958808        0.0430305654283049    0.0
                        0.2187810196886307        0.0430471778045544    0.0
                        0.2273168891794778        0.0430637610242901    0.0
                        0.2370412803315962        0.0430802923520773    0.0
                        0.2480589424960032        0.0430967464014233    0.0
                        0.2604649316988311        0.0431130993803644    0.0
                        0.2743373708575198        0.0431293312766482    0.0
                        0.2897294378434011        0.0431454269470681    0.0
                        0.3066608890976951        0.0431613768029650    0.0
                        0.3251097977965668        0.0431771772940559    0.0
                        0.3450054580571844        0.0431928312628037    0.0
                        0.3662235664546983        0.0432083482394280    0.0
                        0.3885847856231343        0.0432237447888733    0.0
                        0.4118575676021578        0.0432390451444388    0.0
                        0.4357656514529889        0.0432542823197370    0.0
                        0.4600000000000000        0.0432694898594703    0.0
                        0.1707315979251266        0.0420653774465033    0.0
                        0.1719474693369492        0.0421636927571573    0.0
                        0.1732528600280744        0.0423364366067671    0.0
                        0.1744955283669858        0.0425201521514649    0.0
                        0.1757114298909724        0.0426876869537590    0.0
                        0.1769772980495585        0.0428291157634294    0.0
                        0.1783800065661788        0.0429413818529177    0.0
                        0.1800074093058390        0.0430235320378669    0.0
                        0.1819442130797589        0.0430769072038805    0.0
                        0.1842714768754945        0.0431070429876800    0.0
                        0.1870728690013838        0.0431235003436073    0.0
                        0.1904443727022216        0.0431372912908542    0.0
                        0.1944832219577206        0.0431545596084922    0.0
                        0.1992657892868271        0.0431744321665381    0.0
                        0.2048577942044463        0.0431951861757225    0.0
                        0.2113352128698836        0.0432162775998848    0.0
                        0.2187901576677418        0.0432376308143597    0.0
                        0.2273260786901547        0.0432592477570287    0.0
                        0.2370505054716765        0.0432811353897610    0.0
                        0.2480681118763205        0.0433033039384031    0.0
                        0.2604739356227868        0.0433257715217019    0.0
                        0.2743460928337692        0.0433485676536257    0.0
                        0.2897377556753302        0.0433717362346837    0.0
                        0.3066686745077786        0.0433953387888956    0.0
                        0.3251169162832555        0.0434194583968921    0.0
                        0.3450117691812815        0.0434442048078146    0.0
                        0.3662289244654299        0.0434697214603755    0.0
                        0.3885890402147494        0.0434961956159718    0.0
                        0.4118605644638423        0.0435238737184976    0.0
                        0.4357672321017381        0.0435530855442299    0.0
                        0.4600000000000000        0.0435842708716898    0.0
                        0.1709554354460026        0.0420770886450174    0.0
                        0.1724108313349450        0.0422562532948775    0.0
                        0.1737250675516045        0.0424841628272096    0.0
                        0.1749255522635816        0.0427033533454350    0.0
                        0.1760923389811510        0.0428934845631331    0.0
                        0.1773121561765555        0.0430494544674022    0.0
                        0.1786714315232309        0.0431711225548189    0.0
                        0.1802550499631962        0.0432594243273842    0.0
                        0.1821457812064076        0.0433170834421274    0.0
                        0.1844251089697100        0.0433505211477122    0.0
                        0.1871796409519105        0.0433697711113158    0.0
                        0.1905108532052116        0.0433862080424458    0.0
                        0.1945216545914412        0.0434063533305660    0.0
                        0.1992890253775966        0.0434294036147458    0.0
                        0.2048745575785474        0.0434535000443094    0.0
                        0.2113497553321740        0.0434780035696183    0.0
                        0.2188040312424771        0.0435028038611959    0.0
                        0.2273396676117297        0.0435278922122097    0.0
                        0.2370638044028097        0.0435532715343179    0.0
                        0.2480810124856505        0.0435789495152246    0.0
                        0.2604863068184474        0.0436049421547226    0.0
                        0.2743577981238850        0.0436312771071215    0.0
                        0.2897486565560645        0.0436579966331327    0.0
                        0.3066786320560318        0.0436851607441801    0.0
                        0.3251257932029683        0.0437128509507614    0.0
                        0.3450194325464699        0.0437411750629766    0.0
                        0.3662352490474718        0.0437702737265841    0.0
                        0.3885939121776915        0.0438003298247681    0.0
                        0.4118638851478764        0.0438315827313990    0.0
                        0.4357689215808175        0.0438643507177138    0.0
                        0.4600000000000000        0.0438990518839094    0.0
                        0.1714613855393276        0.0421277815794715    0.0
                        0.1729403382420253        0.0423939320452649    0.0
                        0.1742134529183196        0.0426764736502592    0.0
                        0.1753737853526431        0.0429357653046488    0.0
                        0.1765091145230704        0.0431588277184777    0.0
                        0.1777017030817922        0.0433427923228376    0.0
                        0.1790304067259541        0.0434868718252905    0.0
                        0.1805741869354885        0.0435911823115200    0.0
                        0.1824140535087566        0.0436588870865586    0.0
                        0.1846342885560109        0.0436977889087052    0.0
                        0.1873277989279354        0.0437192743677022    0.0
                        0.1906050646307706        0.0437357775034614    0.0
                        0.1945775894913014        0.0437549822034476    0.0
                        0.1993237637063827        0.0437768624696670    0.0
                        0.2048998237632020        0.0437997289616837    0.0
                        0.2113712788311699        0.0438229248643982    0.0
                        0.2188239331507380        0.0438463249076464    0.0
                        0.2273585285804010        0.0438699184501648    0.0
                        0.2370816976242498        0.0438937097111824    0.0
                        0.2480978770299138        0.0439177080734671    0.0
                        0.2605020513288490        0.0439419315077118    0.0
                        0.2743723242189547        0.0439664100088124    0.0
                        0.2897618645124355        0.0439911884651708    0.0
                        0.3066904239062809        0.0440163295997044    0.0
                        0.3251360759369838        0.0440419174348123    0.0
                        0.3450281216618690        0.0440680617305376    0.0
                        0.3662422722854012        0.0440949040648709    0.0
                        0.3885992131831535        0.0441226266542881    0.0
                        0.4118674267523302        0.0441514658324587    0.0
                        0.4357706884015059        0.0441817333268399    0.0
                        0.4600000000000000        0.0442138328961289    0.0
                        0.1720738943818524        0.0422448735230513    0.0
                        0.1734741333504466        0.0425809394054340    0.0
                        0.1746908172788426        0.0429126201978240    0.0
                        0.1758080214473163        0.0432086982295512    0.0
                        0.1769097662136161        0.0434615056194328    0.0
                        0.1780725527219585        0.0436693939870801    0.0
                        0.1793694961682412        0.0438313423186119    0.0
                        0.1808752320860061        0.0439477454128833    0.0
                        0.1826686852168646        0.0440228380762095    0.0
                        0.1848352539595490        0.0440656507305967    0.0
                        0.1874725236693997        0.0440883903715655    0.0
                        0.1906989846976843        0.0441040476792352    0.0
                        0.1946345945385190        0.0441212302783132    0.0
                        0.1993598831670058        0.0441407448446890    0.0
                        0.2049264126206264        0.0441611663726538    0.0
                        0.2113939744713528        0.0441818572444594    0.0
                        0.2188448439210763        0.0442026871623221    0.0
                        0.2273782451704611        0.0442236468841807    0.0
                        0.2371003091803683        0.0442447436240979    0.0
                        0.2481153386352049        0.0442659895583727    0.0
                        0.2605182861350139        0.0442874054145493    0.0
                        0.2743872467994150        0.0443090240636546    0.0
                        0.2897753868467997        0.0443308933087890    0.0
                        0.3067024587841256        0.0443530786229167    0.0
                        0.3251465404011998        0.0443756663387168    0.0
                        0.3450369407323075        0.0443987677453302    0.0
                        0.3662493828041172        0.0444225247469139    0.0
                        0.3886045675265716        0.0444471181486215    0.0
                        0.4118709961152456        0.0444727804241274    0.0
                        0.4357724653560281        0.0444998159461205    0.0
                        0.4600000000000000        0.0445286139083484    0.0
                        0.1726499079083578        0.0424136863676310    0.0
                        0.1739883655794110        0.0428161953461050    0.0
                        0.1751461915984191        0.0431899642109072    0.0
                        0.1762150301103649        0.0435153486596943    0.0
                        0.1772768793696983        0.0437892726458469    0.0
                        0.1784044841433301        0.0440116841589059    0.0
                        0.1796675753895474        0.0441828610562968    0.0
                        0.1811375875177378        0.0443048515746775    0.0
                        0.1828908284362340        0.0443833238954975    0.0
                        0.1850121382306854        0.0444280585935304    0.0
                        0.1876018036747768        0.0444513691187099    0.0
                        0.1907845232061831        0.0444661980819597    0.0
                        0.1946876398490544        0.0444816307328201    0.0
                        0.1993941889338207        0.0444991049105679    0.0
                        0.2049520601016092        0.0445174188531623    0.0
                        0.2114160560486727        0.0445359480519514    0.0
                        0.2188652743522726        0.0445545541112652    0.0
                        0.2273975561484208        0.0445732272314540    0.0
                        0.2371185730004929        0.0445919764680921    0.0
                        0.2481325042202782        0.0446108159276900    0.0
                        0.2605342726389364        0.0446297682517580    0.0
                        0.2744019650865204        0.0446488682849845    0.0
                        0.2897887450999847        0.0446681657728545    0.0
                        0.3067143658095902        0.0446877279045982    0.0
                        0.3251569090353822        0.0447076422403502    0.0
                        0.3450456915661648        0.0447280204791471    0.0
                        0.3662564480654129        0.0447490037074369    0.0
                        0.3886098948649223        0.0447707701591658    0.0
                        0.4118745519911892        0.0447935472778097    0.0
                        0.4357742377303372        0.0448176309038789    0.0
                        0.4600000000000000        0.0448433949205680    0.0
                        0.1732220141298774        0.0426427985398476    0.0
                        0.1744836873860216        0.0430999476305459    0.0
                        0.1755768449366543        0.0435072061263232    0.0
                        0.1765930911553463        0.0438536725877631    0.0
                        0.1776116660312695        0.0441403234039675    0.0
                        0.1787025283832544        0.0443694217217929    0.0
                        0.1799326359031225        0.0445435203560922    0.0
                        0.1813701554111790        0.0446667354418046    0.0
                        0.1830883556185828        0.0447459656109190    0.0
                        0.1851707651694182        0.0447912625039974    0.0
                        0.1877193199218116        0.0448145649580119    0.0
                        0.1908637288525396        0.0448283804224318    0.0
                        0.1947378510875363        0.0448419942589565    0.0
                        0.1994273871793477        0.0448573701248149    0.0
                        0.2049772877572387        0.0448735237401473    0.0
                        0.2114379485501794        0.0448898482077172    0.0
                        0.2188855838684813        0.0449061973896376    0.0
                        0.2274167675775992        0.0449225603038392    0.0
                        0.2371367484036404        0.0449389473165477    0.0
                        0.2481495912976093        0.0449553739843589    0.0
                        0.2605501908288382        0.0449718643251592    0.0
                        0.2744166254649569        0.0449884545205029    0.0
                        0.2898020557460889        0.0450051955189870    0.0
                        0.3067262350996830        0.0450221553910490    0.0
                        0.3251672490740849        0.0450394220065176    0.0
                        0.3450544219464249        0.0450571064885648    0.0
                        0.3662634997984335        0.0450753480697263    0.0
                        0.3886152142257311        0.0450943213435055    0.0
                        0.4118781039802090        0.0451142476395402    0.0
                        0.4357760088443397        0.0451354131899260    0.0
                        0.4600000000000000        0.0451581759327875    0.0
                        0.1737733137189535        0.0429288712555006    0.0
                        0.1749530521183081        0.0434303063703834    0.0
                        0.1759774037449227        0.0438610486805785    0.0
                        0.1769378989798071        0.0442189094139831    0.0
                        0.1779115909361106        0.0445093182149919    0.0
                        0.1789661032258812        0.0447376960686275    0.0
                        0.1801654171187002        0.0449093480591880    0.0
                        0.1815740901261482        0.0450303227838475    0.0
                        0.1832621433294871        0.0451082997543313    0.0
                        0.1853114449256449        0.0451531375043876    0.0
                        0.1878248873252867        0.0451760279308520    0.0
                        0.1909361948159638        0.0451887585271235    0.0
                        0.1947848568633896        0.0452005966872280    0.0
                        0.1994592195993999        0.0452139345985305    0.0
                        0.2050019185669318        0.0452279935354662    0.0
                        0.2114595187134171        0.0452421862353359    0.0
                        0.2189056643433352        0.0452563586853016    0.0
                        0.2274357891507172        0.0452704979447336    0.0
                        0.2371547596962091        0.0452846150752446    0.0
                        0.2481665368247259        0.0452987265546189    0.0
                        0.2605659887714675        0.0453128572114986    0.0
                        0.2744311857785322        0.0453270439155696    0.0
                        0.2898152852128589        0.0453413380811920    0.0
                        0.3067380405722246        0.0453558078409410    0.0
                        0.3251775409020907        0.0453705404848361    0.0
                        0.3450631177522176        0.0453856456136480    0.0
                        0.3662705284417372        0.0454012596165744    0.0
                        0.3886205197039122        0.0454175524286658    0.0
                        0.4118816489627328        0.0454347382323748    0.0
                        0.4357777775311011        0.0454530926186108    0.0
                        0.4600000000000000        0.0454729569450070    0.0
                        0.1743004201364565        0.0432725340952569    0.0
                        0.1753917595842590        0.0438052506663564    0.0
                        0.1763440220842502        0.0442479756266038    0.0
                        0.1772473994266173        0.0446069659144867    0.0
                        0.1781767665827326        0.0448926441961373    0.0
                        0.1791970206572415        0.0451140095040320    0.0
                        0.1803685468269559        0.0452790010351525    0.0
                        0.1817520458638394        0.0453951289323917    0.0
                        0.1834143474822590        0.0454703569451513    0.0
                        0.1854355969104779        0.0455139681963821    0.0
                        0.1879192188792924        0.0455361338565640    0.0
                        0.1910021594824585        0.0455477166720746    0.0
                        0.1948287041516213        0.0455578049980110    0.0
                        0.1994896996474226        0.0455691440224849    0.0
                        0.2050259703293193        0.0455811516941752    0.0
                        0.2114807877807556        0.0455932628967717    0.0
                        0.2189255367199905        0.0456053159835106    0.0
                        0.2274546399632067        0.0456172954689110    0.0
                        0.2371726237109123        0.0456292125808226    0.0
                        0.2481833553125409        0.0456410842471524    0.0
                        0.2605816787043189        0.0456529355958419    0.0
                        0.2744456560902356        0.0456648035933941    0.0
                        0.2898284415269709        0.0456767394428420    0.0
                        0.3067497883916159        0.0456888105830342    0.0
                        0.3251877890281698        0.0457011029000901    0.0
                        0.3450717820715282        0.0457137235932939    0.0
                        0.3662775359196405        0.0457268052875769    0.0
                        0.3886258123320566        0.0457405123114547    0.0
                        0.4118851873576131        0.0457550507378663    0.0
                        0.4357795438700842        0.0457706845568798    0.0
                        0.4600000000000000        0.0457877379572266    0.0
                        0.1747960609080590        0.0436721095321455    0.0
                        0.1757945916305887        0.0442216430927209    0.0
                        0.1766732379459098        0.0446637194347347    0.0
                        0.1775201568677711        0.0450134775459896    0.0
                        0.1784075631944486        0.0452867101570896    0.0
                        0.1793967468493250        0.0454958389114736    0.0
                        0.1805438877551920        0.0456508811005704    0.0
                        0.1819058060993619        0.0457601943385406    0.0
                        0.1835463764485026        0.0458315592818839    0.0
                        0.1855441133938557        0.0458733764198996    0.0
                        0.1880027137852418        0.0458945929787837    0.0
                        0.1910616945141706        0.0459049987083607    0.0
                        0.1948693461383749        0.0459133822448265    0.0
                        0.1995187770290207        0.0459227798615382    0.0
                        0.2050494106865907        0.0459327975340748    0.0
                        0.2115017349241501        0.0459428944215537    0.0
                        0.2189451859825352        0.0459529015886390    0.0
                        0.2274733083585043        0.0459628005133136    0.0
                        0.2371903311529908        0.0459726021064430    0.0
                        0.2482000392986555        0.0459823233085539    0.0
                        0.2605972546307121        0.0459919890724549    0.0
                        0.2744600315875080        0.0460016359123323    0.0
                        0.2898415208397481        0.0460113141902728    0.0
                        0.3067614755015318        0.0460210899480995    0.0
                        0.3251979910556900        0.0460310469007709    0.0
                        0.3450804130651348        0.0460412890267276    0.0
                        0.3662845208709441        0.0460519443278763    0.0
                        0.3886310911638576        0.0460631706410079    0.0
                        0.4118887185807783        0.0460751650300797    0.0
                        0.4357813075923794        0.0460881789858878    0.0
                        0.4600000000000000        0.0461025189694461    0.0
                        0.1752537780055982        0.0441256978698296    0.0
                        0.1761568979768732        0.0446756615593646    0.0
                        0.1769625114256062        0.0451037645764407    0.0
                        0.1777556809738204        0.0454344105226038    0.0
                        0.1786049124333365        0.0456885289344332    0.0
                        0.1795668694213467        0.0458812262202885    0.0
                        0.1806931651590871        0.0460237960524277    0.0
                        0.1820369435572915        0.0461248208458120    0.0
                        0.1836594699430391        0.0461914984306796    0.0
                        0.1856378058029024        0.0462311066582394    0.0
                        0.1880757685313133        0.0462512181349964    0.0
                        0.1911149058257732        0.0462604424166648    0.0
                        0.1949067689593128        0.0462671788607958    0.0
                        0.1995464218452916        0.0462747044487596    0.0
                        0.2050722190938795        0.0462828048834595    0.0
                        0.2115223471314573        0.0462909653870271    0.0
                        0.2189646030856695        0.0462990101775288    0.0
                        0.2274917875602200        0.0463069173020151    0.0
                        0.2372078767812156        0.0463146969222578    0.0
                        0.2482165846750601        0.0463223655919580    0.0
                        0.2606127132996612        0.0463299476542641    0.0
                        0.2744743096711908        0.0463374786664040    0.0
                        0.2898545210517995        0.0463450075696202    0.0
                        0.3067731001931831        0.0463525983592211    0.0
                        0.3252081455918981        0.0463603318693377    0.0
                        0.3450890096088968        0.0463683080985523    0.0
                        0.3662914824129302        0.0463766496293132    0.0
                        0.3886363555446044        0.0463855069846316    0.0
                        0.4118922421999176        0.0463950673831167    0.0
                        0.4357830684849239        0.0464055689800221    0.0
                        0.4600000000000000        0.0464172999816656    0.0
                        0.1756667498586132        0.0446302955200737    0.0
                        0.1764744836689717        0.0451627002239279    0.0
                        0.1772100712502079        0.0455634003836619    0.0
                        0.1779540560564864        0.0458659657378978    0.0
                        0.1787699002847252        0.0460954244220983    0.0
                        0.1797088144098365        0.0462684057525769    0.0
                        0.1808178107631020        0.0463966022469189    0.0
                        0.1821467306747211        0.0464882551603091    0.0
                        0.1837546299919005        0.0465496521219154    0.0
                        0.1857173389551489        0.0465867635906980    0.0
                        0.1881387164755374        0.0466056768145460    0.0
                        0.1911618860158415        0.0466137448477639    0.0
                        0.1949409588294066        0.0466189121777994    0.0
                        0.1995726017872759        0.0466246551270689    0.0
                        0.2050943694343496        0.0466309307576106    0.0
                        0.2115426048730333        0.0466372516884790    0.0
                        0.2189837727338894        0.0466434357835834    0.0
                        0.2275100651861524        0.0466494573487387    0.0
                        0.2372252504568285        0.0466553254115002    0.0
                        0.2482329831254972        0.0466610557767005    0.0
                        0.2606280479043146        0.0466666717818685    0.0
                        0.2744884847968892        0.0466722075661731    0.0
                        0.2898674376838286        0.0466777101189017    0.0
                        0.3067846588938204        0.0466832407922436    0.0
                        0.3252182498420001        0.0466888768859729    0.0
                        0.3450975695796804        0.0466947137186460    0.0
                        0.3662984190033887        0.0467008677170780    0.0
                        0.3886416044319926        0.0467074813287666    0.0
                        0.4118957575964229        0.0467147311500298    0.0
                        0.4357848262775055        0.0467228412216610    0.0
                        0.4600000000000000        0.0467320809938851    0.0
                        0.1760282387315819        0.0451818764230359    0.0
                        0.1767438060598839        0.0456774871886218    0.0
                        0.1774148709804210        0.0460378606113700    0.0
                        0.1781157810053214        0.0463045904932288    0.0
                        0.1789036738006372        0.0465049518789479    0.0
                        0.1798238705649903        0.0466557249412625    0.0
                        0.1809190539380685        0.0467681617478923    0.0
                        0.1822362443590903        0.0468496788906315    0.0
                        0.1838327094454388        0.0469053941640313    0.0
                        0.1857832924347799        0.0469398315412855    0.0
                        0.1881918639960711        0.0469575136796278    0.0
                        0.1912027337243925        0.0469644847933227    0.0
                        0.1949719128309436        0.0469681877075048    0.0
                        0.1995972887553742        0.0469722639678101    0.0
                        0.2051158345137792        0.0469768334164095    0.0
                        0.2115624854657556        0.0469814369476435    0.0
                        0.2190026760548072        0.0469858866075773    0.0
                        0.2275281254198624        0.0469901527340045    0.0
                        0.2372424389123605        0.0469942428837690    0.0
                        0.2482492235594998        0.0469981717883320    0.0
                        0.2606432492352552        0.0470019614224900    0.0
                        0.2745025493925703        0.0470056440900946    0.0
                        0.2898802645966426        0.0470092643460203    0.0
                        0.3067961467217079        0.0470128803549705    0.0
                        0.3252283000271466        0.0470165652844916    0.0
                        0.3451060901605906        0.0470204091302462    0.0
                        0.3663053286540653        0.0470245214854878    0.0
                        0.3886468365358281        0.0470290360179348    0.0
                        0.4118992640466709        0.0470341179803717    0.0
                        0.4357865806783245        0.0470399765723793    0.0
                        0.4600000000000000        0.0470468620061047    0.0
                        0.1763317152488437        0.0457751832444190    0.0
                        0.1769620250616564        0.0462140952439662    0.0
                        0.1775764675932150        0.0465223141946028    0.0
                        0.1782416302043214        0.0467468467878613    0.0
                        0.1790073957297895        0.0469147244901726    0.0
                        0.1799132254567089        0.0470414959042195    0.0
                        0.1809979905198627        0.0471372308611954    0.0
                        0.1823064364505841        0.0472081253921303    0.0
                        0.1838944689237467        0.0472579288602675    0.0
                        0.1858361985631818        0.0472896186484799    0.0
                        0.1882355112277990        0.0473061000244317    0.0
                        0.1912375631120044        0.0473120756415777    0.0
                        0.1949996430167897        0.0473144548842763    0.0
                        0.1996204605814654        0.0473170162073722    0.0
                        0.2051365866467689        0.0473200333729056    0.0
                        0.2115819631149371        0.0473230760362972    0.0
                        0.2190212903734632        0.0473259510329390    0.0
                        0.2275459486467454        0.0473286246010742    0.0
                        0.2372594253213092        0.0473311025433221    0.0
                        0.2482652916641360        0.0473333982316836    0.0
                        0.2606583052496427        0.0473355319608544    0.0
                        0.2745164934704274        0.0473375338261627    0.0
                        0.2898929936625150        0.0473394455136884    0.0
                        0.3068075572262505        0.0473413215083232    0.0
                        0.3252382911958137        0.0473432303019186    0.0
                        0.3451145677200473        0.0473452559798566    0.0
                        0.3663122088684565        0.0473475006791091    0.0
                        0.3886520503008442        0.0473500886367396    0.0
                        0.4119027607321746        0.0473531730907350    0.0
                        0.4357883313906292        0.0473569477172885    0.0
                        0.4600000000000000        0.0473616430183242    0.0
                        0.1765711592488975        0.0464036687643889    0.0
                        0.1771270610757382        0.0467659171313027    0.0
                        0.1776949972566094        0.0470118047738037    0.0
                        0.1783326766964068        0.0471892792653421    0.0
                        0.1790823348835076        0.0473222863315949    0.0
                        0.1799780834658480        0.0474239020000484    0.0
                        0.1810556979324229        0.0475023963435705    0.0
                        0.1823582333712304        0.0475624358875448    0.0
                        0.1839406555844433        0.0476062588014401    0.0
                        0.1858765985978247        0.0476352307747849    0.0
                        0.1882699878270554        0.0476506106419436    0.0
                        0.1912665245603226        0.0476557438159834    0.0
                        0.1950241881990101        0.0476569866573643    0.0
                        0.1996421080961290        0.0476582308135541    0.0
                        0.2051566022609240        0.0476598948340065    0.0
                        0.2116010121705775        0.0476615773690945    0.0
                        0.2190395916318937        0.0476630807931514    0.0
                        0.2275635132837301        0.0476643672375297    0.0
                        0.2372761906845635        0.0476654405288977    0.0
                        0.2482811709525494        0.0476663124347395    0.0
                        0.2606732018638700        0.0476670012926746    0.0
                        0.2745303052282953        0.0476675346602244    0.0
                        0.2899056152257944        0.0476679509680949    0.0
                        0.3068188827461691        0.0476683005803689    0.0
                        0.3252482175075971        0.0476686468224207    0.0
                        0.3451229980403211        0.0476690673350279    0.0
                        0.3663190568264389        0.0476696562274294    0.0
                        0.3886572440519879        0.0476705277031525    0.0
                        0.4119062468442053        0.0476718223566372    0.0
                        0.4357900781703100        0.0476737176933415    0.0
                        0.4600000000000000        0.0476764240305437    0.0
                        0.1767413942420089        0.0470595028377744    0.0
                        0.1772377679239362        0.0473256291802550    0.0
                        0.1777714173818138        0.0475012480792054    0.0
                        0.1783905442663136        0.0476283757420603    0.0
                        0.1791300979740959        0.0477250900134721    0.0
                        0.1800198631951589        0.0478009995344836    0.0
                        0.1810933979532153        0.0478620940425078    0.0
                        0.1823926678764218        0.0479112876624353    0.0
                        0.1839721062152930        0.0479492172251705    0.0
                        0.1859051189140420        0.0479756045926817    0.0
                        0.1882957053323168        0.0479900557609913    0.0
                        0.1912898386140323        0.0479945588254380    0.0
                        0.1950456360218169        0.0479949075016900    0.0
                        0.1996622503808630        0.0479950863871588    0.0
                        0.2051758732501918        0.0479956494445341    0.0
                        0.2116196160521536        0.0479962245069186    0.0
                        0.2190575615949886        0.0479966105002691    0.0
                        0.2275808016473844        0.0479967656145272    0.0
                        0.2372927186113919        0.0479966915560601    0.0
                        0.2482968466485278        0.0479963982871148    0.0
                        0.2606879260954263        0.0479959019515391    0.0
                        0.2745439735747853        0.0479952272833281    0.0
                        0.2899181201150452        0.0479944091185745    0.0
                        0.3068301159942503        0.0479934933093703    0.0
                        0.3252580734613461        0.0479925375746647    0.0
                        0.3451313772475480        0.0479916126263003    0.0
                        0.3663258700643612        0.0479908040211168    0.0
                        0.3886624164639748        0.0479902153683717    0.0
                        0.4119097218744322        0.0479899740246413    0.0
                        0.4357918209622095        0.0479902407017259    0.0
                        0.4600000000000000        0.0479912050427633    0.0
                        0.1768384476553249        0.0477337121933178    0.0
                        0.1772947598204535        0.0478857468957925    0.0
                        0.1778083260352346        0.0479859932673073    0.0
                        0.1784179838309025        0.0480610389185451    0.0
                        0.1791530352794620        0.0481209396285860    0.0
                        0.1800404967407340        0.0481711376695197    0.0
                        0.1811126861754686        0.0482150065004746    0.0
                        0.1824110587695688        0.0482535705562817    0.0
                        0.1839898880959814        0.0482858248881881    0.0
                        0.1859225794536715        0.0483098460163115    0.0
                        0.1883132386426728        0.0483236016515551    0.0
                        0.1913078569361302        0.0483277362679591    0.0
                        0.1950641702450838        0.0483274789837149    0.0
                        0.1996809732629995        0.0483268894372111    0.0
                        0.2051944392956248        0.0483266473921563    0.0
                        0.2116377947449425        0.0483264102305921    0.0
                        0.2190752113172351        0.0483259748510962    0.0
                        0.2275978199452571        0.0483252959014304    0.0
                        0.2373090122690978        0.0483243729191425    0.0
                        0.2483123199535252        0.0483232139080043    0.0
                        0.2607024779529948        0.0483218326213066    0.0
                        0.2745574979084458        0.0483202507261136    0.0
                        0.2899305075481784        0.0483184991709653    0.0
                        0.3068412563049508        0.0483166189536304    0.0
                        0.3252678586881899        0.0483146617966491    0.0
                        0.3451397053447137        0.0483126910478051    0.0
                        0.3663326489375098        0.0483107832331501    0.0
                        0.3886675681393980        0.0483090308487392    0.0
                        0.4119131864915065        0.0483075474533365    0.0
                        0.4357935602531871        0.0483064763667837    0.0
                        0.4600000000000000        0.0483059860549828    0.0
                        0.1768598765871273        0.0484164546796128    0.0
                        0.1773025187051075        0.0484417007771453    0.0
                        0.1778110814361715        0.0484643657656832    0.0
                        0.1784193822110475        0.0484868554897427    0.0
                        0.1791545071235758        0.0485100526341620    0.0
                        0.1800425925017132        0.0485348418367284    0.0
                        0.1811156423376507        0.0485618007134166    0.0
                        0.1824150927435393        0.0485900079118224    0.0
                        0.1839953663051832        0.0486168162518679    0.0
                        0.1859300561296575        0.0486386759774141    0.0
                        0.1883233911511926        0.0486519430363552    0.0
                        0.1913211354004573        0.0486559387273157    0.0
                        0.1950801515402963        0.0486553293532162    0.0
                        0.1996985121637189        0.0486542331649884    0.0
                        0.2052124669065400        0.0486534460127932    0.0
                        0.2116556769631710        0.0486526554218692    0.0
                        0.2190926455680221        0.0486516580802585    0.0
                        0.2276146550637232        0.0486504057167713    0.0
                        0.2373251439064738        0.0486488957424771    0.0
                        0.2483276507203173        0.0486471340935186    0.0
                        0.2607169066705164        0.0486451319724884    0.0
                        0.2745709183234541        0.0486429077759988    0.0
                        0.2899428097366218        0.0486404883176990    0.0
                        0.3068523290935670        0.0486379094496369    0.0
                        0.3252775927631056        0.0486352165644299    0.0
                        0.3451479969213652        0.0486324652724979    0.0
                        0.3663394038250203        0.0486297226575050    0.0
                        0.3886727059551255        0.0486270696551309    0.0
                        0.4119166447170733        0.0486246055429223    0.0
                        0.4357952977951999        0.0486224557313638    0.0
                        0.4600000000000000        0.0486207670672023    0.0
                        0.1768050021726382        0.0490974155043392    0.0
                        0.1772663456787803        0.0489966229559750    0.0
                        0.1777843058837934        0.0489421061820482    0.0
                        0.1783980151018981        0.0489122070514187    0.0
                        0.1791368468784391        0.0488987885683478    0.0
                        0.1800278939087743        0.0488982118545081    0.0
                        0.1811036338388544        0.0489082624921326    0.0
                        0.1824058856348177        0.0489260836519453    0.0
                        0.1839894768286025        0.0489474010794763    0.0
                        0.1859283443210351        0.0489670529809050    0.0
                        0.1883268371296391        0.0489797984239243    0.0
                        0.1913302371580919        0.0489836452059611    0.0
                        0.1950940428565899        0.0489826957820636    0.0
                        0.1997152501193472        0.0489811131142722    0.0
                        0.2052302811249525        0.0489798003937629    0.0
                        0.2116735444515981        0.0489784755944986    0.0
                        0.2191101105568803        0.0489769367306791    0.0
                        0.2276315218179268        0.0489751331316914    0.0
                        0.2373412996356808        0.0489730601072760    0.0
                        0.2483429984977757        0.0489707214292326    0.0
                        0.2607313471405977        0.0489681256131328    0.0
                        0.2745843468663046        0.0489652876143444    0.0
                        0.2899551176792448        0.0489622299070743    0.0
                        0.3068634061639719        0.0489589829634581    0.0
                        0.3252873302522881        0.0489555855877804    0.0
                        0.3451562914021432        0.0489520853779576    0.0
                        0.3663461612606045        0.0489485396901379    0.0
                        0.3886778459548315        0.0489450176126367    0.0
                        0.4119201046313583        0.0489416038586620    0.0
                        0.4357970363135644        0.0489384056591155    0.0
                        0.4600000000000000        0.0489355480794219    0.0
                        0.1766750040417913        0.0497662806387205    0.0
                        0.1771813780260163        0.0495540873100743    0.0
                        0.1777236038781344        0.0494255459270984    0.0
                        0.1783506441387100        0.0493441193111794    0.0
                        0.1790976717193099        0.0492941415659593    0.0
                        0.1799945988644962        0.0492679536939743    0.0
                        0.1810752773564497        0.0492607536047539    0.0
                        0.1823823868331010        0.0492678294717867    0.0
                        0.1839714600520881        0.0492833108372162    0.0
                        0.1859169542214418        0.0493004326174893    0.0
                        0.1883233336212736        0.0493123584747191    0.0
                        0.1913351195828776        0.0493157802959643    0.0
                        0.1951059277501666        0.0493142336331831    0.0
                        0.1997313278571287        0.0493119164876919    0.0
                        0.2052480394720843        0.0493098324863514    0.0
                        0.2116915538551412        0.0493077295585096    0.0
                        0.2191277550118211        0.0493054076000993    0.0
                        0.2276485578548376        0.0493028136022995    0.0
                        0.2373576042286214        0.0492999406615592    0.0
                        0.2483584740326791        0.0492967902659767    0.0
                        0.2607458954035699        0.0492933681171507    0.0
                        0.2745978646186434        0.0492896855807715    0.0
                        0.2899674976651134        0.0492857606208801    0.0
                        0.3068745395921815        0.0492816181448547    0.0
                        0.3252971100055450        0.0492772901806368    0.0
                        0.3451646157927062        0.0492728161352083    0.0
                        0.3663529381607994        0.0492682434819631    0.0
                        0.3886829970581854        0.0492636293438611    0.0
                        0.4119235695356270        0.0492590438021634    0.0
                        0.4357987760896379        0.0492545759073969    0.0
                        0.4600000000000000        0.0492503290916414    0.0
                        0.1764728519015594        0.0504132217508511    0.0
                        0.1770424580804102        0.0501097097967424    0.0
                        0.1776229587501244        0.0499132979364598    0.0
                        0.1782723735457355        0.0497825774480104    0.0
                        0.1790332245659275        0.0496967747998186    0.0
                        0.1799397961234410        0.0496450485584826    0.0
                        0.1810282852607947        0.0496203919421146    0.0
                        0.1823428042723397        0.0496164066803296    0.0
                        0.1839399528741592        0.0496256994407091    0.0
                        0.1858949124884336        0.0496399335876985    0.0
                        0.1883122531507930        0.0496506915489168    0.0
                        0.1913354261716677        0.0496533547271290    0.0
                        0.1951156188899935        0.0496508945931774    0.0
                        0.1997466427292510        0.0496475371650081    0.0
                        0.2052656789567474        0.0496443800419128    0.0
                        0.2117096632493705        0.0496412000608332    0.0
                        0.2191455503980851        0.0496377989901331    0.0
                        0.2276657440172506        0.0496341212805365    0.0
                        0.2373740451935847        0.0496301576276180    0.0
                        0.2483740694347811        0.0496259071107449    0.0
                        0.2607605465682378        0.0496213725052214    0.0
                        0.2746114684675957        0.0496165614626318    0.0
                        0.2899799474663975        0.0496114872966871    0.0
                        0.3068857274262523        0.0496061692034298    0.0
                        0.3253069299855166        0.0496006322931347    0.0
                        0.3451729678252803        0.0495949076594691    0.0
                        0.3663597320699072        0.0495890328043883    0.0
                        0.3886881568238855        0.0495830528446548    0.0
                        0.4119270373376529        0.0495770232507479    0.0
                        0.4358005158196116        0.0495710149924243    0.0
                        0.4600000000000000        0.0495651101038609    0.0
                        0.1762030830085862        0.0510293261467972    0.0
                        0.1768488940616720        0.0506556526300177    0.0
                        0.1774793548769397        0.0504004679323884    0.0
                        0.1781600253797924        0.0502243836678224    0.0
                        0.1789407928743006        0.0501044860006131    0.0
                        0.1798612671996670        0.0500278911778707    0.0
                        0.1809608601151876        0.0499859329041800    0.0
                        0.1822857113980145        0.0499707880933083    0.0
                        0.1838938766102485        0.0499736680835786    0.0
                        0.1858614696108792        0.0499847326430325    0.0
                        0.1882931347991378        0.0499940226773888    0.0
                        0.1913309049995412        0.0499956324455625    0.0
                        0.1951229744436472        0.0499919815456952    0.0
                        0.1997610959045484        0.0499873179597657    0.0
                        0.2052831186674622        0.0499828260443026    0.0
                        0.2117278037812628        0.0499783101493448    0.0
                        0.2191634383081291        0.0499735737591710    0.0
                        0.2276830310907259        0.0499685585325958    0.0
                        0.2373905812819965        0.0499632525760765    0.0
                        0.2483897503259269        0.0499576524542355    0.0
                        0.2607752721976092        0.0499517579310095    0.0
                        0.2746251351361200        0.0499455728515866    0.0
                        0.2899924483024141        0.0499391057761914    0.0
                        0.3068969548071446        0.0499323700830935    0.0
                        0.3253167787447731        0.0499253838661040    0.0
                        0.3451813389991098        0.0499181698270647    0.0
                        0.3663665369988025        0.0499107554513697    0.0
                        0.3886933213582453        0.0499031738498118    0.0
                        0.4119305058348299        0.0498954659400778    0.0
                        0.4358022545961812        0.0498876847405345    0.0
                        0.4600000000000000        0.0498798911160805    0.0
                        0.1758714709421102        0.0516069039326955    0.0
                        0.1766022035920761        0.0511840736737772    0.0
                        0.1772917328498918        0.0508815233497961    0.0
                        0.1780116835337570        0.0506657555830679    0.0
                        0.1788184580840274        0.0505145866954772    0.0
                        0.1797573257876592        0.0504144717722393    0.0
                        0.1808715873646348        0.0503557864299069    0.0
                        0.1822099780019138        0.0503296410256731    0.0
                        0.1838323989145728        0.0503260389398788    0.0
                        0.1858160889217024        0.0503337456662957    0.0
                        0.1882656970056237        0.0503413306065053    0.0
                        0.1913214409701191        0.0503416457068347    0.0
                        0.1951279434004046        0.0503365810862574    0.0
                        0.1997746439493653        0.0503304006931035    0.0
                        0.2053003124285529        0.0503243671538245    0.0
                        0.2117459304243321        0.0503183106268237    0.0
                        0.2191813778815995        0.0503120361530110    0.0
                        0.2277003832034290        0.0503054823820611    0.0
                        0.2374071814968070        0.0502986346764198    0.0
                        0.2484054902402894        0.0502914870126812    0.0
                        0.2607900499967336        0.0502840360946931    0.0
                        0.2746388461595247        0.0502762819083900    0.0
                        0.2900049852122528        0.0502682282008535    0.0
                        0.3069082099536381        0.0502598824719337    0.0
                        0.3253266473493925        0.0502512557472616    0.0
                        0.3451897228784875        0.0502423623051077    0.0
                        0.3663733486384953        0.0502332196138793    0.0
                        0.3886984880822841        0.0502238488191215    0.0
                        0.4119339737565541        0.0502142763779159    0.0
                        0.4358039920138859        0.0502045375112683    0.0
                        0.4600000000000000        0.0501946721283000    0.0
                        0.1754846205935045        0.0521396842681852    0.0
                        0.1763050827711023        0.0516878859910891    0.0
                        0.1770600946468752        0.0513509716569712    0.0
                        0.1778260761919200        0.0511028921879633    0.0
                        0.1786646413634333        0.0509244464102563    0.0
                        0.1796264695604987        0.0508029020693330    0.0
                        0.1807591649907082        0.0507285200493766    0.0
                        0.1821145619128082        0.0506918054050385    0.0
                        0.1837547779804462        0.0506818086169404    0.0
                        0.1857583359700581        0.0506860576205841    0.0
                        0.1882297646860984        0.0506917551930764    0.0
                        0.1913070122137757        0.0506905801702742    0.0
                        0.1951305424186654        0.0506839260973012    0.0
                        0.1997872882429058        0.0506760663648990    0.0
                        0.2053172449849225        0.0506683319285010    0.0
                        0.2117640215906794        0.0506605767392642    0.0
                        0.2191993472070570        0.0506526072599069    0.0
                        0.2277177801953565        0.0506443589682181    0.0
                        0.2374238279354035        0.0506358143722946    0.0
                        0.2484212735940095        0.0506269648265118    0.0
                        0.2608048666530811        0.0506178039665837    0.0
                        0.2746525904130096        0.0506083279100985    0.0
                        0.2900175491490591        0.0505985355785766    0.0
                        0.3069194857595429        0.0505884285825659    0.0
                        0.3253365304664949        0.0505780108791846    0.0
                        0.3451981157043114        0.0505672883427510    0.0
                        0.3663801645708927        0.0505562684742435    0.0
                        0.3887036556532532        0.0505449605416234    0.0
                        0.4119374405388634        0.0505333766753119    0.0
                        0.4358057279638788        0.0505215344872107    0.0
                        0.4600000000000000        0.0505094531405195    0.0
                        0.1750496541837973        0.0526227588706035    0.0
                        0.1759611973053347        0.0521607712725209    0.0
                        0.1767852812244721        0.0518033730912462    0.0
                        0.1776023517390846        0.0515319062077993    0.0
                        0.1784778660854505        0.0513314472995010    0.0
                        0.1794671560760478        0.0511914118886555    0.0
                        0.1806222113842804        0.0511028843528977    0.0
                        0.1819983551403523        0.0510563337751214    0.0
                        0.1836602472970094        0.0510401931077479    0.0
                        0.1856877977901788        0.0510409673796874    0.0
                        0.1881852157120862        0.0510446400146097    0.0
                        0.1912876554115670        0.0510418147406698    0.0
                        0.1951308334008938        0.0510334326318690    0.0
                        0.1997990603198945        0.0510237690396138    0.0
                        0.2053339219263545        0.0510142118531804    0.0
                        0.2117820717162567        0.0510046365156908    0.0
                        0.2192173376086542        0.0509948507954871    0.0
                        0.2277352131286082        0.0509847868884558    0.0
                        0.2374405122384170        0.0509744243835711    0.0
                        0.2484370928688726        0.0509637520202855    0.0
                        0.2608197155976649        0.0509527604005029    0.0
                        0.2746663623266999        0.0509414418099658    0.0
                        0.2900301355527345        0.0509297903810970    0.0
                        0.3069307786503147        0.0509178018761141    0.0
                        0.3253464254496095        0.0509054732370534    0.0
                        0.3452065156684689        0.0508928020087088    0.0
                        0.3663869837052323        0.0508797858283398    0.0
                        0.3887088235467093        0.0508664222266382    0.0
                        0.4119409060444421        0.0508527091902766    0.0
                        0.4358074624912861        0.0508386469539797    0.0
                        0.4600000000000000        0.0508242341527391    0.0
                        0.1745736047617060        0.0530527805665478    0.0
                        0.1755749854383411        0.0525973056755523    0.0
                        0.1764689800605413        0.0522333890967886    0.0
                        0.1773400713247970        0.0519487419005707    0.0
                        0.1782566404619386        0.0517328939139369    0.0
                        0.1792776213546674        0.0515783070334565    0.0
                        0.1804590809124743        0.0514778127188037    0.0
                        0.1818600284280594        0.0514225141187947    0.0
                        0.1835479001248520        0.0514006598331589    0.0
                        0.1856040054141040        0.0513980216559068    0.0
                        0.1881319327963431        0.0513995651727089    0.0
                        0.1912634367735600        0.0513949523398028    0.0
                        0.1951289060470748        0.0513847282633802    0.0
                        0.1998100113693903        0.0513731616212574    0.0
                        0.2053503630089540        0.0513616846273516    0.0
                        0.2118000865894807        0.0513501917224107    0.0
                        0.2192353501342337        0.0513384918661182    0.0
                        0.2277526815584092        0.0513265138993123    0.0
                        0.2374572334441382        0.0513142344670988    0.0
                        0.2484529469167993        0.0513016397403093    0.0
                        0.2608345956595380        0.0512887173626081    0.0
                        0.2746801608130198        0.0512754558692371    0.0
                        0.2900427434911080        0.0512618446879097    0.0
                        0.3069420878935494        0.0512478738254761    0.0
                        0.3253563317858786        0.0512335333167881    0.0
                        0.3452149224746878        0.0512188125081369    0.0
                        0.3663938059371746        0.0512036993341563    0.0
                        0.3887139918044893        0.0511881797862513    0.0
                        0.4119443703948173        0.0511722379465103    0.0
                        0.4358091957105291        0.0511558569576907    0.0
                        0.4600000000000000        0.0511390151649586    0.0
                        0.1740642863317515        0.0534268784105753    0.0
                        0.1751518217375357        0.0529927775535879    0.0
                        0.1761140639000302        0.0526356385020369    0.0
                        0.1770396395397488        0.0523488064907467    0.0
                        0.1779997528429742        0.0521255402719747    0.0
                        0.1790560070798704        0.0519615320595722    0.0
                        0.1802679004145427        0.0518520563583118    0.0
                        0.1816980421229325        0.0517895616262149    0.0
                        0.1834167035364921        0.0517626545197337    0.0
                        0.1855064539068804        0.0517567632372540    0.0
                        0.1880698210470949        0.0517561108303183    0.0
                        0.1912344594299152        0.0517495973592528    0.0
                        0.1951248754521642        0.0517374434212925    0.0
                        0.1998202049372128        0.0517239009307141    0.0
                        0.2053665935486267        0.0517104327000290    0.0
                        0.2118180749396290        0.0516969495570670    0.0
                        0.2192533878177036        0.0516832615490647    0.0
                        0.2277701865953683        0.0516692941275899    0.0
                        0.2374739918732484        0.0516550210128980    0.0
                        0.2484688356593536        0.0516404258952736    0.0
                        0.2608495065590685        0.0516254935798860    0.0
                        0.2746939855221072        0.0516102089799062    0.0
                        0.2900553726353202        0.0515945569537279    0.0
                        0.3069534132412311        0.0515785218995054    0.0
                        0.3253662493410544        0.0515620871094793    0.0
                        0.3452233361114118        0.0515452339204588    0.0
                        0.3664006313647167        0.0515279407844771    0.0
                        0.3887191606001914        0.0515101824099738    0.0
                        0.4119478337852834        0.0514919292703803    0.0
                        0.4358109277654581        0.0514731477550318    0.0
                        0.4600000000000000        0.0514537961771781    0.0
                        0.1735258628766391        0.0537453536945244    0.0
                        0.1746966433534099        0.0533440481553363    0.0
                        0.1757239742196750        0.0530054886225432    0.0
                        0.1767019398458256        0.0527276908413728    0.0
                        0.1777058122166946        0.0525062565398968    0.0
                        0.1787997187957927        0.0523393782271114    0.0
                        0.1800458720640665        0.0522249530143896    0.0
                        0.1815100289324801        0.0521574101848855    0.0
                        0.1832650239145646        0.0521263790152723    0.0
                        0.1853942764012964        0.0521174775238803    0.0
                        0.1879986095613901        0.0521145663843649    0.0
                        0.1912007611467205        0.0521060244297746    0.0
                        0.1951188422119042        0.0520918373852560    0.0
                        0.1998297102960853        0.0520762303622428    0.0
                        0.2053826519082724        0.0520606834533869    0.0
                        0.2118360605984677        0.0520451215598771    0.0
                        0.2192714687887774        0.0520293556705925    0.0
                        0.2277877436213349        0.0520133077798694    0.0
                        0.2374908009082331        0.0519969487084592    0.0
                        0.2484847706500396        0.0519802597764978    0.0
                        0.2608644580898944        0.0519632230982981    0.0
                        0.2747078445617523        0.0519458201267746    0.0
                        0.2900680295053027        0.0519280313251203    0.0
                        0.3069647597501009        0.0519098356739378    0.0
                        0.3253761818594255        0.0518912099375687    0.0
                        0.3452317591850021        0.0518721276886565    0.0
                        0.3664074616506532        0.0518525581788260    0.0
                        0.3887243308615940        0.0518324651577401    0.0
                        0.4119512966241323        0.0518118058597831    0.0
                        0.4358126587589223        0.0517905303385604    0.0
                        0.4600000000000000        0.0517685771893976    0.0
                        0.1729749162852894        0.0540027698711345    0.0
                        0.1742173445633227        0.0536476549820510    0.0
                        0.1753047457627678        0.0533377606391009    0.0
                        0.1763309665747282        0.0530791737358488    0.0
                        0.1773762929182616        0.0528691910977796    0.0
                        0.1785083126162296        0.0527071749046237    0.0
                        0.1797917336429113        0.0525930331484031    0.0
                        0.1812948086672054        0.0525234210568017    0.0
                        0.1830922178454966        0.0524896512991743    0.0
                        0.1852674115312597        0.0524782064528577    0.0
                        0.1879186041950039        0.0524730976507274    0.0
                        0.1911627083412737        0.0524625066796630    0.0
                        0.1951110390668864        0.0524462966773154    0.0
                        0.1998386189691066        0.0524286505062387    0.0
                        0.2053985529784693        0.0524110487035394    0.0
                        0.2118540293650271        0.0523934273439728    0.0
                        0.2192895704619220        0.0523755983538102    0.0
                        0.2278053287509062        0.0523574803859967    0.0
                        0.2375076377140902        0.0523390415080165    0.0
                        0.2485007310716611        0.0523202608679084    0.0
                        0.2608794319702414        0.0523011181150375    0.0
                        0.2747217224706922        0.0522815914829583    0.0
                        0.2900807015681862        0.0522616572930414    0.0
                        0.3069761177707035        0.0522412893769564    0.0
                        0.3253861223949935        0.0522204582591491    0.0
                        0.3452401871540199        0.0521991300599089    0.0
                        0.3664142942560881        0.0521772651694074    0.0
                        0.3887295015638363        0.0521548167465165    0.0
                        0.4119547588435753        0.0521317291834553    0.0
                        0.4358143889743545        0.0521079366216860    0.0
                        0.4600000000000000        0.0520833582016172    0.0
                        0.1723811897298820        0.0542128208069629    0.0
                        0.1737123188471023        0.0539046846356199    0.0
                        0.1748581884008629        0.0536310286676760    0.0
                        0.1759265772208189        0.0534014239200977    0.0
                        0.1770070387644526        0.0532138932281673    0.0
                        0.1781740049655421        0.0530669695360007    0.0
                        0.1794962169024157        0.0529607085269536    0.0
                        0.1810439006912247        0.0528934389392853    0.0
                        0.1828918849371043        0.0528588315188683    0.0
                        0.1851217869760576        0.0528452862296696    0.0
                        0.1878276752819132        0.0528377876767193    0.0
                        0.1911194412751296        0.0528247952250625    0.0
                        0.1951012383806833        0.0528062089951917    0.0
                        0.1998469509448290        0.0527861763958260    0.0
                        0.2054143983851244        0.0527661769443127    0.0
                        0.2118721047645139        0.0527461590257669    0.0
                        0.2193078178784962        0.0527259351271259    0.0
                        0.2278230609555988        0.0527054200487874    0.0
                        0.2375246115935473        0.0526845789402319    0.0
                        0.2485168144396405        0.0526633888157080    0.0
                        0.2608945126627519        0.0526418269716596    0.0
                        0.2747356900720656        0.0526198685671618    0.0
                        0.2900934460174864        0.0525974859561714    0.0
                        0.3069875314115124        0.0525746480353483    0.0
                        0.3253961029941096        0.0525513193535758    0.0
                        0.3452486414471196        0.0525274589047220    0.0
                        0.3664211417963127        0.0525030186161316    0.0
                        0.3887346786037657        0.0524779415356150    0.0
                        0.4119582219294132        0.0524521597832252    0.0
                        0.4358161179203642        0.0524255922579215    0.0
                        0.4600000000000000        0.0523981392138367    0.0
                        0.1718817630989193        0.0543405192714770    0.0
                        0.1732092996556632        0.0541093868701483    0.0
                        0.1744011452213109        0.0538781287658759    0.0
                        0.1755086709041376        0.0536811474926738    0.0
                        0.1766208039127263        0.0535208123875976    0.0
                        0.1778198748992135        0.0533947338153691    0.0
                        0.1791808904486972        0.0533017043949757    0.0
                        0.1807763684172935        0.0532406484582101    0.0
                        0.1826798534979728        0.0532075331129447    0.0
                        0.1849694201331872        0.0531932155983317    0.0
                        0.1877338219815078        0.0531842512539406    0.0
                        0.1910753357143528        0.0531698093530114    0.0
                        0.1950912360530303        0.0531499325986361    0.0
                        0.1998551075142097        0.0531286432858917    0.0
                        0.2054300036409219        0.0531073582810342    0.0
                        0.2118899063786553        0.0530860245451396    0.0
                        0.2193257849289458        0.0530644556091009    0.0
                        0.2278405214370038        0.0530425639161156    0.0
                        0.2375413319956708        0.0530203124910352    0.0
                        0.2485326691417792        0.0529976766745842    0.0
                        0.2609093937720547        0.0529746317993113    0.0
                        0.2747494894856307        0.0529511503383306    0.0
                        0.2901060542799475        0.0529272010637278    0.0
                        0.3069988399758300        0.0529027483041740    0.0
                        0.3254060074252433        0.0528777509613628    0.0
                        0.3452570451406432        0.0528521611723026    0.0
                        0.3664279600001670        0.0528259225911047    0.0
                        0.3887398424822844        0.0527989682385745    0.0
                        0.4119616823527948        0.0527712179093465    0.0
                        0.4358178486473104        0.0527425750236002    0.0
                        0.4600000000000000        0.0527129202260562    0.0
                        0.1716489923746154        0.0543880613611045    0.0
                        0.1727771180865432        0.0542561828157309    0.0
                        0.1739765798974573        0.0540698067612453    0.0
                        0.1751304951142434        0.0538965838889760    0.0
                        0.1762895209804648        0.0537505478159487    0.0
                        0.1775313697533064        0.0536332577679920    0.0
                        0.1789337543817648        0.0535452569164008    0.0
                        0.1805718247664178        0.0534869026941437    0.0
                        0.1825201418624778        0.0534554258985655    0.0
                        0.1848559895294486        0.0534425176369500    0.0
                        0.1876651559024367        0.0534352071963054    0.0
                        0.1910444196280702        0.0534229758335778    0.0
                        0.1950860024122111        0.0534058393089864    0.0
                        0.1998634817055620        0.0533875249850519    0.0
                        0.2054439292099779        0.0533692782256959    0.0
                        0.2119054302987898        0.0533510146626946    0.0
                        0.2193413829761846        0.0533325508063545    0.0
                        0.2278557020341258        0.0533138020122583    0.0
                        0.2375559349630784        0.0532947323692077    0.0
                        0.2485466090622564        0.0532753175898269    0.0
                        0.2609225890039396        0.0532555328749840    0.0
                        0.2747618481767410        0.0532353499079620    0.0
                        0.2901174738872770        0.0532147358046473    0.0
                        0.3070092095944191        0.0531936521395097    0.0
                        0.3254152109859296        0.0531720536751516    0.0
                        0.3452649651962067        0.0531498866529627    0.0
                        0.3664344819863364        0.0531270865661694    0.0
                        0.3887448592757615        0.0531035752833715    0.0
                        0.4119650988694825        0.0530792573866998    0.0
                        0.4358195861756896        0.0530540154210101    0.0
                        0.4600000000000000        0.0530277012382758    0.0
                        0.1714958879433827        0.0544188412491357    0.0
                        0.1724294841238725        0.0543585504925973    0.0
                        0.1735944822622371        0.0542173485640418    0.0
                        0.1747907840058177        0.0540635459467975    0.0
                        0.1760064265452403        0.0539239054723651    0.0
                        0.1772979082144585        0.0538080899998928    0.0
                        0.1787417142002037        0.0537203640859809    0.0
                        0.1804168259025886        0.0536625181537830    0.0
                        0.1824008788790232        0.0536322241681066    0.0
                        0.1847721908636818        0.0536211540357507    0.0
                        0.1876151590599205        0.0536162544821515    0.0
                        0.1910226830672348        0.0536070585492752    0.0
                        0.1950833332323191        0.0535935040116723    0.0
                        0.1998708554379263        0.0535790952205210    0.0
                        0.2054553853733436        0.0535649642741641    0.0
                        0.2119180547731017        0.0535510219486636    0.0
                        0.2193540581997084        0.0535371082489975    0.0
                        0.2278680771462172        0.0535231638912889    0.0
                        0.2375679047091854        0.0535091792665352    0.0
                        0.2485581204451908        0.0534951592547216    0.0
                        0.2609335866544916        0.0534811122913652    0.0
                        0.2747722628590131        0.0534670482973065    0.0
                        0.2901272212564255        0.0534529786763462    0.0
                        0.3070181909972504        0.0534389166633941    0.0
                        0.3254233148081296        0.0534248777599244    0.0
                        0.3452720685554029        0.0534108802587337    0.0
                        0.3664404526964439        0.0533969459779537    0.0
                        0.3887495579364018        0.0533831013634336    0.0
                        0.4119683808283064        0.0533693792573331    0.0
                        0.4358213029991636        0.0533558216995829    0.0
                        0.4600000000000000        0.0533424822504953    0.0
                        0.1712972767678938        0.0544584326087328    0.0
                        0.1721176091505369        0.0544383972478481    0.0
                        0.1732018952919425        0.0543480977399795    0.0
                        0.1743943640403013        0.0542312109470816    0.0
                        0.1756480652080601        0.0541144110971885    0.0
                        0.1769898976066614        0.0540118150439544    0.0
                        0.1784841634694527        0.0539317043791276    0.0
                        0.1802085121188459        0.0538784150172239    0.0
                        0.1822416729274137        0.0538510145566530    0.0
                        0.1846616474472154        0.0538420014613023    0.0
                        0.1875500211633480        0.0538391577148048    0.0
                        0.1909944612125325        0.0538327831812984    0.0
                        0.1950794079489344        0.0538227533241061    0.0
                        0.1998794839241663        0.0538121264052656    0.0
                        0.2054690305039918        0.0538018534679622    0.0
                        0.2119330878126617        0.0537918426935083    0.0
                        0.2193690969038159        0.0537819561610535    0.0
                        0.2278826863661300        0.0537721472170586    0.0
                        0.2375819513558972        0.0537624131146389    0.0
                        0.2485715369796960        0.0537527639654807    0.0
                        0.2609463053242728        0.0537432131197862    0.0
                        0.2747842026551180        0.0537337753026852    0.0
                        0.2901382874172951        0.0537244665508622    0.0
                        0.3070282771200171        0.0537153044443061    0.0
                        0.3254323057711818        0.0537063083919973    0.0
                        0.3452798440119430        0.0536974999632844    0.0
                        0.3664468910542184        0.0536889033524257    0.0
                        0.3887545406715712        0.0536805460835592    0.0
                        0.4119717968945329        0.0536724601658981    0.0
                        0.4358230530295785        0.0536646839339367    0.0
                        0.4600000000000000        0.0536572632627148    0.0
                        0.1710810273264656        0.0545011476764195    0.0
                        0.1718332435814569        0.0545014160593376    0.0
                        0.1728301071294142        0.0544536022301410    0.0
                        0.1739839003251593        0.0543788012841574    0.0
                        0.1752501249885930        0.0542952114219518    0.0
                        0.1766350651137073        0.0542156730344832    0.0
                        0.1781844173663072        0.0541502185560667    0.0
                        0.1799671947721098        0.0541055914901727    0.0
                        0.1820594643977061        0.0540828186148631    0.0
                        0.1845371611890931        0.0540760184068917    0.0
                        0.1874779758850119        0.0540748074236843    0.0
                        0.1909637981567127        0.0540710282907936    0.0
                        0.1950752915546459        0.0540645049177884    0.0
                        0.1998888230951302        0.0540576244864845    0.0
                        0.2054836567963762        0.0540510984679662    0.0
                        0.2119491259135832        0.0540448434173175    0.0
                        0.2193850829694015        0.0540387522126417    0.0
                        0.2278981637220234        0.0540327909690793    0.0
                        0.2375967831427336        0.0540269599491530    0.0
                        0.2485856556368807        0.0540212691999044    0.0
                        0.2609596433792417        0.0540157310308773    0.0
                        0.2747966793169656        0.0540103585069463    0.0
                        0.2901498084186272        0.0540051653252353    0.0
                        0.3070387372981784        0.0540001659092980    0.0
                        0.3254415924812804        0.0539953755301738    0.0
                        0.3452878410992797        0.0539908104430084    0.0
                        0.3664534832740136        0.0539864880978699    0.0
                        0.3887596183730974        0.0539824274907305    0.0
                        0.4119752606987795        0.0539786497884473    0.0
                        0.4358248181698930        0.0539751793627774    0.0
                        0.4600000000000000        0.0539720442749344    0.0
                        0.1708370942015453        0.0545488430662251    0.0
                        0.1715638532365952        0.0545540735110056    0.0
                        0.1724829965009879        0.0545367276247048    0.0
                        0.1735726599406125        0.0545028457572954    0.0
                        0.1748179095090951        0.0544602615368678    0.0
                        0.1762258414605000        0.0544157387374840    0.0
                        0.1778282410211922        0.0543762769249422    0.0
                        0.1796790866024001        0.0543480960303420    0.0
                        0.1818442871509179        0.0543335470768949    0.0
                        0.1843929290857410        0.0543294581526468    0.0
                        0.1873963047117641        0.0543291934832413    0.0
                        0.1909297397879750        0.0543275692628605    0.0
                        0.1950708589151061        0.0543244139952575    0.0
                        0.1998990741356901        0.0543211078652699    0.0
                        0.2054995647120528        0.0543180420884314    0.0
                        0.2119664801129929        0.0543151601587076    0.0
                        0.2194023082666930        0.0543123994194649    0.0
                        0.2279147735122145        0.0543097405299622    0.0
                        0.2376126347677238        0.0543071836002340    0.0
                        0.2486006811160002        0.0543047340880239    0.0
                        0.2609737756519199        0.0543023984780222    0.0
                        0.2748098383643035        0.0543001833981137    0.0
                        0.2901619015269228        0.0542980955211624    0.0
                        0.3070496622023279        0.0542961415879112    0.0
                        0.3254512413290877        0.0542943284433706    0.0
                        0.3452961049164187        0.0542926630788637    0.0
                        0.3664602567784209        0.0542911527105152    0.0
                        0.3887648049164229        0.0542898049261679    0.0
                        0.4119787770286821        0.0542886279662824    0.0
                        0.4358265986581294        0.0542876311993235    0.0
                        0.4600000000000000        0.0542868252871539    0.0
                        0.1705641140431960        0.0546016062993734    0.0
                        0.1712978854750501        0.0546016062993734    0.0
                        0.1721609662479592        0.0546016062993734    0.0
                        0.1731756493521996        0.0546016062993734    0.0
                        0.1743678808551562        0.0546016062993734    0.0
                        0.1757677853589059        0.0546016062993734    0.0
                        0.1774102384622102        0.0546016062993734    0.0
                        0.1793354783500351        0.0546016062993734    0.0
                        0.1815897421336327        0.0546016062993734    0.0
                        0.1842259036438991        0.0546016062993734    0.0
                        0.1873040775076162        0.0546016062993734    0.0
                        0.1908921390299211        0.0546016062993734    0.0
                        0.1950660903750063        0.0546016062993734    0.0
                        0.1999101808958373        0.0546016062993734    0.0
                        0.2055166640580249        0.0546016062993734    0.0
                        0.2119850472449817        0.0546016062993734    0.0
                        0.2194206675272301        0.0546016062993734    0.0
                        0.2279324121612103        0.0546016062993734    0.0
                        0.2376294056653970        0.0546016062993734    0.0
                        0.2486165167503140        0.0546016062993734    0.0
                        0.2609886104290239        0.0546016062993734    0.0
                        0.2748235943330420        0.0546016062993734    0.0
                        0.2901744889867692        0.0546016062993734    0.0
                        0.3070609832771300        0.0546016062993734    0.0
                        0.3254611943154153        0.0546016062993734    0.0
                        0.3453045890443789        0.0546016062993734    0.0
                        0.3664671772027122        0.0546016062993734    0.0
                        0.3887700776886677        0.0546016062993734    0.0
                        0.4119823337269025        0.0546016062993734    0.0
                        0.4358283903141570        0.0546016062993734    0.0
                        0.4600000000000000        0.0546016062993734    0.0
                </DataArray>
            </Points>
            <PointData>
                <DataArray type="Float32" Name="orthogonality" NumberOfComponents="1" format="ascii">
                        0.9982783498038703
                        0.9991640553697101
                        0.9981141602844542
                        0.9942807314735930
                        0.9865145348226198
                        0.9718618072050442
                        0.9439383631818792
                        0.8922955324326847
                        0.8044298512401881
                        0.6693461038886463
                        0.4875044873902022
                        0.2974560586543336
                        0.1598506391571661
                        0.0887043162455511
                        0.0601523747356620
                        0.0509425564282859
                        0.0484328587139493
                        0.0474691373409719
                        0.0464109193604682
                        0.0448669962672060
                        0.0427867547918863
                        0.0401891787799080
                        0.0371035639393648
                        0.0335618979396984
                        0.0296004117922602
                        0.0252618924897951
                        0.0205973693493960
                        0.0156668647825912
                        0.0105390782459409
                        0.0052899835432572
                        0.0000000000000000
                        0.9972905495353606
                        0.9987232441198361
                        0.9967901742214232
                        0.9917651884102146
                        0.9820493249128099
                        0.9637613240647441
                        0.9299511315455186
                        0.8713014975149963
                        0.7783892085050830
                        0.6434786688449364
                        0.4687334145144549
                        0.2888852829727036
                        0.1576676446023931
                        0.0887124449509479
                        0.0606487130686568
                        0.0514586003716984
                        0.0488623852180883
                        0.0478030273181761
                        0.0466642776455335
                        0.0450581732967574
                        0.0429320147131648
                        0.0403018148365224
                        0.0371940038922085
                        0.0336379510011254
                        0.0296675120076103
                        0.0253233343822182
                        0.0206545502263224
                        0.0157195469834823
                        0.0105856788829094
                        0.0053278417080308
                        0.0000252949316187
                        0.9966813492186511
                        0.9984381764612725
                        0.9958094231336807
                        0.9894376509185062
                        0.9765716103184415
                        0.9521863593358343
                        0.9097871411388760
                        0.8433495227874953
                        0.7471624847187132
                        0.6151132193672883
                        0.4493081483530915
                        0.2802417795235137
                        0.1555488335172020
                        0.0888692280371197
                        0.0613300751582114
                        0.0521616826332946
                        0.0494677154311105
                        0.0482988596338668
                        0.0470665372350443
                        0.0453867103649711
                        0.0432045255632806
                        0.0405328389158360
                        0.0373950504465789
                        0.0338177847579534
                        0.0298324313674596
                        0.0254774359732302
                        0.0207999946261084
                        0.0158568390366699
                        0.0107139701690246
                        0.0054452046380361
                        0.0001283087841843
                        0.9973847227784568
                        0.9980947424876250
                        0.9946442650143736
                        0.9862533520622616
                        0.9688696948775175
                        0.9370887212978545
                        0.8866027337509863
                        0.8149171819224980
                        0.7179650671381658
                        0.5898024715513434
                        0.4323301553811592
                        0.2727655697127764
                        0.1539207037126918
                        0.0893720325579249
                        0.0623342037785485
                        0.0531648930882651
                        0.0503450099081650
                        0.0490388593119514
                        0.0476879860876292
                        0.0459126161997204
                        0.0436554860028921
                        0.0409259785519788
                        0.0377442048392213
                        0.0341338490608587
                        0.0301236870343623
                        0.0257498484456932
                        0.0210574991065106
                        0.0161016306509944
                        0.0109468096691342
                        0.0056656921928506
                        0.0003337545315986
                        0.9990542688902560
                        0.9977913942671742
                        0.9932713324941988
                        0.9820019391202253
                        0.9589529596906563
                        0.9196991821391417
                        0.8630165976217373
                        0.7884499897456331
                        0.6919250721976838
                        0.5674027670322919
                        0.4168224373818138
                        0.2650858469208045
                        0.1513154354596976
                        0.0888430393835853
                        0.0624531092297416
                        0.0534403831517110
                        0.0506297121942951
                        0.0492982995823135
                        0.0479212530303897
                        0.0461265042903962
                        0.0438573725577611
                        0.0411223319709501
                        0.0379404100044698
                        0.0343342617878519
                        0.0303317214088929
                        0.0259680829197492
                        0.0212878150824704
                        0.0163454004989059
                        0.0112051513209405
                        0.0059397540271821
                        0.0006227167087649
                        0.9999999997441834
                        0.9973719635951662
                        0.9905827398631176
                        0.9736798341259657
                        0.9420078757003573
                        0.8948061991037759
                        0.8340298889341820
                        0.7592338451507557
                        0.6654535524382782
                        0.5465678555569472
                        0.4044038048085705
                        0.2612819657078820
                        0.1526748955838028
                        0.0919452491666203
                        0.0657142681455482
                        0.0563646608423091
                        0.0531246159605793
                        0.0513980268055895
                        0.0496892781474964
                        0.0476247493823526
                        0.0451390748748604
                        0.0422318487555059
                        0.0389144546540690
                        0.0352032287445308
                        0.0311209012386909
                        0.0266988039795341
                        0.0219785946896494
                        0.0170132187846430
                        0.0118670171910790
                        0.0066147934658477
                        0.0013187526776444
                        0.9998753419849282
                        0.9966454003942371
                        0.9865384095237609
                        0.9635616601163460
                        0.9251024567653790
                        0.8729535529529309
                        0.8099853647405113
                        0.7356428506577025
                        0.6450026187059416
                        0.5322291921600785
                        0.3987797512202222
                        0.2641217747392510
                        0.1601217609691183
                        0.1003236714093621
                        0.0733747790012329
                        0.0628794012259033
                        0.0585181391582102
                        0.0558230174928771
                        0.0533121728718860
                        0.0505921291028637
                        0.0475723340335254
                        0.0442295822664238
                        0.0405559947154284
                        0.0365518072757451
                        0.0322262470744168
                        0.0275992284565761
                        0.0227026346592803
                        0.0175808843009391
                        0.0122906601570920
                        0.0068995125097179
                        0.0014621453084427
                        0.9999188135389668
                        0.9950470384521785
                        0.9803681996496987
                        0.9514256068201899
                        0.9072105802225872
                        0.8501065015427396
                        0.7830227559765423
                        0.7062340490708110
                        0.6162027863360788
                        0.5081317353345526
                        0.3833046755886532
                        0.2582794416527958
                        0.1607024814457028
                        0.1034336512766346
                        0.0768927919529904
                        0.0660401880940276
                        0.0611488459106738
                        0.0579531823634492
                        0.0550203742198335
                        0.0519564229870409
                        0.0486587742504747
                        0.0450916653184554
                        0.0412362733199278
                        0.0370835801566012
                        0.0326349909228416
                        0.0279037729876332
                        0.0229161201055548
                        0.0177115332018605
                        0.0123423810880930
                        0.0068722851103692
                        0.0013535225049572
                        0.9999138562846249
                        0.9911445274261021
                        0.9712225733292905
                        0.9356208792767420
                        0.8838343310508948
                        0.8188119131793517
                        0.7448413853031044
                        0.6640692092356730
                        0.5743711132275555
                        0.4716175765841945
                        0.3566531601899175
                        0.2430465144987462
                        0.1539296141309002
                        0.1009101400612982
                        0.0759988429294884
                        0.0656526324410504
                        0.0608832072185164
                        0.0577062118378574
                        0.0547753081545082
                        0.0517164780617613
                        0.0484292853882148
                        0.0448765457273603
                        0.0410376780175585
                        0.0369020828400840
                        0.0324697956299435
                        0.0277529079940578
                        0.0227766185645763
                        0.0175796052873797
                        0.0122135741023272
                        0.0067415748140476
                        0.0012168294387036
                        0.9987632583036888
                        0.9850094337629136
                        0.9591536065937349
                        0.9156984842056147
                        0.8547349507919340
                        0.7808004125960342
                        0.7003723413060450
                        0.6170459006237311
                        0.5291830248701717
                        0.4327558867634077
                        0.3280308842026754
                        0.2259409538161251
                        0.1455944109923681
                        0.0972525972377926
                        0.0742930986365560
                        0.0646553136553248
                        0.0601412551931184
                        0.0570809775365374
                        0.0542287522674713
                        0.0512365456460576
                        0.0480093763685453
                        0.0445110410439038
                        0.0407211229479240
                        0.0366290202675328
                        0.0322347039377508
                        0.0275501728585896
                        0.0226005335033347
                        0.0174243984621072
                        0.0120734522232543
                        0.0066107322369512
                        0.0010908365965934
                        0.9963019800037234
                        0.9769585737512967
                        0.9440703552782855
                        0.8914703231097270
                        0.8204997433254447
                        0.7382127241989539
                        0.6531733800516217
                        0.5693533445530995
                        0.4847644378799876
                        0.3952106009175287
                        0.3004454224825738
                        0.2092546800678256
                        0.1373522569184609
                        0.0936656247491594
                        0.0726915353789461
                        0.0637694866650804
                        0.0595002559393519
                        0.0565417408630479
                        0.0537540131029163
                        0.0508161245399301
                        0.0476384911907655
                        0.0441856345752704
                        0.0404370611479101
                        0.0363819685612211
                        0.0320201030004178
                        0.0273632393203727
                        0.0224362809241230
                        0.0172776770082149
                        0.0119389990489879
                        0.0064831903658876
                        0.0009661415903077
                        0.9921893544459664
                        0.9663238954512184
                        0.9250227596380386
                        0.8616891050766498
                        0.7799896722249720
                        0.6902931998496797
                        0.6026061132669132
                        0.5201691547222647
                        0.4401103878328458
                        0.3579690070755848
                        0.2730757290708880
                        0.1924399449440008
                        0.1288429734380372
                        0.0898826867845613
                        0.0709831107470054
                        0.0628253887156680
                        0.0588235014624919
                        0.0559786043421858
                        0.0532629583463607
                        0.0503847480227601
                        0.0472605093305397
                        0.0438558749250448
                        0.0401505600997851
                        0.0361337959058888
                        0.0318052987492615
                        0.0271767815643689
                        0.0222730780318808
                        0.0171325814495999
                        0.0118068342340687
                        0.0063587560007595
                        0.0008455633091769
                        0.9861443744073298
                        0.9525385070039725
                        0.9009889694474145
                        0.8252438953638497
                        0.7327306283265554
                        0.6373535552402713
                        0.5492862696946478
                        0.4700270355801915
                        0.3955796497216384
                        0.3212616905393139
                        0.2461081728243910
                        0.1756792151562476
                        0.1202165190643110
                        0.0860065883549123
                        0.0692376921878920
                        0.0618741246250156
                        0.0581506043967879
                        0.0554230451526750
                        0.0527807614368052
                        0.0499625377834736
                        0.0468914652585590
                        0.0435344785419978
                        0.0398716342782261
                        0.0358923063668870
                        0.0315962744047577
                        0.0269952675577613
                        0.0221141135812366
                        0.0169911992160759
                        0.0116780724866986
                        0.0062376565746879
                        0.0007284918889299
                        0.9776179256275003
                        0.9345916109432143
                        0.8704050786535428
                        0.7806532241760688
                        0.6780741417497400
                        0.5794392873864477
                        0.4934023952146814
                        0.4189946090760014
                        0.3511090726736811
                        0.2849698046449254
                        0.2194547821005859
                        0.1589495703039601
                        0.1114767653559375
                        0.0820354760250764
                        0.0674461403531755
                        0.0609047640045293
                        0.0574716443641366
                        0.0548668118635052
                        0.0523007459914979
                        0.0495441451928127
                        0.0465271019398866
                        0.0432180830502130
                        0.0395976564912604
                        0.0356554800456708
                        0.0313915157160673
                        0.0268176090032204
                        0.0219586640890308
                        0.0168531264181420
                        0.0115525982099716
                        0.0061200453191434
                        0.0006153372182033
                        0.9657109922145858
                        0.9109268613817092
                        0.8311035673640294
                        0.7262514652319977
                        0.6155562628602220
                        0.5167799918960633
                        0.4352596355549890
                        0.3672457107697517
                        0.3067477142221373
                        0.2490823296370508
                        0.1931139652881452
                        0.1422858811899395
                        0.1026658451563288
                        0.0779951433699673
                        0.0656203350915416
                        0.0599228502216369
                        0.0567898457466239
                        0.0543122120617157
                        0.0518247242570575
                        0.0491310350171184
                        0.0461686156241745
                        0.0429076727555136
                        0.0393294432763149
                        0.0354240007042586
                        0.0311916014516400
                        0.0266443018053502
                        0.0218071603357079
                        0.0167187431063570
                        0.0114307526287572
                        0.0060062341379109
                        0.0005063868115699
                        0.9488093584469990
                        0.8789912859408130
                        0.7800186108872416
                        0.6601887974918591
                        0.5448809187907347
                        0.4496873330078717
                        0.3751591150035909
                        0.3149350060504646
                        0.2625342529713886
                        0.2135869169803556
                        0.1670838130153303
                        0.1257190761165408
                        0.0938216134374658
                        0.0739086496178914
                        0.0637703496989319
                        0.0589325835598262
                        0.0561074051817545
                        0.0537607735069446
                        0.0513539277404872
                        0.0487242513230874
                        0.0458169105878797
                        0.0426040438580885
                        0.0390677073423561
                        0.0351985172929524
                        0.0309971329221989
                        0.0264759130798974
                        0.0216601468022651
                        0.0165885814771751
                        0.0113130653841734
                        0.0058967591253059
                        0.0004021876583607
                        0.9239171892722487
                        0.8345123724294025
                        0.7129548610280794
                        0.5806804678431252
                        0.4661110399821955
                        0.3786690807504201
                        0.3134943012706251
                        0.2622784601044068
                        0.2185606395199403
                        0.1785184456734492
                        0.1413984181586025
                        0.1093028050106926
                        0.0849964609132410
                        0.0698097364383094
                        0.0619145808067635
                        0.0579447989055109
                        0.0554318878580863
                        0.0532183997898145
                        0.0508931648500105
                        0.0483277660558173
                        0.0454752901661621
                        0.0423099599102478
                        0.0388147754419872
                        0.0349810026464911
                        0.0308097957918141
                        0.0263138950842130
                        0.0215188857010624
                        0.0164637487462737
                        0.0112005171209130
                        0.0057924969040135
                        0.0003035244250372
                        0.8851495317573439
                        0.7701934668858771
                        0.6245649337827799
                        0.4864994818735240
                        0.3798932301583033
                        0.3045205789861292
                        0.2508059669188507
                        0.2095894248440830
                        0.1749953792147838
                        0.1439739123803754
                        0.1161382245755658
                        0.0931215318918885
                        0.0762635395255335
                        0.0657475881287741
                        0.0600835521896736
                        0.0569800740326929
                        0.0547787768118252
                        0.0526974614311146
                        0.0504525367503861
                        0.0479498879372699
                        0.0451506144016588
                        0.0420311033811919
                        0.0385753704178021
                        0.0347753954318053
                        0.0306328854576911
                        0.0261610127152271
                        0.0213857012383587
                        0.0163461994391836
                        0.0110947481844024
                        0.0056948156129487
                        0.0002115158111481
                        0.8200778135976444
                        0.6736737115036957
                        0.5092213404988061
                        0.3778897204716085
                        0.2877840190606940
                        0.2284751058404942
                        0.1878839507872814
                        0.1573536185364984
                        0.1321388997382261
                        0.1101531834640348
                        0.0914603964225980
                        0.0773135365969872
                        0.0677341628375984
                        0.0618002502468155
                        0.0583306037204519
                        0.0560773872867901
                        0.0541785171857369
                        0.0522225310508776
                        0.0500521052881042
                        0.0476070591419144
                        0.0448563844720698
                        0.0417785766189015
                        0.0383586325654867
                        0.0345892252352586
                        0.0304726022644895
                        0.0260223612156742
                        0.0212647604710200
                        0.0162393101795296
                        0.0109984496625500
                        0.0056057971067348
                        0.0001276757735484
                        0.7003931506790000
                        0.5259166611802586
                        0.3640709598486102
                        0.2578810431769035
                        0.1926372324008986
                        0.1524054581991501
                        0.1259128449149014
                        0.1063385450050247
                        0.0905056929841265
                        0.0774210463618306
                        0.0676465887547425
                        0.0621085984516898
                        0.0595880409355027
                        0.0580992608017903
                        0.0567521142401296
                        0.0553106915624786
                        0.0536900494594389
                        0.0518414075032987
                        0.0497308601493322
                        0.0473311391700779
                        0.0446186481516044
                        0.0415736760867793
                        0.0381819620265569
                        0.0344366830448518
                        0.0303404773451558
                        0.0259072474781707
                        0.0211634874266150
                        0.0161488846805278
                        0.0109160006487683
                        0.0055285331561930
                        0.0000538821226457
                        0.4629679913202002
                        0.3073705928439460
                        0.1947204599611050
                        0.1332008854562816
                        0.0986781414465774
                        0.0788462242266590
                        0.0664907761751369
                        0.0576046685774987
                        0.0508299857828675
                        0.0463119784439303
                        0.0451109723208791
                        0.0478412364187436
                        0.0520906064715299
                        0.0548481891502236
                        0.0555047596186449
                        0.0548037318983047
                        0.0534130510414648
                        0.0516350723750727
                        0.0495547636005690
                        0.0471758763245011
                        0.0444811796587368
                        0.0414520093532319
                        0.0380742570338801
                        0.0343411277202147
                        0.0302552633447740
                        0.0258305551683982
                        0.0210934708789118
                        0.0160836536467049
                        0.0108535932886740
                        0.0054668938304601
                        0.0000082038879957
                        0.0401520842719265
                        0.0247512199741073
                        0.0152898957093578
                        0.0105383628293879
                        0.0087451493674261
                        0.0090486630069878
                        0.0101909599048539
                        0.0114097850859671
                        0.0132230487974057
                        0.0168866862569916
                        0.0239200218006194
                        0.0346019621597348
                        0.0453412583046070
                        0.0521357920980983
                        0.0546609016293001
                        0.0546145106771347
                        0.0533941554971629
                        0.0516411129196269
                        0.0495541041549866
                        0.0471656293524717
                        0.0444635038560719
                        0.0414291483871152
                        0.0380478427019439
                        0.0343121998309217
                        0.0302243601023053
                        0.0257977891160536
                        0.0210585845954793
                        0.0160460547684428
                        0.0108123649652237
                        0.0054207993069004
                        0.0000598369504938
                        0.4030554577681085
                        0.2626386399199036
                        0.1644661634838126
                        0.1117936346888944
                        0.0808574333876390
                        0.0605184372471766
                        0.0459501942487430
                        0.0346457355191539
                        0.0242205334694379
                        0.0123265518107374
                        0.0029844318099584
                        0.0216165334572398
                        0.0387881608320547
                        0.0495485990090092
                        0.0538948947706323
                        0.0544797177192265
                        0.0534182993588579
                        0.0516832621669907
                        0.0495842045419855
                        0.0471815361099019
                        0.0444678890142059
                        0.0414246881424274
                        0.0380365591592771
                        0.0342954972257885
                        0.0302031255635481
                        0.0257724752576252
                        0.0210292682696250
                        0.0160124715693657
                        0.0107739158471037
                        0.0053765502526690
                        0.0001102877776765
                        0.6645018729909579
                        0.4905079520881240
                        0.3356623754787870
                        0.2364450177970162
                        0.1745313537618434
                        0.1338966932519866
                        0.1052718114467541
                        0.0832415213516691
                        0.0636159183789660
                        0.0429559547047506
                        0.0189009802096056
                        0.0080243806927237
                        0.0318130724110328
                        0.0466204094731199
                        0.0528385178725207
                        0.0541013800800213
                        0.0532420883125340
                        0.0515620605512529
                        0.0494813869501445
                        0.0470891600910343
                        0.0443838326086865
                        0.0413477511205616
                        0.0379656639361744
                        0.0342295963101663
                        0.0301411945603907
                        0.0257135064030555
                        0.0209722554000147
                        0.0159563832150912
                        0.0107176507553549
                        0.0053188961864763
                        0.0001697683756402
                        0.7967167543534758
                        0.6466399550793904
                        0.4841924057012881
                        0.3575082627988642
                        0.2701254218054339
                        0.2103670158892614
                        0.1676115637276806
                        0.1344380369655508
                        0.1050943327553860
                        0.0751185232430637
                        0.0417936024888058
                        0.0061693013334418
                        0.0244525849101224
                        0.0433906395029029
                        0.0515244394577048
                        0.0535052540964284
                        0.0528858140507098
                        0.0512935227240916
                        0.0492582548084209
                        0.0468983537059409
                        0.0442189566034471
                        0.0412041434380837
                        0.0378394770232371
                        0.0341175914559581
                        0.0300406394667454
                        0.0256220893953796
                        0.0208880042046890
                        0.0158775824548174
                        0.0106427506873211
                        0.0052464331298357
                        0.0002402547616429
                        0.8683076729492525
                        0.7491152009067380
                        0.6031124000917123
                        0.4678417113894052
                        0.3632950778036536
                        0.2873614110645401
                        0.2313732772581588
                        0.1871924391409564
                        0.1479387465484661
                        0.1082848183438346
                        0.0652691259453377
                        0.0206133337119605
                        0.0169849462883085
                        0.0400707774080053
                        0.0501148281380282
                        0.0528193745630206
                        0.0524526087130264
                        0.0509614134122057
                        0.0489830019205603
                        0.0466646434115861
                        0.0440184405743401
                        0.0410305714561246
                        0.0376877436139717
                        0.0339834820150375
                        0.0299206845063595
                        0.0255134413643909
                        0.0207883235247742
                        0.0157849257430227
                        0.0105554529610514
                        0.0051630043318303
                        0.0003201805576112
                        0.9109621932756447
                        0.8175138457052937
                        0.6945613517910134
                        0.5639250017655649
                        0.4509435499148862
                        0.3628852697285313
                        0.2953164203322958
                        0.2407180449035829
                        0.1916277390262478
                        0.1420772776877179
                        0.0890214593605195
                        0.0350520996103212
                        0.0096064067849676
                        0.0368015664529572
                        0.0487124042756987
                        0.0521228003722679
                        0.0520056289013934
                        0.0506169947228078
                        0.0486974488351997
                        0.0464221950264627
                        0.0438102052362704
                        0.0408498467472122
                        0.0375290835392014
                        0.0338424347752013
                        0.0297936351200996
                        0.0253974766007278
                        0.0206811055895900
                        0.0156845673460037
                        0.0104603854688689
                        0.0050718592111928
                        0.0004075963357293
                        0.9385180237652414
                        0.8648913729995361
                        0.7640345957492376
                        0.6452056522086141
                        0.5313069059680762
                        0.4356012032005179
                        0.3586168907893685
                        0.2945347078441477
                        0.2358773317968628
                        0.1763011740679309
                        0.1128804992086891
                        0.0493305264045716
                        0.0024357230281161
                        0.0336624006524776
                        0.0473708451942449
                        0.0514550278082718
                        0.0515759174132417
                        0.0502853967242711
                        0.0484221422426798
                        0.0461878631011130
                        0.0436080990566588
                        0.0406733622104822
                        0.0373728790245855
                        0.0337021803846880
                        0.0296658591099749
                        0.0252794308431962
                        0.0205706368610199
                        0.0155799871344482
                        0.0103603302559451
                        0.0049751609910966
                        0.0005009152211925
                        0.9574756172173506
                        0.8990232578085418
                        0.8169782292067865
                        0.7127627634607154
                        0.6035760158005999
                        0.5046284646957684
                        0.4207240064715406
                        0.3483645532174344
                        0.2805644897835063
                        0.2108867854590603
                        0.1367661918526644
                        0.0633566125870572
                        0.0044551546431008
                        0.0306966960514108
                        0.0461157738694937
                        0.0508332334942117
                        0.0511764899259186
                        0.0499770921884203
                        0.0481656866525933
                        0.0459687681451636
                        0.0434180382116840
                        0.0405060520215859
                        0.0372232623720499
                        0.0335661955567713
                        0.0295402962692473
                        0.0251618030071085
                        0.0204590528063362
                        0.0154730191670489
                        0.0102568691807897
                        0.0048742771444732
                        0.0005989638603636
                        0.9711149891454726
                        0.9244757514800130
                        0.8577182726018938
                        0.7682983513505573
                        0.6675105375036162
                        0.5693244101296837
                        0.4811964833332900
                        0.4020069772329250
                        0.3256328302532173
                        0.2458184633799585
                        0.1606348906853402
                        0.0770615982128197
                        0.0110120790444498
                        0.0279336611373514
                        0.0449617912389206
                        0.0502659111646050
                        0.0508133515893993
                        0.0496968182840533
                        0.0479319689909406
                        0.0457681403803917
                        0.0432427244624357
                        0.0403501892856938
                        0.0370821588415869
                        0.0334361236198261
                        0.0294183618748840
                        0.0250458244257025
                        0.0203474369915835
                        0.0153646289784100
                        0.0101508742385095
                        0.0047700057891881
                        0.0007010074344260
                        0.9811959805734897
                        0.9440138106448701
                        0.8895150666764174
                        0.8137290085917975
                        0.7233594553426065
                        0.6293395446945688
                        0.5397863405251358
                        0.4554327526320859
                        0.3711836627991212
                        0.2812117434849532
                        0.1845359278819428
                        0.0904374529445062
                        0.0172234611870466
                        0.0253711249499297
                        0.0438997974603319
                        0.0497430715670290
                        0.0504777606939798
                        0.0494374339383925
                        0.0477152853723077
                        0.0455814677042961
                        0.0430786176377490
                        0.0402030263967886
                        0.0369474704752041
                        0.0333104036100581
                        0.0292989442171276
                        0.0249307654487329
                        0.0202353917209244
                        0.0152547151141872
                        0.0100425168668486
                        0.0046627782241568
                        0.0008063630602133
                        0.9885905303605954
                        0.9592162658641224
                        0.9145533725226087
                        0.8505831286792115
                        0.7712116973205704
                        0.6839491996444351
                        0.5957575338440592
                        0.5081603551605031
                        0.4169472043959782
                        0.3168914280500121
                        0.2082958538532082
                        0.1033151573376226
                        0.0229676847511259
                        0.0230851716570772
                        0.0429803181388915
                        0.0493018315531951
                        0.0501986314332235
                        0.0492219646263299
                        0.0475340705729285
                        0.0454235025689327
                        0.0429374919244099
                        0.0400739200260449
                        0.0368265841525979
                        0.0331948086788102
                        0.0291864840061973
                        0.0248199544093049
                        0.0201253025928584
                        0.0151448481922433
                        0.0099326451790568
                        0.0045527816527725
                        0.0009154682119115
                        0.9940659698311684
                        0.9714090727338629
                        0.9348598959899983
                        0.8809501252324313
                        0.8124324971844062
                        0.7339336377930970
                        0.6499110264442126
                        0.5612205854992439
                        0.4640398727694520
                        0.3538383278698993
                        0.2326049384322985
                        0.1161220564642189
                        0.0285358394692704
                        0.0208518927737759
                        0.0420247586817144
                        0.0487988115713322
                        0.0498607492186695
                        0.0489579077737561
                        0.0473141834298460
                        0.0452349631629419
                        0.0427721079536180
                        0.0399254152145771
                        0.0366900271416482
                        0.0330664180378183
                        0.0290634859179625
                        0.0247004439319409
                        0.0200080978896881
                        0.0150293306681135
                        0.0098185786089433
                        0.0044401192037971
                        0.0010255757856877
                        0.9971896413145262
                        0.9802984737251731
                        0.9506492394967839
                        0.9046716518750412
                        0.8451325976968198
                        0.7754341659243325
                        0.6974166132180736
                        0.6098597498776549
                        0.5082956938606994
                        0.3886252814976031
                        0.2547889901810906
                        0.1269051087164749
                        0.0325555803467793
                        0.0196680560949195
                        0.0417969924976548
                        0.0488385392806255
                        0.0499486475738442
                        0.0490349145392130
                        0.0473688685631969
                        0.0452672030079916
                        0.0427835555670770
                        0.0399176710005839
                        0.0366644945262772
                        0.0330244045121833
                        0.0290062927949361
                        0.0246294121729929
                        0.0199246071558037
                        0.0149347503910348
                        0.0097141690714832
                        0.0043268912868454
                        0.0011457644984349
                        0.9974940503580805
                        0.9841988586716306
                        0.9616953748985760
                        0.9222917794854121
                        0.8683746846812742
                        0.8039129073344262
                        0.7299275045325495
                        0.6433555256716582
                        0.5384105604566852
                        0.4108042027913888
                        0.2661931336719763
                        0.1290683506027559
                        0.0300876345649114
                        0.0233625278513030
                        0.0453690190734472
                        0.0519302055393898
                        0.0525264938067377
                        0.0511551782432140
                        0.0491028073374097
                        0.0466794683421664
                        0.0439281629179322
                        0.0408387936613412
                        0.0373980644033352
                        0.0335995790890399
                        0.0294466528985310
                        0.0249539038616596
                        0.0201482542353901
                        0.0150691587122309
                        0.0097678375350287
                        0.0043053456908325
                        0.0012388807576340
                        0.9945168013981511
                        0.9850081531338168
                        0.9697861809830689
                        0.9385892680894318
                        0.8909292820602266
                        0.8296514492259989
                        0.7561495783085036
                        0.6675005404250513
                        0.5576585413959878
                        0.4221325791197910
                        0.2679138430133482
                        0.1234823951862158
                        0.0218325004556187
                        0.0314111214032236
                        0.0523537054095465
                        0.0577857938449708
                        0.0573825155372306
                        0.0551690576756867
                        0.0524182985509837
                        0.0494179077773019
                        0.0461893468892746
                        0.0427041407380285
                        0.0389337905534651
                        0.0348593907759184
                        0.0304739341580417
                        0.0257834525804731
                        0.0208076190642195
                        0.0155796129412545
                        0.0101450095757676
                        0.0045595103009915
                        0.0011029806929419
                        0.9850339048622780
                        0.9849272288136094
                        0.9757694440803187
                        0.9536711722039642
                        0.9153395859842024
                        0.8598283618382201
                        0.7879188837764024
                        0.6976693207759051
                        0.5833599962465778
                        0.4402151817461433
                        0.2762734737764043
                        0.1240345587941823
                        0.0189752046369151
                        0.0349111073709561
                        0.0556036184229296
                        0.0606163877427696
                        0.0598077057231916
                        0.0572408063483294
                        0.0541911657632926
                        0.0509403003680359
                        0.0475023584967086
                        0.0438424158101110
                        0.0399267057635630
                        0.0357321519899137
                        0.0312485391507331
                        0.0264795394069970
                        0.0214432322785271
                        0.0161719282347542
                        0.0107110724456915
                        0.0051170766261215
                        0.0005435304693359
                        0.9763794655500070
                        0.9843214960716046
                        0.9782355493539432
                        0.9618180136599732
                        0.9315828661812509
                        0.8837541778010983
                        0.8164360912696624
                        0.7271869677762202
                        0.6104166371823483
                        0.4610285871972790
                        0.2880085007323453
                        0.1280665232926016
                        0.0193956120896481
                        0.0355109622800825
                        0.0563774663291919
                        0.0613669148685777
                        0.0604957040468334
                        0.0578626385702225
                        0.0547514770500417
                        0.0514451407523810
                        0.0479575437010684
                        0.0442533226231320
                        0.0402983893404279
                        0.0360695090383851
                        0.0315564627178049
                        0.0267630539467710
                        0.0217076033375136
                        0.0164227417838584
                        0.0109542794280871
                        0.0053590073782221
                        0.0002975740472988
                        0.9730773722441012
                        0.9840656081585942
                        0.9801356959709765
                        0.9679379364592536
                        0.9449715225044766
                        0.9060522778711044
                        0.8458529497466260
                        0.7594820466978096
                        0.6406948790481891
                        0.4840640634276560
                        0.3000449485058215
                        0.1310464561515203
                        0.0185405768121851
                        0.0371734465275587
                        0.0579920312096034
                        0.0627930212501052
                        0.0617339997393172
                        0.0589342481633989
                        0.0556783597123532
                        0.0522467913154700
                        0.0486506830525886
                        0.0448522590296498
                        0.0408154745040814
                        0.0365155526369182
                        0.0319410807044939
                        0.0270949456851989
                        0.0219947540369916
                        0.0166725460920224
                        0.0111735818232696
                        0.0055540653693695
                        0.0001219253692934
                        0.9763014539677005
                        0.9842625235134335
                        0.9815893371483279
                        0.9722236210772846
                        0.9549101054023676
                        0.9246081929528478
                        0.8735828781166880
                        0.7930460653514459
                        0.6741084206714369
                        0.5102322391928446
                        0.3137408346887151
                        0.1344605575501296
                        0.0178489425674725
                        0.0386212156801927
                        0.0593583620092723
                        0.0639792921097510
                        0.0627565172184477
                        0.0598153713854482
                        0.0564368450718426
                        0.0528983327482848
                        0.0492086093382486
                        0.0453280318393362
                        0.0412190912049732
                        0.0368558855466751
                        0.0322261563740107
                        0.0273321606155578
                        0.0221910216049145
                        0.0168343696426114
                        0.0113070501519500
                        0.0056647803316926
                        0.0000291945756383
                        0.9820013877689375
                        0.9858269502626193
                        0.9841571982525827
                        0.9764646419111182
                        0.9624229267496316
                        0.9377012535802005
                        0.8940229114145880
                        0.8202036933168308
                        0.7038965188973762
                        0.5353460546601833
                        0.3273757771768576
                        0.1378990920914470
                        0.0172679099316605
                        0.0398796065966739
                        0.0605144723520593
                        0.0649656699336885
                        0.0635985588544076
                        0.0605357200651094
                        0.0570520766436033
                        0.0534216396767020
                        0.0496510349516058
                        0.0456990397806447
                        0.0415269425479868
                        0.0371079433583699
                        0.0324291359088335
                        0.0274923221334541
                        0.0223142993533716
                        0.0169264309053499
                        0.0113732800485403
                        0.0057102029743607
                        0.0000000000000000
                </DataArray>
                <DataArray type="Float32" Name="aspect_ratio" NumberOfComponents="1" format="ascii">
                        1.9000335934676287
                        2.4827698999989299
                        2.3792909610015669
                        2.1161712126975864
                        2.0066480014379171
                        2.1055452610322243
                        2.4587215382991765
                        3.1482630302223247
                        4.2754388837743963
                        5.9102582179326000
                        7.9604114433813615
                       10.0568983843998162
                       11.9473062426340423
                       13.7844933668734995
                       15.7523708508693762
                       17.9256565338688998
                       20.3285483655501158
                       22.9680026721458985
                       25.8400379986931437
                       28.9289226626507467
                       32.2050090557830443
                       35.6224656120214988
                       39.1175681509325473
                       42.6081742497438433
                       45.9949682833366531
                       49.1649444567606429
                       51.9973379867252623
                       54.3718091221963363
                       56.1781784140814552
                       57.3265373514795999
                       58.1456396455557003
                        1.9848466622693007
                        2.4763855830563939
                        2.2939675593940174
                        2.0995623987949359
                        2.0734494405464950
                        2.2473874045828348
                        2.6736624470286437
                        3.4406601678784779
                        4.6497685540538575
                        6.3651034180812445
                        8.4984699533793752
                       10.7134495269481384
                       12.7589613642143817
                       14.7480868687021917
                       16.8500446584955860
                       19.1441602299146045
                       21.6596161702496508
                       24.4040786581474296
                       27.3706928633217644
                       30.5386492103186688
                       33.8719906528316167
                       37.3179660073905779
                       40.8058548387778486
                       44.2470473396979818
                       47.5369989936091220
                       50.5594776356237088
                       53.1932133730674306
                       55.3206275719465510
                       56.8378089341125939
                       57.6644596744097828
                       58.1416521672014740
                        2.2335063488969005
                        2.4942973574399788
                        2.2336947117618000
                        2.0825788104489533
                        2.1274236948522883
                        2.3888452539537429
                        2.9200013544983017
                        3.8016680624997182
                        5.1223682512010343
                        6.9368690458629016
                        9.1660819713609844
                       11.5121844331330824
                       13.7292712593133101
                       15.8900987612456688
                       18.1464179959730345
                       20.5809868159027728
                       23.2276512057351566
                       26.0943492565226015
                       29.1706223549085283
                       32.4296430127069348
                       35.8280897099101255
                       39.3052020991199916
                       42.7822237608237203
                       46.1631847782017522
                       49.3376727577587723
                       52.1859489515461880
                       54.5864041816243062
                       56.4248845893669979
                       57.6049095215908472
                       58.0573945732332540
                       58.1376610792245044
                        2.7347487939353448
                        2.4685018891711608
                        2.1712554086244869
                        2.0810101552225616
                        2.2031154525338627
                        2.5548316152808032
                        3.1868814565765572
                        4.1719705759846722
                        5.5910446852659750
                        7.4944776824526423
                        9.8135255237920799
                       12.2853096634211950
                       14.6692327301195374
                       17.0001276398248183
                       19.4109257448340152
                       21.9867677543627276
                       24.7661409553718433
                       27.7574563017634683
                       30.9467893212001641
                       34.3013385137935627
                       37.7703637641289241
                       41.2849277524953453
                       44.7579374208524398
                       48.0856167781042308
                       51.1510961130869375
                       53.8304190071871389
                       56.0008490521923808
                       57.5508592073807555
                       58.3906743191027744
                       58.4618585649472124
                       58.1336652160936959
                        3.9339221486322943
                        2.3816160595552722
                        2.1429520678248822
                        2.1570400784034388
                        2.4021138170073239
                        2.8977005267017654
                        3.6955227969616721
                        4.8708144171692927
                        6.5083269863089581
                        8.6592139787776458
                       11.2574328738983967
                       14.0484657971498320
                       16.7768312100656375
                       19.4437002277724971
                       22.1714118701731684
                       25.0514200055728150
                       28.1273013400626464
                       31.4054524543806203
                       34.8634960615203136
                       38.4555945746600223
                       42.1147376273911024
                       45.7533952922867459
                       49.2644735260162826
                       52.5239815795369225
                       55.3961642515035633
                       57.7413148126496543
                       59.4259446339274089
                       60.3343885493058685
                       60.3803526822662913
                       59.5165270279783458
                       58.1296631905820019
                        4.8389452309261770
                        2.2295512321272861
                        2.0368335346128279
                        2.0789071784712858
                        2.3276286946801194
                        2.7942887906860686
                        3.5205648905019043
                        4.5745002018894092
                        6.0333117795903050
                        7.9462952692766770
                       10.2741704262639812
                       12.8302056375157163
                       15.3967225060155698
                       17.9410900089282948
                       20.5538192845111060
                       23.3204418089129154
                       26.2889394296702826
                       29.4719176523185807
                       32.8533489942078023
                       36.3938607758002298
                       40.0329749726312883
                       43.6894551702056207
                       47.2617476436298581
                       50.6300053587479704
                       53.6605299778284445
                       56.2129470559376987
                       58.1499081121714982
                       59.3485183719569643
                       59.7120916398204957
                       59.1803911044464560
                       58.1257405027679210
                        3.1411115853885171
                        2.0599590755797249
                        1.8798973015912190
                        1.8544037187836062
                        1.9523058149238322
                        2.1907584486936216
                        2.6067383514835903
                        3.2512897119230032
                        4.1824060096967242
                        5.4461346963359776
                        7.0435385550598203
                        8.8861145483571528
                       10.8321535736016216
                       12.8297841531382723
                       14.9267170968776583
                       17.1908085088843566
                       19.6717415109521510
                       22.3943744803537022
                       25.3617027600639186
                       28.5583058975009136
                       31.9513497552379025
                       35.4897083392996981
                       39.1028067666042423
                       42.7005125731850039
                       46.1749557726965057
                       49.4048145838816338
                       52.2622408476462322
                       54.6221279889896205
                       56.3728797040900333
                       57.4273495699791964
                       58.1216572976427023
                        2.1257332456724242
                        1.8930841975356476
                        1.7697425898458866
                        1.7300700521375724
                        1.7806032419649910
                        1.9436720247418337
                        2.2505688299108899
                        2.7425776099535409
                        3.4679652324417183
                        4.4706501269554942
                        5.7707551984648475
                        7.3272245257993145
                        9.0351042595648601
                       10.8297157878283465
                       12.7341674677464947
                       14.8078964314092345
                       17.1030717416967552
                       19.6511344289160351
                       22.4635558572985205
                       25.5347851313717608
                       28.8429744691904458
                       32.3486580781393667
                       35.9928986786879079
                       39.6962286408671203
                       43.3593188044762798
                       46.8660195708913714
                       50.0891126608013532
                       52.8986815504262779
                       55.1724673392555245
                       56.8070404292315040
                       58.1174482496315805
                        1.8772656355327718
                        1.7927111438577210
                        1.7024134447376038
                        1.6781693102656849
                        1.7446328124220393
                        1.9228040584154760
                        2.2386034265290753
                        2.7259210612449916
                        3.4261535253059669
                        4.3822396331228266
                        5.6261240278546798
                        7.1417366121390361
                        8.8385148219536451
                       10.6369897355521858
                       12.5427558090138702
                       14.6115116035820046
                       16.8983032968486052
                       19.4375556345471648
                       22.2425170424663950
                       25.3086644850951482
                       28.6148916428831453
                       32.1223779935414309
                       35.7727620666238714
                       39.4870456181443951
                       43.1662062520473709
                       46.6941805471567932
                       49.9435669300461402
                       52.7839665006916130
                       55.0923371377198491
                       56.7641963646410175
                       58.1132226595702416
                        1.8372819196797259
                        1.7272141475401236
                        1.6404110878022500
                        1.6338286827602285
                        1.7243621600395070
                        1.9295389024527107
                        2.2706624276732597
                        2.7748925940870395
                        3.4773795461807332
                        4.4201773630065460
                        5.6448125120609027
                        7.1542819206048533
                        8.8684182991873593
                       10.6951759637372130
                       12.6250339492384819
                       14.7104674384621601
                       17.0091489153550145
                       19.5578663781003923
                       22.3707494029556625
                       25.4432211085021018
                       28.7537304520252703
                       32.2628905048546573
                       35.9117705194716148
                       39.6208744307604643
                       43.2908222206365722
                       46.8054005079237655
                       50.0373231582245244
                       52.8566084697068241
                       55.1409368781089240
                       56.7868171375877474
                       58.1090045903229730
                        1.7351680954521526
                        1.6451580901207929
                        1.5726032371760124
                        1.5844475558151060
                        1.6967939331753216
                        1.9248621248224797
                        2.2858085699668074
                        2.8011701403132606
                        3.5013748639550646
                        4.4282123576322739
                        5.6313691344055115
                        7.1297379610729426
                        8.8527933678533939
                       10.6990950651862395
                       12.6459064701459185
                       14.7422695044745628
                       17.0479676610674294
                       19.6019476790192726
                       22.4192804372235747
                       25.4955345968517788
                       28.8089719801802370
                       32.3199115079308690
                       35.9691109918713964
                       39.6767924257170973
                       43.3433629162562851
                       46.8525038776573837
                       50.0769651415702806
                       52.8869638890015305
                       55.1605457187260328
                       56.7947309394897438
                       58.1047888926061496
                        1.6422180011280842
                        1.5609899189063054
                        1.5020282561570703
                        1.5333510336987210
                        1.6687193408228024
                        1.9207085649041556
                        2.3021814438059393
                        2.8298117541641544
                        3.5305358957186028
                        4.4464483362078334
                        5.6342797053855377
                        7.1259515677317359
                        8.8590762254746809
                       10.7247918695715264
                       12.6889072402212539
                       14.7971690817614104
                       17.1111218886545444
                       19.6715916371386077
                       22.4944221744122693
                       25.5752155390082162
                       28.8919532365637757
                       32.4045729378737116
                       36.0534407540617054
                       39.7584295242958414
                       43.4196875671292275
                       46.9207748063219322
                       50.1344975755063679
                       52.9313336035476095
                       55.1897968665342474
                       56.8075594351215626
                       58.1005775205866922
                        1.5384401717924779
                        1.4702228287732155
                        1.4271646367745765
                        1.4791996348829262
                        1.6384401748779875
                        1.9143845976460789
                        2.3156233212280020
                        2.8549453630343498
                        3.5569185952196994
                        4.4643538418826278
                        5.6400468665729499
                        7.1266238078571607
                        8.8686160000721113
                       10.7514531774424886
                       12.7311796360930359
                       14.8504359871445613
                       17.1721860326134128
                       19.7388747746749983
                       22.5670071655057832
                       25.6521893686595251
                       28.9721250026574852
                       32.4863819143315103
                       36.1349469922875681
                       39.8373542590085178
                       43.4934993558094700
                       46.9868207587512390
                       50.1901738000509077
                       52.9742809269935459
                       55.2181005697216124
                       56.8199259618063750
                       58.0963704820069794
                        1.4284187999912495
                        1.3739239254163698
                        1.3485583179392921
                        1.4232656461602041
                        1.6079824210039350
                        1.9083451325922073
                        2.3289793366690850
                        2.8799096588303256
                        3.5843300575318888
                        4.4860841687518915
                        5.6531975271620864
                        7.1370243896470575
                        8.8877873380766013
                       10.7864728037707454
                       12.7809171237226635
                       14.9109436518998835
                       17.2406502944731836
                       19.8138409446720482
                       22.6475468313931595
                       25.7373171939409387
                       29.0605444375706898
                       32.5764011681583237
                       36.2244723731161385
                       39.9239335303045135
                       43.5744125109885049
                       47.0592179349364036
                       50.2512542203464508
                       53.0214985363720602
                       55.2493742053035511
                       56.8338260416160472
                       58.0921683053538436
                        1.3104010015037262
                        1.2719066425177369
                        1.2668744764148596
                        1.3669282603960449
                        1.5788255900445531
                        1.9037678826130771
                        2.3432153105814307
                        2.9056148793526402
                        3.6136038142190491
                        4.5122575538878560
                        5.6740841830923691
                        7.1574676815839839
                        8.9171559787576083
                       10.8306661861093045
                       12.8390754559491766
                       14.9797423435779528
                       17.3176515827500121
                       19.8977105938808387
                       22.7373382831089517
                       25.8319608788074853
                       29.1586208691676712
                       32.6760644660021497
                       36.3234461866564893
                       40.0195576459282483
                       43.6637391188069754
                       47.1391576545480304
                       50.3187656301954532
                       53.0738062980561843
                       55.2841925351135361
                       56.8495581683027161
                       58.0879714219211245
                        1.1846685434167441
                        1.1649520337646419
                        1.1838279204310522
                        1.3125073032196933
                        1.5531199434772980
                        1.9024572125910067
                        2.3600601481004281
                        2.9339276805913818
                        3.6467749035231690
                        4.5450136928525991
                        5.7049625811577685
                        7.1905506550535848
                        8.9599153769055577
                       10.8878122797984245
                       12.9098899317230480
                       15.0614458006049593
                       17.4081445255514837
                       19.9957467535745449
                       22.8419097332736291
                       25.9418537876150731
                       29.2722133168897585
                       32.7912565073175459
                       36.4376589138366549
                       40.1297854122508283
                       43.7666557251442144
                       47.2312771084293661
                       50.3966508017757167
                       53.1343094272903663
                       55.3247022564592498
                       56.8682211746258322
                       58.0837803151418345
                        1.0516243437826236
                        1.0545623409412191
                        1.1021367006308012
                        1.2629220505223600
                        1.5331921793267008
                        1.9062801184072919
                        2.3813247697562628
                        2.9668347653912300
                        3.6860552181406210
                        4.5867591797848118
                        5.7484640424975690
                        7.2393265436267803
                        9.0197608132038981
                       10.9622467740105653
                       12.9982188952309563
                       15.1613529114218983
                       17.5178233736062417
                       20.1139997668667552
                       22.9676170689234950
                       26.0735879958242296
                       29.4080584191161065
                       32.9287433628706194
                       36.5737680812340722
                       40.2610076921951429
                       43.8891133782509878
                       47.3409069685462772
                       50.4894418814231700
                       53.2065771388083563
                       55.3733707482180167
                       56.8910779996814667
                       58.0795954408282353
                        1.0957929130898448
                        1.0598010442964372
                        1.0257837931686222
                        1.2216855095579427
                        1.5216031154028576
                        1.9173419171915049
                        2.4091510207299546
                        3.0067503625303780
                        3.7341977424319186
                        4.6405901822520868
                        5.8080855742966732
                        7.3078806990122351
                        9.1015608105986416
                       11.0596201075102603
                       13.1103764134220696
                       15.2863462667175594
                       17.6540792944331696
                       20.2603157416166776
                       23.1226939189390183
                       26.2356934600047378
                       29.5748629084782913
                       33.0972591322112526
                       36.7403568714179891
                       40.4214532356686325
                       44.0387644345210666
                       47.4748926507650074
                       50.6029509036394544
                       53.2951802479495193
                       55.4333533347363218
                       56.9197413419041494
                       58.0754171563862823
                        1.2983609572751683
                        1.1949722580010890
                        1.0415458262775114
                        1.1926396539945526
                        1.5209053970878898
                        1.9377633850699680
                        2.4457622439575018
                        3.0562229743183780
                        3.7941465172987100
                        4.7098692251132569
                        5.8876741811017433
                        7.4007063545175818
                        9.2106156055115583
                       11.1860391024264045
                       13.2531672997069620
                       15.4438315408641291
                       17.8248519165089780
                       20.4431073448369150
                       23.3159509305441774
                       26.4372789823184855
                       29.7819044181899229
                       33.3060900875032829
                       36.9465304480878779
                       40.6198310388072755
                       44.2236887616913740
                       47.6404446655514697
                       50.7432849731474669
                       53.4049097562551312
                       55.5079490405463243
                       56.9558929937517652
                       58.0712455659602342
                        1.5860023395536097
                        1.3470910436447124
                        1.0971666704302095
                        1.1790377803947399
                        1.5326321483692130
                        1.9685004248077011
                        2.4920430831911680
                        3.1162347417952191
                        3.8670154799894018
                        4.7958265001859776
                        5.9885651693738636
                        7.5192815455067500
                        9.3486146863380045
                       11.3434210982149269
                       13.4286982811702371
                       15.6360629544223450
                       18.0325115597294920
                       20.6648333786204284
                       23.5499052907820128
                       26.6808847684056400
                       30.0317048980285126
                       33.5576932941202051
                       37.1946303669281013
                       40.8583146502521223
                       44.4458402496501464
                       47.8392496758996699
                       50.9118234809747535
                       53.5368085200134780
                       55.5978484109671538
                       56.9998705811348803
                       58.0670802131612130
                        1.9603544794864321
                        1.4873960233481855
                        1.1305620619727486
                        1.1800234066019759
                        1.5530597005327712
                        2.0041433667861208
                        2.5412046159581170
                        3.1785964685080751
                        3.9430576079698898
                        4.8868733982749310
                        6.0968866068299753
                        7.6469517846189863
                        9.4958675365861738
                       11.5091676891663879
                       13.6117643668056053
                       15.8354909220551449
                       18.2473570972333010
                       20.8938313062142206
                       23.7911848740484707
                       26.9317816390347128
                       30.2886516524109802
                       33.8161757320406893
                       37.4492147596682342
                       41.1027604371211431
                       44.6733104249698042
                       48.0426215525581401
                       51.0840878340813511
                       53.6715273035531476
                       55.6896252591763744
                       57.0447760603264195
                       58.0629194444636989
                        2.2151511236699012
                        1.5556865596224257
                        1.1408542787205672
                        1.1841073165400538
                        1.5654400725646990
                        2.0233731474549454
                        2.5671677529443613
                        3.2120165201677116
                        3.9851414680916330
                        4.9390843980786500
                        6.1604421521260055
                        7.7215346207744157
                        9.5792916844300023
                       11.5997451994928527
                       13.7095009974418442
                       15.9409230353523642
                       18.3606289755229992
                       21.0145256638893024
                       23.9183694035359730
                       27.0640317369485090
                       30.4240402632770614
                       33.9522659282471213
                       37.5830814253521634
                       41.2310565079586147
                       44.7923856617103420
                       48.1486947156414380
                       51.1734648574692586
                       53.7408482437422027
                       55.7361147096549383
                       57.0664652525181393
                       58.0587595800564782
                        2.0165285127311507
                        1.5046767044192426
                        1.1339926495213740
                        1.1801254605654512
                        1.5549961304247930
                        2.0078197787653353
                        2.5475957439341479
                        3.1897272201251554
                        3.9615097207012636
                        4.9149088509395895
                        6.1346820327260983
                        7.6901267930566158
                        9.5369747670858834
                       11.5446647213657621
                       13.6437594086436296
                       15.8673569103785285
                       18.2811006818539500
                       20.9301078778192848
                       23.8299014840499283
                       26.9724589469450680
                       30.3305547496652228
                       33.8583528194858457
                       37.4905220636353091
                       41.1419019707903498
                       44.7089002204364247
                       48.0732675064708053
                       51.1084915957399682
                       53.6885898299747993
                       55.6985454728608466
                       57.0451272924961023
                       58.0545972220456269
                        1.6432984036350477
                        1.3730097989307245
                        1.1049707779317632
                        1.1772366232373567
                        1.5338760582719965
                        1.9725882610011408
                        2.5008092985646789
                        3.1335911518215913
                        3.8979902752039986
                        4.8447772531736719
                        6.0556299974077834
                        7.5955215545459822
                        9.4191676462472943
                       11.4013878797829177
                       13.4784038293860602
                       15.6842880614333947
                       18.0833174759920552
                       20.7196266067230923
                       23.6086525950347636
                       26.7428426914213129
                       30.0956858951496272
                       33.6221444413427373
                       37.2576798711918461
                       40.9178420144577148
                       44.4995845119872359
                       47.8849540521806229
                       50.9474061227702942
                       53.5605409899504161
                       55.6085198930179396
                       56.9969112673808557
                       58.0504350497092312
                        1.3463258040495068
                        1.2233835341645400
                        1.0529534296157522
                        1.1881119403213033
                        1.5202669025401751
                        1.9407694696362832
                        2.4550622653252081
                        3.0775516682328954
                        3.8349329590982819
                        4.7764898075237214
                        5.9800696377091076
                        7.5051998662676327
                        9.3049633025150294
                       11.2602114963078810
                       13.3138019549820179
                       15.5010868984603863
                       17.8848218043645538
                       20.5079750561455344
                       23.3858106601769157
                       26.5112267417749693
                       29.8584381208464392
                       33.3832278851713058
                       37.0218768979277319
                       40.6906729315770518
                       44.2871413710959607
                       47.6936458793923576
                       50.7836227760852655
                       53.4302578957193247
                       55.5168808167232516
                       56.9478374425939105
                       58.0462769044246864
                        1.1367555917993527
                        1.0880677156184865
                        1.0115947808672567
                        1.2144573170050130
                        1.5190422370659630
                        1.9192294183890685
                        2.4189763400030880
                        3.0321025245066766
                        3.7849673407038876
                        4.7251837371053787
                        5.9260999822755184
                        7.4406363742624410
                        9.2194104103540526
                       11.1496844786244058
                       13.1817422999346698
                       15.3525020762041972
                       17.7230872382900700
                       20.3351069414294728
                       23.2034842878915247
                       26.3214222543339580
                       29.6637208153786773
                       33.1868442942922256
                       36.8277598233019432
                       40.5033777458112973
                       44.1117111215209735
                       47.5354020061458997
                       50.6478870109308186
                       53.3220235140269651
                       55.4404638598310801
                       56.9065482677249064
                       58.0421245915429810
                        1.0130318311242354
                        1.0251680426797225
                        1.0841862589518142
                        1.2530335127664426
                        1.5287861180645672
                        1.9072005441945605
                        2.3919562534671948
                        2.9967136585310857
                        3.7476615801677279
                        4.6905703622990933
                        5.8935094735550355
                        7.4014875732070841
                        9.1619027306125090
                       11.0690224024525588
                       13.0813820009755028
                       15.2376880564935470
                       17.5972863520993025
                       20.2002263031916041
                       23.0609223198397126
                       26.1727366438980043
                       29.5109132876483839
                       33.0324566589437738
                       36.6748844347185781
                       40.3556102635511672
                       43.9730457434154405
                       47.4100667392944821
                       50.5401230436026083
                       53.2358229211421666
                       55.3792899086535012
                       56.8730706790140711
                       58.0379786145328127
                        1.1406311910039615
                        1.1310877339560366
                        1.1620083968892290
                        1.2997894068455810
                        1.5467538390337662
                        1.9023761133557957
                        2.3716144141361232
                        2.9687458175725214
                        3.7201136246542529
                        4.6694742828124909
                        5.8786734228510463
                        7.3833195709672883
                        9.1269965337900371
                       11.0119006116488906
                       13.0057035066848235
                       15.1490391321277789
                       17.4992830462626141
                       20.0947220270933309
                       22.9491122314591462
                       26.0558563281225565
                       29.3905317889368879
                       32.9105735899996815
                       36.5539445530025559
                       40.2384684561947777
                       43.8628849168871799
                       47.3102668313684001
                       50.4540842026897429
                       53.1667540822887821
                       55.3299823545947917
                       56.8456827430509712
                       58.0338388878951032
                        1.2616782813391131
                        1.2343141806800734
                        1.2410547605550975
                        1.3509128020116561
                        1.5699840180425863
                        1.9021975036578280
                        2.3553270824651204
                        2.9453290204285773
                        3.6992023076423802
                        4.6585214552189183
                        5.8777659489036539
                        7.3814390697680768
                        9.1089196574070197
                       10.9716249309101251
                       12.9472854151225370
                       15.0785033002227026
                       17.4204459844906061
                       20.0094369532672297
                       22.8584463800453010
                       25.9608283167372604
                       29.2924167400490602
                       32.8110026762293456
                       36.4549225720342562
                       40.1423467554850503
                       43.7722941436801466
                       47.2280081610764260
                       50.3829815706230273
                       53.1094766346764665
                       55.2888537554586482
                       56.8224993819534247
                       58.0297050879557520
                        1.3776469341178328
                        1.3342165195981129
                        1.3190662389485321
                        1.4035953371344892
                        1.5961320031048699
                        1.9047794670754242
                        2.3413228179886989
                        2.9246556109902960
                        3.6831295329794084
                        4.6559833249590697
                        5.8889595124783777
                        7.3934882263541705
                        9.1045795735606876
                       10.9445357078668025
                       12.9020665975374147
                       15.0216752360058345
                       17.3560446852129797
                       19.9393383428465352
                       22.7836276686294994
                       25.8821470289323485
                       29.2109294522837468
                       32.7280678110877832
                       36.3722205341241184
                       40.0618587215851069
                       43.6962455164848111
                       47.1587757778718930
                       50.3229667366399312
                       53.0609518780861355
                       55.2537977767170274
                       56.8024394284539510
                       58.0255768649278222
                        1.4851067538562476
                        1.4293835120036654
                        1.3942926650680291
                        1.4549682245275755
                        1.6218619697065636
                        1.9066160983011763
                        2.3257658339344091
                        2.9024533580462295
                        3.6672356947742585
                        4.6568366245425260
                        5.9065848776589614
                        7.4125733096273716
                        9.1056467717182310
                       10.9211255711971194
                       12.8595925913954866
                       14.9672500175853421
                       17.2939799219830747
                       19.8716041513732075
                       22.7112173585705081
                       25.8059056675755927
                       29.1318904930436901
                       32.6475606136113253
                       36.2918910982353358
                       39.9836481431909593
                       43.6223329707443290
                       47.0914854569894851
                       50.2646409678793149
                       53.0137985676662877
                       55.2197267336480858
                       56.7829069537731757
                       58.0214538048317371
                        1.6015983283612760
                        1.5243743962312601
                        1.4685098690096048
                        1.5061970057706730
                        1.6488310407714362
                        1.9106402747850898
                        2.3130616112489418
                        2.8847071821003331
                        3.6593988859989721
                        4.6712289468065598
                        5.9431115032770895
                        7.4530637930039201
                        9.1281486631760093
                       10.9191501206945533
                       12.8393281817376966
                       14.9362795036255262
                       17.2567472409420846
                       19.8300087326412773
                       22.6660539118628993
                       25.7577210259380982
                       29.0813275481275915
                       32.5954678991554500
                       36.2393488420423840
                       39.9319591373347041
                       43.5729867530661649
                       47.0460954526292574
                       50.2248556994924983
                       52.9811923498471914
                       55.1956801812163814
                       56.7684915971085464
                       58.0173359877726161
                        1.6655680985347950
                        1.6041481004100756
                        1.5368581798836976
                        1.5507566633376330
                        1.6658304645187937
                        1.9000709176846049
                        2.2805021330784783
                        2.8426737280218971
                        3.6247775491588577
                        4.6578259066892646
                        5.9496813926887508
                        7.4574084627821074
                        9.1059158117856333
                       10.8647788163396124
                       12.7605522162731662
                       14.8416513295262755
                       17.1513095216462034
                       19.7161992279484752
                       22.5453259774400339
                       25.6314914570912286
                       28.9513615060309269
                       32.4639993578508306
                       36.1090931905100012
                       39.8060648724353065
                       43.4549324465496363
                       46.9395316852239266
                       50.1333972582133567
                       52.9081754087876586
                       55.1439083983754362
                       56.7400020202845250
                       58.0132218897308034
                        1.9147099315603960
                        1.7211147847715429
                        1.6175600469389869
                        1.6109704347470547
                        1.7080886636155632
                        1.9286338974683251
                        2.3047848127357511
                        2.8790339525787557
                        3.6944945192725331
                        4.7789547317381694
                        6.1220240862665277
                        7.6545336654772009
                        9.2989930336172067
                       11.0469472252387237
                       12.9392583853508752
                       15.0248314395102137
                       17.3428649683358152
                       19.9167525568007596
                       22.7536474840821487
                       25.8452889310473529
                       29.1675663311070177
                       32.6788572438496696
                       36.3182329002656583
                       40.0046112961033847
                       43.6376845028813582
                       47.1012063517477430
                       50.2689283330834546
                       53.0130439787712819
                       55.2144714282454560
                       56.7737799158372765
                       58.0091162424079391
                        2.8179636709496474
                        1.9228751425973842
                        1.7813226004767830
                        1.7985634189815237
                        1.9493830573250126
                        2.2498449480021632
                        2.7371221187020017
                        3.4618097747770211
                        4.4740829630584404
                        5.7984893193813902
                        7.3966150976010400
                        9.1531351053531768
                       10.9780584066085220
                       12.8897172805724420
                       14.9483263218918342
                       17.2042754699460236
                       19.6907779970614974
                       22.4235439649173007
                       25.4013773119862869
                       28.6068297621559714
                       32.0057242663680980
                       35.5457966818554598
                       39.1555141570602607
                       42.7440951041470365
                       46.2034927857219641
                       49.4128257277622272
                       52.2453909836725033
                       54.5779315538462033
                       56.3012948135226011
                       57.3311395758452735
                       58.0049978068410291
                        4.1808559982750521
                        2.1522313909117190
                        2.0403930858721888
                        2.1529286446915034
                        2.4652056178236563
                        2.9875210125849873
                        3.7626081715559179
                        4.8541406243949969
                        6.3238504205081470
                        8.1892603029242864
                       10.3600517549944157
                       12.6375522691786375
                       14.9092125471353590
                       17.2354691718234292
                       19.7061277296160943
                       22.3744940738619488
                       25.2646233669816922
                       28.3781620828739954
                       31.6964333338577308
                       35.1813834930286753
                       38.7755510623693301
                       42.4015682142691699
                       45.9623332214733691
                       49.3428914608509832
                       52.4147070141773163
                       55.0426087923802532
                       57.0942249956381910
                       58.4511609030289011
                       59.0206159048223126
                       58.7457323084848022
                       58.0007789845630711
                        3.4213822981315984
                        2.3109360711566010
                        2.1681761426754199
                        2.2535923049012182
                        2.5629229775995348
                        3.1136685999047214
                        3.9499475848444333
                        5.1396677739323806
                        6.7525014493289970
                        8.8030325694658066
                       11.1606084130055744
                       13.5673373000009143
                       15.9153499048291270
                       18.3078754222501540
                       20.8524423530843113
                       23.6000643507810202
                       26.5681153146705581
                       29.7522220728918646
                       33.1285660941474347
                       36.6542470516017722
                       40.2669805986756347
                       43.8846975725762197
                       47.4060461788961845
                       50.7127292446830600
                       53.6742851154851101
                       56.1555230604357430
                       58.0263413520161275
                       59.1730921640044001
                       59.5101130333979902
                       58.9896789446650289
                       57.9964810450785211
                        2.4418732064683283
                        2.3337422852793020
                        2.1431348022313827
                        2.1274559393950352
                        2.3187157916074440
                        2.7392407931973036
                        3.4327708475993231
                        4.4653656918498318
                        5.9079774835457120
                        7.7759713901908129
                        9.9232824150616591
                       12.0743124557951622
                       14.1460746612723006
                       16.2722453697053181
                       18.5647649642778439
                       21.0693263230357119
                       23.8005376070648298
                       26.7566370256144280
                       29.9210993713165773
                       33.2617182101361479
                       36.7293439368861911
                       40.2567729465071113
                       43.7584890895728822
                       47.1319969561340437
                       50.2613112300725883
                       53.0228845339976321
                       55.2938664796401749
                       56.9620955902898837
                       57.9367195143115518
                       58.1579532161522958
                       57.9922053449245593
                        2.0161685016301684
                        2.3197342691137137
                        2.1737595617754049
                        2.1017063716436637
                        2.2151634318660377
                        2.5494850292725374
                        3.1556006747871319
                        4.1070693521547974
                        5.4831756122486245
                        7.3010361688402471
                        9.3850710579820916
                       11.4187957318689601
                       13.3412979609565803
                       15.3257147810776112
                       17.4925369417837446
                       19.8826023778006941
                       22.5064692342404019
                       25.3621330547237991
                       28.4359555351266492
                       31.7005808384677417
                       35.1128496311168425
                       38.6121534582928389
                       42.1197015439925730
                       45.5393009184854015
                       48.7601848146982944
                       51.6622149416614453
                       54.1234405858617249
                       56.0295348053423493
                       57.2841286110499741
                       57.8186524182497155
                       57.9879183759313178
                        1.7968147569392740
                        2.2665095318926484
                        2.1991316892205872
                        2.0898462870778436
                        2.1317978526411001
                        2.3793237868093364
                        2.8905874713093230
                        3.7503538995564675
                        5.0517208995722315
                        6.8168807767848984
                        8.8373636347456217
                       10.7507807929233551
                       12.5228045261832475
                       14.3672253881363149
                       16.4109040473351505
                       18.6891485763737720
                       21.2086721737952278
                       23.9674554982936257
                       26.9548243685014238
                       30.1482275371057227
                       33.5103514173515352
                       36.9869414897923975
                       40.5055894602628232
                       43.9759604424678162
                       47.2919729398869250
                       50.3363040976653063
                       52.9872944613076825
                       55.1278888733164221
                       56.6557534487780479
                       57.4932679141776301
                       57.9836225750833894
                        1.7140831018666907
                        2.2339376492603630
                        2.2391851669931357
                        2.0726448140520404
                        2.0384666220593703
                        2.2173467700848763
                        2.6644196648200565
                        3.4616612908840907
                        4.7073174660936495
                        6.4295847614592376
                        8.3932583276232252
                       10.1948321091018332
                       11.8294620308325276
                       13.5493660387489476
                       15.4853413805165880
                       17.6665372161475668
                       20.0956973714507500
                       22.7704989718754101
                       25.6827019840396335
                       28.8138620443083954
                       32.1317170345888529
                       35.5875339259900403
                       39.1144781402181695
                       42.6273611110319094
                       46.0242553209069361
                       49.1903880586609593
                       52.0044670174225767
                       54.3471763201617258
                       56.1110883031382271
                       57.2107716222640206
                       57.9793220298329933
                </DataArray>
                <DataArray type="Float32" Name="jacobian" NumberOfComponents="1" format="ascii">
                        0.0000125104674480
                        0.0000095011572083
                        0.0000205857882370
                        0.0000556229738217
                        0.0001240205833351
                        0.0002343218761564
                        0.0003867321650032
                        0.0005668397675794
                        0.0007519767231266
                        0.0009288713530867
                        0.0011029872882161
                        0.0012943099442285
                        0.0015205627237764
                        0.0017858486143078
                        0.0020907502833132
                        0.0024373110689826
                        0.0028276918799382
                        0.0032630007536615
                        0.0037426793930399
                        0.0042639964670487
                        0.0048215472106362
                        0.0054068100265642
                        0.0060078527639457
                        0.0066092947651527
                        0.0071926272610771
                        0.0077369686541767
                        0.0082202766788270
                        0.0086209584050742
                        0.0089197254172113
                        0.0091014558861692
                        0.0092183711615409
                        0.0000132651396580
                        0.0000127158201174
                        0.0000327324265706
                        0.0000776252844800
                        0.0001496408999775
                        0.0002495576411305
                        0.0003755025122471
                        0.0005211202996789
                        0.0006764409812699
                        0.0008349195589526
                        0.0010004950566356
                        0.0011869661300003
                        0.0014062592126775
                        0.0016606867214331
                        0.0019512813562616
                        0.0022811691195440
                        0.0026536475901930
                        0.0030708460526498
                        0.0035331737029811
                        0.0040389222430327
                        0.0045838244016639
                        0.0051606021997460
                        0.0057586112785270
                        0.0063637016925394
                        0.0069584092352582
                        0.0075225677599593
                        0.0080343840346085
                        0.0084719404205247
                        0.0088149974739603
                        0.0090468776280508
                        0.0092177389864172
                        0.0000131028691366
                        0.0000161512164777
                        0.0000454586003863
                        0.0000984810704810
                        0.0001708902630965
                        0.0002592179241948
                        0.0003621316357352
                        0.0004791993928035
                        0.0006086552505189
                        0.0007490805701810
                        0.0009040665440943
                        0.0010828347466779
                        0.0012926209612236
                        0.0015342767981960
                        0.0018091154339985
                        0.0021210448004767
                        0.0024742670303819
                        0.0028718041016320
                        0.0033149849647617
                        0.0038031341247737
                        0.0043331795335206
                        0.0048991938882981
                        0.0054919818833483
                        0.0060988419613450
                        0.0067036240414499
                        0.0072871850498429
                        0.0078283023485712
                        0.0083050357582922
                        0.0086964386132522
                        0.0089844243666794
                        0.0092171061690529
                        0.0000116165936204
                        0.0000220798904461
                        0.0000614823044476
                        0.0001187013994534
                        0.0001855104487298
                        0.0002595093281341
                        0.0003432924158021
                        0.0004405742901835
                        0.0005527174805963
                        0.0006800849278053
                        0.0008260644941287
                        0.0009973399967127
                        0.0011981365785012
                        0.0014281956721439
                        0.0016889028375802
                        0.0019846647695201
                        0.0023203321660126
                        0.0026996052553586
                        0.0031245483491713
                        0.0035953542329472
                        0.0041100041045025
                        0.0046638174987233
                        0.0052490061174915
                        0.0058543627918459
                        0.0064652090135180
                        0.0070637084366383
                        0.0076296192813636
                        0.0081414973044382
                        0.0085782766146684
                        0.0089210629522320
                        0.0092164722301114
                        0.0000071478903290
                        0.0000311381599581
                        0.0000780860001680
                        0.0001308348237209
                        0.0001832990520206
                        0.0002380868893007
                        0.0003013627424302
                        0.0003779923179184
                        0.0004699325198914
                        0.0005782871026569
                        0.0007063331571612
                        0.0008590703898841
                        0.0010386598879536
                        0.0012441132334138
                        0.0014767932810561
                        0.0017413084758716
                        0.0020429214378458
                        0.0023859671289459
                        0.0027734282380844
                        0.0032067900249361
                        0.0036857831791950
                        0.0042079890629096
                        0.0047684095203695
                        0.0053591213156389
                        0.0059691290189906
                        0.0065845211015425
                        0.0071890129345023
                        0.0077649179921852
                        0.0082945265550619
                        0.0087618034815848
                        0.0092158364781199
                        0.0000000057855999
                        0.0000470150729851
                        0.0001001187914651
                        0.0001521494560073
                        0.0002028995506234
                        0.0002583185066391
                        0.0003250795473105
                        0.0004072410515383
                        0.0005063326436124
                        0.0006237368913203
                        0.0007632134804213
                        0.0009295649974114
                        0.0011238725187555
                        0.0013441173922090
                        0.0015912137093967
                        0.0018698570093416
                        0.0021854598977664
                        0.0025422617856126
                        0.0029428672709506
                        0.0033881597507409
                        0.0038771002623949
                        0.0044063740576977
                        0.0049700029981307
                        0.0055590568343295
                        0.0061615812303986
                        0.0067628437196134
                        0.0073459715600928
                        0.0078930079688654
                        0.0083863477719407
                        0.0088104452431919
                        0.0092152083515009
                       -0.0000106429467446
                        0.0000700520480268
                        0.0001276851419963
                        0.0001873138407959
                        0.0002545040539482
                        0.0003371091075283
                        0.0004406263859671
                        0.0005668464548075
                        0.0007152268446686
                        0.0008863849229605
                        0.0010849892026031
                        0.0013164646406015
                        0.0015799609965269
                        0.0018702507544269
                        0.0021867553958422
                        0.0025345496714346
                        0.0029193840431216
                        0.0033447211985625
                        0.0038112068022970
                        0.0043168033061283
                        0.0048567697932138
                        0.0054234382163183
                        0.0060059740795923
                        0.0065903051166116
                        0.0071593513714249
                        0.0076936438839422
                        0.0081723651234799
                        0.0085747710584288
                        0.0088818673642812
                        0.0090781286014887
                        0.0092145591662264
                       -0.0000138586834655
                        0.0000930398005548
                        0.0001558059084258
                        0.0002203314740313
                        0.0002968773955421
                        0.0003940815214990
                        0.0005169235026339
                        0.0006667063909785
                        0.0008429071548957
                        0.0010467591513621
                        0.0012838765449283
                        0.0015592407769122
                        0.0018684470548772
                        0.0022018380499093
                        0.0025569696679843
                        0.0029395425386062
                        0.0033561873588925
                        0.0038103290826451
                        0.0043016808190471
                        0.0048267196653458
                        0.0053789362272512
                        0.0059487896345239
                        0.0065236222433852
                        0.0070877578653897
                        0.0076229228143235
                        0.0081090618655034
                        0.0085255553082856
                        0.0088527643493544
                        0.0090737462300951
                        0.0091759066913331
                        0.0092138932762760
                        0.0000147281704064
                        0.0001215641192750
                        0.0001838683710970
                        0.0002472956654317
                        0.0003221868742037
                        0.0004156137172610
                        0.0005319833548057
                        0.0006739922988058
                        0.0008437713930287
                        0.0010449986037628
                        0.0012846856645562
                        0.0015676291633758
                        0.0018868171798770
                        0.0022291125913207
                        0.0025903794363100
                        0.0029766915198474
                        0.0033956399021215
                        0.0038512762985874
                        0.0043435384797952
                        0.0048689119498014
                        0.0054208191430241
                        0.0059896384495928
                        0.0065626442982600
                        0.0071241181761033
                        0.0076557791083109
                        0.0081376071416325
                        0.0085490651126689
                        0.0088706446603504
                        0.0090855769584342
                        0.0091814756352666
                        0.0092132249731753
                        0.0000539505989071
                        0.0001535692013842
                        0.0002113422674107
                        0.0002711220239378
                        0.0003413587618819
                        0.0004276807200031
                        0.0005344085929869
                        0.0006654819198921
                        0.0008250263898192
                        0.0010186527486360
                        0.0012547039768735
                        0.0015382553189746
                        0.0018606417288897
                        0.0022059981591300
                        0.0025685973631325
                        0.0029546390911718
                        0.0033724890048614
                        0.0038268101337030
                        0.0043178723434031
                        0.0048423372555317
                        0.0053937457554027
                        0.0059625754563406
                        0.0065361860643270
                        0.0070989234647167
                        0.0076325400958499
                        0.0081170087471662
                        0.0085317373368548
                        0.0088571125089958
                        0.0090762139814417
                        0.0091764676430302
                        0.0092125575830430
                        0.0000910894383034
                        0.0001836735587876
                        0.0002367248310894
                        0.0002921878480366
                        0.0003574616965826
                        0.0004375826000192
                        0.0005369943563631
                        0.0006603047747953
                        0.0008127334712299
                        0.0010011846928047
                        0.0012351527698305
                        0.0015201458271818
                        0.0018462481469533
                        0.0021952208809108
                        0.0025598344569000
                        0.0029463449087112
                        0.0033638061119619
                        0.0038174251156746
                        0.0043077500175284
                        0.0048315706817239
                        0.0053825015574526
                        0.0059510783926498
                        0.0065247120223151
                        0.0070877897410049
                        0.0076220900005937
                        0.0081075904067468
                        0.0085236780515173
                        0.0088506911740098
                        0.0090716349875657
                        0.0091738401190436
                        0.0092118904109221
                        0.0001277886549448
                        0.0002124200948934
                        0.0002595947352456
                        0.0003098526556130
                        0.0003698080801372
                        0.0004441079314582
                        0.0005371694383856
                        0.0006538972383455
                        0.0008001812490214
                        0.0009838753463255
                        0.0012154571933038
                        0.0015009471950235
                        0.0018295756037948
                        0.0021811591998700
                        0.0025471115242289
                        0.0029336651612424
                        0.0033504529769817
                        0.0038031654406482
                        0.0042926106935292
                        0.0048157099420814
                        0.0053661618550401
                        0.0059345723140198
                        0.0065084139230813
                        0.0070721230628389
                        0.0076075075344633
                        0.0080945475644945
                        0.0085126008132986
                        0.0088419417926347
                        0.0090654795538952
                        0.0091704226604619
                        0.0092112237492126
                        0.0001631731180336
                        0.0002388914029745
                        0.0002794820827818
                        0.0003242631038613
                        0.0003792420841942
                        0.0004485901188461
                        0.0005364720489827
                        0.0006478702342967
                        0.0007891156005126
                        0.0009687838428896
                        0.0011981807788166
                        0.0014838393785992
                        0.0018143957003467
                        0.0021680680069429
                        0.0025350664222733
                        0.0029215559490270
                        0.0033376570710007
                        0.0037894825834556
                        0.0042780723396742
                        0.0048004677679464
                        0.0053504470783221
                        0.0059186836470464
                        0.0064927101084265
                        0.0070570110772353
                        0.0075934239666325
                        0.0080819332090991
                        0.0085018700300598
                        0.0088334495384579
                        0.0090594899947455
                        0.0091670838556152
                        0.0092105576169906
                        0.0001967556120933
                        0.0002625589604648
                        0.0002960935478214
                        0.0003355210162119
                        0.0003861084927702
                        0.0004513007222947
                        0.0005348760628954
                        0.0006418250767594
                        0.0007787972570582
                        0.0009549194787453
                        0.0011821755167574
                        0.0014675721707022
                        0.0017993535627436
                        0.0021544648212795
                        0.0025220851051878
                        0.0029082844549669
                        0.0033235830306261
                        0.0037744555892410
                        0.0042621483810419
                        0.0047838168264421
                        0.0053333196224351
                        0.0059014005520364
                        0.0064756554193942
                        0.0070406198200273
                        0.0075781627586657
                        0.0080682737342093
                        0.0084902569708333
                        0.0088242659329652
                        0.0090530240734447
                        0.0091635020215134
                        0.0092098921070975
                        0.0002281037493102
                        0.0002829108010194
                        0.0003093218672261
                        0.0003439196054837
                        0.0003908508103034
                        0.0004526066460379
                        0.0005325781031065
                        0.0006357740023059
                        0.0007690856998386
                        0.0009420557327968
                        0.0011672062653148
                        0.0014519538157562
                        0.0017842996768838
                        0.0021402110836636
                        0.0025080180760298
                        0.0028936846410229
                        0.0033080487472834
                        0.0037578875965814
                        0.0042446287618062
                        0.0047655360117772
                        0.0053145502987178
                        0.0058824896648161
                        0.0064570171946311
                        0.0070227231190580
                        0.0075615107591066
                        0.0080533760248135
                        0.0084775956848828
                        0.0088142589809663
                        0.0090459897140830
                        0.0091596296681753
                        0.0092092272988469
                        0.0002567305471535
                        0.0002995476412632
                        0.0003191801477257
                        0.0003497250331308
                        0.0003937174358136
                        0.0004526103002259
                        0.0005295119165169
                        0.0006294822244120
                        0.0007595929396215
                        0.0009296881009640
                        0.0011526980789773
                        0.0014363713317839
                        0.0017685826275290
                        0.0021245990610864
                        0.0024920922830102
                        0.0028769208124051
                        0.0032901622293268
                        0.0037388375605582
                        0.0042245322990063
                        0.0047446155583880
                        0.0052931154253588
                        0.0058609312622769
                        0.0064358005383997
                        0.0070023742343830
                        0.0075425942980548
                        0.0080364647646872
                        0.0084632333705073
                        0.0088029197770359
                        0.0090380388666255
                        0.0091552907008239
                        0.0092085632795416
                        0.0002821147787551
                        0.0003121711553272
                        0.0003257512097848
                        0.0003531404454677
                        0.0003948135181502
                        0.0004512802593618
                        0.0005255179454463
                        0.0006226611168135
                        0.0007499054374371
                        0.0009172976755110
                        0.0011380548475303
                        0.0014201727316557
                        0.0017514945034157
                        0.0021068528404913
                        0.0024734583264015
                        0.0028570733176326
                        0.0032689397216001
                        0.0037162649313327
                        0.0042007710656723
                        0.0047199326659147
                        0.0052678734371001
                        0.0058355848615344
                        0.0064108894343548
                        0.0069785079866394
                        0.0075204274401215
                        0.0080166623538443
                        0.0084464288502135
                        0.0087896687516431
                        0.0090287739349482
                        0.0091502833329660
                        0.0092079001329591
                        0.0003036171987714
                        0.0003205452116034
                        0.0003291078758381
                        0.0003542441861645
                        0.0003940830181386
                        0.0004484447694415
                        0.0005203228162965
                        0.0006149284257307
                        0.0007395265682421
                        0.0009042788472988
                        0.0011225744804448
                        0.0014025702498336
                        0.0017321618111546
                        0.0020860071669474
                        0.0024510581494589
                        0.0028329960769363
                        0.0032431540056780
                        0.0036888698394419
                        0.0041719839370185
                        0.0046900803756555
                        0.0052373915908560
                        0.0058050167871700
                        0.0063808787065184
                        0.0069497810475037
                        0.0074937647854501
                        0.0079928584493591
                        0.0084262428738013
                        0.0087737702728032
                        0.0090176894508799
                        0.0091443506115835
                        0.0092072379287012
                        0.0003203920868475
                        0.0003244484761714
                        0.0003293050873041
                        0.0003530229652249
                        0.0003913776544935
                        0.0004438709625393
                        0.0005136197609332
                        0.0006058911493486
                        0.0007279660040221
                        0.0008900412965408
                        0.0011055708052608
                        0.0013827884594625
                        0.0017097220064444
                        0.0020611098877546
                        0.0024238488950881
                        0.0028035579306004
                        0.0032115903905601
                        0.0036553612587342
                        0.0041368141656060
                        0.0046536511376784
                        0.0052002313061408
                        0.0057677822724344
                        0.0063443471648689
                        0.0069148298658592
                        0.0074613376405357
                        0.0079639179003401
                        0.0084017118002155
                        0.0087544669487745
                        0.0090042631734664
                        0.0091372261232871
                        0.0092065766984429
                        0.0003313086434068
                        0.0003238111342785
                        0.0003266134650734
                        0.0003496042823848
                        0.0003867169091690
                        0.0004375490712437
                        0.0005053798768731
                        0.0005954918292818
                        0.0007151328367557
                        0.0008744664215299
                        0.0010869144484035
                        0.0013607105822200
                        0.0016840850249132
                        0.0020320924940135
                        0.0023917683260965
                        0.0027686901703757
                        0.0031741667444248
                        0.0036156405546353
                        0.0040951455315867
                        0.0046105112576969
                        0.0051562425840917
                        0.0057237173519376
                        0.0063011205273717
                        0.0068734748813128
                        0.0074229675720905
                        0.0079296710064656
                        0.0083726831461269
                        0.0087316324012939
                        0.0089884035168645
                        0.0091288608917071
                        0.0092059163878466
                        0.0003355600255923
                        0.0003198354946919
                        0.0003224532354063
                        0.0003451542230946
                        0.0003812773706803
                        0.0004307809951061
                        0.0004970593189667
                        0.0005853681336280
                        0.0007028936456028
                        0.0008597243959155
                        0.0010691854001029
                        0.0013394427398249
                        0.0016589454649313
                        0.0020032093074611
                        0.0023595521022094
                        0.0027335376392426
                        0.0031363844937393
                        0.0035755193248032
                        0.0040530453402531
                        0.0045669132023721
                        0.0051117729924619
                        0.0056791543280953
                        0.0062573863309888
                        0.0068316134006601
                        0.0073841055625288
                        0.0078949631871854
                        0.0083432436833780
                        0.0087084582085741
                        0.0089722972829857
                        0.0091203634968556
                        0.0092052567553896
                        0.0003357431843158
                        0.0003174096142560
                        0.0003206796735201
                        0.0003433180328094
                        0.0003790167677500
                        0.0004279628879318
                        0.0004935748169212
                        0.0005810810048567
                        0.0006976308315280
                        0.0008532616711433
                        0.0010612122209418
                        0.0013295231233883
                        0.0016467146792957
                        0.0019886595513108
                        0.0023429743886000
                        0.0027152543004149
                        0.0031166294680663
                        0.0035544747950861
                        0.0040309081627193
                        0.0045439373374469
                        0.0050882885834643
                        0.0056555730740361
                        0.0062341977981447
                        0.0068093729039623
                        0.0073634131844225
                        0.0078764340903115
                        0.0083274711396358
                        0.0086959723605219
                        0.0089635239334524
                        0.0091155882058953
                        0.0092045972370757
                        0.0003369664563948
                        0.0003211649949495
                        0.0003241061104773
                        0.0003469520677367
                        0.0003831523529905
                        0.0004326988588255
                        0.0004989687711222
                        0.0005872099980766
                        0.0007046037193873
                        0.0008612104339929
                        0.0010702483141587
                        0.0013395729375161
                        0.0016574958586428
                        0.0019999589634676
                        0.0023548069409587
                        0.0027277260063504
                        0.0031297912178633
                        0.0035682908837753
                        0.0040452734593164
                        0.0045586922499336
                        0.0051032244049693
                        0.0056704335070804
                        0.0062486815758886
                        0.0068231400084587
                        0.0073760957765148
                        0.0078876524858761
                        0.0083368543656570
                        0.0087031819750950
                        0.0089682788683872
                        0.0091176878963583
                        0.0092039373000989
                        0.0003349982494840
                        0.0003272689208394
                        0.0003305111617731
                        0.0003538314370343
                        0.0003911882336851
                        0.0004422021211091
                        0.0005101214318374
                        0.0006002173650495
                        0.0007197317711643
                        0.0008787787331030
                        0.0010905701163834
                        0.0013627074408343
                        0.0016831259257124
                        0.0020277256020665
                        0.0023846012981303
                        0.0027595760686560
                        0.0031636667814189
                        0.0036040325039294
                        0.0040825895413371
                        0.0045971633123942
                        0.0051423023409964
                        0.0057094415056441
                        0.0062868210154249
                        0.0068595084123541
                        0.0074097180053869
                        0.0079175255972033
                        0.0083620044648173
                        0.0087227289657431
                        0.0089815027303910
                        0.0091240886840474
                        0.0092032773554064
                        0.0003264320029535
                        0.0003302103500789
                        0.0003357509707067
                        0.0003600400078380
                        0.0003988833698146
                        0.0004517811453287
                        0.0005218003923752
                        0.0006141884869667
                        0.0007362146835880
                        0.0008980055605122
                        0.0011127026173792
                        0.0013875851034136
                        0.0017102350901361
                        0.0020566678308583
                        0.0024153774132581
                        0.0027923432863471
                        0.0031984697384182
                        0.0036407374258585
                        0.0041209049574792
                        0.0046366587720707
                        0.0051824132431605
                        0.0057494708054097
                        0.0063259470076175
                        0.0068968036991048
                        0.0074441820710839
                        0.0079481314100574
                        0.0083877572982902
                        0.0087427331175610
                        0.0089950295197176
                        0.0091306376209770
                        0.0092026179928365
                        0.0003118237210068
                        0.0003282968223646
                        0.0003379869636539
                        0.0003640651655015
                        0.0004047287390696
                        0.0004597962615522
                        0.0005321924898628
                        0.0006270897028075
                        0.0007517233522460
                        0.0009161588670008
                        0.0011333739465467
                        0.0014102665423544
                        0.0017341711528847
                        0.0020814744887527
                        0.0024412557299778
                        0.0028196539926795
                        0.0032273869710278
                        0.0036712056905892
                        0.0041526983855504
                        0.0046694224372289
                        0.0052156771977558
                        0.0057826544491365
                        0.0063583663792212
                        0.0069276876043220
                        0.0074726994821134
                        0.0079734305351343
                        0.0084090147852941
                        0.0087592097312235
                        0.0090061267387119
                        0.0091359483492566
                        0.0092019594818312
                        0.0002923525426451
                        0.0003214714715191
                        0.0003367217317005
                        0.0003656108785175
                        0.0004085895400750
                        0.0004661734879787
                        0.0005412594173865
                        0.0006389115350015
                        0.0007662612779963
                        0.0009332279308318
                        0.0011525291282850
                        0.0014306367117584
                        0.0017547698541277
                        0.0021019568568047
                        0.0024620399728363
                        0.0028413101378804
                        0.0032502205713180
                        0.0036952415136112
                        0.0041777787836385
                        0.0046952710143945
                        0.0052419218089782
                        0.0058088340324855
                        0.0063839375488763
                        0.0069520377198329
                        0.0074951686469432
                        0.0079933429204484
                        0.0084257180526222
                        0.0087721195909123
                        0.0090147721694365
                        0.0091400119952708
                        0.0092013018887286
                        0.0002689274341997
                        0.0003099575947769
                        0.0003317568987824
                        0.0003645566388740
                        0.0004105488541440
                        0.0004711402605534
                        0.0005493431367142
                        0.0006501015098388
                        0.0007803680818101
                        0.0009498251468651
                        0.0011708400556142
                        0.0014494339102043
                        0.0017728606209052
                        0.0021190553603285
                        0.0024787819842299
                        0.0028584643370363
                        0.0032682129493271
                        0.0037141670341467
                        0.0041975362501582
                        0.0047156470042499
                        0.0052626216016767
                        0.0058294905617926
                        0.0064041174330015
                        0.0069712519081016
                        0.0075128901926757
                        0.0080090322951643
                        0.0084388550141718
                        0.0087822391959878
                        0.0090215012668321
                        0.0091431017463822
                        0.0092006451892450
                        0.0002422419983011
                        0.0002940546070995
                        0.0003229355943546
                        0.0003606942559540
                        0.0004106023265718
                        0.0004749006646997
                        0.0005568222337664
                        0.0006611886879133
                        0.0007946944107181
                        0.0009666903198343
                        0.0011891154023597
                        0.0014675434300634
                        0.0017894344399976
                        0.0021338884102465
                        0.0024927260770239
                        0.0028724729184863
                        0.0032828186280385
                        0.0037295224030501
                        0.0042135821689462
                        0.0047322144544151
                        0.0052794694522729
                        0.0058463163428488
                        0.0064205630542050
                        0.0069869126967235
                        0.0075273298384704
                        0.0080218041560538
                        0.0084495289362212
                        0.0087904318155278
                        0.0090269066479447
                        0.0091455185853418
                        0.0091999893233542
                        0.0002126914545881
                        0.0002741306152572
                        0.0003101078065797
                        0.0003536116627848
                        0.0004084455141282
                        0.0004773802316633
                        0.0005638403841889
                        0.0006724914772852
                        0.0008096741739792
                        0.0009843099261679
                        0.0012078498189167
                        0.0014854640356807
                        0.0018050252700280
                        0.0021470565724158
                        0.0025045472362104
                        0.0028840778041005
                        0.0032948374543651
                        0.0037421578204877
                        0.0042268090820560
                        0.0047458980784188
                        0.0052934091100368
                        0.0058602578020990
                        0.0064342040346326
                        0.0069999107101371
                        0.0075393150694307
                        0.0080323978604175
                        0.0084583666315284
                        0.0087971894833017
                        0.0090313271812501
                        0.0091474351816785
                        0.0091993342275664
                        0.0001808648764301
                        0.0002507030020187
                        0.0002933463079903
                        0.0003430037000455
                        0.0004038184801132
                        0.0004786569352585
                        0.0005708733414881
                        0.0006848257286426
                        0.0008263678803075
                        0.0010039020887556
                        0.0012283726533916
                        0.0015046446867346
                        0.0018212401085080
                        0.0021603491789475
                        0.0025162101830410
                        0.0028953975418706
                        0.0033065206274357
                        0.0037544368610574
                        0.0042396694578763
                        0.0047592096885505
                        0.0053069749056867
                        0.0058738275509195
                        0.0064474802731515
                        0.0070125568099753
                        0.0075509682958882
                        0.0080426878833247
                        0.0084669387237392
                        0.0088037305670731
                        0.0090355919306194
                        0.0091492688539066
                        0.0091986798300913
                        0.0001465206826774
                        0.0002244319446117
                        0.0002727401716430
                        0.0003281031833639
                        0.0003953753085740
                        0.0004772341495987
                        0.0005764889310083
                        0.0006967969829010
                        0.0008432633469841
                        0.0010236568593080
                        0.0012484323403615
                        0.0015223348168831
                        0.0018348739375157
                        0.0021701967588829
                        0.0025238506155565
                        0.0029023136448312
                        0.0033135265083148
                        0.0037618298557389
                        0.0042474907810551
                        0.0047673915848135
                        0.0053153948227571
                        0.0058823228962026
                        0.0064558531545432
                        0.0070205793244424
                        0.0075583913355587
                        0.0080492540323840
                        0.0084723987773367
                        0.0088078623779966
                        0.0090382195489869
                        0.0091502794750896
                        0.0091980261303426
                        0.0001107945239789
                        0.0001954807541709
                        0.0002489916621558
                        0.0003097075599713
                        0.0003842481103505
                        0.0004753973490401
                        0.0005847535737944
                        0.0007143186230959
                        0.0008678614747463
                        0.0010524525925569
                        0.0012782761644996
                        0.0015502598043609
                        0.0018591684733502
                        0.0021912562184686
                        0.0025433736109287
                        0.0029218204420565
                        0.0033337962289256
                        0.0037830716854624
                        0.0042696128135596
                        0.0047901499692143
                        0.0053384485555828
                        0.0059052507109639
                        0.0064781635932939
                        0.0070417255082730
                        0.0075777937068330
                        0.0080663312867212
                        0.0084866054045139
                        0.0088187295969941
                        0.0090453951141994
                        0.0091535611163998
                        0.0091973729013908
                        0.0000751125628242
                        0.0001671710009527
                        0.0002225303983684
                        0.0002851628580800
                        0.0003635385467253
                        0.0004611464134506
                        0.0005783437792385
                        0.0007147947057100
                        0.0008722751825468
                        0.0010568593058214
                        0.0012784401277271
                        0.0015425554536505
                        0.0018420673614192
                        0.0021659392826373
                        0.0025123465044876
                        0.0028871961635906
                        0.0032968221724171
                        0.0037444442343177
                        0.0042298409971867
                        0.0047497517400297
                        0.0052980226409319
                        0.0058654906838186
                        0.0064398475679226
                        0.0070056919856112
                        0.0075449060286872
                        0.0080374322934555
                        0.0084624652300676
                        0.0087999912116222
                        0.0090325236247215
                        0.0091468032460002
                        0.0091967207950901
                        0.0000452034064771
                        0.0001359390835534
                        0.0001894122768417
                        0.0002443898860284
                        0.0003104433960638
                        0.0003926821100576
                        0.0004924638858065
                        0.0006096155262837
                        0.0007451754750937
                        0.0009036601353291
                        0.0010931967554005
                        0.0013195463353071
                        0.0015791970343479
                        0.0018653721267511
                        0.0021778383548716
                        0.0025219114188121
                        0.0029032055843976
                        0.0033250353507402
                        0.0037880372683788
                        0.0042902851305984
                        0.0048272171102122
                        0.0053913721363297
                        0.0059721209103887
                        0.0065555663586016
                        0.0071247442938568
                        0.0076602142808873
                        0.0081410789408250
                        0.0085463970885601
                        0.0088568677965633
                        0.0090565781149679
                        0.0091960668404830
                        0.0000271136446948
                        0.0000995310776173
                        0.0001524710838026
                        0.0001965819841865
                        0.0002417983066198
                        0.0002957565658513
                        0.0003625920852071
                        0.0004442070373932
                        0.0005421192447844
                        0.0006593284646644
                        0.0008013308678043
                        0.0009729638624966
                        0.0011734810997000
                        0.0013998971777860
                        0.0016534183621368
                        0.0019389941204305
                        0.0022619970498351
                        0.0026264866039652
                        0.0030348358909634
                        0.0034876503058939
                        0.0039835422418326
                        0.0045187531832290
                        0.0050867469945348
                        0.0056779067181508
                        0.0062794519664979
                        0.0068756775536835
                        0.0074485844793058
                        0.0079789218596751
                        0.0084475842222258
                        0.0088372264627572
                        0.0091953994549710
                        0.0000303479800350
                        0.0000748523837085
                        0.0001285778925131
                        0.0001773267724558
                        0.0002245160247884
                        0.0002775753156660
                        0.0003419550143796
                        0.0004201757151053
                        0.0005134243075625
                        0.0006239751017663
                        0.0007569800059032
                        0.0009178128217345
                        0.0011066227999176
                        0.0013213334306185
                        0.0015636074539484
                        0.0018383085004120
                        0.0021506392554698
                        0.0025046948560571
                        0.0029031190358079
                        0.0033469679432123
                        0.0038354358234367
                        0.0043654433286489
                        0.0049311979592709
                        0.0055238473099507
                        0.0061313381398197
                        0.0067385838752341
                        0.0073280184206175
                        0.0078805656028383
                        0.0083769818138451
                        0.0087994472103086
                        0.0091947222977290
                        0.0000377514682082
                        0.0000618954848608
                        0.0001138570900046
                        0.0001747830551068
                        0.0002393422777453
                        0.0003104518944742
                        0.0003927577269021
                        0.0004885714787871
                        0.0005982377802932
                        0.0007235375317365
                        0.0008707997362043
                        0.0010477325008866
                        0.0012554062898721
                        0.0014916341929082
                        0.0017580727374418
                        0.0020594308307899
                        0.0024004892653549
                        0.0027847055327947
                        0.0032138540853637
                        0.0036878242983219
                        0.0042042831195024
                        0.0047582278906721
                        0.0053415493888732
                        0.0059427342807098
                        0.0065468277134621
                        0.0071357611568682
                        0.0076891157250817
                        0.0081853292815402
                        0.0086032699957958
                        0.0089240067187628
                        0.0091940453821708
                        0.0000408814091578
                        0.0000527995330535
                        0.0000952591560054
                        0.0001581632146350
                        0.0002344453984957
                        0.0003223342574319
                        0.0004227505227504
                        0.0005353058300724
                        0.0006580216469835
                        0.0007917410782343
                        0.0009445544765850
                        0.0011275137773130
                        0.0013431658233217
                        0.0015893782716545
                        0.0018677344002367
                        0.0021825814132164
                        0.0025381379585606
                        0.0029372599829611
                        0.0033810865630171
                        0.0038687784254484
                        0.0043971361159776
                        0.0049601449933680
                        0.0055485657627725
                        0.0061496965209752
                        0.0067474251399244
                        0.0073226727653055
                        0.0078542886007184
                        0.0083203877644896
                        0.0087000333679032
                        0.0089750710317927
                        0.0091933660676832
                        0.0000431307441586
                        0.0000475251739878
                        0.0000789098946670
                        0.0001375279615220
                        0.0002208214708060
                        0.0003266846745683
                        0.0004519154924406
                        0.0005895075624159
                        0.0007310186402911
                        0.0008750154359859
                        0.0010329768160981
                        0.0012214821576035
                        0.0014452147252728
                        0.0017019487126274
                        0.0019930193438348
                        0.0023222202786442
                        0.0026930264913724
                        0.0031075474551348
                        0.0035661733884836
                        0.0040672453245661
                        0.0046066286579901
                        0.0051772592408504
                        0.0057687755070491
                        0.0063673554295357
                        0.0069558715712611
                        0.0075144569691181
                        0.0080215283115119
                        0.0084552388640527
                        0.0087952398606271
                        0.0090245382110847
                        0.0091926850786804
                        0.0000444003037722
                        0.0000430867037754
                        0.0000628171895654
                        0.0001140338067208
                        0.0002013966596897
                        0.0003263266077066
                        0.0004815633694016
                        0.0006495278053517
                        0.0008119805978925
                        0.0009651592923211
                        0.0011256319534767
                        0.0013169888053410
                        0.0015465973405005
                        0.0018121668589391
                        0.0021146073917113
                        0.0024569278471806
                        0.0028416933255114
                        0.0032701860205533
                        0.0037420303199745
                        0.0042547745867265
                        0.0048034115204286
                        0.0053799247486329
                        0.0059729641074498
                        0.0065677569688000
                        0.0071463606607971
                        0.0076883391659242
                        0.0081718963686084
                        0.0085754198495354
                        0.0088792940193483
                        0.0090677540109263
                        0.0091920032770051
                </DataArray>
            </PointData>
        </Piece>
    </StructuredGrid>
</VTKFile>