<?xml version="1.0"?>
<VTKFile type="StructuredGrid" version="0.1" byte_order="LittleEndian" header_type="UInt32" compressor="vtkZLibDataCompressor">
  <StructuredGrid WholeExtent="0 30 0 40 0 0">
  <Piece Extent="0 30 0 40 0 0">
    <PointData>
      <DataArray type="Float32" Name="orthogonality" format="ascii" RangeMin="0" RangeMax="0.39489588141441345">
        0 0.020205557 0.040250972 0.059980482 0.07924583 0.09790936
        0.11584657 0.13294788 0.14911991 0.16428645 0.17838922 0.19138901
        0.20326729 0.2140281 0.22370028 0.23233916 0.2400271 0.24687253
        0.25300694 0.25858036 0.26375616 0.26870614 0.27360794 0.27864584
        0.28401795 0.28995448 0.29675898 0.30491528 0.31544933 0.33154485
        0.36658418 1.0519051e-05 0.020286715 0.04042434 0.060246944 0.07960624
        0.0983647 0.116398 0.13359676 0.14986788 0.16513535 0.17934126
        0.19244693 0.20443459 0.21530955 0.22510248 0.23387136 0.24170208
        0.24870749 0.2550245 0.2608094 0.26623297 0.27147564 0.2767255
        0.28217995 0.28805467 0.29460484 0.30217144 0.31128672 0.32292774
        0.33901522 0.36387497 2.0119485e-05 0.020369658 0.040600378 0.060517013
        0.07997126 0.098825745 0.11695636 0.134254 0.15062577 0.16599602
        0.18030721 0.1935212 0.20562106 0.21661332 0.2265305 0.23543312
        0.24341045 0.25057963 0.2570826 0.26308173 0.2687545 0.27428928
        0.2798832 0.2857446 0.2921025 0.2992278 0.3074762 0.3173643
        0.3296526 0.34505442 0.36218745 2.8590666e-05 0.020454898 0.040779922
        0.060791872 0.08034248 0.09929459 0.11752435 0.13492297 0.15139791
        0.1668739 0.18129385 0.19462022 0.20683692 0.21795174 0.22799894
        0.23704144 0.24517164 0.25251055 0.25920472 0.26542172 0.27134493
        0.27716896 0.28309768 0.28934592 0.2961473 0.30377018 0.312541
        0.3228527 0.33503473 0.34865138 0.36100492 3.5962457e-05 0.020541476
        0.040961064 0.06106864 0.080716014 0.09976628 0.118095905 0.13559645
        0.15217578 0.16775906 0.1822897 0.1957308 0.20806712 0.21930762
        0.22948816 0.23867385 0.24695988 0.25447062 0.2613566 0.26778966
        0.27395776 0.28006 0.28630376 0.2929049 0.30009153 0.30810875
        0.31721225 0.3276027 0.3391682 0.35083917 0.36010566 4.2341493e-05
        0.020629033 0.041143194 0.061346445 0.08109072 0.10023939 0.11866929
        0.13627237 0.15295696 0.1686487 0.18329154 0.19684926 0.2093074
        0.22067606 0.23099257 0.24032387 0.24876755 0.2564508 0.2635273
        0.2701722 0.27657655 0.2829416 0.2894748 0.29638702 0.3038899
        0.3121862 0.32143182 0.33161795 0.34229812 0.35219896 0.35938638
        4.78462e-05 0.020717464 0.041326214 0.06162519 0.0814665 0.10071383
        0.1192444 0.13695064 0.15374136 0.16954271 0.18429928 0.19797547
        0.21055767 0.22205693 0.23251186 0.241991 0.25059387 0.2584498
        0.26571476 0.27256608 0.27919617 0.28580612 0.2925995 0.29977596
        0.30752066 0.31597924 0.3251951 0.3349734 0.34466967 0.35306454
        0.35879412 5.2583626e-05 0.020806752 0.041510187 0.061905038 0.08184361
        0.101189926 0.11982168 0.13763179 0.15452962 0.17044188 0.1853138
        0.19911048 0.21181905 0.2234515 0.23404744 0.24367672 0.2524402
        0.26046878 0.26791978 0.2749713 0.2818155 0.2886505 0.29567227
        0.30306327 0.31097382 0.319484 0.3285276 0.33776864 0.34648457
        0.3536313 0.35829872 5.66435e-05 0.020896906 0.041695237 0.0621862
        0.08222235 0.10166811 0.12040167 0.13831648 0.15532252 0.17134714
        0.1863362 0.20025553 0.213093 0.22486134 0.23560107 0.24538285
        0.25430846 0.26250952 0.27014372 0.27738872 0.2844343 0.29147318
        0.29868984 0.30624443 0.31424674 0.3227091 0.33147013 0.34010386
        0.34789637 0.35401595 0.35788104 6.00989e-05 0.020987947 0.041881464
        0.062468875 0.08260302 0.10214878 0.12098485 0.13900532 0.15612078
        0.17225929 0.18736744 0.20141172 0.21438074 0.22628787 0.23717421
        0.24711096 0.2562002 0.2645735 0.27238783 0.2798189 0.28705236
        0.2942729 0.30165 0.3093175 0.31734177 0.32567108 0.33406973
        0.34206924 0.34901804 0.3542895 0.35752806 6.3008905e-05 0.021079885
        0.04206896 0.06275322 0.082985856 0.102632225 0.12157161 0.13969874
        0.15692495 0.17317902 0.18840827 0.20257995 0.21568328 0.22773218
        0.2387681 0.24886233 0.25811666 0.2666618 0.27465287 0.2822622
        0.2896694 0.29704857 0.30455133 0.31228265 0.3202652 0.32839128
        0.33637428 0.34374142 0.34993145 0.35449624 0.3572303 6.542151e-05
        0.021172734 0.042257786 0.06303936 0.08337103 0.10311868 0.122162245
        0.14039715 0.15773545 0.1741068 0.18945928 0.20376085 0.21700135
        0.2291951 0.24038363 0.2506379 0.26005873 0.26877514 0.27693927
        0.2847186 0.29228482 0.2997993 0.30739346 0.31514198 0.32302648
        0.33089387 0.33842918 0.34518352 0.35069585 0.35466436 0.35698068
        6.73761e-05 0.021266494 0.042447995 0.06332738 0.08375867 0.10360833
        0.122756965 0.14110076 0.15855263 0.17504302 0.19052088 0.20495492
        0.21833552 0.23067725 0.24202143 0.25243822 0.26202694 0.27091393
        0.27924725 0.287188 0.2948982 0.3025246 0.31017685 0.31789947
        0.3256373 0.33320397 0.34027597 0.3464468 0.35135436 0.35481232
        0.35677376 6.8905465e-05 0.021361167 0.042639613 0.06361734 0.08414887
        0.10410129 0.12335593 0.1418098 0.15937668 0.17598794 0.19159341
        0.20616253 0.2196862 0.23217905 0.24368195 0.25426382 0.26402172
        0.27307847 0.28157684 0.2896702 0.29750928 0.30522454 0.31290314
        0.32056072 0.32811114 0.33534667 0.34195158 0.34757257 0.3519387
        0.3549527 0.35660547 7.0037226e-05 0.021456748 0.042832658 0.06390929
        0.0845417 0.10459765 0.12395926 0.14252439 0.16020776 0.17694174
        0.19267704 0.20738389 0.2210536 0.23370077 0.2453655 0.25611496
        0.2660433 0.27526888 0.28392807 0.2921651 0.30011803 0.30789986
        0.3155751 0.3231328 0.33046246 0.3373462 0.34348848 0.348594
        0.3524725 0.35509422 0.3564726 7.079496e-05 0.021553233 0.04302715
        0.064203255 0.0849372 0.10509747 0.12456701 0.14324461 0.16104598
        0.17790453 0.19377191 0.20861915 0.22243793 0.23524262 0.24707225
        0.2579918 0.2680918 0.27748525 0.28630093 0.29467276 0.3027248
        0.3105519 0.31819642 0.32562396 0.33270633 0.33922556 0.34491506
        0.34953812 0.3529739 0.35524336 0.35637283 7.1198985e-05 0.021650614
        0.04322309 0.06449925 0.0853354 0.10560079 0.12517923 0.14397052
        0.16189142 0.17887639 0.19487813 0.20986842 0.22383928 0.23680471
        0.24880235 0.2598945 0.27016735 0.27972767 0.2886956 0.2971935
        0.3053305 0.31318283 0.32077184 0.32804334 0.33485803 0.34100622
        0.3462559 0.3504269 0.35345703 0.35540503 0.35630435 7.126694e-05
        0.021748884 0.04342048 0.06479729 0.08573631 0.10610762 0.12579596
        0.14470215 0.16274408 0.17985736 0.19599572 0.21113174 0.22525771
        0.2383871 0.25055584 0.2618231 0.27227005 0.2819963 0.29111227
        0.29972783 0.3079363 0.31579545 0.323307 0.33040082 0.33693287
        0.34270817 0.3475326 0.35127866 0.35393324 0.35558328 0.3562659
        7.101425e-05 0.021848032 0.043619312 0.06509737 0.086139955 0.10661799
        0.1264172 0.1454395 0.16360399 0.18084742 0.19712467 0.2124091
        0.22669321 0.23998979 0.2523328 0.26377767 0.2744 0.2842913
        0.29355142 0.30227664 0.31054404 0.3183932 0.3258082 0.33270684
        0.33894578 0.3443499 0.348764 0.35210884 0.354412 0.3557815
        0.35625663 7.045439e-05 0.021948053 0.04381959 0.0653995 0.08654631
        0.107131876 0.12704295 0.1461826 0.16447112 0.18184657 0.19826497
        0.21370046 0.22814576 0.24161278 0.25413316 0.26575828 0.27655733
        0.28661302 0.2960136 0.30484107 0.31315598 0.32098022 0.32828242
        0.3349721 0.34091142 0.3459485 0.34996688 0.35293075 0.35490134
        0.3560029 0.35627607 6.959918e-05 0.022048933 0.0440213 0.06570365
        0.086955376 0.10764928 0.1276732 0.14693138 0.16534545 0.18285479
        0.19941658 0.2150058 0.2296153 0.24325599 0.25595698 0.267765
        0.27874222 0.28896177 0.29849955 0.30742264 0.3157748 0.3235612
        0.33073717 0.33720767 0.342844 0.34751993 0.3511564 0.35375616
        0.35540858 0.35625038 0.35632402 6.845894e-05 0.022150666 0.04422444
        0.066009834 0.087367155 0.1081702 0.12830791 0.14768584 0.16622694
        0.18387198 0.20057939 0.21632501 0.23110175 0.2449194 0.2578042
        0.26979783 0.2809549 0.29133812 0.3010103 0.31002313 0.31840363
        0.3261413 0.3331805 0.3394246 0.34475738 0.34907913 0.3523463
        0.35459575 0.35594034 0.35652697 0.35640067 6.7042674e-05 0.022253241
        0.044428997 0.066318035 0.08778161 0.10869458 0.12894708 0.14844593
        0.16711554 0.1848981 0.20175335 0.217658 0.23260501 0.24660291
        0.2596748 0.2718569 0.28319564 0.29374266 0.30354702 0.3126446
        0.32104602 0.3287262 0.33562064 0.34163412 0.34666494 0.35064024
        0.35354945 0.35545945 0.35650304 0.35683578 0.35650638 6.5358145e-05
        0.022356652 0.044634953 0.06662823 0.088198744 0.10922243 0.12959065
        0.1492116 0.16801117 0.18593305 0.20293835 0.21900465 0.23412497
        0.24830642 0.26156875 0.27394232 0.28546476 0.29617614 0.3061111
        0.31528953 0.32370594 0.33132195 0.33806634 0.3438475 0.34857982
        0.35221678 0.35477805 0.3563569 0.3571031 0.35718006 0.35664183
        6.341202e-05 0.022460885 0.044842307 0.06694041 0.08861852 0.1097537
        0.1302386 0.14998281 0.16891377 0.18697675 0.20413426 0.22036484
        0.23566148 0.25002983 0.26348603 0.27605417 0.28776273 0.29863936
        0.3087041 0.31796056 0.32638767 0.333935 0.34052643 0.346076
        0.35051486 0.3538218 0.35604396 0.3572975 0.35774705 0.35756347
        0.35680798 6.120995e-05 0.022565935 0.04505104 0.06725456 0.08904091
        0.11028837 0.13089086 0.15075947 0.16982324 0.18802907 0.20534095
        0.2217384 0.2372144 0.25177303 0.2654266 0.27819267 0.2900899
        0.30113333 0.3113278 0.32066062 0.3290958 0.33657208 0.34301013
        0.34833094 0.35248283 0.35546824 0.3573589 0.35829085 0.35844177
        0.35799 0.35700604 5.875664e-05 0.02267179 0.045261133 0.06757066
        0.0894659 0.11082638 0.13154739 0.15154153 0.1707395 0.18908991
        0.20655829 0.22312517 0.23878358 0.2535359 0.2673905 0.28035793
        0.2924469 0.30365917 0.3139841 0.323393 0.3318353 0.3392402
        0.34552667 0.35062367 0.35449627 0.35716888 0.3587347 0.35934696
        0.35919476 0.3584642 0.35723752 5.605597e-05 0.022778442 0.04547258
        0.06788867 0.08989346 0.11136771 0.13220812 0.15232891 0.17166243
        0.19015913 0.20778611 0.22452499 0.24036881 0.25531825 0.26937756
        0.2825502 0.29483423 0.306218 0.31667516 0.326161 0.3346113
        0.34194666 0.34808558 0.35296562 0.35656795 0.35893667 0.3601836
        0.36047637 0.36001426 0.35899135 0.35750434 5.311108e-05 0.022885881
        0.045685362 0.06820858 0.09032354 0.1119123 0.13287301 0.1531215
        0.17259195 0.19123659 0.20902424 0.22593765 0.24196991 0.25711998
        0.27138788 0.2847696 0.29725254 0.30881113 0.31940323 0.32896838
        0.3374292 0.34469894 0.35069653 0.35536832 0.35871062 0.3607848
        0.36171833 0.3616906 0.36090952 0.35957754 0.35780868 4.992449e-05
        0.0229941 0.045899455 0.06853037 0.09075611 0.11246011 0.13354199
        0.15391925 0.17352791 0.19232213 0.21027248 0.22736292 0.24358666
        0.2589409 0.27342135 0.28701642 0.2997025 0.3114399 0.3221707
        0.33181885 0.34029463 0.3475047 0.35336927 0.35784343 0.36093727
        0.36272702 0.36335254 0.36300227 0.36189112 0.36022997 0.3581533
        4.649824e-05 0.02310308 0.046114847 0.068854 0.091191135 0.11301106
        0.13421495 0.154722 0.17447017 0.19341557 0.21153061 0.22880057
        0.2452188 0.26078084 0.27547792 0.28929088 0.30218482 0.31410584
        0.3249801 0.33471644 0.34321332 0.35037178 0.35611373 0.3604028
        0.36326128 0.36477757 0.3651008 0.36442545 0.36297134 0.3609573
        0.35854146 4.2834097e-05 0.023212815 0.046331506 0.06917943 0.09162856
        0.1135651 0.13489182 0.1555297 0.17541859 0.19451672 0.2127984
        0.23025031 0.24686606 0.2626395 0.27755752 0.29159316 0.30470017
        0.31681034 0.32783407 0.3376652 0.3461912 0.35330808 0.35893998
        0.36305842 0.3656963 0.36695153 0.3669791 0.36597613 0.36416456
        0.36176997 0.3589771 3.8933813e-05 0.023323288 0.046549406 0.06950662
        0.092068315 0.11412215 0.1355725 0.15634213 0.17637298 0.19562535
        0.21407558 0.23171186 0.24852812 0.26451668 0.27966005 0.29392344
        0.30724928 0.31955498 0.3307352 0.34066933 0.34923422 0.35632166
        0.36185813 0.36582246 0.3682565 0.36926478 0.36900482 0.3676724
        0.36548793 0.36268085 0.35946506 3.4799505e-05 0.023434479 0.046768513
        0.06983552 0.092510335 0.11468211 0.13625684 0.15715918 0.17733313
        0.1967412 0.21536185 0.23318484 0.25020462 0.266412 0.28178525
        0.29628187 0.30983284 0.32234123 0.3336862 0.34373295 0.35234842
        0.35942054 0.36487833 0.36870733 0.3709565 0.37173435 0.3711972
        0.36953524 0.366962 0.3637061 0.3600113 3.0434176e-05 0.023546362
        0.046988774 0.07016606 0.092954524 0.11524484 0.1369447 0.15798064
        0.17829879 0.19786395 0.21665679 0.23466882 0.25189507 0.26832503
        0.2839329 0.29866844 0.31245142 0.32517058 0.3366897 0.3468603
        0.35553974 0.36261272 0.3680108 0.37172547 0.3738113 0.37437814
        0.3735775 0.37158877 0.36861184 0.36486647 0.3606234 2.5842515e-05
        0.023658905 0.047210135 0.070498146 0.09340076 0.1158102 0.13763587
        0.15880623 0.17926963 0.19899322 0.21795997 0.23616324 0.25359887
        0.27025527 0.28610256 0.30108312 0.31510544 0.32804427 0.33974823
        0.3500553 0.358814 0.36590597 0.37126544 0.37488934 0.3768363
        0.37721524 0.37616915 0.37386099 0.37046823 0.36618897 0.36131105
        2.1032109e-05 0.023772059 0.047432497 0.07083164 0.09384886 0.116377965
        0.13833006 0.15963563 0.18024524 0.20012848 0.21927075 0.23766743
        0.2553153 0.27220187 0.28829357 0.30352548 0.31779516 0.33096337
        0.34286395 0.35332173 0.36217663 0.36930773 0.37465194 0.37821114
        0.380047 0.38026547 0.37899774 0.37638435 0.3725694 0.36771008
        0.36208728 1.6015298e-05 0.023885755 0.04765574 0.07116637 0.09429859
        0.1169478 0.13902688 0.16046834 0.18122502 0.20126903 0.22058831
        0.2391804 0.25704327 0.27416378 0.2905049 0.30599478 0.32052022
        0.33392844 0.34603855 0.3566627 0.36563244 0.3728247 0.37817913
        0.38170245 0.38345858 0.3835492 0.38209093 0.3791962 0.37496307
        0.36948025 0.36296985 1.0812203e-05 0.02399988 0.04787966 0.07150204
        0.094749555 0.11751922 0.13972573 0.16130361 0.18220808 0.20241381
        0.22191143 0.24070077 0.25878125 0.27613932 0.29273492 0.30848956
        0.3232797 0.33693922 0.34927288 0.36008027 0.36918512 0.3764623
        0.38185453 0.38537338 0.38708505 0.3870863 0.38547763 0.38233882
        0.377709 0.3715719 0.36398435 5.455709e-06 0.024114262 0.04810394
        0.07183818 0.09520114 0.11809147 0.14042565 0.16214032 0.18319307
        0.20356126 0.22323824 0.2422264 0.2605268 0.27812588 0.29498088
        0.31100717 0.32607123 0.33999395 0.35256603 0.3635748 0.37283626
        0.38022363 0.385683 0.38923132 0.39093766 0.39089447 0.38918632
        0.38585845 0.38088167 0.37409282 0.36516902 0 0.02422867
        0.04832817 0.072174184 0.095652506 0.118663415 0.1411252 0.1629766
        0.18417756 0.20470819 0.2245646 0.2437518 0.26227257 0.28011352
        0.29722938 0.31352952 0.3288708 0.34306136 0.3558781 0.36709636
        0.37652463 0.38403475 0.38957658 0.3931728 0.39489588 0.39483497
        0.39305988 0.3895831 0.38430843 0.3769231 0.36658418
      </DataArray>
      <DataArray type="Float32" Name="aspect_ratio" format="ascii" RangeMin="1.2789204120635986" RangeMax="8.869585037231445">
        8.203469 8.159808 8.091721 7.9793186 7.8251824 7.6327686
        7.406237 7.1502542 6.869796 6.5699515 6.2557483 5.9319987
        5.6031785 5.273336 4.9460344 4.624327 4.3107553 4.007368
        3.7157643 3.4371326 3.1723044 2.9217994 2.6858714 2.4645474
        2.2576625 2.0648882 1.885753 1.7196363 1.5656708 1.4221989
        1.2789204 8.218711 8.174856 8.106504 7.9937224 7.839099
        7.6461015 7.4189 7.1621747 6.880914 6.580222 6.265141
        5.940499 5.610788 5.2800746 4.951943 4.6294637 4.3151975
        4.011212 3.7191176 3.4401145 3.1750398 2.9244168 2.6885018
        2.4673276 2.260745 2.0684638 1.8901054 1.7253091 1.574093
        1.4383987 1.3097146 8.234019 8.189961 8.121335 8.0081625
        7.8530426 7.659451 7.431571 7.174095 6.892025 6.590479
        6.274514 5.948974 5.618369 5.2867837 4.9578214 4.6345744
        4.3196225 4.015051 3.7224858 3.4431374 3.1778507 2.927154
        2.6913092 2.4703586 2.2641761 2.072524 1.895144 1.7319515
        1.5835137 1.4517415 1.3294271 8.249396 8.205127 8.136215
        8.022643 7.8670163 7.672822 7.4442544 7.1860194 6.9031324
        6.6007257 6.28387 5.9574275 5.625924 5.293464 4.963671
        4.6396594 4.3240285 4.018883 3.7258654 3.4461977 3.1807334
        2.9300072 2.6942878 2.4736314 2.2679386 2.0770297 1.9007571
        1.739214 1.5930321 1.4631934 1.3428638 8.264843 8.2203665
        8.1511755 8.037208 7.881078 7.6862845 7.4570336 7.198043
        6.9143414 6.6110754 6.293332 5.965987 5.6335864 5.3002534
        4.969633 4.644861 4.32856 4.022854 3.7294014 3.4494388
        3.1838286 2.9331129 2.697569 2.4772668 2.2721345 2.0820394
        1.9069035 1.7468485 1.6022414 1.4730557 1.3526324 8.280358
        8.235685 8.166223 8.051868 7.8952446 7.69986 7.469933
        7.210193 6.925683 6.621563 6.3029346 5.9746914 5.641396
        5.307193 4.975749 4.650223 4.333259 4.0270042 3.7331345
        3.4528995 3.1871724 2.9365036 2.701178 2.4812787 2.2767537
        2.0874972 1.9134392 1.7545979 1.6109313 1.4816133 1.3601757
        8.295942 8.251082 8.181358 8.066627 7.909517 7.7135496
        7.4829535 7.222471 6.9371586 6.6321893 6.312681 5.983543
        5.649356 5.3142858 4.982022 4.6557465 4.338129 4.031337
        3.7370648 3.4565785 3.1907609 2.9401698 2.7050982 2.485636
        2.2817402 2.0933025 1.9201999 1.7622594 1.6190159 1.489111
        1.3663096 8.311597 8.266559 8.196581 8.081478 7.923891
        7.727348 7.49609 7.2348714 6.948761 6.6429477 6.3225627
        5.9925327 5.657458 5.321523 4.988443 4.6614237 4.3431587
        4.035839 3.7411797 3.46046 3.194574 2.9440873 2.7092953
        2.49029 2.2870207 2.099345 1.9270371 1.7696925 1.6264819
        1.4957479 1.3715072 8.32732 8.282111 8.211886 8.09642
        7.938361 7.7412486 7.5093336 7.247384 6.9604816 6.6538277
        6.33257 6.001651 5.66569 5.328894 4.995 4.667241
        4.3483353 4.0404973 3.7454624 3.4645252 3.1985898 2.9482265
        2.7137308 2.4951866 2.2925181 2.1055202 1.9338306 1.7768106
        1.6333543 1.5016819 1.3760506 8.343113 8.297739 8.227273
        8.111448 7.952923 7.7552457 7.5226793 7.260003 6.9723115
        6.664821 6.3426933 6.0108876 5.6740427 5.3363876 5.0016828
        4.6731877 4.3536468 4.045298 3.7498977 3.4687557 3.2027848
        2.9525578 2.718365 2.5002713 2.298159 2.1117363 1.9404888
        1.7835665 1.6396765 1.5070359 1.3801135 8.358975 8.313442
        8.242739 8.12656 7.967572 7.769335 7.5361204 7.272722
        6.984245 6.6759205 6.3529253 6.020236 5.6825094 5.3439965
        5.008484 4.6792555 4.359083 4.0502305 3.7544723 3.4731345
        3.2071373 2.957053 2.723159 2.505492 2.303876 2.1179166
        1.9469463 1.7899398 1.6454972 1.5119047 1.3838065 8.374908
        8.329219 8.258283 8.141753 7.982307 7.7835126 7.5496545
        7.285536 6.9962773 6.687122 6.363262 6.0296907 5.691084
        5.351716 5.0153966 4.6854377 4.364638 4.0552845 3.7591743
        3.4776464 3.2116272 2.9616838 2.7280757 2.5107994 2.3096087
        2.1239986 1.9531579 1.7959278 1.6508644 1.5163622 1.387202
        8.390913 8.345071 8.273904 8.157027 7.997125 7.7977767
        7.5632777 7.298443 7.008405 6.698422 6.3736997 6.0392485
        5.6997643 5.359542 5.0224175 4.69173 4.370304 4.060453
        3.7639937 3.4822776 3.2162352 2.9664242 2.7330794 2.5161483
        2.3153052 2.1299336 1.959095 1.8015381 1.6558218 1.5204647
        1.3903494 8.406987 8.360996 8.289601 8.1723795 8.012025
        7.812126 7.5769887 7.3114405 7.0206265 6.709818 6.3842363
        6.0489073 5.708547 5.3674726 5.0295444 4.6981287 4.376078
        4.06573 3.7689211 3.4870148 3.2209423 2.9712486 2.7381363
        2.5214972 2.320921 2.135683 1.96474 1.8067837 1.6604078
        1.5242561 1.3932827 8.423134 8.376996 8.305375 8.187812
        8.027006 7.826559 7.5907865 7.3245277 7.032941 6.7213097
        6.3948708 6.0586667 5.7174325 5.375507 5.036776 4.7046323
        4.3819566 4.07111 3.7739484 3.4918456 3.2257311 2.9761324
        2.743215 2.526809 2.3264177 2.141218 1.9700836 1.8116797
        1.6646546 1.52777 1.3960258 8.439353 8.39307 8.321225
        8.203321 8.0420685 7.841076 7.6046705 7.3377037 7.0453467
        6.732896 6.405603 6.0685263 5.72642 5.3836446 5.0441113
        4.7112393 4.387936 4.0765877 3.7790675 3.496758 3.2305841
        2.9810524 2.748286 2.5320501 2.3317637 2.1465168 1.9751219
        1.8162416 1.6685889 1.5310322 1.3985957 8.455644 8.409218
        8.3371525 8.21891 8.057212 7.855675 7.6186404 7.350969
        7.0578446 6.7445774 6.416433 6.0784864 5.73551 5.391886
        5.0515504 4.717949 4.3940153 4.082159 3.784271 3.5017402
        3.2354848 2.985986 2.753322 2.5371907 2.3369324 2.1515632
        1.9798542 1.8204834 1.6722325 1.5340621 1.4010043 8.472008
        8.425442 8.353155 8.234577 8.072435 7.870358 7.632696
        7.364323 7.0704346 6.7563543 6.4273615 6.088548 5.7447033
        5.4002323 5.059094 4.724761 4.400192 4.08782 3.7895517
        3.506781 3.2404168 2.9909122 2.758297 2.5422044 2.341902
        2.156345 1.9842819 1.8244178 1.6756022 1.536874 1.4032594
        8.488445 8.44174 8.369235 8.250322 8.087739 7.885124
        7.6468377 7.377766 7.083117 6.768227 6.43839 6.098712
        5.754002 5.4086847 5.066743 4.7316747 4.406464 4.0935664
        3.7949023 3.5118697 3.2453647 2.9958105 2.7631884 2.5470684
        2.3466537 2.1608531 1.9884067 1.8280549 1.6787108 1.5394778
        1.4053655 8.504956 8.458114 8.385392 8.266147 8.103125
        7.8999734 7.6610656 7.391299 7.0958924 6.7801967 6.4495187
        6.10898 5.7634068 5.417244 5.0744977 4.7386904 4.412831
        4.099395 3.8003166 3.5169952 3.2503133 3.0006623 2.7679749
        2.5517623 2.3511722 2.1650805 1.9922305 1.8314027 1.6815674
        1.54188 1.4073244 8.521543 8.474564 8.401627 8.28205
        8.11859 7.9149065 7.6753807 7.4049215 7.1087623 6.7922645
        6.460749 6.1193533 5.7729197 5.4259124 5.08236 4.7458086
        4.419291 4.1053014 3.8057873 3.5221474 3.2552488 3.0054502
        2.7726374 2.5562682 2.355445 2.1690218 1.995755 1.8344665
        1.6841775 1.5440837 1.4091357 8.538202 8.491089 8.417938
        8.298032 8.134138 7.929924 7.689783 7.4186354 7.1217265
        6.804431 6.4720826 6.1298337 5.7825418 5.4346914 5.090331
        4.75303 4.425843 4.1112833 3.8113089 3.5273168 3.2601573
        3.0101576 2.7771585 2.5605705 2.3594604 2.1726716 1.99898
        1.8372494 1.6865438 1.5460892 1.4107968 8.554938 8.507691
        8.434327 8.314095 8.149768 7.9450264 7.704273 7.4324408
        7.1347866 6.816698 6.4835215 6.140423 5.792276 5.443583
        5.098412 4.760355 4.4324865 4.1173377 3.8168747 3.5324936
        3.2650268 3.0147698 2.7815225 2.5646558 2.363209 2.1760254
        2.001905 1.8397518 1.688666 1.547894 1.4123024 8.57175
        8.524371 8.450795 8.330237 8.165481 7.9602137 7.7188516
        7.446339 7.147944 6.8290663 6.4950666 6.1511226 5.802124
        5.452589 5.1066055 4.767784 4.4392204 4.123461 3.82248
        3.5376694 3.2698455 3.019273 2.7857158 2.5685115 2.3666825
        2.179078 2.0045278 1.8419721 1.6905407 1.5494931 1.4136456
        8.588637 8.541128 8.467342 8.346459 8.181275 7.9754868
        7.7335196 7.46033 7.161199 6.841538 6.5067196 6.1619353
        5.812088 5.461712 5.1149125 4.775319 4.446045 4.129651
        3.828119 3.5428364 3.2746027 3.0236552 2.789726 2.572127
        2.3698726 2.181825 2.0068443 1.8439058 1.692162 1.5508789
        1.414817 8.605601 8.557963 8.483968 8.362763 8.197154
        7.990846 7.7482777 7.474416 7.1745534 6.854114 6.5184827
        6.1728625 5.8221703 5.4709544 5.1233354 4.7829604 4.4529595
        4.135906 3.8337874 3.5479872 3.2792888 3.0279052 2.7935421
        2.5754933 2.3727722 2.1842601 2.0088494 1.8455465 1.6935214
        1.552041 1.4158047 8.622643 8.574877 8.500673 8.3791485
        8.213116 8.006292 7.7631264 7.4885964 7.188008 6.866796
        6.5303574 6.183907 5.8323736 5.480318 5.1318765 4.7907104
        4.4599648 4.1422243 3.8394814 3.5531154 3.2838953 3.0320134
        2.7971544 2.5786016 2.3753743 2.1863775 2.010536 1.8468851
        1.6946075 1.5529662 1.4165941 8.639763 8.591868 8.517458
        8.395617 8.229163 8.021827 7.7780666 7.5028734 7.2015643
        6.8795857 6.5423455 6.1950703 5.8426995 5.489806 5.1405377
        4.79857 4.4670606 4.148604 3.8451972 3.5582151 3.2884147
        3.0359712 2.8005548 2.5814445 2.3776722 2.18817 2.0118957
        1.8479102 1.6954058 1.5536381 1.4171675 8.6569605 8.608939
        8.534324 8.412166 8.245295 8.037449 7.7930994 7.517248
        7.2152233 6.8924847 6.5544496 6.2063556 5.853152 5.499421
        5.1493225 4.8065424 4.4742484 4.155045 3.8509324 3.5632818
        3.2928407 3.0397716 2.8037357 2.5840151 2.3796592 2.18963
        2.0129178 1.8486078 1.6958989 1.554037 1.4175035 8.674236
        8.62609 8.5512705 8.428798 8.261512 8.053161 7.8082256
        7.531721 7.228987 6.905494 6.5666714 6.217765 5.863733
        5.5091662 5.158233 4.8146286 4.4815297 4.161547 3.8566847
        3.5683117 3.2971683 3.0434086 2.8066916 2.5863078 2.381329
        2.1907492 2.0135908 1.8489617 1.6960659 1.5541389 1.4175761
        8.691591 8.643321 8.568298 8.445514 8.277816 8.068963
        7.8234468 7.5462937 7.242857 6.9186172 6.5790133 6.229301
        5.8744454 5.519045 5.167273 4.8228326 4.4889064 4.1681113
        3.8624537 3.5733023 3.301393 3.0468779 2.8094177 2.5883176
        2.3826756 2.1915188 2.0139012 1.8489528 1.6958822 1.5539155
        1.4173542 8.709025 8.660632 8.585409 8.462315 8.294208
        8.084855 7.838763 7.560968 7.2568345 6.9318547 6.591478
        6.240967 5.8852935 5.5290604 5.1764464 4.831157 4.496381
        4.1747384 3.8682387 3.5782516 3.305513 3.0501757 2.8119104
        2.5900404 2.383693 2.1919293 2.0138347 1.8485594 1.6953192
        1.5533328 1.4168003 8.726541 8.678025 8.602601 8.479199
        8.310687 8.100841 7.8541765 7.575745 7.2709217 6.94521
        6.604068 6.252766 5.896281 5.5392175 5.1857567 4.8396063
        4.5039563 4.1814303 3.8740408 3.5831597 3.3095262 3.0533009
        2.8141675 2.5914733 2.3843763 2.1919715 2.013375 1.8477577
        1.6943438 1.5523504 1.415868 8.744135 8.695499 8.619878
        8.496171 8.327255 8.1169195 7.869689 7.590627 7.285121
        6.9586854 6.6167865 6.264702 5.9074106 5.5495205 5.1952095
        4.8481855 4.5116377 4.188192 3.8798625 3.5880275 3.3134334
        3.0562527 2.8161883 2.5926144 2.384721 2.1916366 2.0125058
        1.8465208 1.692918 1.5509198 1.4145005 8.761811 8.713056
        8.637238 8.513229 8.343915 8.133093 7.8853025 7.6056166
        7.299435 6.972284 6.6296377 6.2767787 5.9186893 5.5599747
        5.2048106 4.8569 4.5194306 4.195027 3.8857076 3.592858
        3.3172367 3.0590332 2.8179743 2.5934637 2.3847244 2.1909163
        2.0112107 1.8448205 1.6909981 1.5489826 1.4126264 8.779568
        8.730695 8.654683 8.530376 8.360667 8.149364 7.901019
        7.6207166 7.313868 6.98601 6.642626 6.2890024 5.930122
        5.5705867 5.2145667 4.8657575 4.5273414 4.201942 3.8915818
        3.5976562 3.32094 3.0616457 2.8195283 2.594023 2.384385
        2.1898038 2.0094736 1.8426267 1.6885351 1.5464679 1.4101547
        8.797407 8.748419 8.672215 8.547614 8.377514 8.165737
        7.916843 7.6359305 7.328424 6.9998693 6.6557574 6.301379
        5.941716 5.5813656 5.224487 4.8747673 4.53538 4.208946
        3.8974934 3.6024296 3.3245509 3.0640976 2.8208568 2.5942974
        2.3837056 2.1882958 2.007281 1.8399096 1.6854746 1.5432891
        1.406967 8.815328 8.766227 8.6898365 8.564944 8.39446
        8.182214 7.932779 7.6512656 7.34311 7.013869 6.66904
        6.3139186 5.9534826 5.5923214 5.2345834 4.883941 4.5435586
        4.216052 3.9034543 3.6071894 3.3280797 3.0663986 2.8219695
        2.594296 2.3826923 2.186393 2.0046237 1.8366416 1.6817576
        1.5393385 1.4029049 8.833331 8.7841215 8.707548 8.582372
        8.4115095 8.198802 7.9488344 7.6667295 7.3579354 7.028019
        6.6824865 6.3266335 5.965435 5.60347 5.2448716 4.893297
        4.551895 4.223277 3.9094818 3.6119525 3.3315432 3.0685654
        2.8228827 2.5940335 2.381358 2.1841037 2.0015001 1.8328017
        1.6773238 1.5344815 1.3977504 8.851417 8.802104 8.725355
        8.599902 8.428671 8.215511 7.965021 7.682336 7.3729153
        7.0423374 6.696114 6.339543 5.977594 5.614833 5.2553763
        4.902859 4.5604153 4.230647 3.9156013 3.616744 3.334966
        3.0706224 2.8236206 2.5935342 2.3797255 2.1814477 1.9979216
        1.8283821 1.6721195 1.528547 1.3911922 8.869585 8.820174
        8.743255 8.61753 8.445936 8.232332 7.9813285 7.6980724
        7.3880367 7.05681 6.709911 6.3526373 5.9899526 5.6264086
        5.2661 4.912639 4.569139 4.2381935 3.9218554 3.621618
        3.3384128 3.0726457 2.8242705 2.5928962 2.3779027 2.1785412
        1.9940099 1.8234988 1.6662176 1.521413 1.3827678
      </DataArray>
      <DataArray type="Float32" Name="jacobian" format="ascii" RangeMin="0.004283597692847252" RangeMax="0.027639558538794518">
        0.025563797 0.02542741 0.025226228 0.024897771 0.024448782 0.023888204
        0.02322683 0.022476887 0.021651596 0.020764707 0.01983006 0.018861197
        0.017871018 0.016871503 0.015873503 0.014886612 0.013919082 0.012977811
        0.012068381 0.011195127 0.010361245 0.00956891 0.008819408 0.008113259
        0.007450342 0.006829986 0.0062510525 0.005711965 0.005210611 0.0047436208
        0.0042835977 0.025611293 0.025474807 0.025273332 0.024944233 0.024494268
        0.02393239 0.023269417 0.0225176 0.021690186 0.020800961 0.019863803
        0.018892298 0.0178994 0.016897146 0.015896464 0.014907017 0.013937134
        0.0129937865 0.012082616 0.011208006 0.010373188 0.009580362 0.008830834
        0.0081251655 0.007463306 0.0068447534 0.0062687527 0.0057347347 0.0052437824
        0.0048046606 0.0043917503 0.025658999 0.025522446 0.025320712 0.024991006
        0.024540095 0.02397695 0.023312407 0.022558741 0.02172923 0.020837689
        0.019898036 0.018923905 0.0179283 0.016923325 0.015919978 0.014927998
        0.013955796 0.013010418 0.012097572 0.011221695 0.010386055 0.009592889
        0.008843536 0.008138607 0.007478159 0.0068619032 0.006289555 0.005761579
        0.0052809683 0.004855697 0.004460998 0.025706917 0.025570331 0.025368368
        0.025038088 0.024586264 0.024021883 0.023355797 0.022600308 0.02176872
        0.020874884 0.019932754 0.01895601 0.017957712 0.01695003 0.015944032
        0.014949543 0.013975055 0.013027692 0.012113232 0.011236172 0.010399828
        0.00960647 0.008857483 0.008153544 0.007494824 0.0068812617 0.0063129836
        0.0057910546 0.00531847 0.004899113 0.004508303 0.02575505 0.025618415
        0.025416216 0.02508535 0.024632605 0.02406698 0.023399347 0.022642031
        0.021808367 0.020912232 0.019967625 0.018988272 0.017987287 0.016976904
        0.015968272 0.014971296 0.013994555 0.013045255 0.012129251 0.011251099
        0.010414165 0.009620766 0.008872332 0.008169604 0.007512869 0.00690224
        0.0063380753 0.005821444 0.005354117 0.0049359 0.004542791 0.025803398
        0.02566669 0.025464227 0.025132757 0.02467907 0.024112185 0.023442991
        0.022683837 0.021848083 0.020949645 0.020002559 0.019020593 0.018016923
        0.01700385 0.015992597 0.014993157 0.014014197 0.013063009 0.012145525
        0.0112663675 0.010428956 0.0096356515 0.00888793 0.008186595 0.007532007
        0.0069243736 0.006364034 0.005851566 0.005387049 0.0049672886 0.004569483
        0.025851963 0.025715154 0.025512401 0.025180304 0.024725659 0.024157494
        0.023486724 0.02272572 0.021887869 0.020987121 0.02003755 0.019052975
        0.018046623 0.017030867 0.016017009 0.015015127 0.01403398 0.01308095
        0.012162047 0.0112819625 0.010444171 0.009651077 0.008904198 0.008204374
        0.007552 0.0069472515 0.0063902186 0.005880678 0.005417072 0.0049943817
        0.0045912103 0.025900744 0.025763808 0.025560748 0.025228003 0.024772381
        0.024202926 0.023530567 0.022767702 0.02192775 0.02102469 0.020072635
        0.019085452 0.018076425 0.017057994 0.016041545 0.015037243 0.01405394
        0.013099108 0.01217884 0.011297897 0.010459808 0.009667017 0.00892107
        0.008222817 0.0075726216 0.006970507 0.006416133 0.005908362 0.005444304
        0.0050180685 0.0046096155 0.02594974 0.02581266 0.025609275 0.02527587
        0.024819259 0.024248501 0.023574546 0.022809817 0.02196776 0.021062385
        0.020107849 0.019118061 0.018106367 0.017085277 0.01606625 0.015059548
        0.014074116 0.013117519 0.012195934 0.011314189 0.010475866 0.009683443
        0.008938477 0.008241793 0.007593652 0.0069938195 0.0064414144 0.005934416
        0.005468991 0.0050390325 0.0046256795 0.025998956 0.025861714 0.025657991
        0.025323913 0.024866303 0.024294239 0.023618683 0.022852087 0.022007925
        0.02110024 0.020143226 0.019150844 0.018136492 0.01711275 0.016091164
        0.015082083 0.014094547 0.013136217 0.012213351 0.011330849 0.010492337
        0.009700321 0.008956343 0.008261165 0.00761488 0.0070169168 0.006465809
        0.005958776 0.00549141 0.0050577894 0.004640009 0.026048386 0.025910975
        0.025706904 0.025372146 0.024913535 0.024340156 0.023663 0.022894539
        0.022048274 0.021138282 0.0201788 0.019183831 0.018166833 0.017140456
        0.016116325 0.015104882 0.014115266 0.013155227 0.01223111 0.011347879
        0.010509205 0.009717602 0.00897458 0.008280792 0.0076361117 0.007039576
        0.0064891516 0.0059814616 0.0055118254 0.005074728 0.0046529924 0.026098039
        0.025960447 0.025756018 0.025420576 0.02496096 0.024386268 0.02370751
        0.022937188 0.022088826 0.021176537 0.020214595 0.01921705 0.01819742
        0.01716842 0.016141761 0.015127975 0.014136295 0.013174567 0.012249218
        0.011365276 0.010526445 0.009735235 0.008993097 0.008300538 0.0076571717
        0.0070616207 0.0065113436 0.006002536 0.0055304733 0.0050901384 0.0046648863
        0.02614791 0.026010131 0.025805343 0.025469214 0.025008589 0.024432585
        0.023752231 0.02298005 0.022129599 0.021215022 0.020250631 0.019250525
        0.018228276 0.01719667 0.016167497 0.015151384 0.014157656 0.013194253
        0.012267682 0.011383029 0.010544024 0.009753158 0.009011796 0.008320273
        0.0076779053 0.007082917 0.006532333 0.0060220836 0.005547554 0.005104241
        0.0046758656 0.026198003 0.026060034 0.02585488 0.025518062 0.02505643
        0.024479115 0.02379717 0.023023138 0.022170605 0.021253753 0.020286927
        0.019284274 0.018259423 0.017225228 0.01619356 0.01517513 0.014179366
        0.013214294 0.0122865 0.0114011215 0.010561907 0.009771308 0.009030584
        0.008339872 0.0076981825 0.0071033635 0.006552101 0.0060401945 0.0055632344
        0.005117202 0.004686053 0.026248321 0.026110154 0.025904633 0.025567126
        0.025104487 0.024525868 0.023842337 0.023066461 0.02221186 0.021292744
        0.0203235 0.019318316 0.018290881 0.017254112 0.016219962 0.015199232
        0.014201437 0.013234696 0.012305668 0.011419535 0.010580051 0.009789619
        0.00904937 0.008359224 0.007717892 0.0071228896 0.0065706526 0.0060569565
        0.00557765 0.0051291473 0.004695534 0.02629886 0.026160495 0.025954608
        0.02561641 0.02515277 0.02457285 0.023887739 0.02311003 0.022253374
        0.021332009 0.02036036 0.019352667 0.018322663 0.01728334 0.016246725
        0.015223702 0.014223881 0.013255464 0.012325177 0.011438245 0.010598416
        0.009808026 0.009068065 0.008378229 0.007736945 0.0071414453 0.006588003
        0.006072449 0.00559091 0.005140173 0.004704369 0.026349626 0.02621106
        0.026004804 0.025665918 0.025201282 0.024620065 0.023933383 0.023153855
        0.022295153 0.021371556 0.020397523 0.019387336 0.018354788 0.01731293
        0.016273862 0.015248557 0.014246707 0.013276599 0.012345022 0.01145723
        0.010616959 0.0098264655 0.009086588 0.008396801 0.007755268 0.0071589984
        0.0066041755 0.006086743 0.005603102 0.0051503493 0.004712603 0.026400622
        0.026261853 0.026055226 0.025715657 0.025250023 0.024667518 0.023979275
        0.023197938 0.022337208 0.021411397 0.020435 0.019422343 0.018387271
        0.017342895 0.016301388 0.015273807 0.014269924 0.013298103 0.012365189
        0.011476465 0.010635637 0.009844876 0.009104866 0.008414862 0.0077728024
        0.007175528 0.0066191964 0.006099898 0.005614293 0.0051597296 0.0047202623
        0.026451843 0.026312873 0.026105877 0.025765624 0.025299003 0.024715217
        0.024025422 0.02324229 0.022379547 0.021451538 0.0204728 0.019457696
        0.018420123 0.017373249 0.01632932 0.015299465 0.014293539 0.013319975
        0.012385671 0.011495924 0.010654409 0.009863202 0.009122829 0.008432348
        0.0077895042 0.0071910233 0.00663309 0.0061119627 0.0056245336 0.0051683504
        0.0047273645 0.026503297 0.026364122 0.026156759 0.025815828 0.025348222
        0.024763163 0.02407183 0.023286913 0.022422176 0.021491993 0.020510934
        0.019493409 0.018453356 0.017404007 0.016357668 0.015325543 0.014317559
        0.013342216 0.012406455 0.011515585 0.010673237 0.009881391 0.009140421
        0.008449205 0.007805337 0.0072054784 0.00664588 0.0061229756 0.0056338613
        0.0051762345 0.0047339164 0.026554981 0.026415603 0.026207874 0.025866266
        0.025397684 0.024811363 0.0241185 0.023331817 0.022465104 0.021532767
        0.020549413 0.01952949 0.018486986 0.01743518 0.016386446 0.015352052
        0.014341992 0.013364825 0.012427533 0.011535423 0.010692084 0.0098993955
        0.009157588 0.008465387 0.007820275 0.0072188918 0.006657585 0.0061329645
        0.0056422986 0.0051833945 0.004739917 0.026606899 0.02646732 0.026259225
        0.025916947 0.025447395 0.024859818 0.024165438 0.023377005 0.022508336
        0.02157387 0.020588247 0.019565955 0.018521024 0.017466785 0.016415669
        0.015379002 0.014366845 0.013387805 0.012448895 0.011555419 0.010710917
        0.009917172 0.009174285 0.008480858 0.007834296 0.007231262 0.0066682203
        0.006141948 0.005649859 0.005189832 0.0047453553 0.02665905 0.02651927
        0.026310813 0.02596787 0.025497353 0.024908533 0.024212653 0.023422485
        0.02255188 0.021615308 0.020627443 0.019602811 0.018555483 0.017498836
        0.016445348 0.015406407 0.0143921245 0.013411154 0.012470532 0.011575554
        0.010729708 0.009934685 0.009190477 0.008495588 0.007847386 0.0072425897
        0.0066777943 0.006149936 0.0056565437 0.005195539 0.0047502145 0.026711438
        0.026571458 0.02636264 0.026019037 0.025547564 0.024957512 0.024260143
        0.02346826 0.02259574 0.021657089 0.020667013 0.019640071 0.018590374
        0.017531341 0.016475497 0.015434277 0.014417839 0.013434875 0.012492439
        0.011595811 0.01074843 0.009951904 0.009206132 0.008509552 0.007859534
        0.0072528743 0.006686312 0.0061569293 0.0056623453 0.0052004987 0.0047544693
        0.026764063 0.026623886 0.026414713 0.026070451 0.025598032 0.025006758
        0.024307916 0.023514336 0.022639927 0.021699222 0.020706963 0.019677745
        0.01862571 0.01756432 0.016506132 0.015462625 0.014443998 0.013458972
        0.01251461 0.011616177 0.010767062 0.009968802 0.009221225 0.008522734
        0.00787073 0.0072621144 0.006693773 0.00616292 0.005667247 0.005204685
        0.004758086 0.026816929 0.026676556 0.026467027 0.026122116 0.025648758
        0.025056273 0.024355974 0.023560718 0.022684442 0.021741712 0.020747306
        0.019715844 0.018661505 0.017597778 0.01653726 0.015491463 0.014470611
        0.013483448 0.012537044 0.011636643 0.010785589 0.009985361 0.00923574
        0.008535122 0.00788097 0.0072703077 0.0067001698 0.006167894 0.0056712218
        0.005208063 0.004761022 0.026870035 0.026729468 0.02651959 0.026174033
        0.025699744 0.025106063 0.024404323 0.023607409 0.022729293 0.021784568
        0.020788046 0.019754376 0.018697768 0.017631736 0.016568903 0.015520804
        0.014497687 0.013508311 0.01255974 0.011657201 0.0108039975 0.010001566
        0.009249662 0.008546707 0.007890249 0.0072774487 0.0067054923 0.006171828
        0.005674234 0.0052105864 0.0047632256 0.02692338 0.026782624 0.026572399
        0.026226204 0.025750995 0.025156127 0.024452964 0.023654414 0.022774482
        0.021827796 0.020829193 0.019793354 0.018734511 0.017666202 0.016601069
        0.015550662 0.01452524 0.013533566 0.012582701 0.011677848 0.010822281
        0.010017409 0.0092629865 0.008557486 0.0078985635 0.0072835325 0.006709724
        0.006174691 0.0056762393 0.0052122003 0.004764633 0.026976973 0.026836028
        0.026625458 0.026278632 0.025802512 0.025206473 0.024501901 0.023701739
        0.02282002 0.021871403 0.020870756 0.019832788 0.018771749 0.017701194
        0.016633775 0.01558105 0.0145532815 0.013559225 0.012605933 0.011698586
        0.010840437 0.010032887 0.009275711 0.008567459 0.007905916 0.0072885514
        0.006712845 0.0061764456 0.0056771813 0.0052128364 0.0047651674 0.027030807
        0.02688968 0.02667877 0.026331317 0.025854295 0.0252571 0.024551136
        0.023749385 0.022865908 0.021915395 0.020912742 0.019872684 0.01880949
        0.017736722 0.016667036 0.015611986 0.014581825 0.013585299 0.012629442
        0.011719419 0.01085847 0.010048001 0.00928784 0.008576632 0.007912306
        0.0072924974 0.00671483 0.0061770463 0.005676994 0.0052124136 0.004764737
        0.02708489 0.026943581 0.026732335 0.026384262 0.02590635 0.02530801
        0.024600675 0.023797357 0.02291215 0.021959776 0.02095516 0.019913055
        0.018847747 0.017772801 0.016700866 0.015643483 0.014610887 0.013611802
        0.012653242 0.011740356 0.010876384 0.010062761 0.009299382 0.0085850125
        0.0079177385 0.007295362 0.0067156516 0.0061764405 0.0056756004 0.005210835
        0.004763231 0.02713922 0.026997732 0.026786154 0.02643747 0.025958676
        0.025359204 0.02465052 0.02384566 0.022958752 0.022004552 0.020998012
        0.019953907 0.018886529 0.017809441 0.01673528 0.015675558 0.014640484
        0.01363875 0.012677345 0.011761409 0.010894194 0.0100771785 0.009310352
        0.008592614 0.00792222 0.0072971378 0.006715279 0.006174568 0.0056729093
        0.0052079856 0.0047605154 0.0271938 0.027052138 0.02684023 0.02649094
        0.026011273 0.025410686 0.024700668 0.02389429 0.023005715 0.022049727
        0.021041308 0.019995248 0.018925847 0.017846659 0.016770294 0.015708229
        0.014670633 0.0136661595 0.01270177 0.011782597 0.010911916 0.010091274
        0.0093207685 0.008599455 0.007925759 0.007297818 0.0067136805 0.006171364
        0.0056688166 0.005203727 0.0047564255 0.027248628 0.027106795 0.026894564
        0.026544673 0.026064144 0.025462454 0.024751125 0.023943253 0.02305304
        0.022095304 0.02108505 0.020037087 0.018965712 0.017884463 0.016805919
        0.015741512 0.014701353 0.013694051 0.012726536 0.011803939 0.010929574
        0.010105071 0.009330658 0.008605557 0.0079283705 0.0072973995 0.0067108236
        0.0061667548 0.005663203 0.0051978957 0.0047507593 0.02730371 0.027161708
        0.026949154 0.02659867 0.026117288 0.02551451 0.024801886 0.023992548
        0.02310073 0.022141283 0.021129241 0.020079423 0.019006126 0.017922865
        0.016842173 0.015775423 0.0147326635 0.013722446 0.012751667 0.011825461
        0.010947193 0.010118596 0.009340049 0.008610948 0.007930073 0.007295882
        0.0067066774 0.006160665 0.0056559327 0.005190293 0.0047432627 0.027359046
        0.027216876 0.027004002 0.026652927 0.026170703 0.02556685 0.024852948
        0.024042169 0.023148779 0.022187665 0.021173881 0.020122262 0.019047098
        0.017961873 0.016879065 0.015809977 0.014764584 0.013751366 0.012777186
        0.011847188 0.010964802 0.010131883 0.009348976 0.0086156605 0.007930891
        0.007293272 0.006701215 0.0061530154 0.0056468523 0.0051806774 0.004733612
        0.027414635 0.027272299 0.027059104 0.026707444 0.026224382 0.025619468
        0.024904309 0.024092114 0.023197185 0.022234442 0.021218967 0.020165602
        0.019088626 0.018001487 0.016916603 0.015845189 0.014797129 0.013780831
        0.012803119 0.011869148 0.010982434 0.010144969 0.0093574785 0.008619732
        0.007930855 0.007289583 0.0066944184 0.0061437283 0.005635791 0.005168753
        0.004721386 0.02747048 0.027327975 0.027114458 0.026762214 0.026278323
        0.025672356 0.024955958 0.02414237 0.023245933 0.022281604 0.021264484
        0.020209432 0.019130705 0.018041711 0.016954789 0.015881063 0.014830313
        0.013810862 0.012829487 0.011891372 0.011000122 0.01015789 0.009365597
        0.008623205 0.007930004 0.007284839 0.006686278 0.0061327335 0.005622565
        0.0051541505 0.004706021 0.027526582 0.027383905 0.02717006 0.026817229
        0.026332507 0.025725497 0.025007874 0.024192916 0.023295004 0.022329127
        0.021310417 0.020253733 0.019173319 0.018082527 0.016993616 0.0159176
        0.01486414 0.013841466 0.012856309 0.01191388 0.011017893 0.0101706805
        0.00937337 0.008626122 0.007928379 0.0072790734 0.006676802 0.006119976
        0.0056069796 0.005136402 0.0046867384 0.027582942 0.027440079 0.027225895
        0.026872471 0.026386919 0.025778867 0.02506003 0.02424372 0.02334436
        0.022376977 0.021356724 0.020298468 0.01921643 0.018123906 0.017033057
        0.015954778 0.014898599 0.013872643 0.0128835905 0.011936685 0.011035769
        0.010183367 0.009380831 0.008628524 0.007926026 0.007272329 0.0066660163
        0.006105426 0.005588853 0.005114902 0.0046624253 0.027639559 0.027496507
        0.027281981 0.02692796 0.026441582 0.0258325 0.025112465 0.024294829
        0.023394058 0.022425212 0.021403471 0.02034371 0.01926012 0.018165935
        0.017073212 0.01599271 0.014933817 0.013904534 0.01291149 0.011959967
        0.011053947 0.010196168 0.00938822 0.00863067 0.007923224 0.0072649075
        0.0066542365 0.0060893875 0.0055683567 0.005089162 0.0046314225
      </DataArray>
    </PointData>
    <CellData>
    </CellData>
    <Points>
      <DataArray type="Float32" Name="Points" NumberOfComponents="3" format="ascii" RangeMin="0.8693353242363565" RangeMax="1.0015354937357515">
        0.45482746 -0.05602873 0.73873997 0.46610695 -0.05604216 0.738917
        0.47733003 -0.05605495 0.7390856 0.4884387 -0.056067053 0.73924524
        0.4993772 -0.05607842 0.7393951 0.5100933 -0.05608901 0.73953474
        0.5205391 -0.05609878 0.7396636 0.5306719 -0.056107715 0.7397813
        0.5404547 -0.05611579 0.73988783 0.5498565 -0.05612301 0.739983
        0.55885255 -0.056129396 0.7400672 0.56742436 -0.056134965 0.7401407
        0.5755592 -0.056139767 0.740204 0.5832501 -0.056143846 0.74025774
        0.5904953 -0.056147262 0.74030274 0.59729743 -0.05615007 0.7403398
        0.60366344 -0.056152344 0.7403698 0.6096036 -0.05615414 0.74039346
        0.615131 -0.05615552 0.7404117 0.6202611 -0.056156546 0.7404252
        0.6250111 -0.056157272 0.74043477 0.6293993 -0.05615775 0.740441
        0.63344514 -0.056158017 0.7404446 0.63716817 -0.05615812 0.740446
        0.6405883 -0.056158096 0.7404456 0.64372504 -0.05615796 0.7404439
        0.64659774 -0.056157757 0.74044114 0.6492252 -0.05615749 0.7404376
        0.6516252 -0.056157187 0.74043363 0.65381515 -0.05615686 0.7404293
        0.65581137 -0.056156516 0.74042475 0.45482746 -0.054997712 0.7388174
        0.46612787 -0.055011023 0.7389948 0.4773718 -0.05502368 0.73916376
        0.48850098 -0.055035636 0.7393236 0.49945962 -0.055046827 0.7394737
        0.5101953 -0.05505722 0.73961353 0.5206601 -0.055066764 0.7397426
        0.5308111 -0.05507544 0.7398605 0.5406112 -0.05508323 0.73996705
        0.55002946 -0.055090133 0.74006236 0.5590409 -0.055096168 0.7401465
        0.567627 -0.055101346 0.74021995 0.5757751 -0.055105723 0.74028325
        0.5834781 -0.055109326 0.740337 0.59073424 -0.05511222 0.7403819
        0.59754634 -0.055114463 0.7404189 0.6039213 -0.05511613 0.7404487
        0.6098695 -0.055117276 0.7404723 0.6154042 -0.05511798 0.74049044
        0.62054104 -0.055118304 0.74050385 0.6252973 -0.05511834 0.7405133
        0.62969166 -0.05511815 0.7405195 0.6337436 -0.055117805 0.7405229
        0.637473 -0.0551174 0.7405242 0.64089984 -0.055116985 0.7405237
        0.64404416 -0.055116665 0.74052185 0.64692557 -0.055116527 0.7405189
        0.6495633 -0.0551167 0.74051535 0.65197676 -0.055117376 0.7405111
        0.6541864 -0.055119 0.7405065 0.65621966 -0.05512307 0.7405014
        0.45482746 -0.053966578 0.73889345 0.4661489 -0.053979766 0.7390712
        0.47741374 -0.05399229 0.7392404 0.48856357 -0.054004084 0.7394005
        0.49954244 -0.0540151 0.7395509 0.51029783 -0.054025285 0.7396909
        0.52078164 -0.054034606 0.7398201 0.53095096 -0.054043025 0.7399382
        0.54076856 -0.054050535 0.74004483 0.5502033 -0.054057125 0.7401402
        0.55923027 -0.054062814 0.7402244 0.56783086 -0.05406761 0.7402979
        0.5759922 -0.054071557 0.74036115 0.5837075 -0.054074705 0.7404148
        0.59097475 -0.054077093 0.7404596 0.5977969 -0.054078788 0.7404965
        0.60418093 -0.05407986 0.74052626 0.61013734 -0.054080382 0.74054974
        0.61567956 -0.05408043 0.74056774 0.6208233 -0.054080095 0.74058104
        0.6255862 -0.05407947 0.7405904 0.62998706 -0.05407866 0.7405964
        0.63404554 -0.05407777 0.74059975 0.63778174 -0.054076903 0.74060094
        0.64121604 -0.0540762 0.7406003 0.64436865 -0.054075792 0.7405983
        0.6472597 -0.054075867 0.7405953 0.64990926 -0.05407666 0.74059147
        0.6523379 -0.05407856 0.740587 0.6545683 -0.054082308 0.74058205
        0.656628 -0.05408951 0.7405766 0.45482746 -0.052935343 0.7389681
        0.46617004 -0.05294839 0.7391461 0.47745588 -0.052960765 0.7393156
        0.48862642 -0.0529724 0.739476 0.49962565 -0.052983228 0.73962665
        0.51040083 -0.0529932 0.7397669 0.5209038 -0.05300229 0.73989624
        0.5310916 -0.053010453 0.74001443 0.54092675 -0.05301768 0.74012125
        0.5503781 -0.053023964 0.7402167 0.5594207 -0.053029303 0.7403009
        0.56803584 -0.053033724 0.7403743 0.5762107 -0.05303726 0.74043757
        0.5839383 -0.05303995 0.7404911 0.5912168 -0.05304185 0.7405359
        0.59804916 -0.05304301 0.7405727 0.6044424 -0.053043507 0.7406024
        0.61040723 -0.05304342 0.7406257 0.6159572 -0.05304284 0.74064356
        0.6211082 -0.05304187 0.74065673 0.625878 -0.053040624 0.74066603
        0.6302856 -0.053039234 0.7406719 0.634351 -0.053037837 0.74067515
        0.6380946 -0.053036597 0.74067616 0.6415369 -0.05303568 0.7406754
        0.6446986 -0.0530353 0.74067324 0.64760023 -0.0530357 0.7406701
        0.6502626 -0.053037245 0.74066603 0.65270704 -0.053040475 0.7406613
        0.6549569 -0.053046238 0.7406561 0.6570363 -0.053055853 0.7406503
        0.45482746 -0.051904008 0.7390412 0.46619126 -0.05191691 0.73921955
        0.4774982 -0.051929116 0.7393894 0.48868957 -0.05194057 0.7395501
        0.49970922 -0.051951207 0.73970103 0.51050436 -0.05196097 0.73984146
        0.5210266 -0.051969826 0.739971 0.5312329 -0.051977728 0.7400893
        0.5410857 -0.051984668 0.7401962 0.55055386 -0.05199064 0.74029166
        0.5596122 -0.051995646 0.74037594 0.568242 -0.0519997 0.74044937
        0.57643044 -0.052002832 0.7405125 0.5841706 -0.052005075 0.740566
        0.59146047 -0.052006498 0.7406108 0.5983032 -0.05200714 0.74064744
        0.60470587 -0.052007083 0.740677 0.61067927 -0.052006405 0.7407002
        0.61623716 -0.052005224 0.74071795 0.6213956 -0.052003644 0.740731
        0.6261726 -0.052001815 0.7407401 0.63058734 -0.051999886 0.74074596
        0.6346601 -0.051998045 0.740749 0.6384115 -0.051996484 0.7407499
        0.64186245 -0.051995434 0.740749 0.6450339 -0.051995154 0.7407467
        0.64794683 -0.05199599 0.7407433 0.6506224 -0.051998377 0.74073905
        0.6530826 -0.052002948 0.7407341 0.65534973 -0.052010525 0.7407286
        0.6574446 -0.052022096 0.7407226 0.45482746 -0.050872568 0.7391129
        0.46621257 -0.050885305 0.7392916 0.4775407 -0.05089735 0.73946184
        0.48875302 -0.05090862 0.7396228 0.49979317 -0.050919056 0.73977387
        0.5106083 -0.0509286 0.73991454 0.52115 -0.050937213 0.7400443
        0.5313749 -0.05094486 0.74016273 0.5412455 -0.050951518 0.7402697
        0.5507305 -0.050957188 0.7403652 0.55980474 -0.050961856 0.7404495
        0.5684494 -0.050965548 0.7405229 0.5766516 -0.05096828 0.74058604
        0.5844043 -0.050970096 0.74063957 0.59170574 -0.05097105 0.74068415
        0.598559 -0.050971188 0.74072075 0.6049713 -0.050970595 0.74075013
        0.6109535 -0.050969362 0.74077326 0.6165195 -0.0509676 0.7407909
        0.6216856 -0.05096545 0.7408038 0.6264701 -0.050963063 0.7408128
        0.63089234 -0.05096065 0.74081844 0.6349729 -0.05095841 0.74082136
        0.6387325 -0.05095659 0.74082214 0.64219254 -0.05095547 0.7408211
        0.64537424 -0.050955374 0.7408186 0.6482989 -0.050956707 0.74081504
        0.65098804 -0.050959982 0.7408106 0.65346324 -0.05096585 0.74080545
        0.6557455 -0.050975043 0.74079967 0.6578529 -0.050988235 0.7407934
        0.45482746 -0.049841028 0.7391832 0.466234 -0.049853593 0.7393623
        0.4775834 -0.04986546 0.7395327 0.48881674 -0.04987654 0.739694
        0.49987757 -0.04988677 0.73984534 0.5107128 -0.04989609 0.73998624
        0.521274 -0.049904462 0.7401161 0.5315176 -0.049911853 0.74023473
        0.54140615 -0.049918234 0.7403418 0.55090815 -0.049923595 0.7404373
        0.55999833 -0.049927935 0.74052167 0.56865793 -0.04993128 0.7405951
        0.576874 -0.049933635 0.74065816 0.5846395 -0.04993504 0.74071157
        0.5919526 -0.049935535 0.7407561 0.5988166 -0.049935192 0.7407926
        0.6052386 -0.04993408 0.74082184 0.61122984 -0.04993231 0.74084485
        0.6168042 -0.049929995 0.7408623 0.6219783 -0.049927298 0.7408751
        0.6267705 -0.04992441 0.74088395 0.63120055 -0.049921546 0.7408895
        0.63528913 -0.049918953 0.7408923 0.63905746 -0.04991693 0.7408929
        0.64252704 -0.049915805 0.7408917 0.64571935 -0.04991595 0.740889
        0.648656 -0.04991784 0.74088526 0.6513584 -0.049922008 0.7408806
        0.6538477 -0.049929105 0.74087524 0.6561433 -0.04993971 0.7408692
        0.65826124 -0.04995427 0.7408627 0.45482746 -0.048809394 0.73925203
        0.46625555 -0.048821777 0.73943144 0.4776263 -0.04883346 0.73960227
        0.48888078 -0.04884434 0.7397638 0.4999623 -0.048854362 0.7399154
        0.5108178 -0.04886346 0.74005646 0.52139854 -0.048871595 0.7401866
        0.53166103 -0.048878726 0.7403053 0.5415676 -0.048884828 0.7404124
        0.5510867 -0.048889898 0.7405081 0.56019306 -0.04889392 0.7405924
        0.5688677 -0.048896916 0.7406658 0.5770978 -0.048898898 0.7407288
        0.5848762 -0.048899904 0.74078214 0.59220123 -0.04889997 0.7408266
        0.599076 -0.04889916 0.74086297 0.605508 -0.04889756 0.7408921
        0.61150837 -0.048895266 0.74091494 0.6170913 -0.04889244 0.74093235
        0.62227356 -0.048889235 0.740945 0.62707376 -0.048885874 0.7409537
        0.6315119 -0.0488826 0.74095905 0.635609 -0.04887971 0.7409617
        0.6393863 -0.048877537 0.74096215 0.6428657 -0.048876457 0.7409607
        0.64606893 -0.048876897 0.7409579 0.6490176 -0.048879355 0.740954
        0.6517329 -0.04888441 0.7409491 0.6542352 -0.04889263 0.7409435
        0.6565426 -0.048904475 0.7409373 0.65866953 -0.04892022 0.74093056
        0.45482746 -0.047777664 0.73931944 0.46627712 -0.04778986 0.7394992
        0.4776694 -0.04780135 0.7396703 0.4889451 -0.047812033 0.7398321
        0.50004745 -0.04782184 0.739984 0.51092327 -0.04783071 0.74012524
        0.5215237 -0.047838606 0.74025553 0.5318052 -0.047845475 0.7403744
        0.5417299 -0.047851313 0.7404817 0.55126625 -0.047856092 0.74057734
        0.56038886 -0.04785981 0.7406617 0.5690787 -0.047862474 0.74073505
        0.5773229 -0.047864094 0.74079806 0.58511436 -0.047864717 0.7408513
        0.59245145 -0.047864363 0.7408956 0.5993373 -0.04786311 0.74093187
        0.6057794 -0.047861047 0.7409609 0.6117891 -0.047858268 0.7409836
        0.61738086 -0.04785495 0.74100083 0.6225715 -0.047851272 0.74101335
        0.62738 -0.047847472 0.7410219 0.6318265 -0.04784384 0.7410271
        0.63593227 -0.047840692 0.7410296 0.6397189 -0.047838416 0.74102986
        0.6432084 -0.04783742 0.7410283 0.6464226 -0.047838196 0.7410253
        0.6493832 -0.047841247 0.7410212 0.6521109 -0.047847133 0.7410161
        0.6546251 -0.04785638 0.7410103 0.6569429 -0.04786932 0.7410039
        0.6590778 -0.04788607 0.740997 0.45482746 -0.04674584 0.73938537
        0.46629885 -0.04675784 0.7395655 0.4777127 -0.04676913 0.7397369
        0.4890097 -0.046779606 0.739899 0.50013304 -0.0467892 0.7400511
        0.5110293 -0.04679784 0.74019265 0.5216495 -0.0468055 0.74032307
        0.53195006 -0.046812125 0.74044204 0.54189306 -0.04681769 0.74054945
        0.55144674 -0.04682219 0.7406452 0.56058574 -0.046825614 0.7407296
        0.56929094 -0.046827946 0.7408029 0.5775494 -0.04682923 0.7408658
        0.58535415 -0.046829477 0.740919 0.59270334 -0.04682874 0.7409632
        0.5996004 -0.046827063 0.74099934 0.6060528 -0.04682456 0.74102825
        0.6120721 -0.046821322 0.74105084 0.61767286 -0.046817545 0.7410678
        0.6228722 -0.04681343 0.7410802 0.6276892 -0.046809237 0.74108857
        0.6321443 -0.046805277 0.74109364 0.636259 -0.04680192 0.741096
        0.6400552 -0.046799585 0.74109614 0.6435549 -0.04679872 0.7410944
        0.6467802 -0.046799835 0.74109125 0.6497523 -0.04680347 0.7410869
        0.65249175 -0.04681015 0.7410816 0.65501696 -0.046820316 0.7410756
        0.6573441 -0.046834208 0.74106896 0.6594861 -0.046851836 0.7410619
        0.45482746 -0.045713924 0.7394499 0.46632066 -0.045725722 0.73963034
        0.47775617 -0.045736812 0.7398021 0.48907462 -0.045747083 0.7399645
        0.500219 -0.045756456 0.74011683 0.51113576 -0.045764875 0.7402586
        0.5217759 -0.04577229 0.74038917 0.5320957 -0.04577867 0.7405083
        0.54205704 -0.04578398 0.7406157 0.55162823 -0.045788202 0.74071157
        0.5607837 -0.04579133 0.7407959 0.5695044 -0.04579337 0.7408693
        0.5777773 -0.045794323 0.74093217 0.5855954 -0.045794223 0.7409853
        0.592957 -0.045793105 0.7410294 0.5998654 -0.045791037 0.7410654
        0.60632837 -0.045788106 0.7410941 0.6123574 -0.045784455 0.7411165
        0.61796737 -0.04578025 0.74113345 0.62317556 -0.045775726 0.7411457
        0.6280013 -0.04577117 0.74115384 0.63246524 -0.045766935 0.7411587
        0.6365891 -0.045763407 0.7411609 0.640395 -0.045761045 0.74116087
        0.64390504 -0.045760337 0.74115896 0.6471412 -0.045761812 0.7411556
        0.6501246 -0.04576601 0.7411511 0.65287507 -0.04577342 0.7411456
        0.6554104 -0.045784414 0.74113935 0.65774596 -0.04579913 0.74113256
        0.6598944 -0.0458175 0.74112535 0.45482746 -0.04468192 0.73951304
        0.46634254 -0.04469351 0.7396938 0.47779983 -0.044704393 0.73986584
        0.48913983 -0.04471445 0.7400285 0.50030535 -0.044723604 0.74018115
        0.51124275 -0.0447318 0.74032307 0.521903 -0.044738982 0.74045384
        0.532242 -0.044745117 0.7405731 0.5422219 -0.044750176 0.7406807
        0.5518107 -0.044754136 0.7407765 0.5609828 -0.044756986 0.7408609
        0.56971914 -0.04475873 0.74093425 0.5780067 -0.044759374 0.740997
        0.5858383 -0.044758942 0.74105006 0.59321237 -0.04475747 0.74109405
        0.60013235 -0.04475503 0.74112993 0.60660595 -0.04475172 0.74115855
        0.61264503 -0.044747666 0.7411808 0.6182644 -0.04474307 0.7411976
        0.62348163 -0.044738173 0.74120957 0.6283163 -0.044733297 0.7412177
        0.6327893 -0.044728816 0.7412224 0.63692254 -0.044725157 0.74122435
        0.64073825 -0.0447228 0.7412241 0.6442586 -0.044722274 0.741222
        0.6475055 -0.044724107 0.7412185 0.6504997 -0.044728838 0.7412138
        0.6532606 -0.044736914 0.7412081 0.6558052 -0.04474864 0.7412017
        0.65814835 -0.044764075 0.7411947 0.66030276 -0.04478309 0.7411874
        0.45482746 -0.04364983 0.7395746 0.46636456 -0.043661207 0.73975575
        0.47784373 -0.043671876 0.7399282 0.48920533 -0.04368172 0.74009115
        0.5003921 -0.043690655 0.740244 0.5113502 -0.04369862 0.7403861
        0.5220306 -0.043705575 0.7405171 0.5323891 -0.043711476 0.74063647
        0.5423876 -0.043716285 0.7407441 0.5519941 -0.043719992 0.74084
        0.56118304 -0.043722577 0.7409245 0.56993514 -0.043724045 0.74099773
        0.5782374 -0.043724395 0.7410605 0.58608276 -0.043723647 0.7411134
        0.59346956 -0.04372185 0.7411573 0.6004012 -0.043719064 0.74119306
        0.6068858 -0.043715388 0.7412215 0.61293495 -0.04371097 0.7412436
        0.61856395 -0.043706015 0.74126023 0.6237905 -0.043700784 0.7412721
        0.62863433 -0.04369563 0.74127996 0.63311654 -0.04369094 0.7412845
        0.63725924 -0.043687176 0.74128634 0.6410848 -0.043684855 0.74128586
        0.6446154 -0.043684516 0.7412836 0.6478728 -0.04368671 0.7412799
        0.65087736 -0.043691937 0.74127495 0.6536479 -0.043700617 0.7412691
        0.656201 -0.04371298 0.74126256 0.6585512 -0.04372903 0.7412554
        0.66071105 -0.043748587 0.7412479 0.45482746 -0.042617656 0.7396349
        0.46638665 -0.042628814 0.73981637 0.47788778 -0.042639267 0.73998904
        0.48927113 -0.042648893 0.7401523 0.5004792 -0.042657606 0.74030536
        0.5114583 -0.04266535 0.74044776 0.52215886 -0.042672075 0.7405789
        0.5325369 -0.04267774 0.7406984 0.54255414 -0.04268232 0.74080616
        0.55217856 -0.04268578 0.7409021 0.56138444 -0.042688116 0.7409865
        0.57015246 -0.042689316 0.7410598 0.5784697 -0.04268939 0.7411225
        0.58632886 -0.042688355 0.7411753 0.59372854 -0.04268625 0.7412191
        0.6006721 -0.042683143 0.7412547 0.6071677 -0.042679135 0.741283
        0.6132273 -0.042674385 0.741305 0.61886615 -0.0426691 0.7413214
        0.6241022 -0.042663578 0.74133307 0.6289553 -0.042658173 0.74134076
        0.63344693 -0.042653307 0.7413451 0.6375992 -0.042649474 0.7413468
        0.64143455 -0.04264721 0.7413461 0.6449753 -0.042647067 0.7413437
        0.64824283 -0.0426496 0.7413398 0.6512573 -0.04265529 0.7413347
        0.6540369 -0.0426645 0.7413286 0.65659785 -0.04267742 0.74132186
        0.6589545 -0.04269399 0.7413146 0.66111934 -0.042714003 0.74130696
        0.45482746 -0.041585397 0.7396936 0.46640882 -0.04159633 0.73987544
        0.47793207 -0.041606568 0.74004847 0.48933724 -0.04161597 0.74021196
        0.5005668 -0.041624464 0.7403653 0.5115668 -0.041631985 0.74050796
        0.5222878 -0.04163849 0.74063927 0.53268546 -0.04164393 0.7407589
        0.5427216 -0.041648276 0.7408667 0.552364 -0.041651502 0.74096274
        0.561587 -0.041653596 0.74104714 0.5703711 -0.041654553 0.7411204
        0.57870334 -0.041654367 0.74118304 0.58657664 -0.041653063 0.7412358
        0.5939894 -0.04165068 0.7412794 0.60094506 -0.041647274 0.7413149
        0.607452 -0.04164297 0.7413431 0.6135221 -0.041637912 0.74136484
        0.61917096 -0.041632343 0.7413811 0.6244166 -0.041626554 0.7413926
        0.62927926 -0.041620936 0.7414001 0.63378036 -0.04161593 0.7414043
        0.63794225 -0.041612055 0.7414057 0.64178747 -0.04160986 0.74140495
        0.6453381 -0.04160992 0.7414023 0.6486155 -0.04161277 0.74139816
        0.6516392 -0.04161888 0.7413929 0.65442735 -0.041628562 0.74138665
        0.65699553 -0.04164195 0.7413798 0.6593581 -0.041658953 0.7413723
        0.66152763 -0.041679338 0.74136454 0.45482746 -0.040553056 0.7397509
        0.46643114 -0.040563762 0.73993313 0.47797653 -0.040573772 0.74010646
        0.48940364 -0.040582955 0.74027026 0.50065476 -0.04059123 0.74042386
        0.51167583 -0.04059853 0.74056673 0.5224173 -0.040604815 0.74069816
        0.5328348 -0.040610034 0.74081796 0.54288995 -0.04061416 0.7409259
        0.5525505 -0.040617168 0.74102193 0.56179065 -0.040619034 0.7411064
        0.57059103 -0.040619757 0.7411796 0.57893854 -0.040619336 0.7412421
        0.5868261 -0.040617783 0.7412948 0.59425205 -0.04061514 0.7413383
        0.6012201 -0.040611476 0.74137366 0.60773844 -0.040606894 0.7414017
        0.61381936 -0.04060157 0.74142325 0.6194784 -0.040595744 0.74143934
        0.6247339 -0.04058973 0.74145067 0.6296062 -0.040583927 0.74145794
        0.6341169 -0.040578812 0.741462 0.63828844 -0.040574916 0.74146324
        0.64214337 -0.040572815 0.7414622 0.64570373 -0.040573068 0.74145937
        0.6489905 -0.040576216 0.7414551 0.65202314 -0.04058269 0.7414496
        0.6548191 -0.040592775 0.7414432 0.65739405 -0.040606562 0.7414361
        0.659762 -0.04062392 0.74142855 0.6619359 -0.040644594 0.7414207
        0.45482746 -0.03952064 0.7398068 0.46645352 -0.039531115 0.73998934
        0.47802123 -0.039540894 0.740163 0.48947033 -0.039549854 0.7403271
        0.50074315 -0.039557904 0.740481 0.51178545 -0.039564993 0.74062407
        0.5225475 -0.039571058 0.7407557 0.5329849 -0.039576065 0.7408756
        0.5430592 -0.03957998 0.7409836 0.552738 -0.039582774 0.7410797
        0.56199557 -0.03958443 0.74116415 0.57081234 -0.03958494 0.74123734
        0.5791753 -0.039584294 0.7412998 0.5870772 -0.03958252 0.7413523
        0.59451663 -0.039579645 0.7413958 0.6014972 -0.03957574 0.74143094
        0.6080272 -0.039570924 0.7414588 0.6141191 -0.039565362 0.74148023
        0.6197886 -0.039559316 0.7414961 0.62505406 -0.03955311 0.74150723
        0.6299361 -0.03954716 0.7415143 0.6344565 -0.039541967 0.7415182
        0.63863766 -0.039538074 0.7415192 0.6425022 -0.039536063 0.741518
        0.64607203 -0.039536506 0.741515 0.6493678 -0.039539922 0.7415105
        0.6524088 -0.039546713 0.74150485 0.65521204 -0.03955714 0.7414983
        0.6577932 -0.03957124 0.7414911 0.66016626 -0.039588872 0.74148333
        0.6623442 -0.039609775 0.74147534 0.45482746 -0.038488142 0.7398612
        0.46647602 -0.03849838 0.7400441 0.47806612 -0.03850793 0.74021816
        0.48953736 -0.038516667 0.74038255 0.50083196 -0.038524497 0.7405367
        0.51189554 -0.038531367 0.7406799 0.5226783 -0.038537223 0.7408117
        0.5331358 -0.03854202 0.7409318 0.54322934 -0.03854573 0.7410399
        0.5529266 -0.03854833 0.741136 0.5622017 -0.03854979 0.7412205
        0.571035 -0.038550097 0.7412936 0.57941353 -0.03854926 0.7413561
        0.5873301 -0.038547277 0.74140847 0.5947831 -0.0385442 0.74145174
        0.6017764 -0.03854009 0.7414868 0.6083183 -0.038535062 0.74151444
        0.6144214 -0.0385293 0.7415357 0.62010145 -0.038523063 0.7415514
        0.6253772 -0.038516704 0.7415623 0.63026905 -0.038510643 0.7415693
        0.6347991 -0.038505394 0.74157286 0.6389899 -0.03850152 0.74157375
        0.6428639 -0.03849961 0.7415723 0.64644283 -0.03850023 0.7415691
        0.64974725 -0.038503885 0.7415644 0.65279603 -0.03851095 0.7415586
        0.65560615 -0.038521644 0.7415519 0.65819305 -0.038535994 0.74154454
        0.66057074 -0.038553823 0.7415367 0.6627525 -0.038574878 0.7415286
        0.45482746 -0.03745557 0.7399142 0.46649864 -0.03746557 0.74009746
        0.47811118 -0.03747489 0.74027187 0.4896047 -0.037483394 0.74043655
        0.5009212 -0.037491005 0.74059093 0.51200616 -0.037497662 0.74073434
        0.5228098 -0.03750331 0.74086636 0.53328747 -0.037507914 0.7409865
        0.5434004 -0.03751143 0.74109477 0.55311626 -0.037513837 0.7411909
        0.562409 -0.03751511 0.74127537 0.5712591 -0.03751524 0.74134845
        0.5796534 -0.037514225 0.74141085 0.58758473 -0.037512068 0.7414631
        0.5950516 -0.03750881 0.7415063 0.6020578 -0.037504517 0.74154115
        0.6086119 -0.037499316 0.7415687 0.6147263 -0.03749339 0.7415897
        0.6204171 -0.037487004 0.7416052 0.62570316 -0.037480514 0.74161595
        0.63060504 -0.037474375 0.7416227 0.6351449 -0.0374691 0.7416261
        0.63934517 -0.037465263 0.74162674 0.6432284 -0.037463453 0.74162513
        0.64681613 -0.03746424 0.74162173 0.6501288 -0.037468094 0.74161685
        0.6531849 -0.03747538 0.7416108 0.6560013 -0.037486285 0.74160403
        0.6585935 -0.03750081 0.74159646 0.6609755 -0.037518773 0.74158853
        0.66316086 -0.03753991 0.74158025 0.45482746 -0.036422927 0.7399658
        0.46652132 -0.03643268 0.74014944 0.47815648 -0.036441762 0.7403241
        0.48967236 -0.036450043 0.74048907 0.50101084 -0.036457434 0.7406437
        0.5121173 -0.036463883 0.7407874 0.52294195 -0.036469325 0.74091953
        0.5334399 -0.036473736 0.7410399 0.54357237 -0.036477074 0.7411481
        0.55330694 -0.036479305 0.7412444 0.56261754 -0.036480412 0.7413288
        0.57148457 -0.03648038 0.74140185 0.57989484 -0.036479205 0.74146414
        0.58784115 -0.036476895 0.74151635 0.5953221 -0.036473483 0.7415594
        0.6023415 -0.036469046 0.7415941 0.6089078 -0.0364637 0.74162143
        0.6150338 -0.03645764 0.7416423 0.62073565 -0.03645114 0.7416576
        0.62603205 -0.036444563 0.7416681 0.6309441 -0.03643837 0.74167466
        0.63549364 -0.036433086 0.7416778 0.63970333 -0.0364293 0.7416783
        0.64359564 -0.0364276 0.7416765 0.6471919 -0.036428526 0.7416729
        0.6505123 -0.036432553 0.7416678 0.65357524 -0.036440015 0.74166167
        0.6563975 -0.036451068 0.7416546 0.65899456 -0.036465693 0.74164695
        0.6613806 -0.03648372 0.74163884 0.66356915 -0.036504872 0.74163055
        0.45482746 -0.035390213 0.74001586 0.46654415 -0.03539972 0.7401999
        0.478202 -0.03540856 0.74037486 0.4897403 -0.03541661 0.74054015
        0.5011009 -0.035423785 0.74069506 0.5122291 -0.03543002 0.74083894
        0.52307475 -0.035435274 0.7409713 0.5335931 -0.035439495 0.7410918
        0.5437453 -0.035442658 0.7412001 0.55349874 -0.03544473 0.7412964
        0.5628273 -0.035445683 0.7413808 0.5717114 -0.035445508 0.7414538
        0.58013785 -0.035444196 0.741516 0.58809936 -0.03544176 0.74156815
        0.5955946 -0.035438225 0.741611 0.60262734 -0.03543367 0.7416456
        0.6092062 -0.035428215 0.74167275 0.615344 -0.035422057 0.7416934
        0.621057 -0.035415474 0.74170846 0.626364 -0.035408847 0.74171877
        0.6312861 -0.035402633 0.7417251 0.6358454 -0.03539737 0.7417281
        0.6400645 -0.035393648 0.74172837 0.64396554 -0.03539204 0.74172634
        0.64756995 -0.0353931 0.7417225 0.6508977 -0.035397265 0.7417173
        0.653967 -0.035404846 0.74171096 0.6567947 -0.03541598 0.7417038
        0.6593962 -0.03543065 0.74169594 0.66178584 -0.035448663 0.7416877
        0.66397744 -0.035469767 0.7416793 0.45482746 -0.03435743 0.7400645
        0.46656704 -0.034366682 0.7402489 0.4782477 -0.034375284 0.7404242
        0.48980862 -0.034383103 0.7405898 0.5011914 -0.03439006 0.74074495
        0.5123413 -0.03439609 0.7408891 0.5232082 -0.034401152 0.74102163
        0.53374714 -0.034405198 0.7411422 0.54391915 -0.034408197 0.74125063
        0.5536916 -0.034410115 0.74134696 0.56303835 -0.034410935 0.7414314
        0.57193977 -0.03441064 0.7415044 0.5803825 -0.03440921 0.7415665
        0.5883595 -0.03440667 0.74161845 0.5958691 -0.034403045 0.7416612
        0.60291547 -0.034398403 0.7416956 0.60950714 -0.03439287 0.7417226
        0.6156569 -0.03438665 0.741743 0.62138116 -0.034380022 0.7417579
        0.626699 -0.034373373 0.741768 0.63163126 -0.03436717 0.7417741
        0.63620025 -0.03436195 0.7417769 0.6404285 -0.034358297 0.74177694
        0.6443381 -0.03435679 0.7417747 0.6479503 -0.034357958 0.7417707
        0.65128493 -0.034362223 0.74176526 0.65436023 -0.034369867 0.74175876
        0.6571929 -0.034381032 0.74175143 0.6597984 -0.034395672 0.7417435
        0.6621914 -0.03441361 0.7417352 0.66438574 -0.034434594 0.74172664
        0.45482746 -0.03332458 0.74011177 0.46659005 -0.033333573 0.7402965
        0.4782936 -0.033341933 0.7404722 0.4898772 -0.03334952 0.7406381
        0.50128233 -0.03335626 0.74079347 0.51245415 -0.033362094 0.7409378
        0.5233424 -0.033366967 0.7410705 0.533902 -0.033370845 0.7411912
        0.54409397 -0.03337369 0.7412997 0.5538856 -0.033375476 0.74139607
        0.5632507 -0.033376172 0.7414805 0.57216954 -0.03337577 0.7415534
        0.5806289 -0.033374254 0.7416155 0.5886214 -0.03337163 0.74166733
        0.5961458 -0.03336794 0.74170995 0.6032059 -0.033363245 0.74174416
        0.6098106 -0.033357676 0.7417709 0.6159726 -0.03335143 0.7417912
        0.6217083 -0.033344798 0.74180585 0.6270369 -0.03333816 0.74181575
        0.6319795 -0.03333199 0.74182165 0.6365582 -0.03332683 0.7418242
        0.6407954 -0.033323262 0.741824 0.64471334 -0.03332185 0.7418216
        0.64833295 -0.0333231 0.74181736 0.6516741 -0.03332743 0.7418118
        0.6547548 -0.033335097 0.74180514 0.657592 -0.03334622 0.7417976
        0.6602012 -0.033360764 0.7417896 0.66259724 -0.03337856 0.7417811
        0.664794 -0.03339936 0.74177253 0.45482746 -0.032291666 0.74015754
        0.46661317 -0.032300398 0.7403427 0.47833976 -0.03230851 0.7405187
        0.4899461 -0.032315865 0.74068487 0.5013737 -0.032322392 0.7408405
        0.5125675 -0.032328025 0.7409851 0.5234772 -0.03233272 0.74111795
        0.5340576 -0.03233644 0.7412388 0.54426974 -0.032339144 0.7413474
        0.5540807 -0.032340806 0.7414438 0.56346434 -0.0323414 0.7415282
        0.5724008 -0.032340907 0.74160105 0.5808769 -0.032339323 0.74166304
        0.58888525 -0.03233665 0.7417148 0.5964246 -0.032332923 0.7417573
        0.60349876 -0.032328207 0.7417913 0.6101166 -0.032322634 0.7418179
        0.616291 -0.032316398 0.7418379 0.6220384 -0.032309793 0.7418524
        0.627378 -0.032303203 0.74186206 0.6323309 -0.0322971 0.7418677
        0.63691914 -0.032292027 0.74187005 0.64116526 -0.032288548 0.7418696
        0.6450912 -0.032287218 0.74186695 0.64871794 -0.03228854 0.7418626
        0.6520651 -0.03229289 0.7418568 0.6551509 -0.032300524 0.74184996
        0.6579921 -0.032311555 0.7418423 0.6606046 -0.03232594 0.74183416
        0.66300327 -0.032343514 0.7418256 0.6652023 -0.03236406 0.74181694
        0.45482746 -0.031258684 0.7402019 0.46663642 -0.03126716 0.7403874
        0.4783861 -0.031275023 0.7405637 0.49001536 -0.031282146 0.74073017
        0.5014655 -0.031288456 0.7408861 0.5126814 -0.03129389 0.7410309
        0.52361274 -0.031298414 0.7411639 0.5342141 -0.031301983 0.7412849
        0.54444647 -0.031304553 0.74139357 0.55427694 -0.031306107 0.74149007
        0.5636792 -0.031306613 0.74157447 0.57263356 -0.031306054 0.7416473
        0.5811266 -0.03130443 0.7417092 0.589151 -0.03130173 0.7417608
        0.59670556 -0.031297997 0.7418031 0.60379404 -0.031293295 0.74183697
        0.6104253 -0.031287752 0.7418633 0.6166123 -0.031281564 0.7418832
        0.62237155 -0.031275027 0.7418974 0.6277222 -0.031268515 0.7419068
        0.6326854 -0.03126251 0.74191225 0.6372832 -0.031257536 0.7419144
        0.641538 -0.031254157 0.74191374 0.6454717 -0.03125291 0.7419109
        0.64910513 -0.031254273 0.74190634 0.65245795 -0.03125861 0.7419003
        0.65554833 -0.031266164 0.74189335 0.65839326 -0.03127704 0.74188554
        0.66100866 -0.031291194 0.74187726 0.66340965 -0.031308487 0.7418687
        0.6656106 -0.0313287 0.74185985 0.45482746 -0.030225648 0.7402448
        0.46665975 -0.03023385 0.74043065 0.47843266 -0.03024146 0.7406073
        0.49008492 -0.030248353 0.7407741 0.50155777 -0.03025445 0.7409303
        0.5127959 -0.030259699 0.7410752 0.52374893 -0.030264053 0.7412085
        0.5343714 -0.030267473 0.7413296 0.5446242 -0.03026993 0.7414384
        0.55447435 -0.03027139 0.7415348 0.5638955 -0.030271824 0.7416193
        0.5728679 -0.030271225 0.74169207 0.581378 -0.030269573 0.7417538
        0.58941877 -0.03026688 0.7418053 0.5969887 -0.03026317 0.74184746
        0.6040917 -0.030258516 0.7418812 0.6107366 -0.03025304 0.74190736
        0.6169365 -0.030246938 0.74192697 0.6227077 -0.030240502 0.741941
        0.62806964 -0.03023411 0.7419502 0.63304317 -0.030228226 0.74195534
        0.63765043 -0.030223373 0.74195725 0.6419138 -0.030220103 0.7419564
        0.6458549 -0.030218929 0.7419534 0.6494947 -0.030220311 0.74194854
        0.6528528 -0.030224603 0.7419424 0.65594727 -0.030232022 0.74193525
        0.6587954 -0.030242678 0.7419273 0.6614133 -0.03025654 0.7419189
        0.6638163 -0.030273473 0.74191016 0.6660189 -0.030293288 0.74190134
        0.45482746 -0.029192548 0.74028623 0.46668318 -0.029200483 0.7404725
        0.47847944 -0.029207842 0.7406495 0.49015483 -0.0292145 0.7408166
        0.50165045 -0.029220385 0.740973 0.512911 -0.029225446 0.7411182
        0.52388585 -0.02922964 0.7412516 0.53452957 -0.029232925 0.7413729
        0.5448029 -0.029235272 0.7414817 0.5546729 -0.02923665 0.7415782
        0.5641131 -0.029237034 0.7416626 0.57310367 -0.02923641 0.74173534
        0.5816312 -0.029234763 0.74179703 0.5896885 -0.029232096 0.7418484
        0.597274 -0.029228449 0.74189043 0.6043919 -0.029223872 0.7419239
        0.6110507 -0.029218499 0.7419499 0.6172636 -0.029212527 0.74196935
        0.62304705 -0.029206231 0.7419831 0.62842023 -0.02919999 0.74199206
        0.63340414 -0.029194256 0.741997 0.6380208 -0.02918955 0.7419987
        0.6422925 -0.02918639 0.7419976 0.64624083 -0.029185284 0.7419943
        0.6498866 -0.029186664 0.7419893 0.65324944 -0.029190868 0.741983
        0.65634775 -0.029198106 0.74197567 0.6591987 -0.029208483 0.7419676
        0.6618187 -0.02922198 0.7419591 0.66422325 -0.029238475 0.7419502
        0.6664272 -0.029257813 0.7419413 0.45482746 -0.028159395 0.7403263
        0.46670672 -0.028167056 0.74051285 0.4785264 -0.028174153 0.74069023
        0.49022505 -0.028180579 0.7408576 0.50174356 -0.028186256 0.7410143
        0.5130266 -0.028191136 0.74115974 0.5240234 -0.028195173 0.7412933
        0.53468853 -0.028198333 0.74141467 0.5449826 -0.028200585 0.7415236
        0.5548726 -0.028201897 0.7416202 0.564332 -0.028202247 0.7417046
        0.573341 -0.02820162 0.74177724 0.5818862 -0.0282 0.7418388
        0.5899602 -0.028197393 0.7418901 0.59756166 -0.028193833 0.7419319
        0.60469455 -0.028189376 0.74196523 0.6113675 -0.028184144 0.741991
        0.6175937 -0.028178332 0.7420102 0.62338954 -0.028172217 0.7420237
        0.6287741 -0.028166164 0.74203247 0.63376844 -0.028160611 0.7420372
        0.6383945 -0.028156066 0.74203855 0.64267427 -0.028153026 0.7420373
        0.6466295 -0.02815198 0.7420338 0.65028095 -0.028153338 0.7420286
        0.6536482 -0.02815742 0.7420221 0.6567497 -0.028164428 0.7420146
        0.65960306 -0.028174464 0.7420064 0.66222477 -0.028187526 0.7419978
        0.6646306 -0.028203513 0.74198884 0.6668355 -0.02822229 0.74197984
        0.45482746 -0.027126184 0.74036485 0.4667304 -0.02713357 0.7405518
        0.47857365 -0.02714041 0.7407295 0.4902956 -0.027146598 0.7408972
        0.50183713 -0.027152067 0.7410542 0.5131428 -0.02715677 0.7411998
        0.52416176 -0.027160661 0.74133354 0.5348484 -0.027163703 0.741455
        0.5451633 -0.027165871 0.7415641 0.55507344 -0.02716713 0.74166065
        0.5645523 -0.027167467 0.74174505 0.57357997 -0.027166856 0.7418177
        0.58214295 -0.02716529 0.74187917 0.590234 -0.027162774 0.7419303
        0.5978516 -0.027159331 0.74197197 0.6049998 -0.027155027 0.7420051
        0.6116872 -0.027149979 0.7420306 0.6179269 -0.027144369 0.74204963
        0.62373525 -0.027138473 0.7420629 0.6291313 -0.02713264 0.74207145
        0.63413614 -0.0271273 0.74207586 0.6387714 -0.027122935 0.74207705
        0.6430592 -0.027120026 0.7420755 0.64702106 -0.027119035 0.7420718
        0.6506778 -0.02712035 0.74206644 0.65404904 -0.027124273 0.7420597
        0.6571534 -0.027131 0.7420521 0.66000867 -0.027140634 0.74204373
        0.66263163 -0.027153185 0.742035 0.6650383 -0.027168581 0.742026
        0.6672438 -0.027186712 0.74201685 0.45482746 -0.02609292 0.740402
        0.46675414 -0.026100025 0.7405893 0.47862107 -0.026106607 0.74076736
        0.4903665 -0.026112562 0.7409353 0.5019312 -0.026117826 0.74109256
        0.5132596 -0.026122352 0.7412384 0.52430075 -0.026126102 0.7413724
        0.5350091 -0.026129035 0.741494 0.545345 -0.026131133 0.74160314
        0.5552755 -0.026132358 0.7416997 0.564774 -0.026132695 0.7417841
        0.5738205 -0.026132124 0.7418567 0.5824015 -0.026130635 0.7419181
        0.59050983 -0.026128236 0.74196905 0.5981439 -0.026124949 0.7420106
        0.6053076 -0.026120836 0.7420435 0.6120097 -0.026116006 0.7420689
        0.6182631 -0.026110644 0.74208754 0.62408423 -0.026105003 0.74210066
        0.629492 -0.02609943 0.7421089 0.63450724 -0.026094336 0.7421131
        0.6391517 -0.02609017 0.742114 0.6434473 -0.026087401 0.7421123
        0.6474155 -0.026086459 0.74210835 0.65107715 -0.026087712 0.74210274
        0.654452 -0.02609144 0.7420959 0.65755886 -0.026097838 0.7420881
        0.6604156 -0.026107004 0.7420796 0.6630393 -0.026118973 0.74207073
        0.66544634 -0.026133692 0.7420616 0.6676521 -0.026151087 0.74205244
        0.45482746 -0.02505961 0.7404377 0.466778 -0.025066428 0.7406254
        0.47866872 -0.02507275 0.7408038 0.49043772 -0.02507847 0.74097204
        0.5020257 -0.02508353 0.7411296 0.51337695 -0.025087886 0.74127567
        0.52444047 -0.025091501 0.7414097 0.5351706 -0.025094336 0.7415315
        0.54552776 -0.025096374 0.74164075 0.55547875 -0.02509758 0.74173737
        0.564997 -0.025097935 0.7418217 0.5740626 -0.025097428 0.74189425
        0.5826619 -0.025096046 0.7419555 0.5907877 -0.025093794 0.7420064
        0.5984385 -0.025090694 0.7420477 0.60561806 -0.025086809 0.74208045
        0.61233515 -0.025082238 0.7421056 0.6186025 -0.025077162 0.7421241
        0.62443656 -0.02507182 0.7421369 0.62985605 -0.025066545 0.7421449
        0.6348818 -0.025061723 0.7421489 0.6395354 -0.025057781 0.74214953
        0.64383864 -0.025055166 0.7421475 0.647813 -0.025054267 0.7421434
        0.65147924 -0.025055435 0.7421376 0.6548573 -0.025058938 0.7421306
        0.65796614 -0.025064953 0.7421226 0.6608239 -0.025073597 0.742114
        0.6634479 -0.0250849 0.742105 0.6658549 -0.025098857 0.74209577
        0.66806036 -0.025115417 0.7420866 0.45482746 -0.024026245 0.7404719
        0.466802 -0.024032777 0.7406601 0.47871658 -0.024038834 0.74083877
        0.49050927 -0.02404432 0.7410073 0.5021207 -0.02404918 0.7411651
        0.5134949 -0.02405337 0.7413114 0.52458096 -0.02405686 0.7414457
        0.53533304 -0.02405961 0.7415676 0.5457115 -0.024061598 0.74167687
        0.55568326 -0.024062797 0.74177355 0.5652215 -0.024063196 0.7418579
        0.5743063 -0.024062771 0.74193037 0.5829242 -0.024061522 0.7419916
        0.5910678 -0.024059447 0.7420423 0.5987355 -0.024056572 0.74208343
        0.6059312 -0.024052946 0.742116 0.6126635 -0.024048679 0.7421409
        0.6189451 -0.024043929 0.7421591 0.6247923 -0.024038933 0.7421717
        0.6302237 -0.024033992 0.74217945 0.63526 -0.024029477 0.74218315
        0.6399227 -0.024025785 0.74218357 0.6442334 -0.024023324 0.7421813
        0.6482136 -0.024022473 0.74217695 0.65188414 -0.024023542 0.742171
        0.655265 -0.024026783 0.7421637 0.6583754 -0.024032373 0.7421556
        0.66123366 -0.02404042 0.7421469 0.6638576 -0.024050983 0.7421378
        0.66626394 -0.024064075 0.74212855 0.6684686 -0.024079695 0.74211925
        0.45482746 -0.022992836 0.74050474 0.46682608 -0.02299908 0.7406932
        0.4787647 -0.023004869 0.74087226 0.49058118 -0.02301012 0.7410412
        0.5022161 -0.023014782 0.7411992 0.51361346 -0.02301881 0.7413457
        0.52472216 -0.023022179 0.74148023 0.53549635 -0.023024851 0.74160224
        0.54589635 -0.023026805 0.7417116 0.5558889 -0.02302802 0.7418083
        0.5654474 -0.023028476 0.74189264 0.5745517 -0.023028161 0.741965
        0.5831884 -0.023027068 0.7420261 0.59134996 -0.023025202 0.74207675
        0.59903497 -0.02302258 0.7421177 0.6062471 -0.023019264 0.74215007
        0.6129949 -0.023015339 0.74217474 0.619291 -0.023010962 0.74219275
        0.6251515 -0.023006348 0.7422051 0.63059497 -0.023001783 0.74221253
        0.6356419 -0.022997607 0.742216 0.64031357 -0.022994189 0.74221617
        0.6446316 -0.022991903 0.74221367 0.6486175 -0.022991095 0.7422091
        0.652292 -0.02299205 0.7422029 0.6556753 -0.022995 0.7421954
        0.6587868 -0.02300011 0.7421872 0.6616451 -0.023007497 0.7421783
        0.6642683 -0.023017237 0.7421691 0.6666735 -0.02302937 0.7421598
        0.6688769 -0.023043936 0.7421504 0.45482746 -0.021959383 0.74053615
        0.4668503 -0.021965332 0.740725 0.47881302 -0.021970855 0.74090433
        0.49065346 -0.021975871 0.74107355 0.50231194 -0.021980338 0.74123186
        0.5137326 -0.02198421 0.74137866 0.5248641 -0.021987464 0.74151325
        0.5356605 -0.02199007 0.74163544 0.5460822 -0.021992004 0.7417449
        0.55609584 -0.021993248 0.7418416 0.5656747 -0.02199378 0.74192595
        0.57479876 -0.021993598 0.7419983 0.5834545 -0.02199269 0.7420593
        0.5916344 -0.021991063 0.7421097 0.5993369 -0.021988736 0.74215055
        0.6065658 -0.02198576 0.7421827 0.61332935 -0.021982221 0.7422071
        0.61964023 -0.021978261 0.7422249 0.62551427 -0.021974076 0.7422369
        0.63096994 -0.02196993 0.7422441 0.6360275 -0.02196613 0.74224734
        0.6407082 -0.021963013 0.7422472 0.6450335 -0.021960918 0.7422445
        0.6490248 -0.021960152 0.74223965 0.6527029 -0.021960977 0.7422333
        0.6560883 -0.021963608 0.7422257 0.6592005 -0.021968195 0.74221724
        0.6620584 -0.021974856 0.74220824 0.6646803 -0.021983683 0.74219894
        0.66708374 -0.021994747 0.7421896 0.6692852 -0.022008134 0.74218017
        0.45482746 -0.020925887 0.740566 0.46687463 -0.020931538 0.74075526
        0.47886157 -0.02093679 0.740935 0.49072605 -0.020941576 0.74110454
        0.5024083 -0.020945845 0.7412631 0.51385236 -0.02094957 0.7414101
        0.5250067 -0.020952718 0.7415449 0.5358256 -0.020955266 0.74166715
        0.5462691 -0.020957194 0.7417767 0.556304 -0.020958481 0.7418735
        0.5659035 -0.020959117 0.7419578 0.5750475 -0.020959087 0.74203
        0.5837225 -0.020958392 0.742091 0.591921 -0.020957036 0.7421413
        0.5996413 -0.020955041 0.7421819 0.6068872 -0.020952446 0.74221385
        0.6136669 -0.020949338 0.74223804 0.61999285 -0.02094584 0.74225557
        0.62588066 -0.02094213 0.7422674 0.6313487 -0.020938443 0.7422743
        0.6364171 -0.020935055 0.7422772 0.6411067 -0.020932268 0.74227685
        0.6454391 -0.02093038 0.74227387 0.64943564 -0.020929664 0.7422688
        0.6531172 -0.020930354 0.74226224 0.6565043 -0.020932635 0.74225444
        0.6596167 -0.020936653 0.7422459 0.6624737 -0.020942522 0.7422368
        0.6650937 -0.020950345 0.7422274 0.66749465 -0.020960227 0.74221784
        0.66969347 -0.020972295 0.74220836 0.45482746 -0.01989235 0.7405945
        0.46689907 -0.019897701 0.74078417 0.47891036 -0.019902682 0.74096423
        0.49079898 -0.019907232 0.74113405 0.5025051 -0.019911313 0.7412929
        0.51397264 -0.019914893 0.74144006 0.5251501 -0.019917946 0.7415751
        0.53599155 -0.019920448 0.7416975 0.5464571 -0.019922381 0.7418071
        0.5565134 -0.019923728 0.74190396 0.5661337 -0.019924484 0.7419882
        0.5752979 -0.019924635 0.7420605 0.5839924 -0.01992418 0.7421212
        0.5922098 -0.019923128 0.7421714 0.59994835 -0.019921498 0.7422119
        0.60721153 -0.01991933 0.7422436 0.61400765 -0.019916696 0.74226755
        0.62034893 -0.019913707 0.74228483 0.6262508 -0.01991052 0.74229634
        0.63173145 -0.019907337 0.742303 0.6368106 -0.019904403 0.7423057
        0.64150923 -0.019901978 0.74230504 0.6458487 -0.019900315 0.74230176
        0.64985025 -0.019899657 0.7422965 0.65353495 -0.0199002 0.74228966
        0.6569234 -0.01990211 0.74228173 0.66003567 -0.019905513 0.74227303
        0.66289115 -0.019910524 0.74226373 0.6655087 -0.019917252 0.74225426
        0.66790646 -0.019925823 0.7422447 0.67010176 -0.019936418 0.7422352
        0.45482746 -0.018858775 0.74062157 0.46692362 -0.018863821 0.7408116
        0.47895935 -0.01886853 0.740992 0.49087226 -0.018872852 0.7411621
        0.5026024 -0.018876743 0.7413212 0.5140936 -0.018880183 0.74146867
        0.52529424 -0.018883146 0.74160385 0.53615844 -0.018885612 0.7417264
        0.5466462 -0.018887566 0.7418361 0.5567241 -0.018888995 0.7419329
        0.56636536 -0.01888989 0.7420172 0.57555 -0.018890243 0.74208933
        0.58426434 -0.01889006 0.74215007 0.59250087 -0.018889345 0.7422001
        0.6002579 -0.01888812 0.7422403 0.60753876 -0.018886419 0.74227184
        0.61435163 -0.018884305 0.74229556 0.6207085 -0.018881872 0.7423126
        0.62662476 -0.018879255 0.7423239 0.6321181 -0.018876627 0.74233025
        0.6372083 -0.018874187 0.74233264 0.6419159 -0.018872157 0.74233174
        0.64626235 -0.018870747 0.7423282 0.6502688 -0.018870156 0.7423227
        0.6539564 -0.01887055 0.7423157 0.65734595 -0.018872065 0.74230754
        0.6604576 -0.018874815 0.74229866 0.6633111 -0.0188789 0.74228925
        0.6659255 -0.018884435 0.7422797 0.6683192 -0.018891564 0.74227005
        0.67051005 -0.018900508 0.7422605 0.45482746 -0.01782516 0.74064714
        0.46694827 -0.017829902 0.7408376 0.47900862 -0.017834337 0.74101835
        0.4909459 -0.017838426 0.74118876 0.5027002 -0.017842136 0.74134815
        0.5142151 -0.017845443 0.7414958 0.52543914 -0.017848328 0.7416312
        0.5363262 -0.01785077 0.7417539 0.5468363 -0.017852759 0.7418636
        0.55693597 -0.017854283 0.7419605 0.56659853 -0.017855339 0.74204475
        0.5758039 -0.017855922 0.74211687 0.5845383 -0.01785604 0.7421774
        0.59279424 -0.017855696 0.74222726 0.60057 -0.017854912 0.7422674
        0.60786897 -0.017853722 0.74229866 0.6146989 -0.017852174 0.7423222
        0.62107176 -0.01785035 0.74233896 0.62700254 -0.017848354 0.7423499
        0.63250893 -0.017846327 0.74235606 0.6376102 -0.01784443 0.74235815
        0.64232695 -0.01784283 0.74235696 0.6466803 -0.017841699 0.7423532
        0.6506915 -0.01784119 0.7423475 0.6543819 -0.017841434 0.7423402
        0.6577722 -0.017842539 0.74233186 0.6608829 -0.017844593 0.74232286
        0.6637339 -0.017847693 0.7423133 0.6663444 -0.017851938 0.7423036
        0.6687332 -0.017857477 0.74229395 0.6709183 -0.017864563 0.74228436
        0.45482746 -0.016791513 0.7406713 0.46697307 -0.016795946 0.7408621
        0.4790581 -0.01680011 0.7410432 0.4910199 -0.016803967 0.741214
        0.50279844 -0.016807497 0.7413736 0.5143373 -0.016810676 0.7415215
        0.5255848 -0.016813489 0.741657 0.5364949 -0.01681592 0.74177986
        0.5470275 -0.016817959 0.7418897 0.5571492 -0.016819598 0.74198663
        0.5668332 -0.016820837 0.74207085 0.5760594 -0.016821677 0.7421429
        0.5848142 -0.016822122 0.74220335 0.59308994 -0.016822185 0.74225307
        0.6008848 -0.016821884 0.742293 0.6082021 -0.016821247 0.74232405
        0.6150495 -0.016820315 0.74234736 0.6214386 -0.016819151 0.74236387
        0.62738436 -0.01681783 0.74237454 0.63290393 -0.01681646 0.7423803
        0.6380165 -0.016815148 0.74238217 0.6427424 -0.016814021 0.74238074
        0.6471027 -0.0168132 0.7423767 0.6511187 -0.016812792 0.7423707
        0.65481156 -0.01681289 0.7423632 0.6582024 -0.016813572 0.74235475
        0.6613118 -0.016814902 0.7423455 0.6641598 -0.016816953 0.7423359
        0.66676575 -0.016819809 0.74232614 0.66914856 -0.016823603 0.74231637
        0.6713266 -0.01682859 0.7423067 0.45482746 -0.015757835 0.74069405
        0.46699795 -0.015761955 0.74088526 0.47910777 -0.015765844 0.7410667
        0.49109426 -0.015769474 0.74123776 0.50289714 -0.015772829 0.7413977
        0.51446 -0.015775887 0.7415458 0.5257312 -0.01577864 0.7416815
        0.5366645 -0.015781073 0.7418044 0.5472198 -0.015783176 0.7419144
        0.5573637 -0.01578495 0.7420113 0.56706935 -0.015786396 0.74209553
        0.5763167 -0.015787516 0.7421675 0.5850921 -0.01578832 0.74222785
        0.5933879 -0.015788825 0.74227744 0.6012023 -0.015789047 0.74231714
        0.60853827 -0.01578901 0.742348 0.6154035 -0.015788745 0.7423711
        0.6218093 -0.015788293 0.7423873 0.62777025 -0.015787704 0.7423977
        0.6333033 -0.01578704 0.7424032 0.6384274 -0.01578637 0.74240476
        0.64316255 -0.015785761 0.74240303 0.64752984 -0.015785286 0.74239874
        0.6515505 -0.015785003 0.7423925 0.6552458 -0.015784966 0.7423848
        0.658637 -0.015785215 0.7423761 0.6617447 -0.015785797 0.74236673
        0.6645892 -0.015786747 0.742357 0.6671899 -0.015788117 0.7423471
        0.6695657 -0.01579 0.7423373 0.67173487 -0.015792588 0.74232763
        0.45482746 -0.014724122 0.74071527 0.46702293 -0.014727931 0.74090683
        0.47915772 -0.014731545 0.7410887 0.49116895 -0.014734951 0.74126005
        0.5029964 -0.014738136 0.74142027 0.5145834 -0.014741085 0.74156857
        0.52587837 -0.014743785 0.7417045 0.536835 -0.014746232 0.74182755
        0.5474132 -0.014748419 0.7419376 0.55757946 -0.014750347 0.74203455
        0.56730705 -0.014752021 0.7421188 0.5765758 -0.01475345 0.74219066
        0.5853721 -0.014754647 0.7422509 0.5936883 -0.01475563 0.74230033
        0.60152245 -0.014756416 0.74233985 0.60887754 -0.014757025 0.7423705
        0.6157609 -0.014757478 0.7423933 0.6221838 -0.014757795 0.7424092
        0.6281603 -0.014757996 0.74241936 0.6337071 -0.014758101 0.7424246
        0.63884294 -0.014758125 0.74242586 0.6435875 -0.014758085 0.74242383
        0.64796185 -0.014757995 0.7424193 0.65198714 -0.014757865 0.7424128
        0.6556849 -0.014757709 0.7424049 0.6590762 -0.014757532 0.742396
        0.6621821 -0.014757342 0.74238646 0.6650227 -0.014757145 0.74237657
        0.66761744 -0.014756948 0.7423666 0.66998506 -0.014756751 0.7423567
        0.67214316 -0.014756558 0.74234706
        <InformationKey name="L2_NORM_RANGE" location="vtkDataArray" length="2">
          <Value index="0">
            0.86933532424
          </Value>
          <Value index="1">
            1.0015354937
          </Value>
        </InformationKey>
      </DataArray>
    </Points>
  </Piece>
  </StructuredGrid>
</VTKFile>
