<?xml version="1.0"?>
<VTKFile type="StructuredGrid" version="0.1" byte_order="LittleEndian">
    <StructuredGrid WholeExtent="0 30 0 40 0 0">
        <Piece Extent="0 30 0 40 0 0">
            <Points>
                <DataArray type="Float32" NumberOfComponents="3" format="ascii">
                       -0.3500000000000000       -0.0829244401067067    0.0
                       -0.3348827266359668       -0.0829244401067067    0.0
                       -0.3198425131648596       -0.0829244401067067    0.0
                       -0.3049548562054551       -0.0829244401067067    0.0
                       -0.2902921927399938       -0.0829244401067067    0.0
                       -0.2759225327046515       -0.0829244401067067    0.0
                       -0.2619082733684214       -0.0829244401067067    0.0
                       -0.2483052357845685       -0.0829244401067067    0.0
                       -0.2351619489957341       -0.0829244401067067    0.0
                       -0.2225191924337479       -0.0829244401067067    0.0
                       -0.2104097924271902       -0.0829244401067067    0.0
                       -0.1988586560400804       -0.0829244401067067    0.0
                       -0.1878830154121718       -0.0829244401067067    0.0
                       -0.1774928487813706       -0.0829244401067067    0.0
                       -0.1676914405087585       -0.0829244401067067    0.0
                       -0.1584760414622219       -0.0829244401067067    0.0
                       -0.1498385925947228       -0.0829244401067067    0.0
                       -0.1417664779031821       -0.0829244401067067    0.0
                       -0.1342432775621946       -0.0829244401067067    0.0
                       -0.1272494973143582       -0.0829244401067067    0.0
                       -0.1207632556675446       -0.0829244401067067    0.0
                       -0.1147609157073861       -0.0829244401067067    0.0
                       -0.1092176531032074       -0.0829244401067067    0.0
                       -0.1041079559976857       -0.0829244401067067    0.0
                       -0.0994060558466672       -0.0829244401067067    0.0
                       -0.0950862909098008       -0.0829244401067067    0.0
                       -0.0911234060304019       -0.0829244401067067    0.0
                       -0.0874927936621953       -0.0829244401067067    0.0
                       -0.0841706818961594       -0.0829244401067067    0.0
                       -0.0811342756121571       -0.0829244401067067    0.0
                       -0.0783618569232386       -0.0829244401067067    0.0
                       -0.3500000000000000       -0.0814543323612157    0.0
                       -0.3348669359897159       -0.0814542589944133    0.0
                       -0.3198110228512307       -0.0814541649457040    0.0
                       -0.3049078478687810       -0.0814540427020125    0.0
                       -0.2902299355114198       -0.0814538883933141    0.0
                       -0.2758453787563843       -0.0814536994893694    0.0
                       -0.2618166522966162       -0.0814534738430867    0.0
                       -0.2481996479573489       -0.0814532092678405    0.0
                       -0.2350429579755775       -0.0814529033681011    0.0
                       -0.2223874165051279       -0.0814525535187449    0.0
                       -0.2102658951505552       -0.0814521569658484    0.0
                       -0.1987033356462151       -0.0814517110579431    0.0
                       -0.1877169927956469       -0.0814512136281364    0.0
                       -0.1773168539016528       -0.0814506635409805    0.0
                       -0.1675061971985917       -0.0814500613953095    0.0
                       -0.1582822509688338       -0.0814494103408809    0.0
                       -0.1496369165756088       -0.0814487169308426    0.0
                       -0.1415575219493377       -0.0814479919078213    0.0
                       -0.1340275764935344       -0.0814472508209825    0.0
                       -0.1270275033792457       -0.0814465144036187    0.0
                       -0.1205353303423900       -0.0814458087062236    0.0
                       -0.1145273250719498       -0.0814451650745714    0.0
                       -0.1089785658467966       -0.0814446201797998    0.0
                       -0.1038634420485970       -0.0814442164590496    0.0
                       -0.0991560823127774       -0.0814440035612825    0.0
                       -0.0948307099463582       -0.0814440418809762    0.0
                       -0.0908619246803249       -0.0814444105258386    0.0
                       -0.0872249028444812       -0.0814452259691366    0.0
                       -0.0838954786007721       -0.0814466920582655    0.0
                       -0.0808499464831822       -0.0814492653012750    0.0
                       -0.0780638917966762       -0.0814543323612157    0.0
                       -0.3500000000000000       -0.0799842246157247    0.0
                       -0.3348511068082634       -0.0799840807685064    0.0
                       -0.3197794552647675       -0.0799838970008192    0.0
                       -0.3048607230745208       -0.0799836583411114    0.0
                       -0.2901675219497423       -0.0799833570794542    0.0
                       -0.2757680276675888       -0.0799829881876252    0.0
                       -0.2617247921075022       -0.0799825474080096    0.0
                       -0.2480937776331740       -0.0799820304092670    0.0
                       -0.2349236394441680       -0.0799814324486740    0.0
                       -0.2222552661790817       -0.0799807483324193    0.0
                       -0.2101215744603328       -0.0799799726203553    0.0
                       -0.1985475403863223       -0.0799791000942412    0.0
                       -0.1875504410282003       -0.0799781265315853    0.0
                       -0.1771402722114395       -0.0799770498139732    0.0
                       -0.1673203052885840       -0.0799758713529758    0.0
                       -0.1580877449189173       -0.0799745977490572    0.0
                       -0.1494344514938880       -0.0799732425264116    0.0
                       -0.1413476951061607       -0.0799718277373960    0.0
                       -0.1338109122053045       -0.0799703852293458    0.0
                       -0.1268044407935974       -0.0799689574318022    0.0
                       -0.1203062148290729       -0.0799675976550013    0.0
                       -0.1142924031849868       -0.0799663700821864    0.0
                       -0.1087379828812527       -0.0799653498765962    0.0
                       -0.1036172401348741       -0.0799646241296263    0.0
                       -0.0989041956969681       -0.0799642948464044    0.0
                       -0.0945729521745629       -0.0799644861089572    0.0
                       -0.0905979586606050       -0.0799653598740765    0.0
                       -0.0869541767851945       -0.0799671512678107    0.0
                       -0.0836170990595780       -0.0799702527797379    0.0
                       -0.0805625029413546       -0.0799754238947859    0.0
                       -0.0777659266701138       -0.0799842246157247    0.0
                       -0.3500000000000000       -0.0785141168702337    0.0
                       -0.3348352384120410       -0.0785139062373374    0.0
                       -0.3197478090404705       -0.0785136378031466    0.0
                       -0.3048134797424121       -0.0785132892602010    0.0
                       -0.2901049492045831       -0.0785128491120235    0.0
                       -0.2756904757351801       -0.0785123098764019    0.0
                       -0.2616326881313652       -0.0785116652298140    0.0
                       -0.2479876190265608       -0.0785109087452956    0.0
                       -0.2348039863126297       -0.0785100333886566    0.0
                       -0.2221227328359817       -0.0785090314616123    0.0
                       -0.2099768199417982       -0.0785078949130751    0.0
                       -0.1983912577584425       -0.0785066160488238    0.0
                       -0.1873833452188793       -0.0785051887044517    0.0
                       -0.1769630861486016       -0.0785036099265809    0.0
                       -0.1671337443239497       -0.0785018821378892    0.0
                       -0.1578924998567253       -0.0785000156588117    0.0
                       -0.1492311709597855       -0.0784980313486804    0.0
                       -0.1411369683622276       -0.0784959630538488    0.0
                       -0.1335932537023193       -0.0784938595483465    0.0
                       -0.1265802776413964       -0.0784917857505523    0.0
                       -0.1200758779226100       -0.0784898231992028    0.0
                       -0.1140561219941457       -0.0784880700588302    0.0
                       -0.1084958830004987       -0.0784866412775032    0.0
                       -0.1033693416990791       -0.0784856699595197    0.0
                       -0.0986504097417044       -0.0784853116579280    0.0
                       -0.0943130709162585       -0.0784857544861417    0.0
                       -0.0903316347494630       -0.0784872405511123    0.0
                       -0.0866808889288386       -0.0784901100093455    0.0
                       -0.0833361258631041       -0.0784948895984124    0.0
                       -0.0802730538340540       -0.0785024482503597    0.0
                       -0.0774679615435514       -0.0785141168702337    0.0
                       -0.3500000000000000       -0.0770440091247427    0.0
                       -0.3348193305598910       -0.0770437356828155    0.0
                       -0.3197160836862178       -0.0770433878415409    0.0
                       -0.3047661171029289       -0.0770429361385602    0.0
                       -0.2900422161852344       -0.0770423653670773    0.0
                       -0.2756127214839401       -0.0770416656466927    0.0
                       -0.2615403384226260       -0.0770408286407081    0.0
                       -0.2478811696100970       -0.0770398458828227    0.0
                       -0.2346839953323422       -0.0770387081104353    0.0
                       -0.2219898123387479       -0.0770374051925727    0.0
                       -0.2098316263787341       -0.0770359265497143    0.0
                       -0.1982344812645999       -0.0770342621078938    0.0
                       -0.1872156973946599       -0.0770324038758269    0.0
                       -0.1767852861144486       -0.0770303482070542    0.0
                       -0.1669465030189349       -0.0770280987156893    0.0
                       -0.1576965028966713       -0.0770256696759660    0.0
                       -0.1490270607945421       -0.0770230895871811    0.0
                       -0.1409253268528750       -0.0770204044832792    0.0
                       -0.1333745864359967       -0.0770176805619099    0.0
                       -0.1263550012049917       -0.0770150058367298    0.0
                       -0.1198443109336131       -0.0770124907806045    0.0
                       -0.1138184799956689       -0.0770102683022972    0.0
                       -0.1082522764985699       -0.0770084938503746    0.0
                       -0.1031197758243493       -0.0770073469706954    0.0
                       -0.0983947834725186       -0.0770070363476543    0.0
                       -0.0940511739760687       -0.0770078114845765    0.0
                       -0.0900631428476868       -0.0770099861191112    0.0
                       -0.0864053690395536       -0.0770139810837993    0.0
                       -0.0830531007126269       -0.0770203928895516    0.0
                       -0.0799822639220696       -0.0770300647836224    0.0
                       -0.0771699964169890       -0.0770440091247427    0.0
                       -0.3500000000000000       -0.0755739013792517    0.0
                       -0.3348033831678939       -0.0755735691793079    0.0
                       -0.3196842790227501       -0.0755731471990710    0.0
                       -0.3047186348562200       -0.0755725990525126    0.0
                       -0.2899793224315651       -0.0755719059208555    0.0
                       -0.2755347642373151       -0.0755710555929800    0.0
                       -0.2614477420129937       -0.0755700377797948    0.0
                       -0.2477744280264938       -0.0755688420390683    0.0
                       -0.2345636646359765       -0.0755674569500549    0.0
                       -0.2218565021658509       -0.0755658700282653    0.0
                       -0.2096859904335161       -0.0755640682551500    0.0
                       -0.1980772065843238       -0.0755620392781503    0.0
                       -0.1870474921039380       -0.0755597733946284    0.0
                       -0.1766068654326749       -0.0755572663994133    0.0
                       -0.1667585734842338       -0.0755545232581726    0.0
                       -0.1574997451181149       -0.0755515623940483    0.0
                       -0.1488221114753765       -0.0755484201870226    0.0
                       -0.1407127612195861       -0.0755451551546288    0.0
                       -0.1331549024203931       -0.0755418512737662    0.0
                       -0.1261286066524686       -0.0755386200603388    0.0
                       -0.1196115147241145       -0.0755356013459293    0.0
                       -0.1135794873379365       -0.0755329631424584    0.0
                       -0.1080071879574580       -0.0755309015109630    0.0
                       -0.1028685891130056       -0.0755296419197380    0.0
                       -0.0981373970860876       -0.0755294442073016    0.0
                       -0.0937873932304337       -0.0755306139951610    0.0
                       -0.0897926940647009       -0.0755335239688594    0.0
                       -0.0861279416830298       -0.0755386470500418    0.0
                       -0.0827684663073234       -0.0755465932335951    0.0
                       -0.0796905436025048       -0.0755581065377095    0.0
                       -0.0768720312904266       -0.0755739013792517    0.0
                       -0.3500000000000000       -0.0741037936337606    0.0
                       -0.3347873961931747       -0.0741034067246343    0.0
                       -0.3196523949522389       -0.0741029158139249    0.0
                       -0.3046710328245277       -0.0741022778663220    0.0
                       -0.2899162676474122       -0.0741014705705398    0.0
                       -0.2754566035268119       -0.0741004794635921    0.0
                       -0.2613548981896485       -0.0740992923726806    0.0
                       -0.2476673932259017       -0.0740978969500508    0.0
                       -0.2344429927216218       -0.0740962796941504    0.0
                       -0.2217228002269688       -0.0740944258533445    0.0
                       -0.2095399092757070       -0.0740923200660640    0.0
                       -0.1979194299938343       -0.0740899478067629    0.0
                       -0.1868787245996654       -0.0740872977767072    0.0
                       -0.1764278182648511       -0.0740843653376706    0.0
                       -0.1665699488374804       -0.0740811569448859    0.0
                       -0.1573022188267408       -0.0740776953239134    0.0
                       -0.1486163149956188       -0.0740740249078240    0.0
                       -0.1404992640069245       -0.0740702168901818    0.0
                       -0.1329341960913099       -0.0740663732333673    0.0
                       -0.1259010922664996       -0.0740626291525460    0.0
                       -0.1193774941858832       -0.0740591539690817    0.0
                       -0.1133391593801345       -0.0740561507409425    0.0
                       -0.1077606486225318       -0.0740538556474275    0.0
                       -0.1026158364186040       -0.0740525386496316    0.0
                       -0.0978783401587566       -0.0740525073783812    0.0
                       -0.0935218686140367       -0.0740541163046934    0.0
                       -0.0895204979816612       -0.0740577822298029    0.0
                       -0.0858488986087464       -0.0740640025409514    0.0
                       -0.0824825658292352       -0.0740733593834916    0.0
                       -0.0793981539629339       -0.0740864672844120    0.0
                       -0.0765740661638642       -0.0741037936337606    0.0
                       -0.3500000000000000       -0.0726336858882696    0.0
                       -0.3347713695892625       -0.0726332482929628    0.0
                       -0.3196204313694310       -0.0726326935842893    0.0
                       -0.3046233108188332       -0.0726319723891898    0.0
                       -0.2898530515216959       -0.0726310590433446    0.0
                       -0.2753782388657544       -0.0726299369217928    0.0
                       -0.2612618062189582       -0.0726285920444246    0.0
                       -0.2475600641359745       -0.0726270102352206    0.0
                       -0.2343219780645504       -0.0726251759960759    0.0
                       -0.2215887044106421       -0.0726230724015908    0.0
                       -0.2093933800584430       -0.0726206818495151    0.0
                       -0.1977611477624081       -0.0726179877509611    0.0
                       -0.1867093901450238       -0.0726149773254347    0.0
                       -0.1762481388123790       -0.0726116456175447    0.0
                       -0.1663806222855459       -0.0726080006863661    0.0
                       -0.1571039164976180       -0.0726040696693256    0.0
                       -0.1484096636442681       -0.0725999051531041    0.0
                       -0.1402848282480713       -0.0725955910912668    0.0
                       -0.1327124626583237       -0.0725912474821531    0.0
                       -0.1256724575093414       -0.0725870332198602    0.0
                       -0.1191422559407433       -0.0725831469464018    0.0
                       -0.1130975139056502       -0.0725798262921703    0.0
                       -0.1075126929205091       -0.0725773464756206    0.0
                       -0.1023615762930602       -0.0725760196970180    0.0
                       -0.0976177053542463       -0.0725761969039846    0.0
                       -0.0932547391074358       -0.0725782729091573    0.0
                       -0.0892467506927312       -0.0725826934809982    0.0
                       -0.0855684897314731       -0.0725899569174678    0.0
                       -0.0821956595260880       -0.0726005911952049    0.0
                       -0.0791052661795783       -0.0726150766967068    0.0
                       -0.0762761010373018       -0.0726336858882696    0.0
                       -0.3500000000000000       -0.0711635781427786    0.0
                       -0.3347553032917270       -0.0711630938552126    0.0
                       -0.3195883881331334       -0.0711624804083851    0.0
                       -0.3045754685961818       -0.0711616824350334    0.0
                       -0.2897896736713446       -0.0711606710760787    0.0
                       -0.2752996696773226       -0.0711594276450983    0.0
                       -0.2611684652588776       -0.0711579364385460    0.0
                       -0.2474524395575802       -0.0711561815360794    0.0
                       -0.2342006189948549       -0.0711541455340462    0.0
                       -0.2214542124420411       -0.0711518094334781    0.0
                       -0.2092463997540162       -0.0711491534998642    0.0
                       -0.1976023559627747       -0.0711461591942937    0.0
                       -0.1865394837946947       -0.0711428123673512    0.0
                       -0.1760678210634191       -0.0711391078517261    0.0
                       -0.1661905868301552       -0.0711350553995169    0.0
                       -0.1569048304301156       -0.0711306866233730    0.0
                       -0.1482021495974411       -0.0711260622893484    0.0
                       -0.1400694469751107       -0.0711212790827040    0.0
                       -0.1324896975085954       -0.0711164749279611    0.0
                       -0.1254427022822043       -0.0711118321563130    0.0
                       -0.1189058073952365       -0.0711075782603411    0.0
                       -0.1128545698710203       -0.0711039845634355    0.0
                       -0.1072633567277757       -0.0711013637017551    0.0
                       -0.1021058684766844       -0.0711000671616741    0.0
                       -0.0973555846954381       -0.0711004839410298    0.0
                       -0.0929861374702367       -0.0711030401911918    0.0
                       -0.0889716291703627       -0.0711081965595089    0.0
                       -0.0852869233567892       -0.0711164340533086    0.0
                       -0.0819079434047609       -0.0711282124217206    0.0
                       -0.0788119958240343       -0.0711438864928653    0.0
                       -0.0759781359107394       -0.0711635781427786    0.0
                       -0.3500000000000000       -0.0696934703972876    0.0
                       -0.3347391972159976       -0.0696929433860550    0.0
                       -0.3195562650619690       -0.0696922761978062    0.0
                       -0.3045275058534706       -0.0696914078422596    0.0
                       -0.2897261336331886       -0.0696903064414070    0.0
                       -0.2752208952845992       -0.0696889513580266    0.0
                       -0.2610748743471667       -0.0696873252562352    0.0
                       -0.2473445181511735       -0.0696854105618095    0.0
                       -0.2340789136818975       -0.0696831880631348    0.0
                       -0.2213193218653101       -0.0696806367944968    0.0
                       -0.2090989651337450       -0.0696777350033926    0.0
                       -0.1974430504478091       -0.0696744623175530    0.0
                       -0.1863690003671235       -0.0696708033295108    0.0
                       -0.1758868587586030       -0.0696667527539224    0.0
                       -0.1659998352235859       -0.0696623220989103    0.0
                       -0.1567049526881433       -0.0696575474680355    0.0
                       -0.1479937648347421       -0.0696524977555847    0.0
                       -0.1398531130986030       -0.0696472822352918    0.0
                       -0.1322658960295244       -0.0696420564852385    0.0
                       -0.1252118266588654       -0.0696370258094740    0.0
                       -0.1186681563323785       -0.0696324457850783    0.0
                       -0.1126103467673874       -0.0696286201640451    0.0
                       -0.1070126763559159       -0.0696258968961646    0.0
                       -0.1018487722911488       -0.0696246632500128    0.0
                       -0.0970920671463709       -0.0696253405484185    0.0
                       -0.0927161871915620       -0.0696283774204098    0.0
                       -0.0886952893494093       -0.0696342372230157    0.0
                       -0.0850043703933198       -0.0696433708834557    0.0
                       -0.0816195652571712       -0.0696561647646762    0.0
                       -0.0785184231175427       -0.0696728624492235    0.0
                       -0.0756801707841770       -0.0696934703972876    0.0
                       -0.3500000000000000       -0.0682233626517966    0.0
                       -0.3347230512595779       -0.0682227968655216    0.0
                       -0.3195240619388827       -0.0682220808801660    0.0
                       -0.3044794222343671       -0.0682211484775272    0.0
                       -0.2896624308734658       -0.0682199649527778    0.0
                       -0.2751419149228938       -0.0682185078382011    0.0
                       -0.2609810324168257       -0.0682167582636308    0.0
                       -0.2472362984556864       -0.0682146970976872    0.0
                       -0.2339568601570479       -0.0682123034247972    0.0
                       -0.2211840300705493       -0.0682095544257594    0.0
                       -0.2089510727995221       -0.0682064264499780    0.0
                       -0.1972832268867652       -0.0682028974115645    0.0
                       -0.1861979344851336       -0.0681989507535245    0.0
                       -0.1757052454349657       -0.0681945811544596    0.0
                       -0.1658083600136383       -0.0681898019145488    0.0
                       -0.1565042751419830       -0.0681846535951975    0.0
                       -0.1477845011708842       -0.0681792130894750    0.0
                       -0.1396358194174649       -0.0681736020000093    0.0
                       -0.1320410535783225       -0.0681679931223218    0.0
                       -0.1249798307849497       -0.0681626140489406    0.0
                       -0.1184293106920365       -0.0681577473896304    0.0
                       -0.1123648642043971       -0.0681537277049949    0.0
                       -0.1067606878239061       -0.0681509357435961    0.0
                       -0.1015903454649557       -0.0681497906596797    0.0
                       -0.0968272369625136       -0.0681507402257351    0.0
                       -0.0924450008565540       -0.0681542473122573    0.0
                       -0.0884178663253588       -0.0681607681424348    0.0
                       -0.0847209698074220       -0.0681707155722399    0.0
                       -0.0813306371023676       -0.0681844033372618    0.0
                       -0.0782246051624979       -0.0682019796417993    0.0
                       -0.0753822056576146       -0.0682233626517966    0.0
                       -0.3500000000000000       -0.0667532549063056    0.0
                       -0.3347068653054375       -0.0667526542785638    0.0
                       -0.3194917785179685       -0.0667518943977303    0.0
                       -0.3044312173396921       -0.0667509042335038    0.0
                       -0.2895985648019524       -0.0667496464613555    0.0
                       -0.2750627277578917       -0.0667480969124781    0.0
                       -0.2608869383186132       -0.0667462352871191    0.0
                       -0.2471277789158569       -0.0667440409995562    0.0
                       -0.2338344563463296       -0.0667414915404859    0.0
                       -0.2210483343323222       -0.0667385623567337    0.0
                       -0.2088027192286879       -0.0667352280249522    0.0
                       -0.1971228808168388       -0.0667314648682218    0.0
                       -0.1860262806340945       -0.0667272552859191    0.0
                       -0.1755229744898952       -0.0667225939903015    0.0
                       -0.1656161536113115       -0.0667174960821930    0.0
                       -0.1563027895356988       -0.0667120064984036    0.0
                       -0.1475743503159001       -0.0667062099224112    0.0
                       -0.1394175586605661       -0.0667002399095681    0.0
                       -0.1318151654866892       -0.0666942858744560    0.0
                       -0.1247467148167460       -0.0666885967988301    0.0
                       -0.1181892783990190       -0.0666834810024556    0.0
                       -0.1121181415615629       -0.0666793019148922    0.0
                       -0.1065074262493060       -0.0666764702363786    0.0
                       -0.1013306432054474       -0.0666754328726931    0.0
                       -0.0965611725592291       -0.0666766582827801    0.0
                       -0.0921726794492124       -0.0666806162881296    0.0
                       -0.0881394756661420       -0.0666877485291608    0.0
                       -0.0844368340073965       -0.0666984257113873    0.0
                       -0.0810412444237755       -0.0667128933189241    0.0
                       -0.0779305835018792       -0.0667312195172889    0.0
                       -0.0750842405310522       -0.0667532549063056    0.0
                       -0.3500000000000000       -0.0652831471608146    0.0
                       -0.3346906392253297       -0.0652825156139414    0.0
                       -0.3194594145311463       -0.0652817167047727    0.0
                       -0.3043828907375543       -0.0652806750247316    0.0
                       -0.2895345347857310       -0.0652793508504415    0.0
                       -0.2749833329033113       -0.0652777184499302    0.0
                       -0.2607925908429329       -0.0652757562048870    0.0
                       -0.2470189579087654       -0.0652734421839200    0.0
                       -0.2337117001020999       -0.0652707524002617    0.0
                       -0.2209122318470103       -0.0652676606923701    0.0
                       -0.2086539008175422       -0.0652641399947456    0.0
                       -0.1969620076931281       -0.0652601651646995    0.0
                       -0.1858540332182050       -0.0652557176610887    0.0
                       -0.1753400392428383       -0.0652507922870963    0.0
                       -0.1654232083557415       -0.0652454059251579    0.0
                       -0.1561004875511242       -0.0652396077555803    0.0
                       -0.1473633039309764       -0.0652334899651107    0.0
                       -0.1391983235227184       -0.0652271975700338    0.0
                       -0.1315882270586338       -0.0652209358464195    0.0
                       -0.1245124788529759       -0.0652149740591223    0.0
                       -0.1179480671881951       -0.0652096446630614    0.0
                       -0.1118701976533762       -0.0652053377378075    0.0
                       -0.1062529253013914       -0.0652024908360654    0.0
                       -0.1010697174459837       -0.0652015743851766    0.0
                       -0.0962939457637137       -0.0652030720839061    0.0
                       -0.0918993122714978       -0.0652074545344271    0.0
                       -0.0878602152229024       -0.0652151435889821    0.0
                       -0.0841520536118870       -0.0652264667189224    0.0
                       -0.0807514528870297       -0.0652416075215249    0.0
                       -0.0776363889011999       -0.0652605680323657    0.0
                       -0.0747862754044898       -0.0652831471608146    0.0
                       -0.3500000000000000       -0.0638130394153236    0.0
                       -0.3346743728826470       -0.0638123808629874    0.0
                       -0.3194269696938907       -0.0638115477647520    0.0
                       -0.3043344419720419       -0.0638104607832362    0.0
                       -0.2894703401609992       -0.0638090780295542    0.0
                       -0.2749037294360513       -0.0638073723544148    0.0
                       -0.2606979887386185       -0.0638053209379640    0.0
                       -0.2469098337666330       -0.0638029006174487    0.0
                       -0.2335885892302997       -0.0638000860507493    0.0
                       -0.2207757197649726       -0.0637968495994813    0.0
                       -0.2085046139188141       -0.0637931626917023    0.0
                       -0.1968006029316103       -0.0637889988467762    0.0
                       -0.1856811866087207       -0.0637843386832942    0.0
                       -0.1751564329877025       -0.0637791771402063    0.0
                       -0.1652295165683701       -0.0637735328350603    0.0
                       -0.1558973608593274       -0.0637674590106942    0.0
                       -0.1471513536696760       -0.0637610549921579    0.0
                       -0.1389781066836858       -0.0637544766513964    0.0
                       -0.1313602335490686       -0.0637479442139956    0.0
                       -0.1242771228465141       -0.0637417459253010    0.0
                       -0.1177056844137244       -0.0637362365700492    0.0
                       -0.1116210503958978       -0.0637318304222330    0.0
                       -0.1059972167023589       -0.0637289886129345    0.0
                       -0.1008076162385958       -0.0637282008868996    0.0
                       -0.0960256213607188       -0.0637299611968278    0.0
                       -0.0916249772521788       -0.0637347359313365    0.0
                       -0.0875801670750265       -0.0637429239195471    0.0
                       -0.0838667014435171       -0.0637548104890778    0.0
                       -0.0804613131858011       -0.0637705246235489    0.0
                       -0.0773420444433934       -0.0637900144362377    0.0
                       -0.0744883102779274       -0.0638130394153236    0.0
                       -0.3500000000000000       -0.0623429316698326    0.0
                       -0.3346580661347338       -0.0623422500184518    0.0
                       -0.3193944437098841       -0.0623413875476933    0.0
                       -0.3042858705702834       -0.0623402614544710    0.0
                       -0.2894059802426651       -0.0623388279289633    0.0
                       -0.2748239164085156       -0.0623370585577048    0.0
                       -0.2606031307282448       -0.0623349294419486    0.0
                       -0.2468004047954423       -0.0623324163072824    0.0
                       -0.2334651215127578       -0.0623294925839981    0.0
                       -0.2206387952169172       -0.0623261292941464    0.0
                       -0.2083548548724140       -0.0623222965000420    0.0
                       -0.1966386619443575       -0.0623179665134197    0.0
                       -0.1855077351832407       -0.0623131192100440    0.0
                       -0.1749721490349718       -0.0623077496972504    0.0
                       -0.1650350705952692       -0.0623018782542224    0.0
                       -0.1556934011584073       -0.0622955619572102    0.0
                       -0.1469384912034060       -0.0622889068284906    0.0
                       -0.1387569008092181       -0.0622820788801935    0.0
                       -0.1311311801225913       -0.0622753122274223    0.0
                       -0.1240406464963533       -0.0622689126093556    0.0
                       -0.1174621368440982       -0.0622632551284284    0.0
                       -0.1113707164777706       -0.0622587756037748    0.0
                       -0.1057403297768834       -0.0622559553667151    0.0
                       -0.1005443832746576       -0.0622552993987277    0.0
                       -0.0957562568616318       -0.0622573074690990    0.0
                       -0.0913497414825279       -0.0622624379030950    0.0
                       -0.0872993994047456       -0.0622710649188451    0.0
                       -0.0835808357672614       -0.0622834342874205    0.0
                       -0.0801708645323470       -0.0622996278855183    0.0
                       -0.0770475675757025       -0.0623195504525482    0.0
                       -0.0741903451513650       -0.0623429316698326    0.0
                       -0.3500000000000000       -0.0608728239243416    0.0
                       -0.3346417188347267       -0.0608721230734818    0.0
                       -0.3193618362747031       -0.0608712360279019    0.0
                       -0.3042371760480449       -0.0608700769937640    0.0
                       -0.2893414543319671       -0.0608686004949024    0.0
                       -0.2747438928584150       -0.0608667770134735    0.0
                       -0.2605080155203349       -0.0608645816997593    0.0
                       -0.2466906692898249       -0.0608619892925256    0.0
                       -0.2333412947250780       -0.0608589721277031    0.0
                       -0.2205014553351094       -0.0608555000306519    0.0
                       -0.2082046200301946       -0.0608515418435305    0.0
                       -0.1964761801678393       -0.0608470688032467    0.0
                       -0.1853336733570452       -0.0608420601375190    0.0
                       -0.1747871807447025       -0.0608365111428766    0.0
                       -0.1648398628389978       -0.0608304436604736    0.0
                       -0.1554886001992991       -0.0608239183241268    0.0
                       -0.1467247082332173       -0.0608170473386235    0.0
                       -0.1385346985367930       -0.0608100060349502    0.0
                       -0.1309010617960290       -0.0608030412174991    0.0
                       -0.1238030491246520       -0.0607964744626413    0.0
                       -0.1172174304493464       -0.0607906989964714    0.0
                       -0.1111192110426324       -0.0607861693818470    0.0
                       -0.1054822910527121       -0.0607833837300146    0.0
                       -0.1002800575178288       -0.0607828583745492    0.0
                       -0.0954859024375523       -0.0607850950514890    0.0
                       -0.0910736618629617       -0.0607905412269975    0.0
                       -0.0870179681964560       -0.0607995462406244    0.0
                       -0.0832945028635546       -0.0608123198631072    0.0
                       -0.0798801371766059       -0.0608289042106819    0.0
                       -0.0767529714901264       -0.0608491697168168    0.0
                       -0.0738923800248026       -0.0608728239243416    0.0
                       -0.3500000000000000       -0.0594027161788506    0.0
                       -0.3346253308329891       -0.0594020000207473    0.0
                       -0.3193291470787108       -0.0594010931820009    0.0
                       -0.3041883579141245       -0.0593999073632792    0.0
                       -0.2892767617224628       -0.0593983956854723    0.0
                       -0.2746636578164950       -0.0593965276921439    0.0
                       -0.2604126418190144       -0.0593942777154129    0.0
                       -0.2465806255448843       -0.0593916196369477    0.0
                       -0.2332171066509044       -0.0593885248368084    0.0
                       -0.2203636972703425       -0.0593849620919817    0.0
                       -0.2080539057757958       -0.0593808991748631    0.0
                       -0.1963131530855623       -0.0593763063828745    0.0
                       -0.1851589956079406       -0.0593711623880653    0.0
                       -0.1746015215520917       -0.0593654626857624    0.0
                       -0.1646438857819957       -0.0593592305543518    0.0
                       -0.1552829498019717       -0.0593525298645580    0.0
                       -0.1465099964908329       -0.0593454784185287    0.0
                       -0.1383114924496580       -0.0593382599442726    0.0
                       -0.1306698733692919       -0.0593311326040630    0.0
                       -0.1235643295446343       -0.0593244320001358    0.0
                       -0.1169715701873367       -0.0593185671315051    0.0
                       -0.1108665473895264       -0.0593140083899551    0.0
                       -0.1052231239132712       -0.0593112672555910    0.0
                       -0.1000146729325024       -0.0593108677737390    0.0
                       -0.0952146009659320       -0.0593133103842768    0.0
                       -0.0907967857801965       -0.0593190298272110    0.0
                       -0.0867359187159215       -0.0593283513132710    0.0
                       -0.0830077390438314       -0.0593414527443642    0.0
                       -0.0795891542289831       -0.0593583434545224    0.0
                       -0.0764582660694849       -0.0593788673823558    0.0
                       -0.0735944148982402       -0.0594027161788506    0.0
                       -0.3500000000000000       -0.0579326084333596    0.0
                       -0.3346089019782424       -0.0579318808516873    0.0
                       -0.3192963758093166       -0.0579309589872628    0.0
                       -0.3041394156737929       -0.0579297525294329    0.0
                       -0.2892119017047312       -0.0579282134671545    0.0
                       -0.2745832103126185       -0.0579263105765005    0.0
                       -0.2603170083316446       -0.0579240175087327    0.0
                       -0.2464702718655888       -0.0579213074227656    0.0
                       -0.2330925550933095       -0.0579181508863416    0.0
                       -0.2202255182055481       -0.0579145157816916    0.0
                       -0.2079027085406021       -0.0579103689665921    0.0
                       -0.1961495762462392       -0.0579056799369611    0.0
                       -0.1849836964959964       -0.0579004268995279    0.0
                       -0.1744151649872420       -0.0578946055475969    0.0
                       -0.1644471320034217       -0.0578882404484122    0.0
                       -0.1550764418643074       -0.0578813983465356    0.0
                       -0.1462943477316897       -0.0578742019897833    0.0
                       -0.1380872750426278       -0.0578668424871204    0.0
                       -0.1304376093488590       -0.0578595879062243    0.0
                       -0.1233244859246659       -0.0578527859253434    0.0
                       -0.1167245597951439       -0.0578468588338227    0.0
                       -0.1106127366960898       -0.0578422898591383    0.0
                       -0.1049628483006802       -0.0578396004887871    0.0
                       -0.0997482582901580       -0.0578393191099201    0.0
                       -0.0949423881487618       -0.0578419421595417    0.0
                       -0.0905191517609867       -0.0578478905709851    0.0
                       -0.0864532867587848       -0.0578574669272906    0.0
                       -0.0827205722102065       -0.0578708216848895    0.0
                       -0.0792979329804511       -0.0578879379153589    0.0
                       -0.0761634585427515       -0.0579086398405667    0.0
                       -0.0732964497716778       -0.0579326084333596    0.0
                       -0.3500000000000000       -0.0564625006878686    0.0
                       -0.3345924321184375       -0.0564617655558660    0.0
                       -0.3192635221527449       -0.0564608334201889    0.0
                       -0.3040903488314860       -0.0564596124606951    0.0
                       -0.2891468735700621       -0.0564580538118503    0.0
                       -0.2745025493805626       -0.0564561256579658    0.0
                       -0.2602211137748726       -0.0564538011108450    0.0
                       -0.2463596065742601       -0.0564510527453412    0.0
                       -0.2329676378839348       -0.0564478504652959    0.0
                       -0.2200869153667798       -0.0564441614169646    0.0
                       -0.2077510248166619       -0.0564399517033631    0.0
                       -0.1959854452784798       -0.0564351901596870    0.0
                       -0.1848077706793294       -0.0564298546161358    0.0
                       -0.1742281046904837       -0.0564239409537325    0.0
                       -0.1642495941910592       -0.0564174748583012    0.0
                       -0.1548690683656168       -0.0564105255456333    0.0
                       -0.1460777537223918       -0.0564032199955226    0.0
                       -0.1378620386826218       -0.0563957555947060    0.0
                       -0.1302042638676216       -0.0563884087537078    0.0
                       -0.1230835156529701       -0.0563815371550779    0.0
                       -0.1164764015901241       -0.0563755737879711    0.0
                       -0.1103577877672893       -0.0563710116743557    0.0
                       -0.1047014804653453       -0.0563683790266573    0.0
                       -0.0994808370361513       -0.0563682054813710    0.0
                       -0.0946692926682596       -0.0563709812698676    0.0
                       -0.0902407900677978       -0.0563771130786349    0.0
                       -0.0861700996758801       -0.0563868828903110    0.0
                       -0.0824330230461008       -0.0564004182333305    0.0
                       -0.0790064858548766       -0.0564176819586698    0.0
                       -0.0758685539400265       -0.0564384845212481    0.0
                       -0.0729984846451154       -0.0564625006878686    0.0
                       -0.3500000000000000       -0.0549923929423776    0.0
                       -0.3345759211014498       -0.0549916541204064    0.0
                       -0.3192305857954147       -0.0549907164552862    0.0
                       -0.3040411568929163       -0.0549894871257127    0.0
                       -0.2890816766133601       -0.0549879166943540    0.0
                       -0.2744216740618097       -0.0549859729334174    0.0
                       -0.2601249568794425       -0.0549836285603268    0.0
                       -0.2462486280165742       -0.0549808557086444    0.0
                       -0.2328423528903683       -0.0549776237713871    0.0
                       -0.2199478860321425       -0.0549738993226470    0.0
                       -0.2075988511672382       -0.0549696478752376    0.0
                       -0.1958207559027809       -0.0549648377474225    0.0
                       -0.1846312129268530       -0.0549594464806745    0.0
                       -0.1740403344243345       -0.0549534701252023    0.0
                       -0.1640512651495882       -0.0549469352952612    0.0
                       -0.1546608213663754       -0.0549399132390285    0.0
                       -0.1458602062245493       -0.0549325343977564    0.0
                       -0.1376357755664174       -0.0549250012534896    0.0
                       -0.1299698306041519       -0.0549175968986746    0.0
                       -0.1228414152065438       -0.0549106868434413    0.0
                       -0.1162270962840331       -0.0549047121008274    0.0
                       -0.1101017068107560       -0.0549001724238405    0.0
                       -0.1044390327568293       -0.0548975995654857    0.0
                       -0.0992124272005242       -0.0548975215878812    0.0
                       -0.0943953363532624       -0.0549004207515367    0.0
                       -0.0899617232153422       -0.0549066895542626    0.0
                       -0.0858863771910167       -0.0549165917454998    0.0
                       -0.0821451059077566       -0.0549302364031197    0.0
                       -0.0787148210869477       -0.0549475717420597    0.0
                       -0.0755735554047279       -0.0549683997507104    0.0
                       -0.0727005195185530       -0.0549923929423776    0.0
                       -0.3500000000000000       -0.0535222851968865    0.0
                       -0.3345593687756060       -0.0535215465294946    0.0
                       -0.3191975664250199       -0.0535206080640125    0.0
                       -0.3039918393667239       -0.0535193764916932    0.0
                       -0.2890163101354248       -0.0535178020901786    0.0
                       -0.2743405834085443       -0.0535158524024467    0.0
                       -0.2600285363940293       -0.0535134998998874    0.0
                       -0.2461373345663856       -0.0535107164213410    0.0
                       -0.2327166980221345       -0.0535074710065263    0.0
                       -0.2198084275391008       -0.0535037298260861    0.0
                       -0.2074461842354988       -0.0534994579719075    0.0
                       -0.1956555039414118       -0.0534946233923622    0.0
                       -0.1844540181286928       -0.0534892034277026    0.0
                       -0.1738518480829399       -0.0534831942718345    0.0
                       -0.1638521378062431       -0.0534766232597517    0.0
                       -0.1544516930054514       -0.0534695632006598    0.0
                       -0.1456416969765989       -0.0534621471756396    0.0
                       -0.1374084776776432       -0.0534545815088067    0.0
                       -0.1297343027038860       -0.0534471542274825    0.0
                       -0.1225981800270337       -0.0534402364044155    0.0
                       -0.1159766428124337       -0.0534342743360482    0.0
                       -0.1098444972384755       -0.0534297714416358    0.0
                       -0.1041755134499686       -0.0534272599384417    0.0
                       -0.0989430413381375       -0.0534272637382302    0.0
                       -0.0941205343358068       -0.0534302557282930    0.0
                       -0.0896819663960783       -0.0534366146411675    0.0
                       -0.0856021320292662       -0.0534465885481583    0.0
                       -0.0818568294707612       -0.0534602724247912    0.0
                       -0.0784229431897632       -0.0534776050178264    0.0
                       -0.0752784643998442       -0.0534983846531751    0.0
                       -0.0724025543919906       -0.0535222851968865    0.0
                       -0.3500000000000000       -0.0520521774513955    0.0
                       -0.3345427749901076       -0.0520514427639252    0.0
                       -0.3191644637313642       -0.0520505082138426    0.0
                       -0.3039423957657626       -0.0520492805229941    0.0
                       -0.2889507734447377       -0.0520477099736636    0.0
                       -0.2742592764860179       -0.0520457640649806    0.0
                       -0.2599318510882934       -0.0520434151734860    0.0
                       -0.2460257246296119       -0.0520406349933820    0.0
                       -0.2325906712355696       -0.0520373923728633    0.0
                       -0.2196685372904943       -0.0520336532526132    0.0
                       -0.2072930207517251       -0.0520293824776139    0.0
                       -0.1954896853266456       -0.0520245477769385    0.0
                       -0.1842761813048007       -0.0520191263775873    0.0
                       -0.1736626396996393       -0.0520131145862269    0.0
                       -0.1636522052146572       -0.0520065402359241    0.0
                       -0.1542416754958312       -0.0519994771971623    0.0
                       -0.1454222176748965       -0.0519920603243384    0.0
                       -0.1371801367446549       -0.0519844984687018    0.0
                       -0.1294976727042126       -0.0519770827718999    0.0
                       -0.1223538044056736       -0.0519701875325881    0.0
                       -0.1157250381807748       -0.0519642615446042    0.0
                       -0.1095861594937270       -0.0519598088436505    0.0
                       -0.1039109266000803       -0.0519573591450296    0.0
                       -0.0986726864854916       -0.0519574298517749    0.0
                       -0.0938448951826174       -0.0519604833601190    0.0
                       -0.0894015278086714       -0.0519668853038989    0.0
                       -0.0853173703728629       -0.0519768706952085    0.0
                       -0.0815681971718953       -0.0519905245671310    0.0
                       -0.0781308532552602       -0.0520077809972168    0.0
                       -0.0749832808315272       -0.0520284390859508    0.0
                       -0.0721045892654282       -0.0520521774513955    0.0
                       -0.3500000000000000       -0.0505820697059045    0.0
                       -0.3345261395953409       -0.0505813428006841    0.0
                       -0.3191312774070041       -0.0505804168674335    0.0
                       -0.3038928256080896       -0.0505791991798718    0.0
                       -0.2888850658588458       -0.0505776403163053    0.0
                       -0.2741777523744005       -0.0505757079191761    0.0
                       -0.2598348997552988       -0.0505733744237793    0.0
                       -0.2459137966473511       -0.0505706115329854    0.0
                       -0.2324642705377898       -0.0505673880692754    0.0
                       -0.2195282127594998       -0.0505636699215306    0.0
                       -0.2071393575393270       -0.0505594218666262    0.0
                       -0.1953232961076699       -0.0505546115688321    0.0
                       -0.1840976976121755       -0.0505492162311780    0.0
                       -0.1734727034531565       -0.0505432322383599    0.0
                       -0.1634514605575221       -0.0505366876867057    0.0
                       -0.1540307611196504       -0.0505296569843052    0.0
                       -0.1452017599551369       -0.0505222758541759    0.0
                       -0.1369507442006345       -0.0505147543075924    0.0
                       -0.1292599324650663       -0.0505073847193580    0.0
                       -0.1221082813788606       -0.0505005422216255    0.0
                       -0.1154722773279019       -0.0504946752912143    0.0
                       -0.1093266909016896       -0.0504902855576506    0.0
                       -0.1036452719214573       -0.0504878973738426    0.0
                       -0.0984013641238031       -0.0504880194569692    0.0
                       -0.0935684209904543       -0.0504911028001660    0.0
                       -0.0891204088869610       -0.0504975007376707    0.0
                       -0.0850320921591822       -0.0505074378028422    0.0
                       -0.0812792074749383       -0.0505209930171118    0.0
                       -0.0778385491154298       -0.0505381002656477    0.0
                       -0.0746880031040623       -0.0505585636023323    0.0
                       -0.0718066241388658       -0.0505820697059045    0.0
                       -0.3500000000000000       -0.0491119619604135    0.0
                       -0.3345094624431218       -0.0491112466125454    0.0
                       -0.3190980071477300       -0.0491103339818591    0.0
                       -0.3038431284177138       -0.0491091324173548    0.0
                       -0.2888191867054178       -0.0491075930852544    0.0
                       -0.2740960101702080       -0.0491056839595339    0.0
                       -0.2597376812134074       -0.0491033776898275    0.0
                       -0.2458015490983657       -0.0491006461439159    0.0
                       -0.2323374939899119       -0.0490974582882064    0.0
                       -0.2193874514937242       -0.0490937801424789    0.0
                       -0.2069851915198784       -0.0490895765991431    0.0
                       -0.1951563324564380       -0.0490848154164367    0.0
                       -0.1839185623510036       -0.0490794738649487    0.0
                       -0.1732820336728028       -0.0490735483706638    0.0
                       -0.1632498971485610       -0.0490670670492763    0.0
                       -0.1538189422231910       -0.0490601043036922    0.0
                       -0.1449803153749630       -0.0490527957897687    0.0
                       -0.1367202911470202       -0.0490453512694390    0.0
                       -0.1290210731063161       -0.0490380624218887    0.0
                       -0.1218616026355484       -0.0490313027801751    0.0
                       -0.1152183530073370       -0.0490255176765762    0.0
                       -0.1090660855419654       -0.0490212033476092    0.0
                       -0.1033785446840415       -0.0490188760199333    0.0
                       -0.0981290701401068       -0.0490190336890148    0.0
                       -0.0932911074376296       -0.0490221151619576    0.0
                       -0.0888386044288897       -0.0490284623051311    0.0
                       -0.0847462912317954       -0.0490382916284588    0.0
                       -0.0809898539791799       -0.0490516798115989    0.0
                       -0.0775460253807136       -0.0490685647420916    0.0
                       -0.0743926281135065       -0.0490887594386960    0.0
                       -0.0715086590123034       -0.0491119619604135    0.0
                       -0.3500000000000000       -0.0476418542149225    0.0
                       -0.3344927433868634       -0.0476411541676783    0.0
                       -0.3190646526529156       -0.0476402595078834    0.0
                       -0.3037933037251416       -0.0476390801841940    0.0
                       -0.2887531353230239       -0.0476375682419299    0.0
                       -0.2740140489873772       -0.0476356921751531    0.0
                       -0.2596401943077346       -0.0476334250049779    0.0
                       -0.2456889805010349       -0.0476307389229756    0.0
                       -0.2322103397096416       -0.0476276032127379    0.0
                       -0.2192462511185704       -0.0476239842120749    0.0
                       -0.2068305197173396       -0.0476198471174815    0.0
                       -0.1949887906726579       -0.0476151599446306    0.0
                       -0.1837387709699617       -0.0476099001264423    0.0
                       -0.1730906248430105       -0.0476040640933660    0.0
                       -0.1630475084342295       -0.0475976797307459    0.0
                       -0.1536062112123921       -0.0475908208794934    0.0
                       -0.1447578753984916       -0.0475836221688853    0.0
                       -0.1364887683211890       -0.0475762916701131    0.0
                       -0.1287810849529949       -0.0475691184034258    0.0
                       -0.1216137584373473       -0.0475624718449244    0.0
                       -0.1149632556864274       -0.0475567913553291    0.0
                       -0.1088043341413523       -0.0475525648327877    0.0
                       -0.1031107356240715       -0.0475502976978570    0.0
                       -0.0978557947802546       -0.0475504752882503    0.0
                       -0.0930129437866549       -0.0475535234981817    0.0
                       -0.0885561026256986       -0.0475597735001029    0.0
                       -0.0844599553518035       -0.0475694360339903    0.0
                       -0.0807001253808278       -0.0475825888164062    0.0
                       -0.0772532733626034       -0.0475991776789401    0.0
                       -0.0740971511818338       -0.0476190285242356    0.0
                       -0.0712106938857410       -0.0476418542149225    0.0
                       -0.3500000000000000       -0.0461717464694315    0.0
                       -0.3344759822816970       -0.0461710654292439    0.0
                       -0.3190312136257572       -0.0461701933892584    0.0
                       -0.3037433510677555       -0.0461690424218568    0.0
                       -0.2886869110616881       -0.0461675657406951    0.0
                       -0.2739318679580432       -0.0461657325480715    0.0
                       -0.2595424379112333       -0.0461635163948470    0.0
                       -0.2455760894148571       -0.0461608899576136    0.0
                       -0.2320828058733290       -0.0461578230137992    0.0
                       -0.2191046093399893       -0.0461542824107024    0.0
                       -0.2066753392616040       -0.0461502338424356    0.0
                       -0.1948206671880851       -0.0461456457507163    0.0
                       -0.1835583190708884       -0.0461404958298647    0.0
                       -0.1728984716074542       -0.0461347804799373    0.0
                       -0.1628442879954893       -0.0461285271038264    0.0
                       -0.1533925605493408       -0.0461218084149826    0.0
                       -0.1445344313833803       -0.0461147570407719    0.0
                       -0.1362561660691789       -0.0461075778986749    0.0
                       -0.1285399574892446       -0.0461005553651693    0.0
                       -0.1213647375520272       -0.0460940523905670    0.0
                       -0.1147069734633680       -0.0460884995496813    0.0
                       -0.1085414239854863       -0.0460843735018512    0.0
                       -0.1028418308655668       -0.0460821662511564    0.0
                       -0.0975815225896966       -0.0460823486003428    0.0
                       -0.0927339128351341       -0.0460853327917397    0.0
                       -0.0882728849919026       -0.0460914399377299    0.0
                       -0.0841730660728168       -0.0461008769887062    0.0
                       -0.0804100052898123       -0.0461137257505521    0.0
                       -0.0769602808791680       -0.0461299437013326    0.0
                       -0.0738015659284352       -0.0461493735135172    0.0
                       -0.0709127287591786       -0.0461717464694315    0.0
                       -0.3500000000000000       -0.0447016387239405    0.0
                       -0.3344591789845456       -0.0447009803549716    0.0
                       -0.3189976897734252       -0.0447001355620060    0.0
                       -0.3036932699900570       -0.0446990190635265    0.0
                       -0.2886205132832515       -0.0446975855275468    0.0
                       -0.2738494662330758       -0.0446958050516271    0.0
                       -0.2594444109254753       -0.0446936518753305    0.0
                       -0.2454628744415792       -0.0446910993235604    0.0
                       -0.2319548907175830       -0.0446881178474141    0.0
                       -0.2189625239467231       -0.0446846749993350    0.0
                       -0.2065196473914918       -0.0446807371696677    0.0
                       -0.1946519585702653       -0.0446762734003760    0.0
                       -0.1833772024130120       -0.0446712617516729    0.0
                       -0.1727055687730019       -0.0446656985624585    0.0
                       -0.1626402295499755       -0.0446596105023020    0.0
                       -0.1531779827501720       -0.0446530685886429    0.0
                       -0.1443099745710002       -0.0446462024636817    0.0
                       -0.1360224743241553       -0.0446392124172759    0.0
                       -0.1282976793217336       -0.0446323761887167    0.0
                       -0.1211145272010249       -0.0446260477364327    0.0
                       -0.1144494920021373       -0.0446206460586026    0.0
                       -0.1082773388484230       -0.0446166337221934    0.0
                       -0.1025718118507008       -0.0446144867587754    0.0
                       -0.0973062323398730       -0.0446146595788355    0.0
                       -0.0924539908138773       -0.0446175499591862    0.0
                       -0.0879889261965141       -0.0446234693703976    0.0
                       -0.0838855984792233       -0.0446326226105559    0.0
                       -0.0801194718972194       -0.0446450982556725    0.0
                       -0.0766670319341001       -0.0446608688874855    0.0
                       -0.0735058640705616       -0.0446797978437923    0.0
                       -0.0706147636326162       -0.0447016387239405    0.0
                       -0.3500000000000000       -0.0432315309784495    0.0
                       -0.3344423333541637       -0.0432308988966981    0.0
                       -0.3189640808071472       -0.0432300859536643    0.0
                       -0.3036430600438064       -0.0432290100330572    0.0
                       -0.2885539413615944       -0.0432276275387520    0.0
                       -0.2737668429824258       -0.0432259096487495    0.0
                       -0.2593461122811936       -0.0432238314505391    0.0
                       -0.2453493342260345       -0.0432213670823827    0.0
                       -0.2318265925405347       -0.0432184878518458    0.0
                       -0.2188199928121524       -0.0432151622162546    0.0
                       -0.2063634414573199       -0.0432113574659662    0.0
                       -0.1944826615258863       -0.0432070434234719    0.0
                       -0.1831954169169246       -0.0432021986259554    0.0
                       -0.1725119113137431       -0.0431968193266992    0.0
                       -0.1624353269548781       -0.0431909312160625    0.0
                       -0.1529624703848005       -0.0431846030495863    0.0
                       -0.1440844960802635       -0.0431779605013166    0.0
                       -0.1357876825912883       -0.0431711977593691    0.0
                       -0.1280542381532699       -0.0431645839366402    0.0
                       -0.1208631130215539       -0.0431584615495061    0.0
                       -0.1141907944855718       -0.0431532352624237    0.0
                       -0.1080120589398273       -0.0431493507444933    0.0
                       -0.1023006552784063       -0.0431472655385555    0.0
                       -0.0970298969399944       -0.0431474157901060    0.0
                       -0.0921731472330156       -0.0431501838661992    0.0
                       -0.0877041937959901       -0.0431558717287448    0.0
                       -0.0835975207839286       -0.0431646832460027    0.0
                       -0.0798284974813493       -0.0431767160125892    0.0
                       -0.0763735062509995       -0.0431919608942298    0.0
                       -0.0732100351380114       -0.0432103058210415    0.0
                       -0.0703167985060538       -0.0432315309784495    0.0
                       -0.3500000000000000       -0.0417614232329585    0.0
                       -0.3344254452511653       -0.0417608209998476    0.0
                       -0.3189303864422563       -0.0417600444824559    0.0
                       -0.3035927207881042       -0.0417590152438270    0.0
                       -0.2884871946827745       -0.0417576916993592    0.0
                       -0.2736839973953600       -0.0417560462901030    0.0
                       -0.2592475409386773       -0.0417540551105474    0.0
                       -0.2452354674567938       -0.0417516932788210    0.0
                       -0.2316979097028771       -0.0417489331444979    0.0
                       -0.2186770138958888       -0.0417457442734904    0.0
                       -0.2062067189232196       -0.0417420950651953    0.0
                       -0.1943127729039406       -0.0417379563094908    0.0
                       -0.1830129586685431       -0.0417333071393776    0.0
                       -0.1723174943753873       -0.0417281437066529    0.0
                       -0.1622295742109090       -0.0417224904854129    0.0
                       -0.1527460160789639       -0.0417164134119821    0.0
                       -0.1438579869057055       -0.0417100332178508    0.0
                       -0.1355517799397574       -0.0417035365258648    0.0
                       -0.1278096207673849       -0.0416971818501501    0.0
                       -0.1206104790440367       -0.0416912978434969    0.0
                       -0.1139308615871215       -0.0416862721225879    0.0
                       -0.1077455608701951       -0.0416825307023272    0.0
                       -0.1020283330519865       -0.0416805101476304    0.0
                       -0.0967524833360483       -0.0416806264202941    0.0
                       -0.0918913446788819       -0.0416832453542279    0.0
                       -0.0874186478697943       -0.0416886591869680    0.0
                       -0.0833087937787197       -0.0416970715890879    0.0
                       -0.0795370477328492       -0.0417085909091090    0.0
                       -0.0760796786340746       -0.0417232291350416    0.0
                       -0.0729140660790477       -0.0417409027413148    0.0
                       -0.0700188333794914       -0.0417614232329585    0.0
                       -0.3500000000000000       -0.0402913154874675    0.0
                       -0.3344085145380450       -0.0402907466028292    0.0
                       -0.3188966063982427       -0.0402900110563246    0.0
                       -0.3035422517894768       -0.0402890345974182    0.0
                       -0.2884202726451651       -0.0402877779214806    0.0
                       -0.2736009286806885       -0.0402862149119435    0.0
                       -0.2591486958881486       -0.0402843228288056    0.0
                       -0.2451212728667861       -0.0402820779377351    0.0
                       -0.2315688406288656       -0.0402794538183719    0.0
                       -0.2185335852453297       -0.0402764213527534    0.0
                       -0.2060494773694518       -0.0402729502636807    0.0
                       -0.1941422896989867       -0.0402690125023475    0.0
                       -0.1828298239234054       -0.0402645879253963    0.0
                       -0.1721223132804503       -0.0402596725782029    0.0
                       -0.1620229654678636       -0.0402542894943124    0.0
                       -0.1525286125191941       -0.0402485012480978    0.0
                       -0.1436304379205725       -0.0402424226711115    0.0
                       -0.1353147550027598       -0.0402362313787806    0.0
                       -0.1275638130248553       -0.0402301733433729    0.0
                       -0.1203566076858566       -0.0402245609735070    0.0
                       -0.1136696714623400       -0.0402197621761394    0.0
                       -0.1074778176355030       -0.0402161806064270    0.0
                       -0.1017548122381532       -0.0402142293791406    0.0
                       -0.0964739524011958       -0.0402143022832111    0.0
                       -0.0916085385668843       -0.0402167472768859    0.0
                       -0.0871322405606871       -0.0402218462513391    0.0
                       -0.0830193701281385       -0.0402298028410723    0.0
                       -0.0792450808713238       -0.0402407372653146    0.0
                       -0.0757855181131325       -0.0402546850216744    0.0
                       -0.0726179407227938       -0.0402715950575500    0.0
                       -0.0697208682529290       -0.0402913154874675    0.0
                       -0.3500000000000000       -0.0388212077419765    0.0
                       -0.3343915410792509       -0.0388206756363108    0.0
                       -0.3188627403988814       -0.0388199855717797    0.0
                       -0.3034916526220717       -0.0388190679820157    0.0
                       -0.2883531746597342       -0.0388178861022033    0.0
                       -0.2735176360671618       -0.0388164154335167    0.0
                       -0.2590495761503380       -0.0388146345590031    0.0
                       -0.2450067492341459       -0.0388125210604137    0.0
                       -0.2314393838075763       -0.0388100499377953    0.0
                       -0.2183897049975239       -0.0388071936005548    0.0
                       -0.2058917144951221       -0.0388039233146766    0.0
                       -0.1939712090549808       -0.0388002123941603    0.0
                       -0.1826460091118476       -0.0387960415573200    0.0
                       -0.1719263635348725       -0.0387914067514581    0.0
                       -0.1618154950325372       -0.0387863293620367    0.0
                       -0.1523102524616242       -0.0387808680794184    0.0
                       -0.1434018398859808       -0.0387751309033314    0.0
                       -0.1350765959867585       -0.0387692850317709    0.0
                       -0.1273167998735492       -0.0387635619936102    0.0
                       -0.1201014797629796       -0.0387582556256579    0.0
                       -0.1134071997619678       -0.0387537115242919    0.0
                       -0.1072087986239582       -0.0387503083328384    0.0
                       -0.1014800550419066       -0.0387484332542240    0.0
                       -0.0961942588245367       -0.0387484558276112    0.0
                       -0.0913246768589273       -0.0387507045439374    0.0
                       -0.0868449155244684       -0.0387554498703147    0.0
                       -0.0827291934968422       -0.0387628949123200    0.0
                       -0.0789525465172874       -0.0387731721249400    0.0
                       -0.0754909868132987       -0.0387863422855033    0.0
                       -0.0723216390459896       -0.0388023906073970    0.0
                       -0.0694229031263666       -0.0388212077419765    0.0
                       -0.3500000000000000       -0.0373510999964855    0.0
                       -0.3343745247413385       -0.0373506080223197    0.0
                       -0.3188287881725494       -0.0373499679124303    0.0
                       -0.3034409228681344       -0.0373491152703647    0.0
                       -0.2882859001506985       -0.0373480161209252    0.0
                       -0.2734341188043358       -0.0373466477537382    0.0
                       -0.2589501807776184       -0.0373449902310664    0.0
                       -0.2448918953837191       -0.0373430226198770    0.0
                       -0.2313095377949367       -0.0373407215330042    0.0
                       -0.2182453713819452       -0.0373380611220355    0.0
                       -0.2057334281219908       -0.0373350144214004    0.0
                       -0.1937995282704800       -0.0373315563174373    0.0
                       -0.1824615108459872       -0.0373276685395860    0.0
                       -0.1717296408371381       -0.0373233469610822    0.0
                       -0.1616071573802466       -0.0373186111325421    0.0
                       -0.1520909287460835       -0.0373135153650611    0.0
                       -0.1431721834678311       -0.0373081599286362    0.0
                       -0.1348372906918995       -0.0373027002366515    0.0
                       -0.1270685653737921       -0.0372973515266572    0.0
                       -0.1198450745219798       -0.0372923868007228    0.0
                       -0.1131434196697699       -0.0372881268140609    0.0
                       -0.1069384696493489       -0.0372849226037771    0.0
                       -0.1012040188043000       -0.0372831330076362    0.0
                       -0.0959133510089060       -0.0372831011414221    0.0
                       -0.0910396997586659       -0.0372851341697407    0.0
                       -0.0865566072987222       -0.0372894895636446    0.0
                       -0.0824381975019118       -0.0372963686679252    0.0
                       -0.0786593842747894       -0.0373059156238461    0.0
                       -0.0751960384666413       -0.0373182174014146    0.0
                       -0.0720251361653613       -0.0373332989258086    0.0
                       -0.0691249379998042       -0.0373510999964855    0.0
                       -0.3500000000000000       -0.0358809922509945    0.0
                       -0.3343574653933387       -0.0358805436730795    0.0
                       -0.3187947494529361       -0.0358799579470597    0.0
                       -0.3033900621190747       -0.0358791763170491    0.0
                       -0.2882184485569625       -0.0358781678357845    0.0
                       -0.2733503761644216       -0.0358769117467400    0.0
                       -0.2588505088563397       -0.0358753897458134    0.0
                       -0.2447767101899919       -0.0358735825546088    0.0
                       -0.2311793012174253       -0.0358714685929341    0.0
                       -0.2181005827252212       -0.0358690239727833    0.0
                       -0.2055746162005892       -0.0358662237278260    0.0
                       -0.1936272448066178       -0.0358630445347860    0.0
                       -0.1822763259301294       -0.0358594692963038    0.0
                       -0.1715321410917610       -0.0358554938535790    0.0
                       -0.1613979471721002       -0.0358511357604092    0.0
                       -0.1518706343179521       -0.0358464444862846    0.0
                       -0.1429414592643190       -0.0358415117159986    0.0
                       -0.1345968265468437       -0.0358364797645713    0.0
                       -0.1268190927429515       -0.0358315457957566    0.0
                       -0.1195873696967815       -0.0358269597902747    0.0
                       -0.1128783019704755       -0.0358230152113573    0.0
                       -0.1066667930183074       -0.0358200329592989    0.0
                       -0.1009266560338974       -0.0358183410645262    0.0
                       -0.0956311709935269       -0.0358182539494686    0.0
                       -0.0907535394048779       -0.0358200553216367    0.0
                       -0.0862672406084606       -0.0358239875662681    0.0
                       -0.0821463044873185       -0.0358302482175886    0.0
                       -0.0783655219729119       -0.0358389914489239    0.0
                       -0.0749006164517926       -0.0358503301462426    0.0
                       -0.0717284009348080       -0.0358643316793118    0.0
                       -0.0688269728732418       -0.0358809922509945    0.0
                       -0.3500000000000000       -0.0344108845055035    0.0
                       -0.3343403629074883       -0.0344104824894591    0.0
                       -0.3187606239805095       -0.0344099555269702    0.0
                       -0.3033390699776650       -0.0344092509546965    0.0
                       -0.2881508193350745       -0.0344083410786626    0.0
                       -0.2732664074460543       -0.0344072072556441    0.0
                       -0.2587505595114970       -0.0344058329674715    0.0
                       -0.2446611925828038       -0.0344042007598061    0.0
                       -0.2310486727790485       -0.0344022910551820    0.0
                       -0.2179553374596933       -0.0344000821474694    0.0
                       -0.2054152768208180       -0.0343975513059430    0.0
                       -0.1934543563003584       -0.0343946772247232    0.0
                       -0.1820904513774769       -0.0343914441555121    0.0
                       -0.1713338604304440       -0.0343878479698624    0.0
                       -0.1611878592818127       -0.0343839040915630    0.0
                       -0.1516493622621245       -0.0343796567251641    0.0
                       -0.1427096578490169       -0.0343751881656031    0.0
                       -0.1343551906636884       -0.0343706263796574    0.0
                       -0.1265683644257362       -0.0343661487519118    0.0
                       -0.1193283415976638       -0.0343619801429399    0.0
                       -0.1126118151569912       -0.0343583843629397    0.0
                       -0.1063937276434527       -0.0343556497168072    0.0
                       -0.1006479144886029       -0.0343540710046304    0.0
                       -0.0953476544251296       -0.0343539315996777    0.0
                       -0.0904661195939476       -0.0343554893617464    0.0
                       -0.0859767296405464       -0.0343589689801614    0.0
                       -0.0818534241309499       -0.0343645612478732    0.0
                       -0.0780708735118366       -0.0343724274023857    0.0
                       -0.0746046512068495       -0.0343827043362464    0.0
                       -0.0714313939583766       -0.0343955032805567    0.0
                       -0.0685290077466794       -0.0344108845055035    0.0
                       -0.3500000000000000       -0.0329407767600124    0.0
                       -0.3343232171606802       -0.0329404243587975    0.0
                       -0.3187264115053873       -0.0329399604821599    0.0
                       -0.3032879460623545       -0.0329393389884440    0.0
                       -0.2880830119650278       -0.0329385356478781    0.0
                       -0.2731822119816611       -0.0329375340834498    0.0
                       -0.2586503319157999       -0.0329363197127370    0.0
                       -0.2445453415583214       -0.0329348770746066    0.0
                       -0.2309176512745136       -0.0329331887913762    0.0
                       -0.2178096341392183       -0.0329312355633327    0.0
                       -0.2052554082309796       -0.0329289971373044    0.0
                       -0.1932808605875860       -0.0329264544611892    0.0
                       -0.1819038844383816       -0.0329235933265366    0.0
                       -0.1711347952469207       -0.0329204097202902    0.0
                       -0.1609768888389473       -0.0329169168357512    0.0
                       -0.1514271058569508       -0.0329131532342025    0.0
                       -0.1424767698385074       -0.0329091910751826    0.0
                       -0.1341123699232196       -0.0329051428014924    0.0
                       -0.1263163622019124       -0.0329011644017176    0.0
                       -0.1190679652460585       -0.0328974536167040    0.0
                       -0.1123439255929824       -0.0328942423428756    0.0
                       -0.1061192292225112       -0.0328917839135336    0.0
                       -0.1003677373343856       -0.0328903375080730    0.0
                       -0.0950627306136838       -0.0328901530303393    0.0
                       -0.0901773555794402       -0.0328914598725285    0.0
                       -0.0856849773419781       -0.0328944619230811    0.0
                       -0.0815594519208042       -0.0328993393902406    0.0
                       -0.0777753362680394       -0.0329062560861945    0.0
                       -0.0743080568096411       -0.0329153688048286    0.0
                       -0.0711340647163613       -0.0329268317785440    0.0
                       -0.0682310426201170       -0.0329407767600124    0.0
                       -0.3500000000000000       -0.0314706690145214    0.0
                       -0.3343060280372093       -0.0314703691517278    0.0
                       -0.3186921117928218       -0.0314699726155627    0.0
                       -0.3032366900155169       -0.0314694401875117    0.0
                       -0.2880150259613522       -0.0314687512970292    0.0
                       -0.2730977891515396       -0.0314678919791087    0.0
                       -0.2585498253069571       -0.0314668497340834    0.0
                       -0.2444291561998407       -0.0314656112626068    0.0
                       -0.2307862356139919       -0.0314641615848930    0.0
                       -0.2176634714685088       -0.0314624840350715    0.0
                       -0.2050950088725449       -0.0314605610850343    0.0
                       -0.1931067557444524       -0.0314583761825822    0.0
                       -0.1817166226498148       -0.0314559168659055    0.0
                       -0.1709349422565690       -0.0314531793472451    0.0
                       -0.1607650313012701       -0.0314501745254905    0.0
                       -0.1512038586626515       -0.0314469349912343    0.0
                       -0.1422427860011100       -0.0314435220903249    0.0
                       -0.1338683511093602       -0.0314400316500744    0.0
                       -0.1260630673529725       -0.0314365967460034    0.0
                       -0.1188062145799073       -0.0314333861101962    0.0
                       -0.1120745977598018       -0.0314305975759688    0.0
                       -0.1058432505183990       -0.0314284472237502    0.0
                       -0.1000860634249266       -0.0314271562733372    0.0
                       -0.0947763227303413       -0.0314269387069160    0.0
                       -0.0898871540248711       -0.0314279926514459    0.0
                       -0.0853918748358633       -0.0314304976563361    0.0
                       -0.0812642675858725       -0.0314346186095720    0.0
                       -0.0774787880469137       -0.0314405157169055    0.0
                       -0.0740107264616910       -0.0314483587029935    0.0
                       -0.0708363473075771       -0.0314583401841767    0.0
                       -0.0679330774935546       -0.0314706690145214    0.0
                       -0.3500000000000000       -0.0300005612690304    0.0
                       -0.3342887954339607       -0.0300003167172837    0.0
                       -0.3186577246335521       -0.0299999916939467    0.0
                       -0.3031853015190350       -0.0299995542717892    0.0
                       -0.2879468608940873       -0.0299989877171892    0.0
                       -0.2730131384104812       -0.0299982806153118    0.0
                       -0.2584490390203284       -0.0299974226931224    0.0
                       -0.2443126357169968       -0.0299964029808036    0.0
                       -0.2306544248696014       -0.0299952090953786    0.0
                       -0.2175168483578432       -0.0299938272349124    0.0
                       -0.2049340774443691       -0.0299922428493987    0.0
                       -0.1929320401627986       -0.0299904421427379    0.0
                       -0.1815286639242312       -0.0299884146235753    0.0
                       -0.1707342986016206       -0.0299861568663512    0.0
                       -0.1605522825800338       -0.0299836774519088    0.0
                       -0.1509796146714106       -0.0299810027293979    0.0
                       -0.1420076974377417       -0.0299781826278824    0.0
                       -0.1336231211282038       -0.0299752953617480    0.0
                       -0.1258084609281483       -0.0299724496871417    0.0
                       -0.1185430627758461       -0.0299697835601396    0.0
                       -0.1118037946412887       -0.0299674587245946    0.0
                       -0.1055657418033434       -0.0299656518361471    0.0
                       -0.0998028277787005       -0.0299645438912767    0.0
                       -0.0944883482438253       -0.0299643105096360    0.0
                       -0.0895954132344720       -0.0299651156515751    0.0
                       -0.0850973011148705       -0.0299671106624604    0.0
                       -0.0809677336560421       -0.0299704395824290    0.0
                       -0.0771810836561163       -0.0299752510677875    0.0
                       -0.0737125265641404       -0.0299817172293961    0.0
                       -0.0705381539700002       -0.0299900585060356    0.0
                       -0.0676351123669922       -0.0300005612690304    0.0
                       -0.3500000000000000       -0.0285304535235394    0.0
                       -0.3342715192701833       -0.0285302668749856    0.0
                       -0.3186232498633324       -0.0285300174328663    0.0
                       -0.3031337803237205       -0.0285296808895094    0.0
                       -0.2878785164283983       -0.0285292445072365    0.0
                       -0.2729282593380690       -0.0285286995514558    0.0
                       -0.2583479725506000       -0.0285280381162135    0.0
                       -0.2441957795197533       -0.0285272517278641    0.0
                       -0.2305222183629365       -0.0285263307996830    0.0
                       -0.2173697640257281       -0.0285252646262083    0.0
                       -0.2047726130225441       -0.0285240418940274    0.0
                       -0.1927567126898483       -0.0285226518296773    0.0
                       -0.1813400067125188       -0.0285210861540428    0.0
                       -0.1705328620417274       -0.0285193419696717    0.0
                       -0.1603386392636701       -0.0285174255596119    0.0
                       -0.1507543685710842       -0.0285153568230701    0.0
                       -0.1417714958941681       -0.0285131737521600    0.0
                       -0.1333766673792138       -0.0285109360545860    0.0
                       -0.1255525241868407       -0.0285087268823004    0.0
                       -0.1182784827762937       -0.0285066517810280    0.0
                       -0.1115314783476136       -0.0285048345136926    0.0
                       -0.1052866515844749       -0.0285034102645722    0.0
                       -0.0995179623923007       -0.0285025176462098    0.0
                       -0.0941987197640893       -0.0285022915394558    0.0
                       -0.0893020238749810       -0.0285028588297167    0.0
                       -0.0848011232875153       -0.0285043386244677    0.0
                       -0.0806696944852491       -0.0285068480072364    0.0
                       -0.0768820513599244       -0.0285105145038648    0.0
                       -0.0734132890833615       -0.0285154979171366    0.0
                       -0.0702393649284930       -0.0285220269834959    0.0
                       -0.0673371472404298       -0.0285304535235394    0.0
                       -0.3500000000000000       -0.0270603457780484    0.0
                       -0.3342541995060268       -0.0270602194013787    0.0
                       -0.3185886873999953       -0.0270600494706311    0.0
                       -0.3030821263051821       -0.0270598195784730    0.0
                       -0.2878099923998401       -0.0270595211222745    0.0
                       -0.2728431517342690       -0.0270591481692540    0.0
                       -0.2582466256690027       -0.0270586953172992    0.0
                       -0.2440785873589658       -0.0270581567542210    0.0
                       -0.2303896158311849       -0.0270575258892531    0.0
                       -0.2172222181933656       -0.0270567953481540    0.0
                       -0.2046106152867299       -0.0270559573179379    0.0
                       -0.1925807728908205       -0.0270550043248761    0.0
                       -0.1811506503084192       -0.0270539305626894    0.0
                       -0.1703306313070937       -0.0270527338588506    0.0
                       -0.1601240990281882       -0.0270514182661572    0.0
                       -0.1505281162233725       -0.0270499970930038    0.0
                       -0.1415341743197206       -0.0270484959647940    0.0
                       -0.1331289784098120       -0.0270469553018121    0.0
                       -0.1252952393671026       -0.0270454314989157    0.0
                       -0.1180124481922167       -0.0270439962009808    0.0
                       -0.1112576111735442       -0.0270427334454733    0.0
                       -0.1050059278356370       -0.0270417350410566    0.0
                       -0.0992313976512798       -0.0270410951897856    0.0
                       -0.0939073466029859       -0.0270409057833571    0.0
                       -0.0890068705680111       -0.0270412538347667    0.0
                       -0.0845031978623453       -0.0270422222241841    0.0
                       -0.0803699763611808       -0.0270438947410127    0.0
                       -0.0765814898605783       -0.0270463670098434    0.0
                       -0.0731128020947930       -0.0270497675992272    0.0
                       -0.0699398119862365       -0.0270543014047465    0.0
                       -0.0670391821138674       -0.0270603457780484    0.0
                       -0.3500000000000000       -0.0255902380325574    0.0
                       -0.3342368361781003       -0.0255901740060482    0.0
                       -0.3185540373145626       -0.0255900873213617    0.0
                       -0.3030303395710527       -0.0255899696959359    0.0
                       -0.2877412889588596       -0.0255898167803030    0.0
                       -0.2727578158029976       -0.0255896255562318    0.0
                       -0.2581449986484293       -0.0255893932582914    0.0
                       -0.2439610595962978       -0.0255891168994438    0.0
                       -0.2302566177459570       -0.0255887930845816    0.0
                       -0.2170742114575155       -0.0255884180073855    0.0
                       -0.2044480849533680       -0.0255879876243315    0.0
                       -0.1924042215502491       -0.0255874980492434    0.0
                       -0.1809605954274524       -0.0255869462288194    0.0
                       -0.1701276067666063       -0.0255863309449375    0.0
                       -0.1599086614086078       -0.0255856541382060    0.0
                       -0.1503008555555582       -0.0255849224580904    0.0
                       -0.1412957278996640       -0.0255841488311274    0.0
                       -0.1328800451124354       -0.0255833537314713    0.0
                       -0.1250365910755702       -0.0255825657860429    0.0
                       -0.1177449349184594       -0.0255818214028769    0.0
                       -0.1109821574757740       -0.0255811633083295    0.0
                       -0.1047235201757231       -0.0255806381908195    0.0
                       -0.0989430648453937       -0.0255802939819475    0.0
                       -0.0936141376424790       -0.0255801775263575    0.0
                       -0.0887098350581373       -0.0255803334124417    0.0
                       -0.0842033739501284       -0.0255808046134019    0.0
                       -0.0800683898548825       -0.0255816355725549    0.0
                       -0.0762791672203705       -0.0255828789800434    0.0
                       -0.0728107990678450       -0.0255846100871866    0.0
                       -0.0696392511366182       -0.0255869621703488    0.0
                       -0.0667412169873050       -0.0255902380325574    0.0
                       -0.3500000000000000       -0.0241201302870664    0.0
                       -0.3342194294686144       -0.0241201302870664    0.0
                       -0.3185192999695615       -0.0241201302870664    0.0
                       -0.3029784206696003       -0.0241201302870664    0.0
                       -0.2876724068519768       -0.0241201302870664    0.0
                       -0.2726722525093781       -0.0241201302870664    0.0
                       -0.2580430927015868       -0.0241201302870664    0.0
                       -0.2438431977295341       -0.0241201302870664    0.0
                       -0.2301232259336352       -0.0241201302870664    0.0
                       -0.2169257460155810       -0.0241201302870664    0.0
                       -0.2042850246173100       -0.0241201302870664    0.0
                       -0.1922270616444284       -0.0241201302870664    0.0
                       -0.1807698453273687       -0.0241201302870664    0.0
                       -0.1699237917169137       -0.0241201302870664    0.0
                       -0.1596923292813096       -0.0241201302870664    0.0
                       -0.1500725882653983       -0.0241201302870664    0.0
                       -0.1410561560171663       -0.0241201302870664    0.0
                       -0.1326298629840352       -0.0241201302870664    0.0
                       -0.1247765688916524       -0.0241201302870664    0.0
                       -0.1174759241375146       -0.0241201302870664    0.0
                       -0.1107050871402372       -0.0241201302870664    0.0
                       -0.1044393838739330       -0.0241201302870664    0.0
                       -0.0986529007964121       -0.0241201302870664    0.0
                       -0.0933190066723868       -0.0241201302870664    0.0
                       -0.0884108023171481       -0.0241201302870664    0.0
                       -0.0839015000359966       -0.0241201302870664    0.0
                       -0.0797647365574778       -0.0241201302870664    0.0
                       -0.0759748246356020       -0.0241201302870664    0.0
                       -0.0725069493266985       -0.0241201302870664    0.0
                       -0.0693373153343250       -0.0241201302870664    0.0
                       -0.0664432518607426       -0.0241201302870664    0.0
                </DataArray>
            </Points>
            <PointData>
                <DataArray type="Float32" Name="orthogonality" NumberOfComponents="1" format="ascii">
                        0.0000000000000000
                        0.0107268795911981
                        0.0213867493441536
                        0.0319138107583463
                        0.0422447730116329
                        0.0523199489532445
                        0.0620841992705925
                        0.0714877168309208
                        0.0804866773046387
                        0.0890438150742765
                        0.0971290058539249
                        0.1047199370956252
                        0.1118029136987933
                        0.1183737769172747
                        0.1244388207054049
                        0.1300155001833794
                        0.1351326796924078
                        0.1398301960324374
                        0.1441576280567357
                        0.1481723482743806
                        0.1519371424406308
                        0.1555178699846545
                        0.1589817734508028
                        0.1623971500992963
                        0.1658352877654464
                        0.1693761635908977
                        0.1731214029615624
                        0.1772252150712618
                        0.1819844047232312
                        0.1881775310316022
                        0.1986434177082491
                        0.0000041541884169
                        0.0107586525962288
                        0.0214465928964527
                        0.0320025182654533
                        0.0423631815802197
                        0.0524690504696070
                        0.0622651904303741
                        0.0717020255021917
                        0.0807359795129905
                        0.0893300495600750
                        0.0974543906118213
                        0.1050869915706516
                        0.1122144898544836
                        0.1188331012214950
                        0.1249495466409351
                        0.1305817672927341
                        0.1357591711620233
                        0.1405221836413422
                        0.1449209918597981
                        0.1490135584119176
                        0.1528631895934860
                        0.1565361242902589
                        0.1600997295537892
                        0.1636219573798448
                        0.1671728115002658
                        0.1708288776888956
                        0.1746828615517752
                        0.1788620599763552
                        0.1835605182227873
                        0.1890549090777545
                        0.1963132673118192
                        0.0000081571601338
                        0.0107904093665404
                        0.0215065581612073
                        0.0320914927438152
                        0.0424820172452528
                        0.0526187612199203
                        0.0624470028678900
                        0.0719174061460135
                        0.0809866523464607
                        0.0896180103026774
                        0.0977819213350241
                        0.1054566783256310
                        0.1126292454246876
                        0.1192961940371539
                        0.1254646347834251
                        0.1311529333828926
                        0.1363909502966609
                        0.1412195732397989
                        0.1456894296830052
                        0.1498588521565053
                        0.1537913749863742
                        0.1575532117269483
                        0.1612112582986246
                        0.1648321797073462
                        0.1684830909355888
                        0.1722342358430726
                        0.1761636013723025
                        0.1803605503436851
                        0.1849102335848759
                        0.1897772094810160
                        0.1947417005966138
                        0.0000119533734513
                        0.0108221830977359
                        0.0215667695502607
                        0.0321809567151893
                        0.0426016152139541
                        0.0527695508070960
                        0.0626302700646231
                        0.0721346942505318
                        0.0812397807379063
                        0.0899090883567381
                        0.0981133596010936
                        0.1058311977741309
                        0.1130498848886844
                        0.1197663151627449
                        0.1259879224093985
                        0.1317333871055562
                        0.1370328601082262
                        0.1419274686141214
                        0.1464679867090970
                        0.1507127350852371
                        0.1547249718438187
                        0.1585701887093706
                        0.1623137844433082
                        0.1660195155349345
                        0.1697488725202775
                        0.1735608900770527
                        0.1775100145234689
                        0.1816335187420622
                        0.1859017481965117
                        0.1900703769880721
                        0.1936148618348441
                        0.0000155224616388
                        0.0108537533351928
                        0.0216268015673855
                        0.0322702707694359
                        0.0427211115821130
                        0.0529203173246247
                        0.0628136350948494
                        0.0723522568828300
                        0.0814934302931049
                        0.0902010173396333
                        0.0984460706462107
                        0.1062075034535662
                        0.1134728984200345
                        0.1202394295195390
                        0.1265147746625218
                        0.1323178036572551
                        0.1376787763964236
                        0.1426388131587278
                        0.1472485124711225
                        0.1515657677025297
                        0.1556530180746454
                        0.1595742976973747
                        0.1633924560649450
                        0.1671667538618686
                        0.1709505740490903
                        0.1747878949345031
                        0.1787045060881224
                        0.1826837342672175
                        0.1866061671819976
                        0.1901393617042543
                        0.1927658558717492
                        0.0000188580741628
                        0.0108850498305213
                        0.0216865173756655
                        0.0323592269070458
                        0.0428402226703197
                        0.0530706960833230
                        0.0629966456990581
                        0.0725695461460181
                        0.0817469476424169
                        0.0904930264884945
                        0.0987791518781193
                        0.1065845433734724
                        0.1138970630503496
                        0.1207141163512070
                        0.1270435393366297
                        0.1329042568191322
                        0.1383264450234922
                        0.1433509568753110
                        0.1480278765830554
                        0.1524142367282956
                        0.1565710994356409
                        0.1605603030480898
                        0.1644411359644480
                        0.1682669398902034
                        0.1720810236140205
                        0.1759099709620279
                        0.1797499090321504
                        0.1835375996010125
                        0.1870986478278056
                        0.1900942214784900
                        0.1921016031020201
                        0.0000219591790221
                        0.0109160624810031
                        0.0217458961429321
                        0.0324477908679173
                        0.0429588987397286
                        0.0532206198328515
                        0.0631792147628100
                        0.0727864521942175
                        0.0820001966679063
                        0.0907849490178323
                        0.0991124003406620
                        0.1069620714139026
                        0.1143220804392636
                        0.1211900131505108
                        0.1275737738003489
                        0.1334922024623663
                        0.1389751919950974
                        0.1440630591035496
                        0.1488050259448791
                        0.1532568240245459
                        0.1574775824222462
                        0.1615262340562039
                        0.1654575910239401
                        0.1693179203797443
                        0.1731391766149762
                        0.1769298628695079
                        0.1806589030071327
                        0.1842286676225881
                        0.1874413849956033
                        0.1899948974402366
                        0.1915676144312887
                        0.0000248265404739
                        0.0109468028248275
                        0.0218049590069570
                        0.0325359915085976
                        0.0430771752369748
                        0.0533701297748662
                        0.0633613884096863
                        0.0730030250828683
                        0.0822532300981915
                        0.0910768386897753
                        0.0994458686560768
                        0.1073401361140956
                        0.1147479909649790
                        0.1216671463797049
                        0.1281054824311823
                        0.1340816114160190
                        0.1396249389959576
                        0.1447749723453610
                        0.1495797207206087
                        0.1540931766085643
                        0.1583719976264253
                        0.1624715564881619
                        0.1664414157005752
                        0.1703199493781798
                        0.1741272288637054
                        0.1778544953549615
                        0.1814482566157459
                        0.1847897454176185
                        0.1876813299275048
                        0.1898744215556146
                        0.1911304108937122
                        0.0000274613493489
                        0.0109772881125729
                        0.0218637383458137
                        0.0326238748155379
                        0.0431951109071045
                        0.0535192969018010
                        0.0635432494452069
                        0.0732193589314726
                        0.0825061527160625
                        0.0913688100766470
                        0.0997796800058746
                        0.1077188676550222
                        0.1151749295725543
                        0.1221456525888534
                        0.1286387989116981
                        0.1346726083109559
                        0.1402757935705290
                        0.1454867779381653
                        0.1503520089230777
                        0.1549233125435585
                        0.1592543674227180
                        0.1633964079211620
                        0.1673931479595456
                        0.1712746210534435
                        0.1750492079039377
                        0.1786928836461646
                        0.1821356799562057
                        0.1852496850987631
                        0.1878524847596531
                        0.1897511583241898
                        0.1907684432117567
                        0.0000298647415701
                        0.0110075351627814
                        0.0219222658616003
                        0.0327114860252034
                        0.0433127637002533
                        0.0536681913493433
                        0.0637248797163365
                        0.0734355467485175
                        0.0827590679931654
                        0.0916609762265150
                        0.1001139559149358
                        0.1080983947025495
                        0.1156030304570122
                        0.1226256695535394
                        0.1291738622577506
                        0.1352653307455135
                        0.1409278894726626
                        0.1461986053928752
                        0.1511220221739767
                        0.1557473897874052
                        0.1601249426346156
                        0.1643012917110654
                        0.1683138959808049
                        0.1721843697580845
                        0.1759102166334802
                        0.1794549201152966
                        0.1827381698631972
                        0.1856325394235565
                        0.1879790311444677
                        0.1896353719429899
                        0.1904672357651519
                        0.0000320376747720
                        0.0110375583554004
                        0.0219805686419113
                        0.0327988636756777
                        0.0434301827298731
                        0.0538168721465942
                        0.0639063475072001
                        0.0736516652886223
                        0.0830120601867855
                        0.0919534277371711
                        0.1004487919943168
                        0.1084788164627607
                        0.1160323950286777
                        0.1231072996984316
                        0.1297107751994802
                        0.1358598820789387
                        0.1415813332674459
                        0.1469105720894170
                        0.1518899074952797
                        0.1565656282890602
                        0.1609841109600993
                        0.1651869620410097
                        0.1692051762288578
                        0.1730522085121010
                        0.1767159781620191
                        0.1801506441979937
                        0.1832712258412612
                        0.1859577960130607
                        0.1880780831222115
                        0.1895328071884653
                        0.1902166947930539
                        0.0000339809421285
                        0.0110673692938926
                        0.0220386684462826
                        0.0328860384881049
                        0.0435474067323914
                        0.0539653852327948
                        0.0640877050828590
                        0.0738677720859122
                        0.0832651908186345
                        0.0922462286249762
                        0.1007842531373019
                        0.1088601971360871
                        0.1164630855488453
                        0.1235906028341332
                        0.1302495959435046
                        0.1364563221428930
                        0.1422361938974933
                        0.1476227715147904
                        0.1526558137258683
                        0.1573782931777446
                        0.1618323731114863
                        0.1660543833417090
                        0.1700688339799456
                        0.1738815675031853
                        0.1774725344253677
                        0.1807898056595140
                        0.1837485684224757
                        0.1862410215876213
                        0.1881618012748551
                        0.1894466730882512
                        0.1900095602815112
                        0.0000356952318506
                        0.0110969770735401
                        0.0220965821714905
                        0.0329730340178713
                        0.0436644649131080
                        0.0541137645097494
                        0.0642689899623007
                        0.0740839069655256
                        0.0835185004429305
                        0.0925394183731172
                        0.1011203758761374
                        0.1092425686143858
                        0.1168951282072401
                        0.1240755996692143
                        0.1307903421859959
                        0.1370546718287130
                        0.1428925079003650
                        0.1483352790518873
                        0.1534198974462327
                        0.1581856993578172
                        0.1626703420815749
                        0.1669047146781688
                        0.1709069930666674
                        0.1746761770461614
                        0.1781860360812372
                        0.1813816179710972
                        0.1841821363338608
                        0.1864945929672835
                        0.1882389214874752
                        0.1893787589255684
                        0.1898404820644959
                        0.0000371811967066
                        0.0111263887174908
                        0.0221543226460983
                        0.0330598678048817
                        0.0437813784674109
                        0.0542620337558098
                        0.0644502272525162
                        0.0743000948292209
                        0.0837720119226724
                        0.0928330157445167
                        0.1014571727823151
                        0.1096259355288682
                        0.1173285188897193
                        0.1245622783804472
                        0.1313329985765069
                        0.1376549215394371
                        0.1435502889019755
                        0.1490481624136345
                        0.1541823338113061
                        0.1589882210868033
                        0.1634987473113651
                        0.1677392994481215
                        0.1717220146158104
                        0.1754399743095136
                        0.1788625953767605
                        0.1819346384028792
                        0.1845822270464744
                        0.1867283745830364
                        0.1883158289828380
                        0.1893300718447825
                        0.1897054482487119
                        0.0000384395194043
                        0.0111556096095680
                        0.0222118994260889
                        0.0331465525303983
                        0.0438981621145668
                        0.0544102085588670
                        0.0646314320076704
                        0.0745163484748418
                        0.0840257337487356
                        0.0931270226446633
                        0.1017946369253426
                        0.1100102803648841
                        0.1177632290151379
                        0.1250506012422907
                        0.1318775242159040
                        0.1382570396156419
                        0.1442095369640378
                        0.1497614917133249
                        0.1549433266517445
                        0.1597863002783545
                        0.1643184370340799
                        0.1685596536030605
                        0.1725164584347070
                        0.1761770268737736
                        0.1795081868366289
                        0.1824567323039018
                        0.1849577005437808
                        0.1869502939367039
                        0.1883973036624939
                        0.1893012070003100
                        0.1896014194891773
                        0.0000394709706218
                        0.0111846438697699
                        0.0222693194831112
                        0.0332330970183737
                        0.0440148254251794
                        0.0545582979892857
                        0.0648126112725529
                        0.0747326710386703
                        0.0842796629143838
                        0.0934214274674061
                        0.1021327457340770
                        0.1103955678851090
                        0.1181992105690776
                        0.1255405103206808
                        0.1324238590512625
                        0.1388609794391209
                        0.1448702463154280
                        0.1504753475163791
                        0.1557031160135648
                        0.1605804515917646
                        0.1651303769274487
                        0.1693674509227389
                        0.1732930460860719
                        0.1768914709676809
                        0.1801285856088404
                        0.1829550918151876
                        0.1853162007988950
                        0.1871668091361885
                        0.1884870363687342
                        0.1892925663368333
                        0.1895260878522750
                        0.0000402764584570
                        0.0112134946611177
                        0.0223265877663653
                        0.0333195070509144
                        0.0441313739019560
                        0.0547063059623675
                        0.0649937657459197
                        0.0749490579829534
                        0.0845337872552580
                        0.0937162078184479
                        0.1024714641354732
                        0.1107817487165661
                        0.1186364001694802
                        0.1260319320415999
                        0.1329719289494445
                        0.1394666849669183
                        0.1455324111902163
                        0.1511898265742172
                        0.1564619828472431
                        0.1613712641078655
                        0.1659356451314037
                        0.1701645058584821
                        0.1740546264117428
                        0.1775874634326552
                        0.1807293354073039
                        0.1834362880835501
                        0.1856643708321919
                        0.1873832802141669
                        0.1885879886119606
                        0.1893044909168477
                        0.1894777138064651
                        0.0000408570712028
                        0.0112421644362619
                        0.0223837076495916
                        0.0334057860167035
                        0.0442478098380470
                        0.0548542323189999
                        0.0651748910997163
                        0.0751654986736239
                        0.0847880873066651
                        0.0940113326745712
                        0.1028107470388435
                        0.1111687621799299
                        0.1190747222548546
                        0.1265247807352011
                        0.1335216495648853
                        0.1400740948274392
                        0.1461960299275193
                        0.1519050454347677
                        0.1572202511158004
                        0.1621594000156107
                        0.1667354243396377
                        0.1709527550071807
                        0.1748041444975340
                        0.1782691464264408
                        0.1813157392303990
                        0.1839063424950599
                        0.1860080500582667
                        0.1876042613521614
                        0.1887026465607871
                        0.1893373437072707
                        0.1894550139614725
                        0.0000412141138386
                        0.0112706551331854
                        0.0224406812850987
                        0.0334919354223088
                        0.0443641329926636
                        0.0550020736767561
                        0.0653559790189570
                        0.0753819776233756
                        0.0850425377661771
                        0.0943067640827716
                        0.1031505412861730
                        0.1115565384999144
                        0.1195140915517384
                        0.1270189613349063
                        0.1340729292054848
                        0.1406831452140098
                        0.1468611076069436
                        0.1526211422604262
                        0.1579782877454136
                        0.1629455908933812
                        0.1675309917884937
                        0.1717342382471051
                        0.1755446147751014
                        0.1789406235522028
                        0.1818928670740037
                        0.1843708072175748
                        0.1863524500538150
                        0.1878337311147891
                        0.1888332042200923
                        0.1893915642059107
                        0.1894570829781349
                        0.0000413491405425
                        0.0112989683323664
                        0.0224975098838576
                        0.0335779552962373
                        0.0444803411253506
                        0.0551498241029394
                        0.0655370180235172
                        0.0755984754740049
                        0.0852971086494591
                        0.0946024585015929
                        0.1034907871862679
                        0.1119450005320689
                        0.1199544149758280
                        0.1275143714092046
                        0.1346256709011096
                        0.1412937718097113
                        0.1475276574940330
                        0.1533382771838859
                        0.1587365008388876
                        0.1637306321450369
                        0.1683237078779156
                        0.1725110803363623
                        0.1762790985409006
                        0.1796059458302606
                        0.1824655758528004
                        0.1848348488253610
                        0.1867023089544503
                        0.1880752757133340
                        0.1889816997005433
                        0.1894677076050119
                        0.1894833393964445
                        0.0000412639833459
                        0.0113271053833532
                        0.0225541939397812
                        0.0336638445117219
                        0.0445964304222651
                        0.0552974756510901
                        0.0657179941233794
                        0.0758149697806329
                        0.0855517662132426
                        0.0948983678700625
                        0.1038314197322824
                        0.1123340651190461
                        0.1203955930990658
                        0.1280109026760779
                        0.1351797738465602
                        0.1419059109431708
                        0.1481957015312149
                        0.1540566314886096
                        0.1594953365182652
                        0.1645153760670794
                        0.1691150040098254
                        0.1732854735016877
                        0.1770106858009824
                        0.1802691058028071
                        0.1830385376837070
                        0.1853033312597662
                        0.1870620267551371
                        0.1883322377456200
                        0.1891501210650649
                        0.1895664763203258
                        0.1895334889341751
                        0.0000409607791116
                        0.0113550675085972
                        0.0226107334112315
                        0.0337496010474970
                        0.0447123958402900
                        0.0554450187946071
                        0.0658988913493336
                        0.0760314356472223
                        0.0858064737029958
                        0.0951944404715642
                        0.1041723695798176
                        0.1127236441667225
                        0.1208375212847630
                        0.1285084421181740
                        0.1357351343552357
                        0.1425195001353717
                        0.1488652700634365
                        0.1547764058499233
                        0.1602552746966299
                        0.1653007239263383
                        0.1699063700723474
                        0.1740596612933812
                        0.1777424810667745
                        0.1809340380569850
                        0.1836162735177045
                        0.1857808960871055
                        0.1874357846860916
                        0.1886078404750329
                        0.1893404933557060
                        0.1896887489971168
                        0.1896075011809865
                        0.0000404419948104
                        0.0113828558905263
                        0.0226671278698516
                        0.0338352222013189
                        0.0448282313894169
                        0.0555924427829441
                        0.0660796921890513
                        0.0762478462491409
                        0.0860611919671547
                        0.0954906216424859
                        0.1045135638431063
                        0.1131136455068286
                        0.1212800905671384
                        0.1290068727885347
                        0.1362916464279978
                        0.1431344781586262
                        0.1495364009473464
                        0.1554978178225502
                        0.1610168240147814
                        0.1660876173379337
                        0.1706993418529691
                        0.1748359237733799
                        0.1784775925258938
                        0.1816046245261670
                        0.1842031898002314
                        0.1862720391371338
                        0.1878276520843207
                        0.1889052957579177
                        0.1895549552745442
                        0.1898356106562331
                        0.1897055971947297
                        0.0000397104529161
                        0.0114104717441478
                        0.0227233766243784
                        0.0339207047673976
                        0.0449439303671651
                        0.0557397359377491
                        0.0662603779502944
                        0.0764641732687691
                        0.0863158799695573
                        0.0957868543615259
                        0.1048549267516825
                        0.1135039735938515
                        0.1217231883327729
                        0.1295060743711371
                        0.1368492020125039
                        0.1437507846996906
                        0.1502091381587960
                        0.1562210987188651
                        0.1617805161264422
                        0.1668770291544805
                        0.1714954885405285
                        0.1756165639402331
                        0.1792191238858313
                        0.1822847030457492
                        0.1848036163805970
                        0.1867811832938414
                        0.1882416840938383
                        0.1892279022548620
                        0.1897958320932519
                        0.1900083870043634
                        0.1898282466385621
                        0.0000387693567193
                        0.0114379163814569
                        0.0227794788242843
                        0.0340060451848539
                        0.0450594855553681
                        0.0558868859016502
                        0.0664409290663458
                        0.0766803872621595
                        0.0865704952209425
                        0.0960830797435273
                        0.1051963801950704
                        0.1138945300692878
                        0.1221666988412580
                        0.1300059235408916
                        0.1374076910075308
                        0.1443683596945654
                        0.1508835299828879
                        0.1569464899872588
                        0.1625468994678146
                        0.1676699540065734
                        0.1722964003748505
                        0.1764038951688199
                        0.1799701681131737
                        0.1829780777558889
                        0.1854218442722095
                        0.1873127475736375
                        0.1886820132777394
                        0.1895791395293034
                        0.1900657103575414
                        0.1902086858544431
                        0.1899761739694269
                        0.0000376223173793
                        0.0114651912649741
                        0.0228354335466771
                        0.0340912396614753
                        0.0451748893838918
                        0.0560338798455764
                        0.0666213253509587
                        0.0768964579659446
                        0.0868249941392904
                        0.0963792374509632
                        0.1055378441702718
                        0.1142852142112031
                        0.1226105036051422
                        0.1305062941495585
                        0.1379670010443580
                        0.1449871423767345
                        0.1515596268420364
                        0.1576742391646223
                        0.1633165326023878
                        0.1684673985713943
                        0.1731036764151696
                        0.1772002293429145
                        0.1807338022402511
                        0.1836885300339197
                        0.1860621620897162
                        0.1878712127343884
                        0.1891529378917828
                        0.1899627629751041
                        0.1903675196241937
                        0.1904384489822991
                        0.1901503739622919
                        0.0000362733830625
                        0.0114922980568766
                        0.0228912398667013
                        0.0341762842734388
                        0.0452901340628290
                        0.0561807046360549
                        0.0668015462043198
                        0.0771123545453379
                        0.0870793323413188
                        0.0966752660242505
                        0.1058792371349054
                        0.1146759232707296
                        0.1230544816335083
                        0.1310070572423969
                        0.1385270170544137
                        0.1456070700545094
                        0.1522374787881816
                        0.1584045954421512
                        0.1640899771858255
                        0.1692703715836000
                        0.1739189123167280
                        0.1780078652764417
                        0.1815130823714851
                        0.1844198286839797
                        0.1867288900572311
                        0.1884611835515453
                        0.1896590091700133
                        0.1903829041499654
                        0.1907046267228672
                        0.1907000186127221
                        0.1903521376736674
                        0.0000347270713924
                        0.0115192386570633
                        0.0229468969102513
                        0.0342611750381472
                        0.0454052116778913
                        0.0563273469559578
                        0.0669815707617914
                        0.0773280457735031
                        0.0873334648530704
                        0.0969711031169855
                        0.1062204762489312
                        0.1150665526768723
                        0.1234985095201220
                        0.1315080808852809
                        0.1390876206042590
                        0.1462280765993803
                        0.1529171326463852
                        0.1591378048371921
                        0.1648677905369809
                        0.1700798735320725
                        0.1747436879203509
                        0.1788290769379548
                        0.1823110379698150
                        0.1851757380872190
                        0.1874264103918357
                        0.1890874475802680
                        0.1902051194765575
                        0.1908441809463424
                        0.1910809488611408
                        0.1909962242179593
                        0.1905830909368065
                        0.0000329884068186
                        0.0115460152342131
                        0.0230024038825663
                        0.0343459079503287
                        0.0455201142362260
                        0.0564737933612441
                        0.0671613779640608
                        0.0775435001163820
                        0.0875873462079070
                        0.0972666856001058
                        0.1065614774625653
                        0.1154569960633918
                        0.1239424613216404
                        0.1320092297430886
                        0.1396486889319591
                        0.1468500905769287
                        0.1535986287384677
                        0.1598741048952805
                        0.1656505177234516
                        0.1708968858925470
                        0.1755795543556921
                        0.1796661008886522
                        0.1831306644125378
                        0.1859600229042740
                        0.1881591926021144
                        0.1897550296633709
                        0.1907965924977337
                        0.1913518219979972
                        0.1915010933326786
                        0.1913304976849275
                        0.1908452488053884
                        0.0000310629639648
                        0.0115726302387514
                        0.0230577600610399
                        0.0344304789621495
                        0.0456348336356300
                        0.0566200302397271
                        0.0673409465056220
                        0.0777586856707242
                        0.0878409303711023
                        0.0975619494626034
                        0.1069021553685658
                        0.1158471450221307
                        0.1243862081169118
                        0.1325103642867196
                        0.1402100935487993
                        0.1474730328703840
                        0.1542819970229233
                        0.1606137187404019
                        0.1664386829457785
                        0.1717223596029211
                        0.1764280202043203
                        0.1805211221861769
                        0.1839749126426766
                        0.1867764476849017
                        0.1889318117620656
                        0.1904692405685264
                        0.1914392756275475
                        0.1919118096236950
                        0.1919705337336486
                        0.1917070286406854
                        0.1911410912932542
                        0.0000289569204989
                        0.0115990863920794
                        0.0231129647283028
                        0.0345148838715752
                        0.0457493615073721
                        0.0567660436066751
                        0.0675202545818050
                        0.0779735698592477
                        0.0880941703766871
                        0.0978568293751151
                        0.1072424226630607
                        0.1162368884031484
                        0.1248296170448889
                        0.1330113393983340
                        0.1407716981465289
                        0.1480968135051196
                        0.1549672523259620
                        0.1613568481059728
                        0.1672327797930024
                        0.1725572022525579
                        0.1772905360104161
                        0.1813962577347451
                        0.1848466744379142
                        0.1876287693089002
                        0.1897489570504034
                        0.1912357168081696
                        0.1921396330755303
                        0.1925310451454483
                        0.1924958355530890
                        0.1921309776572311
                        0.1914736687344706
                        0.0000266771216622
                        0.0116253866292426
                        0.0231680170035844
                        0.0345991180512748
                        0.0458636888404977
                        0.0569118186201192
                        0.0676992792883636
                        0.0781881187068980
                        0.0883470174675092
                        0.0981512576720747
                        0.1075821889311865
                        0.1166261108359199
                        0.1252725494468604
                        0.1335120019487494
                        0.1413333553271392
                        0.1487213271304437
                        0.1556543880486432
                        0.1621036646515078
                        0.1680332595723519
                        0.1734022630404613
                        0.1781684759672582
                        0.1822935355625431
                        0.1857487612528199
                        0.1885207194336219
                        0.1906154266352664
                        0.1920604466786975
                        0.1929048355656713
                        0.1932175390236217
                        0.1930849478198010
                        0.1926087746385988
                        0.1918467498604797
                        0.0000242311634498
                        0.0116515339595159
                        0.0232229154918500
                        0.0346831758959022
                        0.0459778052200764
                        0.0570573385988894
                        0.0678779954063545
                        0.0784022953759483
                        0.0885994193565533
                        0.0984451623054149
                        0.1079213582392984
                        0.1170146898742073
                        0.1257148574280714
                        0.1340121865660432
                        0.1418949012687937
                        0.1493464461521213
                        0.1563433672106311
                        0.1628542982746232
                        0.1688405162381702
                        0.1742583137955514
                        0.1790631147615709
                        0.1832148675724334
                        0.1866838735343579
                        0.1894559728040112
                        0.1915361030490184
                        0.1929497744487840
                        0.1937428380803326
                        0.1939806248652667
                        0.1937475819138219
                        0.1931485454954257
                        0.1922650336164675
                        0.0000216275014058
                        0.0116775311767991
                        0.0232776576047681
                        0.0347670497602377
                        0.0460916973677633
                        0.0572025831442966
                        0.0680563730796275
                        0.0786160573648517
                        0.0888513169053717
                        0.0987384629447645
                        0.1082598245758235
                        0.1174024906613939
                        0.1261563775744506
                        0.1345117081505069
                        0.1424561466813420
                        0.1499720096453070
                        0.1570341087108736
                        0.1636088200110172
                        0.1696548651815850
                        0.1751260229274510
                        0.1799755959627538
                        0.1841620115351846
                        0.1876545554065972
                        0.1904380948895369
                        0.1925158999816513
                        0.1939103697119073
                        0.1946624297248108
                        0.1948311890031409
                        0.1944957026433751
                        0.1937607368906811
                        0.1927344593227474
                        0.0000188756008051
                        0.0117033802867195
                        0.0233322382757738
                        0.0348507279610465
                        0.0462053464008727
                        0.0573475246175462
                        0.0682343734587606
                        0.0788293512570403
                        0.0891026378993964
                        0.0990310636787070
                        0.1085974633488696
                        0.1177893560492550
                        0.1265969194521086
                        0.1350103484251470
                        0.1430168609627385
                        0.1505978045361247
                        0.1577264648156012
                        0.1643672149932355
                        0.1704765107385007
                        0.1760059164575225
                        0.1809068852845829
                        0.1851365146642605
                        0.1886631257592159
                        0.1914704578446351
                        0.1935596658118400
                        0.1949491408614205
                        0.1956732273679466
                        0.1957818923266923
                        0.1953441572119276
                        0.1944590549885090
                        0.1932626737505152
                        0.0000159861516858
                        0.0117290814045259
                        0.0233866475413703
                        0.0349341910283554
                        0.0463187226987871
                        0.0574921215451092
                        0.0684119405512387
                        0.0790421028984624
                        0.0893532854063912
                        0.0993228393764098
                        0.1089341155276787
                        0.1181750882350853
                        0.1270362443754685
                        0.1355078313624730
                        0.1435767436746860
                        0.1512235323579404
                        0.1584201822675302
                        0.1651293368337331
                        0.1713054926148076
                        0.1768983150072866
                        0.1818576960917507
                        0.1861396244052512
                        0.1897115692276048
                        0.1925561051962842
                        0.1946720189307106
                        0.1960730578639527
                        0.1967855635724067
                        0.1968473315573517
                        0.1963114569450965
                        0.1952619159414634
                        0.1938597571617786
                        0.0000129713942309
                        0.0117546306317260
                        0.0234408659631951
                        0.0350174046280332
                        0.0464317762210882
                        0.0576363061916131
                        0.0685889858696753
                        0.0792541988968607
                        0.0896031158561635
                        0.0996136100182812
                        0.1092695578238565
                        0.1185594143055348
                        0.1274740257110041
                        0.1360037775011255
                        0.1441353719483466
                        0.1518487486229193
                        0.1591148322885191
                        0.1658948267085882
                        0.1721415922526651
                        0.1778032252244657
                        0.1828283627601371
                        0.1871721387894166
                        0.1908013555785559
                        0.1936975287393424
                        0.1958570703345867
                        0.1972888248164382
                        0.1980101827283756
                        0.1980440306510778
                        0.1974206857449433
                        0.1961947544415732
                        0.1945393914377714
                        0.0000098456365846
                        0.0117800159548446
                        0.0234948558698971
                        0.0351003060469708
                        0.0465444180362560
                        0.0577799608633465
                        0.0687653591659466
                        0.0794654513621328
                        0.0898518972712087
                        0.0999030917961116
                        0.1096034459209009
                        0.1189419207089289
                        0.1279097735303820
                        0.1364976175024399
                        0.1446921014145607
                        0.1524727493082338
                        0.1598096804917138
                        0.1666629642323567
                        0.1729841617980969
                        0.1787201433061772
                        0.1838186139155093
                        0.1882341420193695
                        0.1919331258854445
                        0.1948962871443151
                        0.1971179503360850
                        0.1986022964820579
                        0.1993575944355456
                        0.1993900464671382
                        0.1987003941148451
                        0.1972938130979023
                        0.1953208085990759
                        0.0000066261242451
                        0.0118052092311804
                        0.0235485443715084
                        0.0351827780164084
                        0.0466564845700504
                        0.0579228720622665
                        0.0689407918264559
                        0.0796755297206098
                        0.0900992285032226
                        0.1001908025823523
                        0.1099352047647297
                        0.1193219266999615
                        0.1283426892439793
                        0.1369884256554043
                        0.1452458758544299
                        0.1530943534636605
                        0.1605034387476538
                        0.1674323843217666
                        0.1738318010066260
                        0.1796476859521512
                        0.1848271495977692
                        0.1893245166126651
                        0.1931061224148009
                        0.1961523264364008
                        0.1984559780183500
                        0.2000174425565878
                        0.2008368146794265
                        0.2009037741288292
                        0.2001850472118377
                        0.1986125616458497
                        0.1962321626486619
                        0.0000033345735512
                        0.0118301503326916
                        0.0236017899093940
                        0.0352645972150584
                        0.0467676673092248
                        0.0580646403712847
                        0.0691147856336046
                        0.0798838267374866
                        0.0903443805627994
                        0.1004758762380491
                        0.1102638131002977
                        0.1196982358811179
                        0.1287713803756497
                        0.1374745934880646
                        0.1457948545307951
                        0.1537114783348908
                        0.1611937812611208
                        0.1682005263644382
                        0.1746817304067084
                        0.1805828767318300
                        0.1858508273569805
                        0.1904400111709310
                        0.1943171120186517
                        0.1974627188557034
                        0.1998691503295064
                        0.2015344803775332
                        0.2024530009893291
                        0.2026011694204466
                        0.2019139005233864
                        0.2002329188635377
                        0.1973165808847723
                        0.0000000000000000
                        0.0118548756456410
                        0.0236546391505116
                        0.0353458252783753
                        0.0468780469094681
                        0.0582053703880474
                        0.0692874753935772
                        0.0800905149368827
                        0.0905875714302317
                        0.1007585815492829
                        0.1105895882615882
                        0.1200711952571005
                        0.1291961741771505
                        0.1379563290922138
                        0.1463389525405081
                        0.1543234704407274
                        0.1618790823333977
                        0.1689642404720148
                        0.1755285658224292
                        0.1815172309783900
                        0.1868770491516159
                        0.1915627603877311
                        0.1955416534650175
                        0.1987949367157529
                        0.2013150591670647
                        0.2030989632656831
                        0.2041372258384657
                        0.2043970601202161
                        0.2037900245281906
                        0.2020889855001519
                        0.1986434177082747
                </DataArray>
                <DataArray type="Float32" Name="aspect_ratio" NumberOfComponents="1" format="ascii">
                        7.7319859838407374
                        7.6918385805601497
                        7.6314673815704120
                        7.5324374355804350
                        7.3967659474292908
                        7.2271653084251042
                        7.0269238163090117
                        6.7997713362400410
                        6.5497372120798812
                        6.2810084127445897
                        5.9977953434046302
                        5.7042114564710179
                        5.4041710956710318
                        5.1013081786172534
                        4.7989165768264307
                        4.4999115385302650
                        4.2068103072678050
                        3.9217292703860091
                        3.6463945322926771
                        3.3821627231296638
                        3.1300490593689946
                        2.8907600793106720
                        2.6647289758481555
                        2.4521519621835995
                        2.2530245953831477
                        2.0671775055392328
                        1.8943117958299716
                        1.7340365432082712
                        1.5859196217349095
                        1.4496095454079528
                        1.3202124456882840
                        7.7400650528069789
                        7.6998833121815099
                        7.6394566290032572
                        7.5403277340309800
                        7.4045156196622576
                        7.2347350617177547
                        7.0342772901383211
                        6.8068755934718917
                        6.5565631998452059
                        6.2875314395531458
                        6.0039956264252713
                        5.7100747791147985
                        5.4096895766182063
                        5.1064810922537323
                        4.8037510969784915
                        4.5044232269048428
                        4.2110231622527337
                        3.9256752068633786
                        3.6501122768996374
                        3.3856962584479875
                        3.1334459006820796
                        2.8940697886830010
                        2.6680024067827884
                        2.4554418282036245
                        2.2563882098767648
                        2.0706833396328242
                        1.8980540791215233
                        1.7381709856385917
                        1.5907659791877698
                        1.4559885747288882
                        1.3281617374962236
                        7.7481637296368397
                        7.7079498743083164
                        7.6474696898291536
                        7.5482438010299243
                        7.4122930188787953
                        7.2423345035389676
                        7.0416624069101677
                        6.8140134291843655
                        6.5634246745670443
                        6.2940918346150352
                        6.0102351448471896
                        5.7159792223230224
                        5.4152511385852335
                        5.1116992095874718
                        4.8086332233847119
                        4.5089853485100489
                        4.2152898643061082
                        3.9296791591094205
                        3.6538931219292108
                        3.3892990403302597
                        3.1369193242514446
                        2.8974647211940442
                        2.6713711171978611
                        2.4588385418798211
                        2.2598717486757974
                        2.0743231538249025
                        1.9019421884345634
                        1.7424430349282706
                        1.5956155109467076
                        1.4614553049238976
                        1.3337937348961510
                        7.7562823595090963
                        7.7160393544766921
                        7.6555081776174139
                        7.5561877117357300
                        7.4201006681802936
                        7.2499666109565482
                        7.0490826111022881
                        6.8211887707747034
                        6.5703260611795984
                        6.3006945314116992
                        6.0165193445346631
                        5.7219307358281992
                        5.4208622073163908
                        5.1169693763467976
                        4.8135701271795456
                        4.5136052551885483
                        4.2196177384780431
                        3.9337481405150859
                        3.6577433879393189
                        3.3929761899031763
                        3.1404725686851635
                        2.9009452770122963
                        2.6748312502833196
                        2.4623317165878192
                        2.2634543019659520
                        2.0780577094144159
                        1.9059016053555489
                        1.7467055446865761
                        1.6002053699560954
                        1.4660867346056799
                        1.3380688048647756
                        7.7644210629323520
                        7.7241499760586477
                        7.6635685374028965
                        7.5641542377828303
                        7.4279317938653061
                        7.2576232159725179
                        7.0565285108637055
                        6.8283911876997067
                        6.5772560847967766
                        6.3073276077792894
                        6.0228358484500878
                        5.7279166671114754
                        5.4265100122166462
                        5.1222788300616867
                        4.8185491403244155
                        4.5182704121561435
                        4.2239943681974287
                        3.9378697775212125
                        3.6616505996885903
                        3.3967148973813564
                        3.1440921292537451
                        2.9044966882251270
                        2.6783658395684585
                        2.4659005702112152
                        2.2671083513164110
                        2.0818473874468298
                        1.9098716976409785
                        1.7508708926106633
                        1.6044725242232281
                        1.4700966273848023
                        1.3415155258308416
                        7.7725798797868238
                        7.7322810463995818
                        7.6716494150152606
                        7.5721414090081264
                        7.4357838611055616
                        7.2653012788814449
                        7.0639966291326708
                        6.8356168390569537
                        6.5842106175965420
                        6.3139867257491192
                        6.0291801802864450
                        5.7339324623304811
                        5.4321899644878222
                        5.1276229634311633
                        4.8235656194056156
                        4.5229760809113216
                        4.2284148129758192
                        3.9420387659483947
                        3.6656088625257226
                        3.4005083660980112
                        3.1477698714652816
                        2.9081088460856899
                        2.6819618248120375
                        2.4695275320562257
                        2.2708093263432453
                        2.0856570439883414
                        1.9138040652359542
                        1.7548872536328386
                        1.6084174260688131
                        1.4736374687963983
                        1.3444334672638706
                        7.7807588288469489
                        7.7404323284425273
                        7.6797503666078897
                        7.5801485967304315
                        7.4436560767715256
                        7.2729998648698974
                        7.0714859150473180
                        6.8428645859607698
                        6.5911884616983287
                        6.3206706560592882
                        6.0355511018039340
                        5.7399768862345756
                        5.4379008267735763
                        5.1330005072670519
                        4.8286182012214906
                        4.5277207022005171
                        4.2328771688439947
                        3.9462526546903792
                        3.6696149117747840
                        3.4043521687050393
                        3.1514997381140014
                        2.9117734149866495
                        2.6856076610930729
                        2.4731965097649403
                        2.2745348293974454
                        2.0894565141852490
                        1.9176630515398943
                        1.7587293049221509
                        1.6120659591795582
                        1.4768184739035897
                        1.3469979372010786
                        7.7889579306632262
                        7.7486037773737196
                        7.6878713203344456
                        7.5881757154363349
                        7.4515483503311945
                        7.2807188868392213
                        7.0789962942555178
                        6.8501343770109364
                        6.5981895988576886
                        6.3273794218150632
                        6.0419486802326882
                        5.7460500425308318
                        5.4436427146576933
                        5.1384115398970891
                        4.8337068452395363
                        4.5325039949710640
                        4.2373807456178713
                        3.9505101218984753
                        3.6736665081450563
                        3.4082427837058987
                        3.1552764542992160
                        2.9154827464783702
                        2.6892925095586930
                        2.4768924689850245
                        2.2782647305352233
                        2.0932210144447000
                        1.9214244548597060
                        1.7623892041926833
                        1.6154518243465668
                        1.4797185021138242
                        1.3493151047940646
                        7.7971772149449654
                        7.7567954290460868
                        7.6960123508009011
                        7.5962228893389548
                        7.4594608604836649
                        7.2884585815179802
                        7.0865280650836475
                        6.8574265759939192
                        6.6052144617589085
                        6.3341135257408963
                        6.0483734838788083
                        5.7521525500446326
                        5.4494162652287455
                        5.1438566595302404
                        4.8388320206073097
                        4.5373261683791964
                        4.2419253139502986
                        3.9548102672143546
                        3.6777617862331634
                        3.4121770139738770
                        3.1590950355895899
                        2.9192295079952216
                        2.6930060350627664
                        2.4806014576893147
                        2.2819813942668606
                        2.0969310866876065
                        1.9250734116726330
                        1.7658696811619395
                        1.6186087114625480
                        1.4823951068440836
                        1.3514515963489899
                        7.8054167217020562
                        7.7650073522859905
                        7.7041735847769747
                        7.6042903138590647
                        7.4673938755466867
                        7.2962192925306779
                        7.0940816485845343
                        6.8647416835106337
                        6.6122636321151914
                        6.3408736297904855
                        6.0548262483081575
                        5.7582852005277225
                        5.4552222915291905
                        5.1493366402402864
                        4.8439943685283886
                        4.5421875954736053
                        4.2465107954465059
                        3.9591523240874659
                        3.6818989962242666
                        3.4161517678484691
                        3.1629506236610320
                        2.9230065959410886
                        2.6967384254624901
                        2.4843107392348173
                        2.2856697995101817
                        2.1005721543292871
                        1.9286021510222933
                        1.7691792778746226
                        1.6215671394477440
                        1.4848908008418782
                        1.3534507339521701
                        7.8136765001348549
                        7.7732396283565435
                        7.7123551623035933
                        7.6123781991463862
                        7.4753476805367487
                        7.3040013824599421
                        7.1016574871488033
                        6.8720802239488591
                        6.6193377178543233
                        6.3476604244787382
                        6.0613077398431640
                        5.7644488183956877
                        5.4610616406303345
                        5.1548522905959811
                        4.8491945638393238
                        4.5470886803422129
                        4.2511371384941120
                        3.9635355482243702
                        3.6860764103833355
                        3.4201639916122991
                        3.1668384564601163
                        2.9268071587379866
                        2.7004804776299896
                        2.4880089090659526
                        2.2893175085442049
                        2.1041338545622109
                        1.9320079851724769
                        1.7723292763943481
                        1.6243534783699524
                        1.4872373758561299
                        1.3553416555031433
                        7.8219566069154446
                        7.7814923420710823
                        7.7205572211774434
                        7.6204867480976437
                        7.4833225490494531
                        7.3118051990055789
                        7.1092560054554405
                        6.8794427017932729
                        6.6264373054029267
                        6.3544745778471704
                        6.0678187019418529
                        5.7706442053215630
                        5.4669351373903352
                        5.1604043977179489
                        4.8544332607116363
                        4.5520298071807033
                        4.2558042729771556
                        3.9679591810882844
                        3.6902922998257608
                        3.4242106659958882
                        3.1707538929484394
                        2.9306246575169147
                        2.7042236878902810
                        2.4916859559925536
                        2.2929145103386968
                        2.1076092920346320
                        1.9352916719926822
                        1.7753318160038904
                        1.6269899443374132
                        1.4894588849732785
                        1.3571445659594399
                        7.8302571045050324
                        7.7897655779516463
                        7.7287798912856088
                        7.6286161487828916
                        7.4913187337735778
                        7.3196310636257310
                        7.1168775973350370
                        6.8868295867760371
                        6.6335629432789506
                        6.3613167176537408
                        6.0743598362147930
                        5.7768721204259533
                        5.4728435643030228
                        5.1659937074470011
                        4.8597110741007777
                        4.5570113244128339
                        4.2605120989860855
                        3.9724224459399350
                        3.6945449417570238
                        3.4282888297162067
                        3.1746924583193981
                        2.9344529337813296
                        2.7079603232074892
                        2.4953332642148929
                        2.2964529815401452
                        2.1109943119886408
                        1.9384561583926452
                        1.7781987992018251
                        1.6294949841313394
                        1.4915737122855955
                        1.3588738412212531
                        7.8385780597020004
                        7.7980594185899217
                        7.7370232930056098
                        7.6367665727499140
                        7.4993364645667842
                        7.3274792693009210
                        7.1245226231151051
                        6.8942413107569756
                        6.6407151384506776
                        6.3681874271591693
                        6.0809317977104566
                        5.7831332752272224
                        5.4787876563992855
                        5.1716209197096387
                        4.8650285764358766
                        4.5620335439100831
                        4.2652604903540581
                        3.9769245581831541
                        3.6988326399315825
                        3.4323956138197722
                        3.1786498945709634
                        2.9382862710191392
                        2.7116834661910376
                        2.4989435658456000
                        2.2999270059181455
                        2.1142868476214001
                        1.9415056573490905
                        1.7809412988948766
                        1.6318837754722879
                        1.4935960200640395
                        1.3605399127597432
                        7.8469195424690737
                        7.8063739439726315
                        7.7452875372218578
                        7.6449381755827111
                        7.5073759494231261
                        7.3353500817595919
                        7.1321914109992177
                        6.9016782690957419
                        6.6478943575919654
                        6.3750872462332008
                        6.0875351958489386
                        5.7894283344699684
                        5.4847681022308891
                        5.1772866901738569
                        4.8703863007055978
                        4.5670967466970801
                        4.2700493046724328
                        3.9814647419630090
                        3.7031537505631416
                        3.4365282793563106
                        3.1826222095162145
                        2.9421194451508277
                        2.7153870344347052
                        2.5025108577689112
                        2.3033322839383853
                        2.1174863651273487
                        1.9444449934507108
                        1.7835692726485830
                        1.6341687206890518
                        1.4955367695898342
                        1.3621504428118385
                        7.8552816249956929
                        7.8147092312331511
                        7.7535727259351139
                        7.6531310982267313
                        7.5154373763871388
                        7.3432437418492051
                        7.1398842597297624
                        6.9091408235079330
                        6.6551010300185973
                        6.3820166742838202
                        6.0941705973128735
                        5.7957579190874866
                        5.4907855471562258
                        5.1829916343380442
                        4.8757847461177377
                        4.5722011913487050
                        4.2748783960339112
                        3.9860422492831248
                        3.7075067099847447
                        3.4406842547486471
                        3.1866057210671343
                        2.9459477624480058
                        2.7190657779486787
                        2.5060302964655606
                        2.3066658541998227
                        2.1205934102086526
                        1.9472791534619719
                        1.7860914579839718
                        1.6363598851697703
                        1.4974044476991744
                        1.3637110757799233
                        7.8636643809725160
                        7.8230653545770280
                        7.7618789530011218
                        7.6613454684625627
                        7.5235209156034329
                        7.3511604680475819
                        7.1476014414554804
                        6.9166293051755698
                        6.6623355509265565
                        6.3889761735448746
                        6.1008385293930117
                        5.8021226097064827
                        5.4968405972859130
                        5.1887363323619658
                        4.8812243846214010
                        4.5773471233347295
                        4.2797476287073930
                        3.9906563797990203
                        3.7118900621392021
                        3.4448611710094020
                        3.1905970954568794
                        2.9497670854229187
                        2.7227152596633617
                        2.5094980824593614
                        2.3099258399921076
                        2.1236092489976222
                        1.9500129877453002
                        1.7885153692659306
                        1.6384653665435349
                        1.4992055879196926
                        1.3652259291629945
                        7.8720678850135323
                        7.8314423852820301
                        7.7702063048615845
                        7.6695814022577419
                        7.5316267212082725
                        7.3591004587864913
                        7.1553432043857503
                        6.9241440176098690
                        6.6695982843845115
                        6.3959661721609546
                        6.1075394831791001
                        5.8085229500505904
                        5.5029338233514789
                        5.1945213339200522
                        4.8867056674999696
                        4.5825347844660207
                        4.2846568908370613
                        3.9953065003012155
                        3.7163024848750992
                        3.4490568938646542
                        3.1945933790504018
                        2.9535738481675841
                        2.7263318241205255
                        2.5129113435812983
                        2.3131112278481155
                        2.1265355914204043
                        1.9526510196367423
                        1.7908473473449412
                        1.6404915958130209
                        1.5009451461930634
                        1.3666979193101896
                        7.8804922122173805
                        7.8398403917120266
                        7.7785548611644201
                        7.6778390049458633
                        7.5397549329732508
                        7.3670638944656472
                        7.1631097750664607
                        6.9316852391193347
                        6.6768895659322084
                        6.4029870668724597
                        6.1142739163511179
                        5.8149594499705433
                        5.5090657642440992
                        5.2003471627521512
                        4.8922290317032516
                        4.5877644220327247
                        4.2896061076901356
                        3.9999920633237399
                        3.7207428144613141
                        3.4532695523555188
                        3.1985920239853671
                        2.9573650630842228
                        2.7299125590907657
                        2.5162680238154115
                        2.3162216805828798
                        2.1293743837319641
                        1.9551973303721619
                        1.7930926327184620
                        1.6424435775716549
                        1.5026267718790519
                        1.3681289786750493
                        7.8889374378112755
                        7.8482594393343736
                        7.7869246952954917
                        7.6861183722211888
                        7.5479056776720167
                        7.3750509391036595
                        7.1709013602661803
                        6.9392532248702424
                        6.6842097047457935
                        6.4100392252465006
                        6.1210422555268254
                        5.8214325880161969
                        5.5152369301337247
                        5.2062143207807675
                        4.8977949057140972
                        4.5930362974178349
                        4.2945952541622409
                        4.0047126245551026
                        3.7252100679805915
                        3.4574975637822235
                        3.2025909082236907
                        2.9611383210645745
                        2.7334552542419253
                        2.5195667824025435
                        2.3192573845293867
                        2.1321276576327822
                        1.9576554959216469
                        1.7952554452641181
                        1.6443250779328712
                        1.5042530017192122
                        1.3695201988312893
                        7.8974036368878503
                        7.8566995907206610
                        7.7953158747970908
                        7.6944195909330222
                        7.5560790701824972
                        7.3830617416992788
                        7.1787181485219844
                        6.9468482085397293
                        6.6915589853655624
                        6.4171229874667189
                        6.1278448981411283
                        5.8279428135652803
                        5.5214478050973321
                        5.2121232917425731
                        4.9034037148578624
                        4.5983506940267021
                        4.2996243663403639
                        4.0094678588171808
                        3.7297034634081720
                        3.4617396550406022
                        3.2065883507430676
                        2.9648917871052771
                        2.7369583602194770
                        2.5228069061976780
                        2.3222189291147807
                        2.1347974250105076
                        1.9600285589820965
                        1.7973390611719218
                        1.6461387683405020
                        1.5058253955408644
                        1.3708719200952451
                        7.9058908841870605
                        7.8651609055223709
                        7.8037284616762380
                        7.7027427397029586
                        7.5642752143568325
                        7.3910964372873876
                        7.1865603113307280
                        6.9544704035884906
                        6.6989376690006603
                        6.4242386676932497
                        6.1346822138783407
                        5.8344905484794889
                        5.5276988492593766
                        5.2180745442736757
                        4.9090558859995838
                        4.6037079244257104
                        4.3046935519936842
                        4.0142575744334647
                        3.7342224372624552
                        3.4659948805225664
                        3.2105831226533340
                        2.9686241931849236
                        2.7404209507708453
                        2.5259882370070869
                        2.3251072162244687
                        2.1373856093519497
                        1.9623190246499314
                        1.7993458823367991
                        1.6478863322511965
                        1.5073446263443810
                        1.3721837802593544
                        7.9143992539431128
                        7.8736434404274270
                        7.8121625126356577
                        7.7110878893971337
                        7.5724942036776980
                        7.3991551477280270
                        7.1944280040172986
                        6.9621200041850060
                        6.7063459944848028
                        6.4313865550129834
                        6.1415545456977946
                        5.8410761883057629
                        5.5339905004571399
                        5.2240685344309938
                        4.9147518515593857
                        4.6091083366277397
                        4.3098029998826717
                        4.0190817258879617
                        3.7387666598102454
                        3.4702626368135541
                        3.2145744550317418
                        2.9723348299804769
                        2.7438426899227177
                        2.5291111147576896
                        2.3279233966805298
                        2.1398940069098384
                        1.9645288722774681
                        1.8012774962988436
                        1.6495685403365741
                        1.5088105330806494
                        1.3734547294968262
                        7.9229288197576744
                        7.8821472490852713
                        7.8206180791918819
                        7.7194551034368604
                        7.5807361217035798
                        7.4072379822440532
                        7.2023213663262628
                        6.9697971858032571
                        6.7137841788661305
                        6.4385669140121479
                        6.1484622104292933
                        5.8477001030361311
                        5.5403231753864525
                        5.2301057076427435
                        4.9204920528211654
                        4.6145523194525340
                        4.3149529877757296
                        4.0239404246838305
                        3.7433360478255681
                        3.4745426744340504
                        3.2185620442139394
                        2.9760235387039474
                        2.7472238056289103
                        2.5321763367491820
                        2.3306688313885145
                        2.1423242726143028
                        1.9666595790246993
                        1.8031347265610936
                        1.6511852985699179
                        1.5102221411942414
                        1.3746830146436005
                        7.9314796545179917
                        7.8906723820016204
                        7.8290952077092220
                        7.7278444379441600
                        7.5890010423009519
                        7.4153450376850285
                        7.2102405226902373
                        6.9775021054858763
                        6.7212524176100886
                        6.4457799849550474
                        6.1554054989462531
                        5.8543626373901111
                        5.5466972702057614
                        5.2361865000231858
                        4.9262769424592880
                        4.6200403068638622
                        4.3201438890825386
                        4.0288339483109447
                        3.7479307749027226
                        3.4788351068550072
                        3.2225460551518850
                        2.9796907040525520
                        2.7505650707952273
                        2.5351851328528688
                        2.3333450751287231
                        2.1446779274445595
                        1.9687121529536291
                        1.8049176742759596
                        1.6527356724582094
                        1.5115776534531083
                        1.3758661329578157
                        7.9400518303342656
                        7.8992188863811743
                        7.8375939393260076
                        7.7362559417342680
                        7.5972890296497692
                        7.4234763985397444
                        7.2181855821979676
                        6.9852349017368311
                        6.7287508844363316
                        6.4530259835231915
                        6.1623846758819471
                        5.8610641105780195
                        5.5531131605784131
                        5.2423113389886750
                        4.9321069862036664
                        4.6255727811775743
                        4.3253761780045316
                        4.0337627472540836
                        3.7525512793296516
                        3.4831404169868143
                        3.2265271233036223
                        2.9833372489738403
                        2.7538677921903746
                        2.5381391563017463
                        2.3359538814975928
                        2.1469563855371148
                        1.9706871754421909
                        1.8066257532324986
                        1.6542178898216619
                        1.5128744114315192
                        1.3770007525353486
                        7.9486454185035125
                        7.9077868059177119
                        7.8461143097436493
                        7.7446896561094934
                        7.6056001379940441
                        7.4316321366056390
                        7.2261566381946349
                        6.9929956940047514
                        6.7362797306775935
                        6.4603051000644239
                        6.1693999787777594
                        5.8678048154633679
                        5.5595712010354033
                        5.2484806430911101
                        4.9379826635407939
                        4.6311502750331533
                        4.3306504330670960
                        4.0387274499356901
                        3.7571982694971549
                        3.4874594612798844
                        3.2305063553799996
                        2.9869646316395292
                        2.7571338073883171
                        2.5410404895860279
                        2.3384972280656124
                        2.1491610007290261
                        1.9725848544343663
                        1.8082577210570693
                        1.6556293239383258
                        1.5141088259977352
                        1.3780825933451042
                        7.9572604894896577
                        7.9163761804984211
                        7.8546563488668987
                        7.7531456143926720
                        7.6139344110656593
                        7.4398123102673878
                        7.2341537674005430
                        7.0007845816546625
                        6.7438390840639727
                        6.4676174982295781
                        6.1764516165827619
                        5.8745850170216057
                        5.5660717235085365
                        5.2546948209116586
                        4.9439044672707576
                        4.6367733719730838
                        4.3359673388850568
                        4.0437288654527573
                        3.7618727267939451
                        3.4917934714811153
                        3.2344853291127602
                        2.9905748447365982
                        2.7603654895505068
                        2.5438916648804000
                        2.3409773613414427
                        2.1512931335463916
                        1.9744050917757918
                        1.8098117107932066
                        1.6569664586323047
                        1.5152762730419150
                        1.3791062587811181
                        7.9658971129077014
                        7.9249870457952785
                        7.8632200802052277
                        7.7616238411438744
                        7.6222918810754962
                        7.4480169632675509
                        7.2421770284375395
                        7.0086016422581795
                        6.7514290467969513
                        6.4749633128085896
                        6.1835397673194997
                        5.8814049498786832
                        5.5726150348698705
                        5.2609542688087901
                        4.9498729017288112
                        4.6424427054003778
                        4.3413276859596440
                        4.0487679839382005
                        3.7665759058569833
                        3.4961440539857950
                        3.2384660920050278
                        2.9941704169081379
                        2.7635657595508961
                        2.5466956983188886
                        2.3433968615716775
                        2.1533542408768233
                        1.9761475697818764
                        1.8112852688281634
                        1.6582248371726818
                        1.5163709482734674
                        1.3800650019595734
                        7.9745553575149364
                        7.9336194326782961
                        7.8718055199675907
                        7.7701243509106385
                        7.6306725670955817
                        7.4562461227307677
                        7.2502264595189767
                        7.0164469289583552
                        6.7590496926023296
                        6.4823426464894487
                        6.1906645745754642
                        5.8882648145931423
                        5.5792014131464275
                        5.2672593672004642
                        4.9558884793488781
                        4.6481589555982814
                        4.3467323681813414
                        4.0538459742697968
                        3.7713093319451482
                        3.5005131865955733
                        3.2424511588020909
                        2.9977544158617794
                        2.7667381046102799
                        2.5494561372554586
                        2.3457587277062256
                        2.1553459917204302
                        1.9778118644088254
                        1.8126754078389322
                        1.6593989979939699
                        1.5173856720274083
                        1.3809504025936730
                        7.9832352911688722
                        7.9422733663647023
                        7.8804126756673597
                        7.7786471462720790
                        7.6390764725576846
                        7.4644997961338834
                        7.2583020749098849
                        7.0243204664728101
                        6.7667010623036409
                        6.4897555650506439
                        6.1978261423432122
                        5.8951647722119647
                        5.5858311018711591
                        5.2736104748573287
                        4.9619517150531963
                        4.6539228443299189
                        4.3521823775750294
                        4.0589641787028317
                        3.7760747950642381
                        3.5049032123127982
                        3.2464435071876607
                        3.0013304523222525
                        2.7698866022193370
                        2.5521771193612326
                        2.3480664829526573
                        2.1572704134634427
                        1.9793975950893891
                        1.8139786875238491
                        1.6604824028311756
                        1.5183116314221418
                        1.3817519172984248
                        7.9919369807515770
                        7.9509488651423372
                        7.8890415439728378
                        7.7871922148159889
                        7.6475035813778786
                        7.4727779666198370
                        7.2664038595251665
                        7.0322222450177040
                        6.7743831571615908
                        6.4972020901789767
                        6.2050245273828517
                        5.9021049362591843
                        5.5925043017664715
                        5.2800079203949746
                        4.9680631176785491
                        4.6597351262404813
                        4.3576787955892121
                        4.0641241037707838
                        3.7808743402183283
                        3.5093168295362801
                        3.2504465709175075
                        3.0049026836398155
                        2.7730159476815968
                        2.5548634419364100
                        2.3503243011386372
                        2.1591300739670804
                        1.9809046245653113
                        1.8151913420588030
                        1.6614673679749597
                        1.5191380427217533
                        1.3824562454087974
                        8.0006604919747416
                        7.9596459384084506
                        7.8976921073573568
                        7.7957595243988655
                        7.6559538518831029
                        7.4810805857112702
                        7.2745317605518211
                        7.0401522109624809
                        6.7820959286988306
                        6.5046821885722283
                        6.2122597277179510
                        5.9090853607373175
                        5.5992211583628670
                        5.2864519896013747
                        4.9742231770966616
                        4.6655965757932598
                        4.3632227797392603
                        4.0693274063498536
                        3.7857102527781658
                        3.5137570776302947
                        3.2544642291802143
                        3.0084758154029105
                        2.7761314830312857
                        2.5575206391034587
                        2.3525371534673749
                        2.1609283052212151
                        1.9823333259265603
                        1.8163094824507912
                        1.6623450190052680
                        1.5198517113516367
                        1.3830464181879545
                        8.0094058890083293
                        7.9683645835484065
                        7.9063643286902760
                        7.8043490155168169
                        7.6644272070978525
                        7.4894075617045023
                        7.2826856741297037
                        7.0481102520769242
                        6.7898392627116721
                        6.5121957549491039
                        6.2195316648471041
                        5.9161060216919511
                        5.6059817430914471
                        5.2929429062108608
                        4.9804323447531324
                        4.6715079675782298
                        4.3688155435631522
                        4.0745758730223955
                        3.7905850372525256
                        3.5182273162071840
                        3.2585007903508685
                        3.0120550987509931
                        2.7792392243087117
                        2.5601550635153370
                        2.3547109740106592
                        2.1626694740395700
                        1.9836849383895651
                        1.8173294155924587
                        1.6631053072149307
                        1.5204364611049687
                        1.3835004614173575
                        8.0181732337331749
                        7.9771047808016136
                        7.9150581423114123
                        7.8129605886953817
                        7.6729235187358482
                        7.4977587405778652
                        7.2908654236044086
                        7.0560961734875468
                        6.7976129533404093
                        6.5197425846455221
                        6.2268401552272059
                        5.9231667879097107
                        5.6127860234832861
                        5.2994808018443121
                        4.9866910035159431
                        4.6774700461218128
                        4.3744583263007886
                        4.0798713894601788
                        3.7955013864554990
                        3.5227311953270598
                        3.2625609672965330
                        3.0156463201188013
                        2.7823458831086434
                        2.5627739677285409
                        2.3568528402041164
                        2.1643593037277381
                        1.9849620375621650
                        1.8182481415585319
                        1.6637371587301453
                        1.5208723992132174
                        1.3837893807805134
                        8.0269625843382172
                        7.9858664845197617
                        7.9237734387468910
                        7.8215940829787733
                        7.6814425799390086
                        7.5061338736157010
                        7.2990707226994660
                        7.0641096571091576
                        6.8054166595196463
                        6.5273223277616741
                        6.2341848628067737
                        5.9302673724855755
                        5.6196338143108724
                        5.3060656671602147
                        4.9929994191921171
                        4.6834834780107730
                        4.3801523456556998
                        4.0852158937707748
                        3.8004621356270447
                        3.5272726116751455
                        3.2666498395680256
                        3.0192557785502659
                        2.7854588767202394
                        2.5653855783063188
                        2.3589711613968671
                        2.1660052470177968
                        1.9861691487635486
                        1.8190641184049452
                        1.6642288876503670
                        1.5211349844991425
                        1.3838740401349249
                        8.0357739926668848
                        7.9946496077522924
                        7.9325100376889726
                        7.8302492379318425
                        7.6899840572437481
                        7.5145325604633581
                        7.3073011108619352
                        7.0721501906334305
                        6.8132498289260543
                        6.5349344094038026
                        6.2415652168367652
                        5.9374072493746612
                        5.6265246939667879
                        5.3126972689908629
                        4.9993576591833030
                        4.6895487726288660
                        4.3858987209674038
                        4.0906113023163831
                        3.8054701912424199
                        3.5318556416200269
                        3.2707727943116112
                        3.0228902428192236
                        2.7885863185891845
                        2.5679991527330047
                        2.3610758638017746
                        2.1676169036660590
                        1.9873135307598337
                        1.8197784206317583
                        1.6645691160818363
                        1.5211938826337151
                        1.3837001750429276
                        8.0446074992264767
                        8.0034539941823737
                        7.9412676386461726
                        7.8389256242830551
                        7.6985474030364566
                        7.5229541454515297
                        7.3155558357910941
                        7.0802169386712905
                        6.8211115602289261
                        6.5425778855791764
                        6.2489802638313925
                        5.9445855037282638
                        5.6334578552689954
                        5.3193750035328524
                        5.0057654496692409
                        4.6956661446348139
                        4.3916983419883836
                        4.0960593855326085
                        3.8105284145442952
                        3.5364844337193913
                        3.2749354307875536
                        3.0265568749916020
                        2.7917369762763775
                        2.5706250047327349
                        2.3631785535449982
                        2.1692064644204408
                        1.9884061470968238
                        1.8203964616355862
                        1.6647486520415299
                        1.5210116510649264
                        1.3831901705681974
                        8.0534631237274425
                        8.0122793654050338
                        7.9500457279460812
                        7.8476225133098442
                        7.7071316907605025
                        7.5313975226325502
                        7.3238336326787149
                        7.0883085008576365
                        6.8290003448806443
                        6.5502511734694993
                        6.2564283910591374
                        5.9518005531404312
                        5.6404318286494720
                        5.3260976252911463
                        5.0122219136900555
                        4.7018352640568508
                        4.3975516333402246
                        4.1015615485495306
                        3.8156394197872915
                        3.5411630260374269
                        3.2791433991254364
                        3.0302630957312780
                        2.7949201753781018
                        2.5732744763359450
                        2.3652926303135846
                        2.1707891448443786
                        1.9894628144332320
                        1.8209304906071431
                        1.6647641688544076
                        1.5205424545028931
                        1.3822290583737857
                        8.0623408469409216
                        8.0211252190728983
                        7.9588433984870673
                        7.8563386235527945
                        7.7157352954137556
                        7.5398607578818848
                        7.3321322965026187
                        7.0964224434504054
                        6.8369135674501241
                        6.5579515299984155
                        6.2639067926948892
                        5.9590496103443887
                        5.6474439498964304
                        5.3328627276160597
                        5.0187250714794904
                        4.7080547825052174
                        4.4034581117517097
                        4.1071184235575599
                        3.8208052048659473
                        3.5458950172836401
                        3.2834021138165032
                        3.0340163428290793
                        2.7981456101035250
                        2.5759598220696555
                        2.3674333112960898
                        2.1723835462756855
                        1.9905054579451678
                        1.8214030743171223
                        1.6646252807535561
                        1.5197313990531978
                        1.3806398940622459
                        8.0712405754320815
                        8.0299922484843508
                        7.9676618582171592
                        7.8650755510862521
                        7.7243601268950743
                        7.5483460198469279
                        7.3404542060964283
                        7.1045613087725705
                        6.8448538882433956
                        6.5656816908751998
                        6.2714182439274282
                        5.9663354662504192
                        5.6544970208016791
                        5.3396731438213356
                        5.0252778382191089
                        4.7143277760077059
                        4.4094211131523718
                        4.1127337094495282
                        3.8260299195737732
                        3.5506850679759569
                        3.2877167832783378
                        3.0378224211793405
                        2.8014198069773932
                        2.5786885812426384
                        2.3696097062129666
                        2.1740012566545849
                        1.9915493075643107
                        1.8218330811852798
                        1.6643424949977185
                        1.5184800986141506
                        1.3781391070934631
                </DataArray>
                <DataArray type="Float32" Name="jacobian" NumberOfComponents="1" format="ascii">
                        0.0267367966030780
                        0.0266022066374026
                        0.0264013874983238
                        0.0260705443108404
                        0.0256162975144756
                        0.0250474794868282
                        0.0243747972240997
                        0.0236104274305815
                        0.0227675752452605
                        0.0218600248256355
                        0.0209017065670373
                        0.0199063013537794
                        0.0188868971965432
                        0.0178557083417100
                        0.0168238618870244
                        0.0158012523991066
                        0.0147964611802105
                        0.0138167337284902
                        0.0128680066303623
                        0.0119549736534589
                        0.0110811802167524
                        0.0102491356670802
                        0.0094604337711201
                        0.0087158732403265
                        0.0080155714910372
                        0.0073590653801312
                        0.0067453903778597
                        0.0061731173561598
                        0.0056402691347889
                        0.0051437429938519
                        0.0046580509010398
                        0.0267647335939575
                        0.0266299306729352
                        0.0264287929181242
                        0.0260974488667968
                        0.0256425275543785
                        0.0250728727168474
                        0.0243992050924090
                        0.0236337171524769
                        0.0227896315690579
                        0.0218807517101607
                        0.0209210289662538
                        0.0199241672567877
                        0.0189032799332346
                        0.0178706089502649
                        0.0168373111022068
                        0.0158133116494487
                        0.0148072219698987
                        0.0138263149864567
                        0.0128765500210478
                        0.0119626373768032
                        0.0110881323523261
                        0.0102555485386026
                        0.0094664811140478
                        0.0087217323342333
                        0.0080214334518735
                        0.0073651601858438
                        0.0067520446873116
                        0.0061809066329108
                        0.0056505154192415
                        0.0051605437628776
                        0.0046883424309373
                        0.0267927383873573
                        0.0266577154943936
                        0.0264562532044614
                        0.0261244031590458
                        0.0256688028691195
                        0.0250983074105559
                        0.0244236512760618
                        0.0236570427247491
                        0.0228117219875238
                        0.0219015116848919
                        0.0209403842833136
                        0.0199420668892966
                        0.0189196984560489
                        0.0178855490525289
                        0.0168508057459864
                        0.0158254252434798
                        0.0148180499121273
                        0.0138359811403623
                        0.0128852021169940
                        0.0119704408840648
                        0.0110952639210933
                        0.0102621905621206
                        0.0094728193018375
                        0.0087279586081201
                        0.0080277575299539
                        0.0073718362869215
                        0.0067594281397583
                        0.0061895734286472
                        0.0056614757674115
                        0.0051751184443781
                        0.0047097276064264
                        0.0268208121769530
                        0.0266855597388839
                        0.0264837651740608
                        0.0261514024354845
                        0.0256951172107059
                        0.0251237758265233
                        0.0244481265131442
                        0.0236803933239450
                        0.0228338340656428
                        0.0219222906458581
                        0.0209597566824723
                        0.0199599826213015
                        0.0189361332906910
                        0.0179005073134198
                        0.0168643226708265
                        0.0158375683750801
                        0.0148289188479876
                        0.0138457051810859
                        0.0128939357906233
                        0.0119783578951697
                        0.0111025506470175
                        0.0102690406841645
                        0.0094794314918460
                        0.0087345395246438
                        0.0080345330395118
                        0.0073790752139712
                        0.0067674839224268
                        0.0061989378364762
                        0.0056727523429709
                        0.0051885022973233
                        0.0047258976630360
                        0.0268489553795274
                        0.0267134704825653
                        0.0265113422992240
                        0.0261784663823736
                        0.0257214962211895
                        0.0251493092306621
                        0.0244726672996398
                        0.0237038102336919
                        0.0228560133957952
                        0.0219431379884385
                        0.0209791988346430
                        0.0199779698501508
                        0.0189526419848570
                        0.0179155428187774
                        0.0168779218414397
                        0.0158498011710879
                        0.0148398882827712
                        0.0138555451297138
                        0.0129028066116735
                        0.0119864403957361
                        0.0111100394951898
                        0.0102761388175048
                        0.0094863473188039
                        0.0087414887816112
                        0.0080417469982568
                        0.0073868157587319
                        0.0067760597621056
                        0.0062086902299520
                        0.0056839042603842
                        0.0052006878228444
                        0.0047388784013141
                        0.0268771681330520
                        0.0267414504579845
                        0.0265389897246594
                        0.0262056024900909
                        0.0257479496548468
                        0.0251749195376271
                        0.0244972875884442
                        0.0237273093082270
                        0.0228782775843475
                        0.0219640729089924
                        0.0209987313465281
                        0.0199960503859916
                        0.0189692473036845
                        0.0179306789810933
                        0.0168916269323011
                        0.0158621470874837
                        0.0148509808624239
                        0.0138655221007796
                        0.0129118332786317
                        0.0119947035483737
                        0.0111177405839375
                        0.0102834878283867
                        0.0094935588832762
                        0.0087487817403430
                        0.0080493474997665
                        0.0073949605594482
                        0.0067849865232613
                        0.0062185781471154
                        0.0056946990455043
                        0.0052118046989513
                        0.0047498164239761
                        0.0269054505025104
                        0.0267695006610986
                        0.0265667092369395
                        0.0262328133150295
                        0.0257744808277506
                        0.0252006108131025
                        0.0245219921841634
                        0.0237508960795476
                        0.0229006328766110
                        0.0219851023446005
                        0.0210183618088838
                        0.0200142324043674
                        0.0189859578889233
                        0.0179459247178669
                        0.0169054468512078
                        0.0158746146200492
                        0.0148622041310125
                        0.0138756419861198
                        0.0129210191313247
                        0.0120031469649392
                        0.0111256481896109
                        0.0102910743200899
                        0.0095010415102216
                        0.0087563766902068
                        0.0080572667368743
                        0.0074034031563396
                        0.0067941093447644
                        0.0062284187281844
                        0.0057050324499274
                        0.0052220109930922
                        0.0047593827080495
                        0.0269338025590230
                        0.0267976214298086
                        0.0265945013250966
                        0.0262600994934111
                        0.0258010905411543
                        0.0252263840504952
                        0.0245467823062433
                        0.0237745720318317
                        0.0229230810614527
                        0.0220062284232456
                        0.0210380927063818
                        0.0200325187308134
                        0.0190027768362779
                        0.0179612832442846
                        0.0169193846758446
                        0.0158872063205745
                        0.0148735595708545
                        0.0138859044733796
                        0.0129303611155304
                        0.0120117636048123
                        0.0111337496000537
                        0.0102988775280700
                        0.0095087629024492
                        0.0087642247255210
                        0.0080654324073188
                        0.0074120414302309
                        0.0068032992016194
                        0.0062380896596234
                        0.0057148732786676
                        0.0052314533481701
                        0.0047679840405318
                        0.0269622244053759
                        0.0268258128847209
                        0.0266223660283032
                        0.0262874609842243
                        0.0258277787013777
                        0.0252522391442840
                        0.0245716578879091
                        0.0237983371945826
                        0.0229456223248072
                        0.0220274515423800
                        0.0210579246855239
                        0.0200509102629895
                        0.0190197052380202
                        0.0179767557047108
                        0.0169334413456008
                        0.0158999225241641
                        0.0148850463451177
                        0.0138963067900416
                        0.0129398535241252
                        0.0120205435250126
                        0.0111420289151597
                        0.0103068732682452
                        0.0095166874332719
                        0.0087722747154829
                        0.0080737736818011
                        0.0074207838680213
                        0.0068124546694609
                        0.0062475147481546
                        0.0057242288868894
                        0.0052402554665340
                        0.0047758761928424
                        0.0269907161799697
                        0.0268540751033651
                        0.0266503032760167
                        0.0263148975705801
                        0.0258545449749446
                        0.0252781756892018
                        0.0245966185077111
                        0.0238221911936589
                        0.0229682564061755
                        0.0220487716163229
                        0.0210778578783704
                        0.0200694073565093
                        0.0190367436174027
                        0.0179923426435988
                        0.0169476171585700
                        0.0159127628641544
                        0.0148966628257585
                        0.0139068452442629
                        0.0129494895586590
                        0.0120294754844956
                        0.0111504687414560
                        0.0103150358132895
                        0.0095247783572597
                        0.0087804760278973
                        0.0080822243626227
                        0.0074295518670121
                        0.0068214992403483
                        0.0062566503586441
                        0.0057331248535616
                        0.0052485174814512
                        0.0047832258956100
                        0.0270192780529810
                        0.0268824081838661
                        0.0266783130165397
                        0.0263424090515068
                        0.0258813890406137
                        0.0253041932885006
                        0.0246216637494802
                        0.0238461336574911
                        0.0229909830455391
                        0.0220701885581422
                        0.0210978924136258
                        0.0200880103597658
                        0.0190538924825061
                        0.0180080445744517
                        0.0169619123529145
                        0.0159257268650764
                        0.0149084071998288
                        0.0139175158504812
                        0.0129592619873224
                        0.0120385476599240
                        0.0111590510117964
                        0.0103233388919464
                        0.0095329990871722
                        0.0087887801185623
                        0.0080907244418030
                        0.0074382798484528
                        0.0068303770324468
                        0.0062654745949929
                        0.0057415935670084
                        0.0052563189432113
                        0.0047901456115296
                        0.0270479102204188
                        0.0269108122637464
                        0.0267063952588253
                        0.0263699953062079
                        0.0259083106749554
                        0.0253302916593910
                        0.0246467933258143
                        0.0238701643566264
                        0.0230138021368913
                        0.0220917024449534
                        0.0211180285917509
                        0.0201067197972742
                        0.0190711525166454
                        0.0180238621768524
                        0.0169763273113286
                        0.0159388141569227
                        0.0149202776983102
                        0.0139283145814681
                        0.0129691634352727
                        0.0120477479995685
                        0.0111677574431303
                        0.0103317563054713
                        0.0095413140115373
                        0.0087971414704940
                        0.0080992206834332
                        0.0074469142207438
                        0.0068390483158926
                        0.0062739793422151
                        0.0057496681255533
                        0.0052637225248580
                        0.0047967135556503
                        0.0270766128983064
                        0.0269392875213675
                        0.0267345500798285
                        0.0263976563073088
                        0.0259353097711647
                        0.0253564706569362
                        0.0246720071063843
                        0.0238942832359080
                        0.0230367137635330
                        0.0221133135557953
                        0.0211382669250309
                        0.0201255364117880
                        0.0190885246229184
                        0.0180397963447028
                        0.0169908626152570
                        0.0159520245390916
                        0.0149322726760033
                        0.0139392374739312
                        0.0129791865312025
                        0.0120570644340716
                        0.0111765698434221
                        0.0103402623629272
                        0.0095496890511660
                        0.0088055181142806
                        0.0081076665976913
                        0.0074554118173540
                        0.0068474854907967
                        0.0062821646920100
                        0.0057573792873625
                        0.0052707774063648
                        0.0048029855372656
                        0.0271053863176606
                        0.0269678341713740
                        0.0267627776193212
                        0.0264253921150991
                        0.0259623863327875
                        0.0253827302671313
                        0.0246973051103193
                        0.0239184904059524
                        0.0230597181885782
                        0.0221350223613104
                        0.0211586081265670
                        0.0201444611531200
                        0.0191060099140217
                        0.0180558481789419
                        0.0170055190433608
                        0.0159653579892280
                        0.0149443906374964
                        0.0139502806816329
                        0.0129893240021743
                        0.0120664850329048
                        0.0111854703522706
                        0.0103488322163144
                        0.0095580920419219
                        0.0088138718584854
                        0.0081160220452811
                        0.0074637381792815
                        0.0068556697364534
                        0.0062900351657290
                        0.0057647541084157
                        0.0052775220517212
                        0.0048090021600646
                        0.0271342307204366
                        0.0269964524586981
                        0.0267910780710268
                        0.0264532028659525
                        0.0259895404594845
                        0.0254090705901346
                        0.0247226874868791
                        0.0239427861214695
                        0.0230828158310689
                        0.0221568294977712
                        0.0211790530827392
                        0.0201634951499729
                        0.0191236096848117
                        0.0180720189628827
                        0.0170202975530231
                        0.0159788146557306
                        0.0149566302476465
                        0.0139614405136845
                        0.0129995687530497
                        0.0120759981408637
                        0.0111944416473525
                        0.0103574421279356
                        0.0095664929880197
                        0.0088221683151303
                        0.0081242526354151
                        0.0074718658901026
                        0.0068635883447078
                        0.0062975972183721
                        0.0057718154771223
                        0.0052839863787208
                        0.0048147933205747
                        0.0271631463562843
                        0.0270251426528112
                        0.0268194516735060
                        0.0264810887599924
                        0.0260167723315887
                        0.0254354918218238
                        0.0247481544942380
                        0.0239671707573179
                        0.0231060072395044
                        0.0221787357384468
                        0.0211996028230273
                        0.0201826396790771
                        0.0191413253822392
                        0.0180883101352501
                        0.0170351992599742
                        0.0159923948489086
                        0.0149689903412304
                        0.0139727134721035
                        0.0130099139436028
                        0.0120855925064764
                        0.0112034671278027
                        0.0103660696840776
                        0.0095748642140247
                        0.0088303767836514
                        0.0081323290295917
                        0.0074797730696205
                        0.0068712326605067
                        0.0063048576222902
                        0.0057785820969347
                        0.0052901934114431
                        0.0048203810910976
                        0.0271921334800410
                        0.0270539050427910
                        0.0268478987020679
                        0.0265090500498640
                        0.0260440821959830
                        0.0254619942368825
                        0.0247737064798551
                        0.0239916447862963
                        0.0231292930673217
                        0.0222007419671546
                        0.0212202584921560
                        0.0202018961368759
                        0.0191591585780384
                        0.0181047232663701
                        0.0170502254213890
                        0.0160060990359810
                        0.0149814699366738
                        0.0139840962930061
                        0.0130203530670454
                        0.0120952574053185
                        0.0112125310779608
                        0.0103746939629943
                        0.0095831804376484
                        0.0088384700432072
                        0.0081402262267923
                        0.0074874420696555
                        0.0068785965236233
                        0.0063118224383112
                        0.0057850686686754
                        0.0052961605193648
                        0.0048257816082238
                        0.0272211923497321
                        0.0270827399332663
                        0.0268764194619191
                        0.0265370870312179
                        0.0260714703539774
                        0.0254885781741859
                        0.0247993438634697
                        0.0240162087599689
                        0.0231526740517253
                        0.0222228491553654
                        0.0212410213260255
                        0.0202212660152476
                        0.0191771109458355
                        0.0181212600389435
                        0.0170653774238762
                        0.0160199278411565
                        0.0149940682547915
                        0.0139955859919531
                        0.0130308800299402
                        0.0121049827580441
                        0.0112216188125981
                        0.0103832956635469
                        0.0095914187827369
                        0.0088464240927398
                        0.0081479228788822
                        0.0074948583791516
                        0.0068856751060254
                        0.0063184963695132
                        0.0057912861387283
                        0.0053019003343790
                        0.0048310063295540
                        0.0272503232250548
                        0.0271116476411915
                        0.0269050142826077
                        0.0265652000348203
                        0.0260989371511844
                        0.0255152440245595
                        0.0248250671229105
                        0.0240408632925857
                        0.0231761509958647
                        0.0222450583429618
                        0.0212618926315926
                        0.0202407508814046
                        0.0191951842426067
                        0.0181379222333683
                        0.0170806567760916
                        0.0160338820504245
                        0.0150067847419049
                        0.0140071799125384
                        0.0130414892322783
                        0.0121147592420968
                        0.0112307168043740
                        0.0103918572007258
                        0.0095995587498623
                        0.0088542178694731
                        0.0081554006656380
                        0.0075020097262993
                        0.0068924640523467
                        0.0063248823576937
                        0.0057972419431185
                        0.0053074214177524
                        0.0048360628745866
                        0.0272795263661463
                        0.0271406284933071
                        0.0269336835135263
                        0.0265933894200894
                        0.0261264829692514
                        0.0255419922208210
                        0.0248508767824279
                        0.0240656090477676
                        0.0231997247540646
                        0.0222673706223288
                        0.0212828737702629
                        0.0202603523615557
                        0.0192133802939444
                        0.0181547117170340
                        0.0170960651053922
                        0.0160479626201850
                        0.0150196190962900
                        0.0140188757768470
                        0.0130521756462846
                        0.0121245783961472
                        0.0112398127946100
                        0.0104003627745128
                        0.0096075821598875
                        0.0088618329691212
                        0.0081626437454141
                        0.0075088853565838
                        0.0068989588477793
                        0.0063309813285195
                        0.0058029402123314
                        0.0053127287307823
                        0.0048409555805301
                        0.0273088020326741
                        0.0271696828241945
                        0.0269624275203557
                        0.0266216555699614
                        0.0261541082192108
                        0.0255688232296254
                        0.0248767734031269
                        0.0240904467276576
                        0.0232233962197742
                        0.0222897871253262
                        0.0213039661443974
                        0.0202800721277062
                        0.0192317009826785
                        0.0181716304369057
                        0.0171116041577531
                        0.0160621706888641
                        0.0150325712968840
                        0.0140306717365190
                        0.0130629348926973
                        0.0121344327166770
                        0.0112488958890439
                        0.0104087984185912
                        0.0096154730839154
                        0.0088692533850077
                        0.0081696382886525
                        0.0075154754633227
                        0.0069051543542851
                        0.0063367920229777
                        0.0058083819201148
                        0.0053178239476909
                        0.0048456858527815
                        0.0273381504830819
                        0.0271988109748559
                        0.0269912466823710
                        0.0266499988868579
                        0.0261818133361920
                        0.0255957375450007
                        0.0249027575753556
                        0.0241153770642258
                        0.0232471663159214
                        0.0223123090127933
                        0.0213251711864844
                        0.0202999118872439
                        0.0192501482402813
                        0.0181886804148863
                        0.0171272758002298
                        0.0160765075907156
                        0.0150456416332318
                        0.0140425664233867
                        0.0130737633135826
                        0.0121443157464967
                        0.0112579566406387
                        0.0104171520351117
                        0.0096232177709644
                        0.0088764652784696
                        0.0081763720960231
                        0.0075217707485510
                        0.0069110444705790
                        0.0063423108741129
                        0.0058135649686023
                        0.0053227056369319
                        0.0048502523580897
                        0.0273675719740603
                        0.0272280132917033
                        0.0270201413903588
                        0.0266784197895647
                        0.0262095987753217
                        0.0256227356833209
                        0.0249288299127964
                        0.0241404008124440
                        0.0232710359872197
                        0.0223349374662754
                        0.0213464903505574
                        0.0203198733748963
                        0.0192687240405672
                        0.0182058637454494
                        0.0171430820254466
                        0.0160909748710398
                        0.0150588307358402
                        0.0140545589987346
                        0.0130846580409062
                        0.0121542221553334
                        0.0112669871216599
                        0.0104254134212448
                        0.0096308045825878
                        0.0088834567891522
                        0.0081828343000664
                        0.0075277620953311
                        0.0069166218834910
                        0.0063475319023387
                        0.0058184842059693
                        0.0053273693270311
                        0.0048546510876759
                        0.0273970667601083
                        0.0272572901259476
                        0.0270491120452468
                        0.0267069187109906
                        0.0262374650087240
                        0.0256498181795683
                        0.0249549910479952
                        0.0241655187451303
                        0.0232950061943399
                        0.0223576736816925
                        0.0213679251057182
                        0.0203399583467419
                        0.0192874303954897
                        0.0182231825951028
                        0.0171590249575748
                        0.0161055743022488
                        0.0150721396063261
                        0.0140666492004948
                        0.0130956170604160
                        0.0121641478129067
                        0.0112759809872518
                        0.0104335742926506
                        0.0096382239418434
                        0.0088902178911308
                        0.0081890151481147
                        0.0075334403367666
                        0.0069218778883651
                        0.0063524466123160
                        0.0058231313738708
                        0.0053318074647386
                        0.0048588753028834
                        0.0274266350932509
                        0.0272866418333235
                        0.0270781590572582
                        0.0267354960967780
                        0.0262654125235640
                        0.0256769855848926
                        0.0249812416294068
                        0.0241907316494049
                        0.0233190779099099
                        0.0223805188648748
                        0.0213894769315848
                        0.0203601685761945
                        0.0193062693528314
                        0.0182406392035172
                        0.0171751068595438
                        0.0161203079004477
                        0.0150855696468660
                        0.0140788373879357
                        0.0131066392706497
                        0.0121740898550945
                        0.0112849335327229
                        0.0104416283082408
                        0.0096454683024440
                        0.0088967402989564
                        0.0081949058644234
                        0.0075387961116241
                        0.0069268022645885
                        0.0063570438812061
                        0.0058274949813755
                        0.0053360092658019
                        0.0048629153641153
                        0.0274562772228220
                        0.0273160687741949
                        0.0271072828456591
                        0.0267641524046673
                        0.0262934418211392
                        0.0257042384653436
                        0.0250075823198259
                        0.0242160403248118
                        0.0233432521162004
                        0.0224034742290293
                        0.0214111473156654
                        0.0203805058519527
                        0.0193252429956497
                        0.0182582358862464
                        0.0171913301413396
                        0.0161351779423322
                        0.0150991226886417
                        0.0140911245835296
                        0.0131177245370574
                        0.0121840467438880
                        0.0112938417465964
                        0.0104495710998033
                        0.0096525321424361
                        0.0089030174264974
                        0.0082004985903841
                        0.0075438198012289
                        0.0069313831997114
                        0.0063613098332659
                        0.0058315601006437
                        0.0053399604511936
                        0.0048667584327382
                        0.0274859933953399
                        0.0273455713139969
                        0.0271364838391453
                        0.0267928881047472
                        0.0263215534170733
                        0.0257315774020479
                        0.0250340137963949
                        0.0242414455832021
                        0.0233675298048296
                        0.0224265409942601
                        0.0214329377529661
                        0.0204009719780855
                        0.0193443534437233
                        0.0182759750390925
                        0.0172076973694158
                        0.0161501869823379
                        0.0151128010192376
                        0.0141035125119796
                        0.0131288737414492
                        0.0121940183219075
                        0.0113027043611832
                        0.0104574003093149
                        0.0096594119855320
                        0.0089090444006984
                        0.0082057864031044
                        0.0075485015471566
                        0.0069356072625313
                        0.0063652277003263
                        0.0058353080776673
                        0.0053436428534008
                        0.0048703880234723
                        0.0275157838544388
                        0.0273751498240972
                        0.0271657624768771
                        0.0268217036807583
                        0.0263497478428344
                        0.0257590029929705
                        0.0250605367525510
                        0.0242669482507054
                        0.0233919119787992
                        0.0224497203895343
                        0.0214548497480779
                        0.0204215687765516
                        0.0193636028574185
                        0.0182938591444992
                        0.0172242112775905
                        0.0161653378702476
                        0.0151266074091463
                        0.0141160036366503
                        0.0131400888271360
                        0.0122040058623527
                        0.0113115219021447
                        0.0104651156360055
                        0.0096661064521886
                        0.0089148181318791
                        0.0082107634143356
                        0.0075528313542363
                        0.0069394594326346
                        0.0063687776727309
                        0.0058387161494053
                        0.0053470338675371
                        0.0048737833694385
                        0.0275456488408144
                        0.0274048046831130
                        0.0271951192104356
                        0.0268505996326102
                        0.0263780256489010
                        0.0257865158566376
                        0.0250871519022815
                        0.0242925491723678
                        0.0234163996573317
                        0.0224730136577486
                        0.0214768848203842
                        0.0204422980929064
                        0.0193829934445234
                        0.0183118907806131
                        0.0172408747799552
                        0.0161806337698484
                        0.0151405451378721
                        0.0141286011939031
                        0.0131513728404674
                        0.0122140121153721
                        0.0113202967383309
                        0.0104727188945171
                        0.0096726163415430
                        0.0089203374418678
                        0.0082154249535052
                        0.0075567992885901
                        0.0069429232018930
                        0.0063719367519197
                        0.0058417569570414
                        0.0053501057092713
                        0.0048769185406920
                        0.0275755885921938
                        0.0274345362788422
                        0.0272245545068423
                        0.0268795764805700
                        0.0264063874101476
                        0.0258141166386158
                        0.0251138599875205
                        0.0243182492203106
                        0.0234409938846167
                        0.0224964220649113
                        0.0214990445136398
                        0.0204631618064270
                        0.0194025274712585
                        0.0183300726341669
                        0.0172576909869227
                        0.0161960781797085
                        0.0151546180207408
                        0.0141413092263981
                        0.0131627299699076
                        0.0122240413520555
                        0.0113290331331221
                        0.0104802140849775
                        0.0096789447445066
                        0.0089256032509339
                        0.0082197678402714
                        0.0075603957858882
                        0.0069459807730497
                        0.0063746786254666
                        0.0058443979446483
                        0.0053528244241021
                        0.0048797612254925
                        0.0276056033431901
                        0.0274643450109822
                        0.0272540688532096
                        0.0269086347718628
                        0.0264348337343336
                        0.0258418060217811
                        0.0251406617900493
                        0.0243440493069623
                        0.0234656957441346
                        0.0225199469152593
                        0.0215213304117434
                        0.0204841618464865
                        0.0194222072795514
                        0.0183484075192262
                        0.0172746632264251
                        0.0162116749579771
                        0.0151688304382967
                        0.0141541326172062
                        0.0131741655844447
                        0.0122340994077598
                        0.0113377372986194
                        0.0104876074755332
                        0.0096850971876480
                        0.0089306188240272
                        0.0082237907533790
                        0.0075636120906883
                        0.0069486133926045
                        0.0063769736000871
                        0.0058466006349344
                        0.0053551485677671
                        0.0048822710347390
                        0.0276356933250415
                        0.0274942312950003
                        0.0272836627637087
                        0.0269377750907897
                        0.0264633652752898
                        0.0258695847424119
                        0.0251675581501079
                        0.0243699504059356
                        0.0234905063813402
                        0.0225435895753579
                        0.0215437441638967
                        0.0205053002185132
                        0.0194420353138572
                        0.0183668984051595
                        0.0172917950735959
                        0.0162274283545612
                        0.0151831873714527
                        0.0141670771278614
                        0.0131856862743971
                        0.0122441937275104
                        0.0113464174546329
                        0.0104949076979482
                        0.0096910818070177
                        0.0089353900762760
                        0.0082274947034162
                        0.0075664408534923
                        0.0069508018705964
                        0.0063787886510244
                        0.0058483197822082
                        0.0053570274415451
                        0.0048843971118798
                        0.0276658587649377
                        0.0275241955677048
                        0.0273133367901468
                        0.0269669980743592
                        0.0264919827534894
                        0.0258974536153056
                        0.0251945499956194
                        0.0243959535848549
                        0.0235154270394696
                        0.0225673515123159
                        0.0215662875246130
                        0.0205265790452586
                        0.0194620141633344
                        0.0183855484596819
                        0.0173090903948572
                        0.0162433430564838
                        0.0151976944480939
                        0.0141801494459243
                        0.0131972998998462
                        0.0122543334181799
                        0.0113550838959859
                        0.0105021258577685
                        0.0096969095511822
                        0.0089399259371183
                        0.0082308836171691
                        0.0075688769176254
                        0.0069525273593709
                        0.0063800876819236
                        0.0058495024235606
                        0.0053583987124875
                        0.0048860747018831
                        0.0276960998847360
                        0.0275542382955443
                        0.0273430915385209
                        0.0269963044370600
                        0.0265206869887005
                        0.0259254135737647
                        0.0252216383889461
                        0.0244220600578940
                        0.0235404591170651
                        0.0225912343552831
                        0.0215889624181950
                        0.0205480006334285
                        0.0194821466297847
                        0.0184043611174540
                        0.0173265534168117
                        0.0162594242567410
                        0.0152123580113519
                        0.0141933572519190
                        0.0132090156560545
                        0.0122645293159029
                        0.0113637490749582
                        0.0105092756630971
                        0.0097025944140903
                        0.0089442387722652
                        0.0082339650405670
                        0.0075709183325585
                        0.0069537724875007
                        0.0063808321446913
                        0.0058500868951875
                        0.0053591851669746
                        0.0048872201148623
                        0.0277264168983777
                        0.0275843599874803
                        0.0273729276956639
                        0.0270256950112247
                        0.0265494789534117
                        0.0259534657352614
                        0.0252488246035044
                        0.0244482712721995
                        0.0235656042627587
                        0.0226152399969933
                        0.0216117710454768
                        0.0205695675840478
                        0.0195024358401406
                        0.0184233401933393
                        0.0173441888390909
                        0.0162756777656208
                        0.0152271852281394
                        0.0142067093236757
                        0.0132208441731332
                        0.0122747940845585
                        0.0113724277123607
                        0.0105163735816946
                        0.0097081537023725
                        0.0089483448640923
                        0.0082367509660402
                        0.0075725676328791
                        0.0069545229733751
                        0.0063809822537525
                        0.0058500019769244
                        0.0053592902196852
                        0.0048877231408162
                        0.0277568100070381
                        0.0276145612158994
                        0.0274028460739724
                        0.0270551708151535
                        0.0265783598633132
                        0.0259816115126326
                        0.0252761102538429
                        0.0244745890547205
                        0.0235908645363791
                        0.0226393707667489
                        0.0216347160660101
                        0.0205912829810869
                        0.0195228854389314
                        0.0184424900762873
                        0.0173620020272759
                        0.0162921102002641
                        0.0152421842730367
                        0.0142202157121999
                        0.0132327976825773
                        0.0122851423757752
                        0.0113811369642453
                        0.0105234390481248
                        0.0097136083512814
                        0.0089522649564969
                        0.0082392587898645
                        0.0075738334216394
                        0.0069547698734304
                        0.0063804991567804
                        0.0058491665247125
                        0.0053585916011115
                        0.0048874352952744
                        0.0277872793899510
                        0.0276448426523524
                        0.0274328476895049
                        0.0270847331726506
                        0.0266073313362228
                        0.0260098528096106
                        0.0253034975245845
                        0.0245010158706572
                        0.0236162426928938
                        0.0226636297354726
                        0.0216578009196905
                        0.0206131507251051
                        0.0195434999293061
                        0.0184618160732513
                        0.0173799993553872
                        0.0163087293215555
                        0.0152573646554387
                        0.0142338880550510
                        0.0132448903140320
                        0.0122955911101889
                        0.0113898966987436
                        0.0105304947677472
                        0.0097189833249249
                        0.0089560248852941
                        0.0082415124096600
                        0.0075747322928654
                        0.0069545126470416
                        0.0063793486097464
                        0.0058474903490105
                        0.0053569323278110
                        0.0048861510373437
                        0.0278178251871523
                        0.0276752051315033
                        0.0274629339037407
                        0.0271143839306003
                        0.0266363956815171
                        0.0260381923771715
                        0.0253309895875647
                        0.0245275552947264
                        0.0236417427004746
                        0.0226880212726577
                        0.0216810304145523
                        0.0206351761436388
                        0.0195642852978814
                        0.0184813250403527
                        0.0173981888356189
                        0.0163255446549847
                        0.0152727378242644
                        0.0142477401579517
                        0.0132571386481130
                        0.0123061599993144
                        0.0113987299938271
                        0.0105375672165147
                        0.0097243081827877
                        0.0089596563519254
                        0.0082435434913496
                        0.0075752911232275
                        0.0069537632326372
                        0.0063775069595630
                        0.0058448779025104
                        0.0053541075393091
                        0.0048835767806535
                        0.0278484474667669
                        0.0277056497707141
                        0.0274931066905278
                        0.0271441258688364
                        0.0266655564455972
                        0.0260666344850267
                        0.0253585913881435
                        0.0245542128996236
                        0.0236673707173039
                        0.0227125520970995
                        0.0217044118364071
                        0.0206573671445007
                        0.0195852501966762
                        0.0185010265786904
                        0.0174165813137115
                        0.0163425686719122
                        0.0152883183220517
                        0.0142617891094513
                        0.0132695627805085
                        0.0123168725511224
                        0.0114076640838478
                        0.0105446875447882
                        0.0097296179938719
                        0.0089631979825027
                        0.0082453929911680
                        0.0075755497690812
                        0.0069525513088480
                        0.0063749705513732
                        0.0058412379738193
                        0.0053498449216337
                        0.0048792780677967
                        0.0278791461622743
                        0.0277361782020871
                        0.0275233691551058
                        0.0271739634970298
                        0.0266948194721368
                        0.0260951862267556
                        0.0253863111734162
                        0.0245809979828654
                        0.0236931369905213
                        0.0227372333200128
                        0.0217279571073877
                        0.0206797364608894
                        0.0196064082459197
                        0.0185209353669042
                        0.0174351928042078
                        0.0163598191018543
                        0.0153041260499409
                        0.0142760574758127
                        0.0132821884254932
                        0.0123277580636364
                        0.0114167322302846
                        0.0105518933253104
                        0.0097349549932635
                        0.0089666970027194
                        0.0082471131630739
                        0.0075755642581155
                        0.0069509308354342
                        0.0063717699643516
                        0.0058365059162178
                        0.0053437749766056
                        0.0048725865655511
                        0.0279099209505610
                        0.0277667873775484
                        0.0275537164464711
                        0.0272038905632158
                        0.0267241773260740
                        0.0261238391296500
                        0.0254141395509146
                        0.0246079003446749
                        0.0237190306374413
                        0.0227620535353722
                        0.0217516545288505
                        0.0207022724565003
                        0.0196277484212864
                        0.0185410418193212
                        0.0174540163440499
                        0.0163772932033041
                        0.0153201645130596
                        0.0142905574081346
                        0.0132950390405605
                        0.0123388540794308
                        0.0114259888450302
                        0.0105592586197661
                        0.0097404158224833
                        0.0089702760503877
                        0.0082488570295839
                        0.0075755238215143
                        0.0069491340607403
                        0.0063681814866305
                        0.0058309494811456
                        0.0053357319370841
                        0.0048624311416852
                </DataArray>
            </PointData>
        </Piece>
    </StructuredGrid>
</VTKFile>