<?xml version="1.0"?>
<VTKFile type="StructuredGrid" version="0.1" byte_order="LittleEndian">
    <StructuredGrid WholeExtent="0 240 0 4 0 0">
        <Piece Extent="0 240 0 4 0 0">
            <Points>
                <DataArray type="Float32" NumberOfComponents="3" format="ascii">
                        0.2138350208098977        0.0577867387808669    0.0
                        0.2138609101672822        0.0586120570658584    0.0
                        0.2137947203053828        0.0594344976079798    0.0
                        0.2136381106625198        0.0602417566358271    0.0
                        0.2133948231942025        0.0610221912681338    0.0
                        0.2130703973882097        0.0617652957108202    0.0
                        0.2126717739367963        0.0624620291467467    0.0
                        0.2122068255806844        0.0631050186920240    0.0
                        0.2116840068443562        0.0636884711188985    0.0
                        0.2111116531003049        0.0642084088577360    0.0
                        0.2104990557453717        0.0646613626566625    0.0
                        0.2098511335625758        0.0650476651369228    0.0
                        0.2091878470649821        0.0653606203172287    0.0
                        0.2084725742259714        0.0656169040857944    0.0
                        0.2078712078862709        0.0657733878392974    0.0
                        0.2075930755669077        0.0658315176472319    0.0
                        0.2074118445544629        0.0658689196035169    0.0
                        0.2071761895338105        0.0659172911346199    0.0
                        0.2069198360103156        0.0659696280187009    0.0
                        0.2066307776171766        0.0660282961175164    0.0
                        0.2063074747556047        0.0660934890064385    0.0
                        0.2059453791416703        0.0661659826685458    0.0
                        0.2055401238962629        0.0662464797942147    0.0
                        0.2050867054925247        0.0663357680998725    0.0
                        0.2045796253061159        0.0664346837986285    0.0
                        0.2040127971908551        0.0665441210939492    0.0
                        0.2033795083157854        0.0666650301944073    0.0
                        0.2026723644322939        0.0667984176176929    0.0
                        0.2018832366081858        0.0669453455287570    0.0
                        0.2010032059996245        0.0671069308734040    0.0
                        0.2000225084603871        0.0672843439866287    0.0
                        0.1989304798989060        0.0674788063804609    0.0
                        0.1977155039572163        0.0676915870195302    0.0
                        0.1963649639436765        0.0679239958765853    0.0
                        0.1948652014393314        0.0681773727710681    0.0
                        0.1932014845243558        0.0684530683602670    0.0
                        0.1913579891194624        0.0687524125720805    0.0
                        0.1893177976816316        0.0690766635982434    0.0
                        0.1870629199563788        0.0694269277750002    0.0
                        0.1845743436200177        0.0698040368465904    0.0
                        0.1818321768064407        0.0702083637912890    0.0
                        0.1788158884082330        0.0706395824082496    0.0
                        0.1755045763283515        0.0710963697546067    0.0
                        0.1718773069567785        0.0715760292000268    0.0
                        0.1679135557053007        0.0720740241986603    0.0
                        0.1635937617029171        0.0725834234293366    0.0
                        0.1589000111323653        0.0730942706811531    0.0
                        0.1538168608851551        0.0735929126496143    0.0
                        0.1483323096371541        0.0740613451408126    0.0
                        0.1424389172075824        0.0744766729982753    0.0
                        0.1361350587462691        0.0748108200510519    0.0
                        0.1294262938378396        0.0750306668808023    0.0
                        0.1223267150238416        0.0750988226074150    0.0
                        0.1148597289017347        0.0749750881711368    0.0
                        0.1070585390789279        0.0746184629426269    0.0
                        0.0989662101316669        0.0739897345964419    0.0
                        0.0906359756583982        0.0730546713935259    0.0
                        0.0821284267397114        0.0717872316208132    0.0
                        0.0735148574661129        0.0701737022347174    0.0
                        0.0648611570004661        0.0682128570495124    0.0
                        0.0562553542492323        0.0659244888521591    0.0
                        0.0482195921929443        0.0634873444448327    0.0
                        0.0403461332296339        0.0608269915610623    0.0
                        0.0326680306462344        0.0579855211189749    0.0
                        0.0252290330921830        0.0550147697223170    0.0
                        0.0180548893441730        0.0519613172454131    0.0
                        0.0111682329262973        0.0488674681549028    0.0
                        0.0045848345852482        0.0457696176064086    0.0
                       -0.0016857292884600        0.0426968874801591    0.0
                       -0.0076397928915590        0.0396699371120168    0.0
                       -0.0132788387081632        0.0367005105527224    0.0
                       -0.0186062316253378        0.0337932705523724    0.0
                       -0.0236240587164073        0.0309495113847466    0.0
                       -0.0283325558037756        0.0281702795151694    0.0
                       -0.0327305584952115        0.0254587802841968    0.0
                       -0.0368169880059548        0.0228215082006441    0.0
                       -0.0405929724507204        0.0202677873329674    0.0
                       -0.0440635516176445        0.0178082106864843    0.0
                       -0.0472384134093731        0.0154527280365164    0.0
                       -0.0501315503636346        0.0132090586904748    0.0
                       -0.0527597238483970        0.0110822453389965    0.0
                       -0.0551410264195778        0.0090748313242055    0.0
                       -0.0572939580185585        0.0071871602731410    0.0
                       -0.0592368203739172        0.0054177353106464    0.0
                       -0.0609873294918244        0.0037635819864472    0.0
                       -0.0625623739823911        0.0022205883571220    0.0
                       -0.0639778732600283        0.0007838074355752    0.0
                       -0.0652487039513543       -0.0005522832640478    0.0
                       -0.0663886729869916       -0.0017935652581209    0.0
                       -0.0674105224295342       -0.0029461028566569    0.0
                       -0.0683259556059323       -0.0040160028584893    0.0
                       -0.0691456771938295       -0.0050093053257305    0.0
                       -0.0698794420577050       -0.0059319005864127    0.0
                       -0.0705361091371536       -0.0067894679156236    0.0
                       -0.0711236977793215       -0.0075874318191628    0.0
                       -0.0716494446466480       -0.0083309323054305    0.0
                       -0.0721198600642715       -0.0090248062786277    0.0
                       -0.0725407825061131       -0.0096735768160022    0.0
                       -0.0729174324200239       -0.0102814508900629    0.0
                       -0.0732544588908322       -0.0108523137888044    0.0
                       -0.0735560012731309       -0.0113897566265594    0.0
                       -0.0738256880062783       -0.0118969972196406    0.0
                       -0.0740668381286313       -0.0123771921363197    0.0
                       -0.0742819911424626       -0.0128324048115704    0.0
                       -0.0744745075680371       -0.0132669843335972    0.0
                       -0.0746442706414219       -0.0136776474302986    0.0
                       -0.0747975997323443       -0.0140773128408455    0.0
                       -0.0749451167414992       -0.0144961347650788    0.0
                       -0.0750887910620434       -0.0149490616850398    0.0
                       -0.0752228019416032       -0.0154312751868151    0.0
                       -0.0753437227079724       -0.0159482188539847    0.0
                       -0.0754459065373802       -0.0165020579029258    0.0
                       -0.0755225764127270       -0.0170968802098312    0.0
                       -0.0755648390708594       -0.0177361801384275    0.0
                       -0.0755613648019200       -0.0184226152042643    0.0
                       -0.0754981978055088       -0.0191562002522564    0.0
                       -0.0753593876506286       -0.0199321104859516    0.0
                       -0.0751288901707275       -0.0207385368360527    0.0
                       -0.0747944459597824       -0.0215543820853617    0.0
                       -0.0743513405435775       -0.0223523052653761    0.0
                       -0.0738080672863566       -0.0230992013745481    0.0
                       -0.0731782290575570       -0.0237730236623221    0.0
                       -0.0724814720571907       -0.0243570388068070    0.0
                       -0.0717487881920449       -0.0248375969843466    0.0
                       -0.0710076121335189       -0.0252149617776917    0.0
                       -0.0702804799213102       -0.0254976864668859    0.0
                       -0.0695815379097084       -0.0256995031320330    0.0
                       -0.0689181703031943       -0.0258351747024702    0.0
                       -0.0682927590664106       -0.0259183226598600    0.0
                       -0.0677046939748550       -0.0259604568348430    0.0
                       -0.0671521303456422       -0.0259708488699983    0.0
                       -0.0666322935815884       -0.0259568166599419    0.0
                       -0.0661440112278238       -0.0259241840248899    0.0
                       -0.0656826834352403       -0.0258772896243636    0.0
                       -0.0652536891805407       -0.0258206502763198    0.0
                       -0.0648426436637049       -0.0257553918855519    0.0
                       -0.0644182177251226       -0.0256774766289371    0.0
                       -0.0639672574783806       -0.0255837718625278    0.0
                       -0.0634928036556053       -0.0254739296668129    0.0
                       -0.0629901748094342       -0.0253459560551180    0.0
                       -0.0624569398940250       -0.0251982138351306    0.0
                       -0.0618894962230549       -0.0250286402728986    0.0
                       -0.0612841028461168       -0.0248349875546961    0.0
                       -0.0606365497680222       -0.0246147228514414    0.0
                       -0.0599422223317131       -0.0243650387006982    0.0
                       -0.0591960538724975       -0.0240828338141612    0.0
                       -0.0583925083550131       -0.0237647074089023    0.0
                       -0.0575255548854519       -0.0234069558799199    0.0
                       -0.0565886449936935       -0.0230055766613217    0.0
                       -0.0555746907257710       -0.0225562799259691    0.0
                       -0.0544760451783090       -0.0220545102825808    0.0
                       -0.0532844863602612       -0.0214954805286834    0.0
                       -0.0519912055974544       -0.0208742197652214    0.0
                       -0.0505868016540576       -0.0201856381497309    0.0
                       -0.0490612816346274       -0.0194246102874464    0.0
                       -0.0474040693685726       -0.0185860785194787    0.0
                       -0.0456040212498372       -0.0176651759170926    0.0
                       -0.0436494482063672       -0.0166573662635897    0.0
                       -0.0415281402672621       -0.0155585941533913    0.0
                       -0.0392273867158645       -0.0143654318454260    0.0
                       -0.0367339789581619       -0.0130751993336139    0.0
                       -0.0340341750559421       -0.0116860190819780    0.0
                       -0.0311135879142786       -0.0101967416684948    0.0
                       -0.0279569442338940       -0.0086066449135977    0.0
                       -0.0245475943327022       -0.0069147317925722    0.0
                       -0.0208672976909813       -0.0051187720410089    0.0
                       -0.0168974987531816       -0.0032148934861850    0.0
                       -0.0126216173879171       -0.0011977971949208    0.0
                       -0.0080279968638106        0.0009382609125249    0.0
                       -0.0031127134662863        0.0031977202443190    0.0
                        0.0021188583654728        0.0055815731125135    0.0
                        0.0076519922153662        0.0080851381772471    0.0
                        0.0134638551354973        0.0106960672120778    0.0
                        0.0195272648315309        0.0133940575312679    0.0
                        0.0258138591433672        0.0161520261463505    0.0
                        0.0322945830054415        0.0189370636420275    0.0
                        0.0389394733119165        0.0217115991011671    0.0
                        0.0457203447505223        0.0244365449884123    0.0
                        0.0526071892272891        0.0270742585383753    0.0
                        0.0595753627093198        0.0295923527729339    0.0
                        0.0665882610543413        0.0319583583875388    0.0
                        0.0740503788685437        0.0342782416539926    0.0
                        0.0815039597666872        0.0363850875372368    0.0
                        0.0889261602006760        0.0382730468308204    0.0
                        0.0962776559524098        0.0399404687362820    0.0
                        0.1035241366588387        0.0413947997429896    0.0
                        0.1106276813801812        0.0426488621016479    0.0
                        0.1175514478691360        0.0437201934820506    0.0
                        0.1242597985073538        0.0446292245211252    0.0
                        0.1307201090964180        0.0453978248777838    0.0
                        0.1369038589205870        0.0460478978234460    0.0
                        0.1427873703155314        0.0466001809115939    0.0
                        0.1483522964198488        0.0470732547004332    0.0
                        0.1535861138879422        0.0474829574620913    0.0
                        0.1584821863109198        0.0478422025905023    0.0
                        0.1630394316153579        0.0481610996840161    0.0
                        0.1672617248494783        0.0484472743548064    0.0
                        0.1711571478501721        0.0487062902592868    0.0
                        0.1747371788113054        0.0489420968332915    0.0
                        0.1780158907433416        0.0491574495889983    0.0
                        0.1810092056677206        0.0493542718594450    0.0
                        0.1837342330286267        0.0495339447494914    0.0
                        0.1862087036622073        0.0496975245975409    0.0
                        0.1884505173906624        0.0498458965142487    0.0
                        0.1904774260913312        0.0499798833719578    0.0
                        0.1923067594080049        0.0501003176593346    0.0
                        0.1939551841836913        0.0502080716286933    0.0
                        0.1954385395370259        0.0503040596216395    0.0
                        0.1967717333161260        0.0503892250506628    0.0
                        0.1979686859360685        0.0504645206204484    0.0
                        0.1990423101956910        0.0505308873273735    0.0
                        0.2000045177888534        0.0505892354903880    0.0
                        0.2008662451409482        0.0506404294547966    0.0
                        0.2016374927815719        0.0506852765319412    0.0
                        0.2023273737721208        0.0507245200659802    0.0
                        0.2029441676690456        0.0507588361355978    0.0
                        0.2034953775831971        0.0507888332371167    0.0
                        0.2039877873995936        0.0508150541916283    0.0
                        0.2044275214879828        0.0508379798136084    0.0
                        0.2048200896984731        0.0508580329245604    0.0
                        0.2051704844268714        0.0508755856815678    0.0
                        0.2054830459186519        0.0508909556989708    0.0
                        0.2057622839099710        0.0509044490139077    0.0
                        0.2060096701919162        0.0509162093813795    0.0
                        0.2062373008783674        0.0509268666631612    0.0
                        0.2064105683715671        0.0509349014064001    0.0
                        0.2066850116470224        0.0509478854581454    0.0
                        0.2072987380795079        0.0510064188559935    0.0
                        0.2080414970545515        0.0511447988956913    0.0
                        0.2087409486842542        0.0513463321503648    0.0
                        0.2094363010790015        0.0516213356412381    0.0
                        0.2101069562228831        0.0519659899086909    0.0
                        0.2107485882123110        0.0523811280888449    0.0
                        0.2113521291900004        0.0528647275345572    0.0
                        0.2119094966883687        0.0534143979956046    0.0
                        0.2124122018358901        0.0540263230998878    0.0
                        0.2128519274856298        0.0546953757263576    0.0
                        0.2132207060969963        0.0554148967041209    0.0
                        0.2135112980612232        0.0561766655158143    0.0
                        0.2137175926324357        0.0569709543929026    0.0
                        0.2138350208098977        0.0577867387808669    0.0
                        0.2120418634633875        0.0579435403454525    0.0
                        0.2118797533239374        0.0584831905196173    0.0
                        0.2116996716833078        0.0590164287751490    0.0
                        0.2114936276460177        0.0595375904384392    0.0
                        0.2112575705245647        0.0600416054604327    0.0
                        0.2109900525308218        0.0605238529810075    0.0
                        0.2106915313512444        0.0609801504663504    0.0
                        0.2103639798952321        0.0614068392281678    0.0
                        0.2100106725295992        0.0618008801205075    0.0
                        0.2096359267378790        0.0621600880011942    0.0
                        0.2092452827142537        0.0624829620432666    0.0
                        0.2088441202047440        0.0627697977050913    0.0
                        0.2084418312673612        0.0630197203496901    0.0
                        0.2080367756210796        0.0632399071433064    0.0
                        0.2076662930455729        0.0634179367977880    0.0
                        0.2074069869676901        0.0635291112990393    0.0
                        0.2072140055508601        0.0636058985289777    0.0
                        0.2069687074488942        0.0636996530109741    0.0
                        0.2067006462405753        0.0637965912133514    0.0
                        0.2063991117419559        0.0638994850568870    0.0
                        0.2060625313768204        0.0640073780258094    0.0
                        0.2056867671493682        0.0641202034442987    0.0
                        0.2052678584981212        0.0642378247494033    0.0
                        0.2048012921759434        0.0643603362197011    0.0
                        0.2042820782838719        0.0644880748114252    0.0
                        0.2037046181046284        0.0646216762086174    0.0
                        0.2030626118216662        0.0647620909008783    0.0
                        0.2023489574575583        0.0649105730280848    0.0
                        0.2015556640859431        0.0650686393111770    0.0
                        0.2006737842972493        0.0652380051062911    0.0
                        0.1996933714917426        0.0654205077033612    0.0
                        0.1986034615853575        0.0656180292026940    0.0
                        0.1973920735139715        0.0658324304383320    0.0
                        0.1960462189835975        0.0660655036009921    0.0
                        0.1945519115145746        0.0663189449468431    0.0
                        0.1928941687137662        0.0665943417524635    0.0
                        0.1910570086852282        0.0668931614446998    0.0
                        0.1890234488197627        0.0672167270518295    0.0
                        0.1867755196200739        0.0675661620513985    0.0
                        0.1842943088505601        0.0679422882850835    0.0
                        0.1815600928828950        0.0683454587503568    0.0
                        0.1785525656910820        0.0687753239689491    0.0
                        0.1752511061428233        0.0692305358211935    0.0
                        0.1716351210648819        0.0697083729960527    0.0
                        0.1676844887473768        0.0702042788376739    0.0
                        0.1633801141106642        0.0707113125335758    0.0
                        0.1587046077840410        0.0712195275261739    0.0
                        0.1536430985453974        0.0717153106952922    0.0
                        0.1481841836618774        0.0721807428017017    0.0
                        0.1423210146753061        0.0725930747383347    0.0
                        0.1360525025288960        0.0729244536721846    0.0
                        0.1293846164292335        0.0731420721230874    0.0
                        0.1223316541334199        0.0732089330581790    0.0
                        0.1149169947420216        0.0730852894225974    0.0
                        0.1071735370867959        0.0727306279890016    0.0
                        0.0991437786925822        0.0721062202785297    0.0
                        0.0908798994610572        0.0711782341940052    0.0
                        0.0824415330956787        0.0699209377561743    0.0
                        0.0738974867308041        0.0683205019001173    0.0
                        0.0653141352965145        0.0663759461167626    0.0
                        0.0567731777937582        0.0641054438063875    0.0
                        0.0487978406506502        0.0616874704876548    0.0
                        0.0409768547128538        0.0590458986207671    0.0
                        0.0333467873452033        0.0562233654101239    0.0
                        0.0259492075865475        0.0532702893500445    0.0
                        0.0188113624841723        0.0502332421092123    0.0
                        0.0119564739242970        0.0471544637443345    0.0
                        0.0054011937755977        0.0440704162162130    0.0
                       -0.0008438302536119        0.0410104452532535    0.0
                       -0.0067736175870622        0.0379956326346243    0.0
                       -0.0123881740210012        0.0350383523615328    0.0
                       -0.0176895469393309        0.0321440344224071    0.0
                       -0.0226790057371770        0.0293146579414720    0.0
                       -0.0273565667655051        0.0265517426867551    0.0
                       -0.0317214259132829        0.0238586770197548    0.0
                       -0.0357732961811709        0.0212418182493187    0.0
                       -0.0395142693822072        0.0187100922050893    0.0
                       -0.0429502654453593        0.0162735575572218    0.0
                       -0.0460915868343536        0.0139416352904238    0.0
                       -0.0489525188447012        0.0117216434375599    0.0
                       -0.0515498780016150        0.0096183848753138    0.0
                       -0.0539016790769670        0.0076342798277193    0.0
                       -0.0560262680137390        0.0057696302690031    0.0
                       -0.0579417518088496        0.0040229522903684    0.0
                       -0.0596656317335195        0.0023913200017233    0.0
                       -0.0612145735633168        0.0008706914794902    0.0
                       -0.0626042721861007       -0.0005437997959333    0.0
                       -0.0638493814331866       -0.0018575947672132    0.0
                       -0.0649634893525761       -0.0030765008799263    0.0
                       -0.0659591251543958       -0.0042065235945169    0.0
                       -0.0668477880189760       -0.0052537321750867    0.0
                       -0.0676399905447261       -0.0062241534199757    0.0
                       -0.0683453114033456       -0.0071236869593360    0.0
                       -0.0689724531294754       -0.0079580367319251    0.0
                       -0.0695293021041620       -0.0087326549389645    0.0
                       -0.0700229886945912       -0.0094526965448485    0.0
                       -0.0704599463354115       -0.0101229839442234    0.0
                       -0.0708459684509059       -0.0107479814980169    0.0
                       -0.0711862638221030       -0.0113317817870336    0.0
                       -0.0714855062843677       -0.0118780965698602    0.0
                       -0.0717478920122400       -0.0123902756442415    0.0
                       -0.0719771590822926       -0.0128712639894114    0.0
                       -0.0721767188666956       -0.0133238066620581    0.0
                       -0.0723494260380406       -0.0137498370410518    0.0
                       -0.0724984089323427       -0.0141525003966230    0.0
                       -0.0726250161019906       -0.0145304206312787    0.0
                       -0.0727333949249241       -0.0148912288056947    0.0
                       -0.0728330149206285       -0.0152682855293131    0.0
                       -0.0729229131316662       -0.0156690327787427    0.0
                       -0.0729987673109293       -0.0160895662492409    0.0
                       -0.0730570297820729       -0.0165307975952746    0.0
                       -0.0730933772604246       -0.0169914028456227    0.0
                       -0.0731031942477177       -0.0174701481104523    0.0
                       -0.0730815643272977       -0.0179645678778576    0.0
                       -0.0730235752617357       -0.0184708869929266    0.0
                       -0.0729247702095959       -0.0189837023988797    0.0
                       -0.0727816929830427       -0.0194961449471756    0.0
                       -0.0725922787728473       -0.0200005902931141    0.0
                       -0.0723559795476802       -0.0204894605370422    0.0
                       -0.0720732102980590       -0.0209565099275779    0.0
                       -0.0717453514179394       -0.0213963041343649    0.0
                       -0.0713767199174052       -0.0218020889687945    0.0
                       -0.0709733154351836       -0.0221685249790871    0.0
                       -0.0705403947220118       -0.0224934094923052    0.0
                       -0.0700841551826646       -0.0227753521643633    0.0
                       -0.0696122041348535       -0.0230136721013535    0.0
                       -0.0691323855450702       -0.0232091609293845    0.0
                       -0.0686519897312012       -0.0233640779832594    0.0
                       -0.0681770189537539       -0.0234818834898987    0.0
                       -0.0677119595485362       -0.0235667339193708    0.0
                       -0.0672600227812798       -0.0236229890160224    0.0
                       -0.0668231805056699       -0.0236549119327714    0.0
                       -0.0664034236796789       -0.0236664260744644    0.0
                       -0.0660004940751612       -0.0236611243671471    0.0
                       -0.0656188031228769       -0.0236423376585098    0.0
                       -0.0652514560749958       -0.0236124747125910    0.0
                       -0.0648645000310563       -0.0235693628096738    0.0
                       -0.0644499656515501       -0.0235108126304306    0.0
                       -0.0640088771023626       -0.0234354778343254    0.0
                       -0.0635376588516557       -0.0233413076404624    0.0
                       -0.0630339114506873       -0.0232263143830836    0.0
                       -0.0624943507020230       -0.0230882255543624    0.0
                       -0.0619154199306959       -0.0229245891644252    0.0
                       -0.0612930669541742       -0.0227327155511683    0.0
                       -0.0606227718898870       -0.0225096766440699    0.0
                       -0.0598995075439037       -0.0222522893993694    0.0
                       -0.0591177238984976       -0.0219571074286245    0.0
                       -0.0582713318296392       -0.0216204146103456    0.0
                       -0.0573536924410398       -0.0212382241308822    0.0
                       -0.0563576090750609       -0.0208062841299544    0.0
                       -0.0552753210423576       -0.0203200923751303    0.0
                       -0.0540984977664990       -0.0197749225944350    0.0
                       -0.0528182330798470       -0.0191658654482715    0.0
                       -0.0514250406081146       -0.0184878871379054    0.0
                       -0.0499088523148182       -0.0177359082750003    0.0
                       -0.0482590227705766       -0.0169049046853713    0.0
                       -0.0464643412438636       -0.0159900301085441    0.0
                       -0.0445130521878625       -0.0149867580163294    0.0
                       -0.0423928821310661       -0.0138910355525425    0.0
                       -0.0400910673570998       -0.0126994361939718    0.0
                       -0.0375943713513874       -0.0114092878372516    0.0
                       -0.0348890736691397       -0.0100187382729959    0.0
                       -0.0319608974268796       -0.0085266958356788    0.0
                       -0.0287948275102293       -0.0069325503391285    0.0
                       -0.0253747107540227       -0.0052355180351257    0.0
                       -0.0216830622524402       -0.0034337402815794    0.0
                       -0.0177022276886364       -0.0015238522198452    0.0
                       -0.0134164869024019        0.0004988956654898    0.0
                       -0.0088147723809094        0.0026397819598556    0.0
                       -0.0038932758291526        0.0049029961821194    0.0
                        0.0013430765046883        0.0072895731746654    0.0
                        0.0068805474265196        0.0097951730115763    0.0
                        0.0126976950342118        0.0124080496128996    0.0
                        0.0187687580692507        0.0151086079056738    0.0
                        0.0250665826432834        0.0178703624796140    0.0
                        0.0315630540830267        0.0206608136376325    0.0
                        0.0382290179809830        0.0234426850586068    0.0
                        0.0450361795871902        0.0261768311359292    0.0
                        0.0519546380248344        0.0288253981473950    0.0
                        0.0589580624459418        0.0313551028790460    0.0
                        0.0660120190300002        0.0337340380656397    0.0
                        0.0735185425804270        0.0360670718243530    0.0
                        0.0810202158517296        0.0381871977384414    0.0
                        0.0884897396087616        0.0400871950542771    0.0
                        0.0958879190677089        0.0417654950649628    0.0
                        0.1031786064976246        0.0432292281964107    0.0
                        0.1103231009238231        0.0444912432934807    0.0
                        0.1172837527266539        0.0455691507006974    0.0
                        0.1240244798762814        0.0464835397862093    0.0
                        0.1305124299082210        0.0472564642847529    0.0
                        0.1367190790856210        0.0479100108261261    0.0
                        0.1426209510233093        0.0484650739298385    0.0
                        0.1482000879883983        0.0489403656326945    0.0
                        0.1534444762950757        0.0493518319990257    0.0
                        0.1583480453856817        0.0497124706357453    0.0
                        0.1629102877311050        0.0500324551372111    0.0
                        0.1671356274760450        0.0503194594904557    0.0
                        0.1710326477674513        0.0505790844156830    0.0
                        0.1746132674443422        0.0508153084094621    0.0
                        0.1778919340708589        0.0510309102522047    0.0
                        0.1808848784767893        0.0512278321896945    0.0
                        0.1836094579766031        0.0514074713283038    0.0
                        0.1860835995796472        0.0515709001838439    0.0
                        0.1883253588856242        0.0517190273812922    0.0
                        0.1903526135978357        0.0518527153034044    0.0
                        0.1921828111355555        0.0519728603499194    0.0
                        0.1938327625356701        0.0520804403251538    0.0
                        0.1953185074584741        0.0521765409776474    0.0
                        0.1966552264347716        0.0522623682348626    0.0
                        0.1978571782917874        0.0523392469246460    0.0
                        0.1989376485835041        0.0524086031101267    0.0
                        0.1999089046972131        0.0524719270391811    0.0
                        0.2007821618104128        0.0525307167367950    0.0
                        0.2015675681018950        0.0525864067861809    0.0
                        0.2022742169799091        0.0526402909521625    0.0
                        0.2029101899056433        0.0526934496393767    0.0
                        0.2034826282254640        0.0527466932050231    0.0
                        0.2039978267544105        0.0528005297847311    0.0
                        0.2044613428591095        0.0528551626967114    0.0
                        0.2048780968266782        0.0529105153868064    0.0
                        0.2052525134677075        0.0529662875451598    0.0
                        0.2055884455838512        0.0530219924816967    0.0
                        0.2058899514107407        0.0530771618476114    0.0
                        0.2061583572731785        0.0531307899665272    0.0
                        0.2064049146905102        0.0531842467775072    0.0
                        0.2065969800675554        0.0532282321103054    0.0
                        0.2068642834521888        0.0532967032990508    0.0
                        0.2072523234829348        0.0534135821423343    0.0
                        0.2076809392303381        0.0535655724136974    0.0
                        0.2081119177499308        0.0537462602456522    0.0
                        0.2085481511458585        0.0539624364737222    0.0
                        0.2089805081801753        0.0542147916706422    0.0
                        0.2094039721913738        0.0545045944835902    0.0
                        0.2098130579028817        0.0548314445902283    0.0
                        0.2102033229490272        0.0551941313220310    0.0
                        0.2105711400571410        0.0555904729124431    0.0
                        0.2109139756262148        0.0560174753387711    0.0
                        0.2112306129915832        0.0564713606698412    0.0
                        0.2115215595634875        0.0569475605770979    0.0
                        0.2117897496290371        0.0574405675993178    0.0
                        0.2120418634633875        0.0579435403454525    0.0
                        0.2104257532425907        0.0580848601307222    0.0
                        0.2102779786044908        0.0584422110563969    0.0
                        0.2101227590146039        0.0587966798006701    0.0
                        0.2099567739439639        0.0591452492767089    0.0
                        0.2097771215676551        0.0594847983393911    0.0
                        0.2095816974582160        0.0598121686160530    0.0
                        0.2093694342864998        0.0601242724470663    0.0
                        0.2091404178675779        0.0604182558946773    0.0
                        0.2088958981930356        0.0606916814089413    0.0
                        0.2086381675754342        0.0609427404060235    0.0
                        0.2083704543387061        0.0611703186472558    0.0
                        0.2080963196354997        0.0613743601693210    0.0
                        0.2078204814621564        0.0615549771391556    0.0
                        0.2075444361269977        0.0617150579249909    0.0
                        0.2072801553395529        0.0618514346662737    0.0
                        0.2070583509303812        0.0619534630778169    0.0
                        0.2068637689429861        0.0620353378027812    0.0
                        0.2066253719790458        0.0621298435757902    0.0
                        0.2063617817273788        0.0622269841252552    0.0
                        0.2060649657061579        0.0623286085861076    0.0
                        0.2057327332842735        0.0624341297070588    0.0
                        0.2053611319817346        0.0625436665773239    0.0
                        0.2049462099834725        0.0626573920638415    0.0
                        0.2044835135624764        0.0627757154307203    0.0
                        0.2039681050420184        0.0628992707818307    0.0
                        0.2033944416659673        0.0630289350256833    0.0
                        0.2027562779964288        0.0631658237806789    0.0
                        0.2020465622347631        0.0633112744581949    0.0
                        0.2012573449077045        0.0634668137257907    0.0
                        0.2003797072828022        0.0636341116989068    0.0
                        0.1994037165620657        0.0638149274073838    0.0
                        0.1983184086749863        0.0640110526900507    0.0
                        0.1971117929642075        0.0642242624224732    0.0
                        0.1957708680585842        0.0644562771138810    0.0
                        0.1942816375998277        0.0647087393661318    0.0
                        0.1926291189955128        0.0649831996686096    0.0
                        0.1907973462381029        0.0652811013611737    0.0
                        0.1887693756858386        0.0656037507995103    0.0
                        0.1865273082369364        0.0659522571852093    0.0
                        0.1840523432214684        0.0663274265521304    0.0
                        0.1813249115097725        0.0667295933356794    0.0
                        0.1783249025092521        0.0671583872381851    0.0
                        0.1750319356012142        0.0676124378009055    0.0
                        0.1714257085098223        0.0680890014742483    0.0
                        0.1674864439152554        0.0685835024447703    0.0
                        0.1631954449188864        0.0690889884703045    0.0
                        0.1585357701341499        0.0695955160203860    0.0
                        0.1534930361294601        0.0700894985248385    0.0
                        0.1480563496697838        0.0705530781202359    0.0
                        0.1422193645459456        0.0709636146951270    0.0
                        0.1359814448075554        0.0712934244136180    0.0
                        0.1293489039435144        0.0715099375120753    0.0
                        0.1223362092430125        0.0715764630836729    0.0
                        0.1149667121291432        0.0714536153192175    0.0
                        0.1072730486460663        0.0711012716835726    0.0
                        0.0992972340003761        0.0704810882633429    0.0
                        0.0910905501480199        0.0695595434340951    0.0
                        0.0827118302958381        0.0683111416953831    0.0
                        0.0742277503532523        0.0667219256334153    0.0
                        0.0657051539071164        0.0647911147634930    0.0
                        0.0572202087807303        0.0625354541580641    0.0
                        0.0492973463215492        0.0601333291955815    0.0
                        0.0415219686649081        0.0575070997214972    0.0
                        0.0339337736799567        0.0546999792203090    0.0
                        0.0265723681659585        0.0517612737159477    0.0
                        0.0194662492702005        0.0487376661687137    0.0
                        0.0126391361123459        0.0456713141311672    0.0
                        0.0061084059837159        0.0425987821757208    0.0
                       -0.0001144155021026        0.0395496754106674    0.0
                       -0.0060232666254399        0.0365455184417876    0.0
                       -0.0116169230542503        0.0335992886333499    0.0
                       -0.0168962958931176        0.0307170532343283    0.0
                       -0.0218619153999191        0.0279012896143046    0.0
                       -0.0265135516761742        0.0251537948369194    0.0
                       -0.0308506406935209        0.0224779726372150    0.0
                       -0.0348735121731315        0.0198799452355537    0.0
                       -0.0385850462864283        0.0173682333548074    0.0
                       -0.0419919132831883        0.0149524341493153    0.0
                       -0.0451049734210857        0.0126415633123130    0.0
                       -0.0479388132910133        0.0104426648279418    0.0
                       -0.0505103451494178        0.0083603957369615    0.0
                       -0.0528375621450091        0.0063971164761774    0.0
                       -0.0549387225047748        0.0045531295108633    0.0
                       -0.0568318127133295        0.0028269925164452    0.0
                       -0.0585342011212903        0.0012158489569745    0.0
                       -0.0600624208361284       -0.0002842554303674    0.0
                       -0.0614320420398087       -0.0016780877434187    0.0
                       -0.0626576065203979       -0.0029709822503972    0.0
                       -0.0637526058211207       -0.0041686356243602    0.0
                       -0.0647294899502643       -0.0052769408603343    0.0
                       -0.0655996971942380       -0.0063018552224309    0.0
                       -0.0663736979019832       -0.0072492962377662    0.0
                       -0.0670610467268983       -0.0081250594835835    0.0
                       -0.0676704391103497       -0.0089347526298825    0.0
                       -0.0682097689887354       -0.0096837416608555    0.0
                       -0.0686861858128129       -0.0103771069210490    0.0
                       -0.0691061500053707       -0.0110196082617094    0.0
                       -0.0694754864666341       -0.0116156591806753    0.0
                       -0.0697994369447145       -0.0121693114278791    0.0
                       -0.0700827093025129       -0.0126842464390947    0.0
                       -0.0703295314740010       -0.0131637870518286    0.0
                       -0.0705436844959802       -0.0136108792114355    0.0
                       -0.0707285969178163       -0.0140282135660086    0.0
                       -0.0708872434776651       -0.0144179118780817    0.0
                       -0.0710226017531495       -0.0147826025496749    0.0
                       -0.0711366191544563       -0.0151225018701646    0.0
                       -0.0712325254900524       -0.0154422318930539    0.0
                       -0.0713198024589573       -0.0157741605088711    0.0
                       -0.0713968246799388       -0.0161211456755146    0.0
                       -0.0714602392114536       -0.0164799603170523    0.0
                       -0.0715071057245325       -0.0168493637147225    0.0
                       -0.0715342944164354       -0.0172268783773557    0.0
                       -0.0715388041360517       -0.0176098060995739    0.0
                       -0.0715179001911007       -0.0179947480232770    0.0
                       -0.0714693642223276       -0.0183777516195461    0.0
                       -0.0713917284404927       -0.0187544861322294    0.0
                       -0.0712843973006569       -0.0191206678674558    0.0
                       -0.0711475344515422       -0.0194726149312364    0.0
                       -0.0709817287909482       -0.0198076311627919    0.0
                       -0.0707874613508569       -0.0201242196452642    0.0
                       -0.0705648949661783       -0.0204215367327283    0.0
                       -0.0703158374050956       -0.0206968934154764    0.0
                       -0.0700426851819683       -0.0209480811753483    0.0
                       -0.0697463569648274       -0.0211748552687417    0.0
                       -0.0694283566944930       -0.0213765517802201    0.0
                       -0.0690913217845693       -0.0215522009375661    0.0
                       -0.0687388886057689       -0.0217010835944692    0.0
                       -0.0683753702574661       -0.0218231097591702    0.0
                       -0.0680052424355175       -0.0219190126066221    0.0
                       -0.0676327217789149       -0.0219902961560573    0.0
                       -0.0672615657680757       -0.0220390352607706    0.0
                       -0.0668948969429212       -0.0220676624359203    0.0
                       -0.0665356410817886       -0.0220787429490736    0.0
                       -0.0661855093962503       -0.0220748763889318    0.0
                       -0.0658481739896589       -0.0220586287487645    0.0
                       -0.0655211890525690       -0.0220321269799776    0.0
                       -0.0651715112029372       -0.0219929798632732    0.0
                       -0.0647941169204918       -0.0219392255121663    0.0
                       -0.0643884153602630       -0.0218692576526452    0.0
                       -0.0639513098814514       -0.0217810332911760    0.0
                       -0.0634801732764783       -0.0216724629919583    0.0
                       -0.0629717325518494       -0.0215412149645125    0.0
                       -0.0624223817258592       -0.0213847625979675    0.0
                       -0.0618280415264610       -0.0212003424667930    0.0
                       -0.0611841616081685       -0.0209849458486551    0.0
                       -0.0604856874998050       -0.0207353030491070    0.0
                       -0.0597270442141352       -0.0204478748328527    0.0
                       -0.0589021214870894       -0.0201188476316927    0.0
                       -0.0580042635345620       -0.0197441347591886    0.0
                       -0.0570262606424083       -0.0193193845408654    0.0
                       -0.0559603413166156       -0.0188399972168956    0.0
                       -0.0547981639807172       -0.0183011529157569    0.0
                       -0.0535308084393740       -0.0176978535524994    0.0
                       -0.0521487686135656       -0.0170249817502663    0.0
                       -0.0506419490987224       -0.0162773796757625    0.0
                       -0.0489996684581467       -0.0154499498267063    0.0
                       -0.0472106716297459       -0.0145377781467129    0.0
                       -0.0452631523796768       -0.0135362771344192    0.0
                       -0.0431447844286690       -0.0124413424381740    0.0
                       -0.0408427566813088       -0.0112495101007295    0.0
                       -0.0383438033153246       -0.0099580919057224    0.0
                       -0.0356342129854471       -0.0085652516850119    0.0
                       -0.0326997892634150       -0.0070699620448819    0.0
                       -0.0295257196195064       -0.0054717477049468    0.0
                       -0.0260962617365679       -0.0037700653789807    0.0
                       -0.0223945901333327       -0.0019634076160705    0.0
                       -0.0184038694368335       -0.0000488122611700    0.0
                       -0.0141091892331901        0.0019781031548656    0.0
                       -0.0095000703442110        0.0041223782772145    0.0
                       -0.0045728769640448        0.0063881643216881    0.0
                        0.0006677988107445        0.0087766823587471    0.0
                        0.0062090460485588        0.0112839867681555    0.0
                        0.0120306306928560        0.0138988791006486    0.0
                        0.0181080625355199        0.0166023157853766    0.0
                        0.0244152807446396        0.0193682517458111    0.0
                        0.0309250270215113        0.0221644781821046    0.0
                        0.0376089024815889        0.0249539024150053    0.0
                        0.0444385863064765        0.0276971685395787    0.0
                        0.0513842939266430        0.0303562331147119    0.0
                        0.0584182004743195        0.0328970111359598    0.0
                        0.0655079157113546        0.0352880527620785    0.0
                        0.0730530459416390        0.0376331186759885    0.0
                        0.0805967597281442        0.0397651482119062    0.0
                        0.0881077164290747        0.0416756853139435    0.0
                        0.0955468350073440        0.0433632612964371    0.0
                        0.1028763176733306        0.0448347586064782    0.0
                        0.1100567674329484        0.0461030902157370    0.0
                        0.1170498123454514        0.0471859709250385    0.0
                        0.1238189755288913        0.0481041682533933    0.0
                        0.1303312028381241        0.0488799315266159    0.0
                        0.1365579690967898        0.0495355405523183    0.0
                        0.1424759760650269        0.0500920651574672    0.0
                        0.1480676097688593        0.0505683674118888    0.0
                        0.1533213059618993        0.0509805135683643    0.0
                        0.1582314918897553        0.0513415931255266    0.0
                        0.1627981642985205        0.0516618482466485    0.0
                        0.1670262282232645        0.0519490037755382    0.0
                        0.1709247049788182        0.0522086985208074    0.0
                        0.1745058978278745        0.0524449400666727    0.0
                        0.1777845804197454        0.0526605298679115    0.0
                        0.1807772515011400        0.0528574280473554    0.0
                        0.1835014815251305        0.0530370456469259    0.0
                        0.1859753617605968        0.0532004654349306    0.0
                        0.1882170678724136        0.0533486022213193    0.0
                        0.1902445515439468        0.0534823191427715    0.0
                        0.1920752904815919        0.0536025058646929    0.0
                        0.1937260932670811        0.0537101234076489    0.0
                        0.1952129735371239        0.0538062271631583    0.0
                        0.1965510690588998        0.0538919755378155    0.0
                        0.1977545835840048        0.0539686266620008    0.0
                        0.1988367375367699        0.0540375222623670    0.0
                        0.1998097241266710        0.0541000574104864    0.0
                        0.2006846766391888        0.0541576370027053    0.0
                        0.2014716569256116        0.0542116229546743    0.0
                        0.2021796735008747        0.0542632784885046    0.0
                        0.2028167318911313        0.0543137165038705    0.0
                        0.2033899133561304        0.0543638578486566    0.0
                        0.2039054726413094        0.0544144029956796    0.0
                        0.2043689462745455        0.0544658185762498    0.0
                        0.2047852523860824        0.0545183370878407    0.0
                        0.2051588144138788        0.0545719740262918    0.0
                        0.2054935349603285        0.0546265329811905    0.0
                        0.2057933390770811        0.0546817307809832    0.0
                        0.2060602186937978        0.0547367974849742    0.0
                        0.2063027316983768        0.0547925855489626    0.0
                        0.2064993022961758        0.0548417156590383    0.0
                        0.2067296578102015        0.0549072002552374    0.0
                        0.2070075276665121        0.0549996381814715    0.0
                        0.2073007143255192        0.0551128877684650    0.0
                        0.2075972686639872        0.0552456782814668    0.0
                        0.2078963957834032        0.0554011063789091    0.0
                        0.2081937004680253        0.0555801204374530    0.0
                        0.2084858433102823        0.0557833769761578    0.0
                        0.2087695730215772        0.0560104800467756    0.0
                        0.2090423667963168        0.0562602124114245    0.0
                        0.2093025468654055        0.0565305501821798    0.0
                        0.2095494494527774        0.0568188244288600    0.0
                        0.2097834670915517        0.0571218875601736    0.0
                        0.2100059879124358        0.0574362951745421    0.0
                        0.2102192013108285        0.0577584705207990    0.0
                        0.2104257532425907        0.0580848601307222    0.0
                        0.2091000978181992        0.0582007812711902    0.0
                        0.2090159466147183        0.0584478826990464    0.0
                        0.2089256268102322        0.0586937528426099    0.0
                        0.2088258781425328        0.0589367082172814    0.0
                        0.2087139678801553        0.0591746080799641    0.0
                        0.2085879169677145        0.0594050179918329    0.0
                        0.2084466465070712        0.0596254023201088    0.0
                        0.2082900284325895        0.0598333258820711    0.0
                        0.2081188490035316        0.0600266429291420    0.0
                        0.2079346941900746        0.0602036708342435    0.0
                        0.2077398086490201        0.0603633048975513    0.0
                        0.2075368167790821        0.0605051815674495    0.0
                        0.2073288032781614        0.0606295040442403    0.0
                        0.2071180176806142        0.0607377173096905    0.0
                        0.2069095819703293        0.0608301849444582    0.0
                        0.2067150076130238        0.0609057589729987    0.0
                        0.2065184025897858        0.0609743499690833    0.0
                        0.2062880498887339        0.0610487581637452    0.0
                        0.2060310425851386        0.0611254690937510    0.0
                        0.2057420896146471        0.0612057602481483    0.0
                        0.2054183077377284        0.0612900334323547    0.0
                        0.2050557908665586        0.0613790035929555    0.0
                        0.2046503811483814        0.0614734346619760    0.0
                        0.2041974156992600        0.0615741984946630    0.0
                        0.2036917079241577        0.0616822614481306    0.0
                        0.2031274638888031        0.0617986856982110    0.0
                        0.2024982086880217        0.0619246250759245    0.0
                        0.2017967099057174        0.0620613190644933    0.0
                        0.2010149074077710        0.0622100833991905    0.0
                        0.2001438533165876        0.0623722974087293    0.0
                        0.1991736656350854        0.0625493886906929    0.0
                        0.1980934960512537        0.0627428164729315    0.0
                        0.1968915097107899        0.0629540552377972    0.0
                        0.1955548729705386        0.0631845795592622    0.0
                        0.1940697454732875        0.0634358494153830    0.0
                        0.1924212755090514        0.0637092926757557    0.0
                        0.1905936016864732        0.0640062785133998    0.0
                        0.1885698679152953        0.0643280726501639    0.0
                        0.1863322611163109        0.0646757628529032    0.0
                        0.1838620825944259        0.0650501410099875    0.0
                        0.1811398894826578        0.0654515271118203    0.0
                        0.1781457247749589        0.0658795345337225    0.0
                        0.1748593952249633        0.0663327752345154    0.0
                        0.1712608253002794        0.0668084879430635    0.0
                        0.1673305065616022        0.0673020810823921    0.0
                        0.1630500532972185        0.0678065919999254    0.0
                        0.1584028742890917        0.0683120771209020    0.0
                        0.1533749671933419        0.0688049669894135    0.0
                        0.1479558363927874        0.0692674464615903    0.0
                        0.1421395269859342        0.0696769532242119    0.0
                        0.1359257552009759        0.0700059253175553    0.0
                        0.1293211009364246        0.0702219652937353    0.0
                        0.1223401609014766        0.0702886074104583    0.0
                        0.1150062623940663        0.0701667368859934    0.0
                        0.1073518340348809        0.0698165248652912    0.0
                        0.0994185140736807        0.0691999148034602    0.0
                        0.0912568815893423        0.0682836132882814    0.0
                        0.0829251513919468        0.0670422964891382    0.0
                        0.0744883264743355        0.0654618922326815    0.0
                        0.0660136388755669        0.0635417706598673    0.0
                        0.0575728356049825        0.0612975274652150    0.0
                        0.0496915440927072        0.0589075797819093    0.0
                        0.0419522802510975        0.0562930348217142    0.0
                        0.0343972983867930        0.0534976219079419    0.0
                        0.0270646192169795        0.0505698237920665    0.0
                        0.0199837068195426        0.0475564694653091    0.0
                        0.0131786663737901        0.0444996377337038    0.0
                        0.0066674294284337        0.0414359957040352    0.0
                        0.0004621901366443        0.0383953845753144    0.0
                       -0.0054301643321825        0.0353997154950740    0.0
                       -0.0110074614864164        0.0324624704028894    0.0
                       -0.0162697158368901        0.0295902071616037    0.0
                       -0.0212168573379084        0.0267857513737584    0.0
                       -0.0258484331030776        0.0240510558250053    0.0
                       -0.0301640331879226        0.0213894680829863    0.0
                       -0.0341644412432046        0.0188068690928998    0.0
                       -0.0378531387098705        0.0163114305767076    0.0
                       -0.0412373841468773        0.0139123850318066    0.0
                       -0.0443284923119436        0.0116184521308575    0.0
                       -0.0471413118799622        0.0094364934933377    0.0
                       -0.0496928541571164        0.0073710794893930    0.0
                       -0.0520011175462376        0.0054245442493875    0.0
                       -0.0540843132467148        0.0035972062204119    0.0
                       -0.0559603559444250        0.0018876680006006    0.0
                       -0.0576465345563305        0.0002931377444642    0.0
                       -0.0591593059976717       -0.0011902606717001    0.0
                       -0.0605141741794359       -0.0025672066237071    0.0
                       -0.0617256283791153       -0.0038429389050878    0.0
                       -0.0628071231307921       -0.0050230511626035    0.0
                       -0.0637710870394000       -0.0061133250172201    0.0
                       -0.0646289514237160       -0.0071195971466967    0.0
                       -0.0653911920441628       -0.0080476554883138    0.0
                       -0.0660673788357835       -0.0089031593782347    0.0
                       -0.0666662298530365       -0.0096915787140008    0.0
                       -0.0671956667239462       -0.0104181479475014    0.0
                       -0.0676628698569498       -0.0110878316698551    0.0
                       -0.0680743324750593       -0.0117052995936943    0.0
                       -0.0684359130462003       -0.0122749094469644    0.0
                       -0.0687528864103371       -0.0128006974892651    0.0
                       -0.0690299927182906       -0.0132863745631118    0.0
                       -0.0692714876723449       -0.0137353333422490    0.0
                       -0.0694811825630480       -0.0141506452757994    0.0
                       -0.0696625102088622       -0.0145351184177683    0.0
                       -0.0698185041193568       -0.0148911789088975    0.0
                       -0.0699520168818532       -0.0152213135510796    0.0
                       -0.0700652986095424       -0.0155269346294225    0.0
                       -0.0701609952918096       -0.0158110325066984    0.0
                       -0.0702492326294650       -0.0161037148781732    0.0
                       -0.0703282522224658       -0.0164052720794397    0.0
                       -0.0703953964195352       -0.0167130783714375    0.0
                       -0.0704482456227311       -0.0170251518242264    0.0
                       -0.0704844131761069       -0.0173390212262002    0.0
                       -0.0705017229815248       -0.0176520998930287    0.0
                       -0.0704983097893045       -0.0179615764694211    0.0
                       -0.0704727509522013       -0.0182645432998239    0.0
                       -0.0704241611742370       -0.0185581575045770    0.0
                       -0.0703522038543976       -0.0188398801303933    0.0
                       -0.0702569755920296       -0.0191077195497470    0.0
                       -0.0701387816735203       -0.0193603570081178    0.0
                       -0.0699978480971145       -0.0195971322320858    0.0
                       -0.0698341676498043       -0.0198177324904323    0.0
                       -0.0696488739800850       -0.0200204672599647    0.0
                       -0.0694434837324715       -0.0202039594658183    0.0
                       -0.0692183862135530       -0.0203682158577129    0.0
                       -0.0689742697393846       -0.0205129602388870    0.0
                       -0.0687124431344356       -0.0206377305985676    0.0
                       -0.0684348905967734       -0.0207421548218586    0.0
                       -0.0681441836544188       -0.0208261830395709    0.0
                       -0.0678432650549909       -0.0208902338651707    0.0
                       -0.0675352190886247       -0.0209352185414702    0.0
                       -0.0672231042763863       -0.0209624734266099    0.0
                       -0.0669098113022806       -0.0209736544927853    0.0
                       -0.0665981531674515       -0.0209706182456205    0.0
                       -0.0662904781274768       -0.0209553260737483    0.0
                       -0.0659897941207223       -0.0209298149053503    0.0
                       -0.0656961372988677       -0.0208958298192090    0.0
                       -0.0653784065344752       -0.0208498591200807    0.0
                       -0.0650332129201709       -0.0207901383290680    0.0
                       -0.0646587534481961       -0.0207149977629668    0.0
                       -0.0642520653805587       -0.0206224596749696    0.0
                       -0.0638101968786838       -0.0205104188122744    0.0
                       -0.0633297347358029       -0.0203765396549184    0.0
                       -0.0628069170947622       -0.0202182688675000    0.0
                       -0.0622375579552007       -0.0200328060623181    0.0
                       -0.0616170330808909       -0.0198170912290477    0.0
                       -0.0609402512466475       -0.0195677904518547    0.0
                       -0.0602016330330979       -0.0192812872562422    0.0
                       -0.0593950902253759       -0.0189536786818778    0.0
                       -0.0585140069919168       -0.0185807778110263    0.0
                       -0.0575512218415906       -0.0181581239372389    0.0
                       -0.0564990103591932       -0.0176810021311179    0.0
                       -0.0553490691367029       -0.0171444743270268    0.0
                       -0.0540925020549207       -0.0165434244739281    0.0
                       -0.0527198106936479       -0.0158726205111318    0.0
                       -0.0512208910489567       -0.0151267958030426    0.0
                       -0.0495850387354225       -0.0143007520028125    0.0
                       -0.0478009643466383       -0.0133894838968754    0.0
                       -0.0458568195757744       -0.0123883243117244    0.0
                       -0.0437402329689292       -0.0112931031815491    0.0
                       -0.0414383516127876       -0.0101003086803840    0.0
                       -0.0389378811166304       -0.0088072287686423    0.0
                       -0.0362251103772653       -0.0074120369927199    0.0
                       -0.0332858974180942       -0.0059137635702289    0.0
                       -0.0301055780956255       -0.0043120583066419    0.0
                       -0.0266687255459009       -0.0026065959535423    0.0
                       -0.0229590397691618       -0.0007961620053026    0.0
                       -0.0189603527422401        0.0011219052169629    0.0
                       -0.0146584254143373        0.0031517520159111    0.0
                       -0.0100432795619049        0.0052983106235535    0.0
                       -0.0051114478847015        0.0075657899887220    0.0
                        0.0001327180729181        0.0099556316378274    0.0
                        0.0056769471365831        0.0124642496091489    0.0
                        0.0115019620904669        0.0150808909536465    0.0
                        0.0175842961855503        0.0177869175758191    0.0
                        0.0238987735473757        0.0205565943679217    0.0
                        0.0304188314089491        0.0233579110686902    0.0
                        0.0371166955174718        0.0261538861252164    0.0
                        0.0439640557140832        0.0289049179198795    0.0
                        0.0509312336123399        0.0315728111867929    0.0
                        0.0579892023748621        0.0341228331517100    0.0
                        0.0651073092479655        0.0365238946282939    0.0
                        0.0726829757606867        0.0388787653839769    0.0
                        0.0802601005646112        0.0410203945043344    0.0
                        0.0878040160358649        0.0429393123120482    0.0
                        0.0952757360824646        0.0446341443850275    0.0
                        0.1026361268517269        0.0461115890649643    0.0
                        0.1098452333998118        0.0473846306650163    0.0
                        0.1168641013707332        0.0484710868582728    0.0
                        0.1236559376071583        0.0493918859988122    0.0
                        0.1301875268477431        0.0501694496900785    0.0
                        0.1364303434719885        0.0508262271632398    0.0
                        0.1423612318183944        0.0513834459697515    0.0
                        0.1479628529319488        0.0518601043331514    0.0
                        0.1532240017643364        0.0522723764572936    0.0
                        0.1581395028336926        0.0526334335613772    0.0
                        0.1627097547930734        0.0529535782563098    0.0
                        0.1669400454967982        0.0532405797984538    0.0
                        0.1708397447207399        0.0535001098753165    0.0
                        0.1744214611804396        0.0537362008352767    0.0
                        0.1777002273714140        0.0539516731598172    0.0
                        0.1806927543037681        0.0541485017448170    0.0
                        0.1834167802980426        0.0543281087224782    0.0
                        0.1858905235971560        0.0544915834832654    0.0
                        0.1881322468468799        0.0546398398049170    0.0
                        0.1901599405585741        0.0547737274850555    0.0
                        0.1919910649981699        0.0548941058603035    0.0
                        0.1936423529422189        0.0550018803937348    0.0
                        0.1951296821188639        0.0550980138575368    0.0
                        0.1964679977912990        0.0551835225325661    0.0
                        0.1976712680845045        0.0552594640700945    0.0
                        0.1987524597548463        0.0553269207084738    0.0
                        0.1997235281345937        0.0553869799426083    0.0
                        0.2005954202360696        0.0554407142099956    0.0
                        0.2013780928980090        0.0554891611042565    0.0
                        0.2020805479509644        0.0555333055562262    0.0
                        0.2027108843682653        0.0555740650980410    0.0
                        0.2032763647276829        0.0556122787848260    0.0
                        0.2037834908592191        0.0556486997346629    0.0
                        0.2042380839426561        0.0556839909070965    0.0
                        0.2046453593547104        0.0557187230250015    0.0
                        0.2050100107729790        0.0557533759521651    0.0
                        0.2053362226975064        0.0557883334566649    0.0
                        0.2056279430098633        0.0558239166924336    0.0
                        0.2058880077909720        0.0558602350789821    0.0
                        0.2061220349519010        0.0558979143991538    0.0
                        0.2063213598745840        0.0559344185497965    0.0
                        0.2065220357314037        0.0559782618834000    0.0
                        0.2067391622120831        0.0560362871178586    0.0
                        0.2069611847974707        0.0561089925090115    0.0
                        0.2071833064397957        0.0561975270675833    0.0
                        0.2074037086762500        0.0563037010435486    0.0
                        0.2076195362535222        0.0564282807645556    0.0
                        0.2078282563264391        0.0565714368660242    0.0
                        0.2080275381317723        0.0567325700516954    0.0
                        0.2082155480292846        0.0569104067068922    0.0
                        0.2083911098585363        0.0571030687219032    0.0
                        0.2085538578715055        0.0573082097710265    0.0
                        0.2087043212624485        0.0575231877618187    0.0
                        0.2088439268239448        0.0577452747150760    0.0
                        0.2089749033547567        0.0579718829984893    0.0
                        0.2091000978181992        0.0582007812711902    0.0
                        0.2080941655347684        0.0582887444140879    0.0
                        0.2080998781025503        0.0584708533304379    0.0
                        0.2080852389379842        0.0586526718850123    0.0
                        0.2080504090947328        0.0588321396186496    0.0
                        0.2079958102757987        0.0590072251511298    0.0
                        0.2079221216165172        0.0591759549599013    0.0
                        0.2078302727388774        0.0593364419864974    0.0
                        0.2077214330934324        0.0594869137763163    0.0
                        0.2075969976953572        0.0596257398748012    0.0
                        0.2074585694530780        0.0597514582396421    0.0
                        0.2073079383768728        0.0598628004880301    0.0
                        0.2071470580367046        0.0599587158842628    0.0
                        0.2069780197096885        0.0600383940907741    0.0
                        0.2068030247155082        0.0601012868603266    0.0
                        0.2066243554815466        0.0601471290444499    0.0
                        0.2064459207811431        0.0601840877146641    0.0
                        0.2062458139793846        0.0602253567533532    0.0
                        0.2060214406022387        0.0602714091086828    0.0
                        0.2057699053552464        0.0603227626551299    0.0
                        0.2054879797652068        0.0603799829166308    0.0
                        0.2051720669880097        0.0604436856340148    0.0
                        0.2048181637016853        0.0605145391098057    0.0
                        0.2044218190495133        0.0605932662642389    0.0
                        0.2039780906586235        0.0606806463420480    0.0
                        0.2034814978378134        0.0607775162203147    0.0
                        0.2029259721578671        0.0608847712820507    0.0
                        0.2023048057429855        0.0610033658343641    0.0
                        0.2016105977586925        0.0611343130568118    0.0
                        0.2008351997765049        0.0612786844532024    0.0
                        0.1999696609360098        0.0614376087316270    0.0
                        0.1990041741174383        0.0616122699293075    0.0
                        0.1979280246870603        0.0618039043994564    0.0
                        0.1967295437854277        0.0620137959450531    0.0
                        0.1953960685933477        0.0622432678646244    0.0
                        0.1939139125293101        0.0624936698974622    0.0
                        0.1922683489020254        0.0627663569330796    0.0
                        0.1904436121621463        0.0630626547806016    0.0
                        0.1884229215711750        0.0633838061704925    0.0
                        0.1861885328393743        0.0637308873858016    0.0
                        0.1837218247139807        0.0641046824567832    0.0
                        0.1810034478140809        0.0645055015973563    0.0
                        0.1780135578277064        0.0649329463952103    0.0
                        0.1747320989627416        0.0653856160683245    0.0
                        0.1711391622965106        0.0658607364335727    0.0
                        0.1672154372167982        0.0663537043193375    0.0
                        0.1629427671413848        0.0668575492579440    0.0
                        0.1583048187681319        0.0673623272938433    0.0
                        0.1532878704390250        0.0678544809776617    0.0
                        0.1478817193127795        0.0683162257072982    0.0
                        0.1420806984493583        0.0687250551157120    0.0
                        0.1358847829905910        0.0690534950652720    0.0
                        0.1293007483138137        0.0692692723215691    0.0
                        0.1223432855702057        0.0693360841643865    0.0
                        0.1150357034371210        0.0692150133531626    0.0
                        0.1074102769487908        0.0688664450865463    0.0
                        0.0995083658521801        0.0682525317831818    0.0
                        0.0913800314610434        0.0673401451744667    0.0
                        0.0830830310541806        0.0661040846450117    0.0
                        0.0746811412949141        0.0645301917158611    0.0
                        0.0662418615405752        0.0626179411503511    0.0
                        0.0578336732899373        0.0603820762049888    0.0
                        0.0499831789924318        0.0580010715254056    0.0
                        0.0422706609480937        0.0553950837924561    0.0
                        0.0347402758460506        0.0526082328825491    0.0
                        0.0274288841662305        0.0496884122241971    0.0
                        0.0203666525073861        0.0466825692856241    0.0
                        0.0135779727645322        0.0436327205145873    0.0
                        0.0070811819716902        0.0405756134985965    0.0
                        0.0008889633360849        0.0375412704622960    0.0
                       -0.0049911920228063        0.0345518962384199    0.0
                       -0.0105564163078481        0.0316213526284177    0.0
                       -0.0158060613183358        0.0287565578151250    0.0
                       -0.0207396091902520        0.0259605856610233    0.0
                       -0.0253564355170709        0.0232354910713928    0.0
                       -0.0296562359038085        0.0205845655218219    0.0
                       -0.0336401217575869        0.0180134992795058    0.0
                       -0.0373120140543223        0.0155301992391300    0.0
                       -0.0406796053436452        0.0131436274724713    0.0
                       -0.0437545500975645        0.0108622895639520    0.0
                       -0.0465518970812143        0.0086929197064064    0.0
                       -0.0490887362448832        0.0066400297926038    0.0
                       -0.0513830747080804        0.0047059381142702    0.0
                       -0.0534530935150949        0.0028909772216640    0.0
                       -0.0553166589111840        0.0011937841921003    0.0
                       -0.0569910058736113       -0.0003883845938949    0.0
                       -0.0584925399392075       -0.0018593478932022    0.0
                       -0.0598367210231559       -0.0032237213661694    0.0
                       -0.0610380043489765       -0.0044866749329467    0.0
                       -0.0621098211861458       -0.0056537279764740    0.0
                       -0.0630645872052329       -0.0067305811525311    0.0
                       -0.0639137297629998       -0.0077229816899265    0.0
                       -0.0646677278632278       -0.0086366182069594    0.0
                       -0.0653361602541091       -0.0094770408373591    0.0
                       -0.0659277583499573       -0.0102496025904467    0.0
                       -0.0664504615558090       -0.0109594181988826    0.0
                       -0.0669114732294132       -0.0116113371272828    0.0
                       -0.0673173160041144       -0.0122099278612388    0.0
                       -0.0676738855643584       -0.0127594710306673    0.0
                       -0.0679865022447936       -0.0132639593230382    0.0
                       -0.0682599600364682       -0.0137271025009575    0.0
                       -0.0684985727453886       -0.0141523361516670    0.0
                       -0.0687062171713437       -0.0145428330641366    0.0
                       -0.0688863732671237       -0.0149015163556803    0.0
                       -0.0690421613066840       -0.0152310736586291    0.0
                       -0.0691763761405739       -0.0155339718331419    0.0
                       -0.0692915186520830       -0.0158124717992793    0.0
                       -0.0693898245512711       -0.0160686431842928    0.0
                       -0.0694821222678715       -0.0163305611950233    0.0
                       -0.0695666851794046       -0.0165970227181625    0.0
                       -0.0696414602043065       -0.0168658668908462    0.0
                       -0.0697044775083223       -0.0171349549341595    0.0
                       -0.0697538784445366       -0.0174021940793148    0.0
                       -0.0697879420577583       -0.0176655609291971    0.0
                       -0.0698051098264253       -0.0179231239176133    0.0
                       -0.0698040083418403       -0.0181730645333688    0.0
                       -0.0697834696537223       -0.0184136969883278    0.0
                       -0.0697425490423124       -0.0186434860278984    0.0
                       -0.0696805400102350       -0.0188610626086860    0.0
                       -0.0695969863216495       -0.0190652372009195    0.0
                       -0.0694916909516298       -0.0192550105120070    0.0
                       -0.0693647218449228       -0.0194295814713626    0.0
                       -0.0692173089438912       -0.0195872691545991    0.0
                       -0.0690509376106952       -0.0197266109262355    0.0
                       -0.0688664389190125       -0.0198474575460128    0.0
                       -0.0686648773261278       -0.0199498860357860    0.0
                       -0.0684475409567646       -0.0200341927405222    0.0
                       -0.0682159291347103       -0.0201008835147154    0.0
                       -0.0679717373061421       -0.0201506612203984    0.0
                       -0.0677168395288512       -0.0201844107637787    0.0
                       -0.0674532687300648       -0.0202031819332904    0.0
                       -0.0671831949619431       -0.0202081703317333    0.0
                       -0.0669089019077449       -0.0202006967185520    0.0
                       -0.0666327619128237       -0.0201821850947544    0.0
                       -0.0663572098327352       -0.0201541398722736    0.0
                       -0.0660847160055828       -0.0201181224717558    0.0
                       -0.0658167564941957       -0.0200755562242640    0.0
                       -0.0655239435159075       -0.0200217892771328    0.0
                       -0.0652038365055057       -0.0199552461891886    0.0
                       -0.0648537521490079       -0.0198741753736255    0.0
                       -0.0644707419938542       -0.0197766338559466    0.0
                       -0.0640515685268134       -0.0196604716535862    0.0
                       -0.0635926797551382       -0.0195233160497664    0.0
                       -0.0630901823718893       -0.0193625561305163    0.0
                       -0.0625398136437119       -0.0191753280721245    0.0
                       -0.0619369122305849       -0.0189585018097574    0.0
                       -0.0612763882340347       -0.0187086698894216    0.0
                       -0.0605526928745891       -0.0184221395069333    0.0
                       -0.0597597883218791       -0.0180949289694726    0.0
                       -0.0588911183417285       -0.0177227700751069    0.0
                       -0.0579395805819840       -0.0173011181859514    0.0
                       -0.0568975014880666       -0.0168251720562178    0.0
                       -0.0557566150112414       -0.0162899057401737    0.0
                       -0.0545080464318234       -0.0156901151019050    0.0
                       -0.0531423027407037       -0.0150204815071966    0.0
                       -0.0516492710662832       -0.0142756550878547    0.0
                       -0.0500182265401446       -0.0134503593655447    0.0
                       -0.0482378506736568       -0.0125395177630613    0.0
                       -0.0462962606354775       -0.0115384002634220    0.0
                       -0.0441810485779261       -0.0104427846924188    0.0
                       -0.0418793280607891       -0.0092491210604126    0.0
                       -0.0393777812084573       -0.0079546780118052    0.0
                       -0.0366626947819464       -0.0065576360038751    0.0
                       -0.0337199645995456       -0.0050570695466311    0.0
                       -0.0305350333042787       -0.0034527254641954    0.0
                       -0.0270927051494097       -0.0017444474796505    0.0
                       -0.0233770704853328        0.0000687581484452    0.0
                       -0.0193724598920944        0.0019893352085052    0.0
                       -0.0150651373968395        0.0040212677511937    0.0
                       -0.0104455019367979        0.0061694269553729    0.0
                       -0.0055102161321276        0.0084380837730304    0.0
                       -0.0002634571533971        0.0108288582881369    0.0
                        0.0052829749975288        0.0133384406021371    0.0
                        0.0111105113945274        0.0159564096137284    0.0
                        0.0171964462617882        0.0186644193538288    0.0
                        0.0235162623397432        0.0214369554622205    0.0
                        0.0300439149272946        0.0242421481981656    0.0
                        0.0367520961886046        0.0270430914125352    0.0
                        0.0436125123848359        0.0297999834064358    0.0
                        0.0505955623953639        0.0324745165354384    0.0
                        0.0576713386654720        0.0350314815070433    0.0
                        0.0648104973286187        0.0374400538443542    0.0
                        0.0724087454449804        0.0398022319371489    0.0
                        0.0800106218245439        0.0419509990291957    0.0
                        0.0875789731714121        0.0438761277738328    0.0
                        0.0950748678718712        0.0455763120431066    0.0
                        0.1024581831059652        0.0470581178489132    0.0
                        0.1096885476994561        0.0483345860551558    0.0
                        0.1167265747074443        0.0494236146669962    0.0
                        0.1235352359976995        0.0503462550541352    0.0
                        0.1300811968333281        0.0511250598184719    0.0
                        0.1363359314022824        0.0517826068203976    0.0
                        0.1422763898187041        0.0523402443152182    0.0
                        0.1478854371948186        0.0528170749805055    0.0
                        0.1531521350238647        0.0532293555766758    0.0
                        0.1580716025662198        0.0535903196678028    0.0
                        0.1626445366103639        0.0539103158810986    0.0
                        0.1668765089585751        0.0541971471936752    0.0
                        0.1707771478453238        0.0544565101630888    0.0
                        0.1743592885601479        0.0546924557702489    0.0
                        0.1776381556245377        0.0549078187185228    0.0
                        0.1806306175170997        0.0551045848907481    0.0
                        0.1833545369857860        0.0552841847323805    0.0
                        0.1858282261013481        0.0554477129224089    0.0
                        0.1880700111232077        0.0555960829395911    0.0
                        0.1900979087081132        0.0557301351491934    0.0
                        0.1919293597925409        0.0558507088178570    0.0
                        0.1935810289327747        0.0559586747965337    0.0
                        0.1950686736656017        0.0560549402657601    0.0
                        0.1964070688020511        0.0561404378564925    0.0
                        0.1976099724657053        0.0562161076702935    0.0
                        0.1986901231138129        0.0562828776963783    0.0
                        0.1996592589479882        0.0563416458789616    0.0
                        0.2005281529777382        0.0563932655062534    0.0
                        0.2013066585389305        0.0564385345349914    0.0
                        0.2020037613140551        0.0564781888019043    0.0
                        0.2026276348896710        0.0565128986956806    0.0
                        0.2031856976611596        0.0565432686822018    0.0
                        0.2036846694963317        0.0565698390253547    0.0
                        0.2041306270327487        0.0565930890765344    0.0
                        0.2045290568377936        0.0566134415824899    0.0
                        0.2048849059287296        0.0566312675583887    0.0
                        0.2052026293507667        0.0566468913739258    0.0
                        0.2054862346594050        0.0566605957942659    0.0
                        0.2057393232611248        0.0566726267987301    0.0
                        0.2059651286435153        0.0566831980660897    0.0
                        0.2061665515798300        0.0566924950661781    0.0
                        0.2063461924296306        0.0567006787347800    0.0
                        0.2065274967403616        0.0567173395998454    0.0
                        0.2067080210424541        0.0567511587370613    0.0
                        0.2068855738324948        0.0568022475735751    0.0
                        0.2070579920812063        0.0568704379699008    0.0
                        0.2072231674240344        0.0569552975870567    0.0
                        0.2073790716932988        0.0570561454550019    0.0
                        0.2075237816487960        0.0571720682512314    0.0
                        0.2076555027441346        0.0573019376376128    0.0
                        0.2077725917415240        0.0574444288791201    0.0
                        0.2078735779597124        0.0575980408712828    0.0
                        0.2079571829108891        0.0577611176261736    0.0
                        0.2080223380559151        0.0579318712034459    0.0
                        0.2080682003868431        0.0581084060187768    0.0
                        0.2080941655347684        0.0582887444140879    0.0
                </DataArray>
            </Points>
            <PointData>
                <DataArray type="Float32" Name="orthogonality" NumberOfComponents="1" format="ascii">
                        0.0004397287956314
                        0.0549567710677460
                        0.0803197035725529
                        0.0909628893147869
                        0.0936426919317102
                        0.0919253696058621
                        0.0880278135017287
                        0.0836223706107320
                        0.0801495547300180
                        0.0793463423936607
                        0.0823988969484539
                        0.0938469368596666
                        0.1083153277761753
                        0.1587472261183112
                        0.1965113748611112
                        0.1649867545376196
                        0.1556952853250343
                        0.1465157373364010
                        0.1360569135143345
                        0.1244568971393594
                        0.1117757286492237
                        0.0982438937710961
                        0.0841882539836234
                        0.0700437008555582
                        0.0563103848048035
                        0.0434989201243721
                        0.0320619663677674
                        0.0223316611545103
                        0.0144775583223295
                        0.0084952007656553
                        0.0042261403056539
                        0.0014020475642477
                        0.0002995311257331
                        0.0012012381957345
                        0.0015847070200743
                        0.0016679680274076
                        0.0016013851114450
                        0.0014772024688384
                        0.0013455373716972
                        0.0012294885202490
                        0.0011373074862629
                        0.0010707786072986
                        0.0010291536789174
                        0.0010108213653142
                        0.0010138245166459
                        0.0010357415307726
                        0.0010733729407807
                        0.0011223732038874
                        0.0011768512915567
                        0.0012291007303700
                        0.0012691075026264
                        0.0012859185736341
                        0.0012735695096137
                        0.0012254278418582
                        0.0011417647380225
                        0.0009990945249017
                        0.0008574320076576
                        0.0005415435632110
                        0.0005615503675609
                        0.0003306036962649
                        0.0006312094993189
                        0.0007317438369323
                        0.0002577825053001
                        0.0005681566106126
                        0.0004553982292013
                        0.0004269283884392
                        0.0003594015374599
                        0.0002707691686916
                        0.0001608009963812
                        0.0000427318921560
                        0.0000512854656790
                        0.0000868679190907
                        0.0000563286975079
                        0.0000353880831259
                        0.0001712865225450
                        0.0003233773835168
                        0.0004640026585638
                        0.0005741661923712
                        0.0006487884211511
                        0.0006991986846577
                        0.0007416541881582
                        0.0007878315708228
                        0.0008476628348204
                        0.0009302401741199
                        0.0010445803247433
                        0.0011997122413518
                        0.0014039451763547
                        0.0016629499259643
                        0.0019764884495716
                        0.0023340334061354
                        0.0027101145892665
                        0.0030607414522831
                        0.0033223861298948
                        0.0034145946099741
                        0.0032464164953732
                        0.0027258039790884
                        0.0017704125670095
                        0.0003177427523046
                        0.0016662337595625
                        0.0041837558123862
                        0.0071964898829600
                        0.0106522644132678
                        0.0143944069608585
                        0.0184929656777997
                        0.0221827663330297
                        0.0269550234685688
                        0.0308446548515343
                        0.0367323789230726
                        0.0422217188372451
                        0.0495367364858583
                        0.0574599196823576
                        0.0660033874390527
                        0.0743310718146915
                        0.0814791037994652
                        0.0860399719997521
                        0.0863481560693717
                        0.0807737847185961
                        0.0681265248439666
                        0.0488295028208258
                        0.0244051735850168
                        0.0001201663617851
                        0.0240554420347558
                        0.0481776865799608
                        0.0670775486147189
                        0.0793373305768172
                        0.0846082159341295
                        0.0841068472427938
                        0.0794551068391518
                        0.0722933710135106
                        0.0639986386516267
                        0.0555117212969206
                        0.0476385463769281
                        0.0403782083937043
                        0.0348685000618221
                        0.0290411013742733
                        0.0250979970542876
                        0.0203978405832423
                        0.0167234440903948
                        0.0127123128944377
                        0.0090709458231623
                        0.0057417189262794
                        0.0028701585205648
                        0.0005051856882605
                        0.0013195621403518
                        0.0026094566049913
                        0.0034009196420238
                        0.0037580473892264
                        0.0037643538790907
                        0.0035129487075782
                        0.0030959882824894
                        0.0025953355727666
                        0.0020759809811889
                        0.0015831430994178
                        0.0011430000895839
                        0.0007661320126297
                        0.0004522807545410
                        0.0001950811559949
                        0.0000141355125887
                        0.0001837855837471
                        0.0003205655087300
                        0.0004287046909853
                        0.0005094036646116
                        0.0005603042807905
                        0.0005732594135412
                        0.0005405636819877
                        0.0004648213625536
                        0.0003601309118374
                        0.0002524798708228
                        0.0001738504687397
                        0.0001494521441547
                        0.0001909664949411
                        0.0002931829032482
                        0.0004210632666387
                        0.0005409763860308
                        0.0006365743619746
                        0.0007147570611811
                        0.0006992070865554
                        0.0006946921505733
                        0.0004813846234018
                        0.0007859055789429
                        0.0007698262813557
                        0.0005088006523311
                        0.0000764440670073
                        0.0000587002933473
                        0.0002541112840969
                        0.0003350415441480
                        0.0004114114588379
                        0.0004437536312059
                        0.0004450501953404
                        0.0004141768008700
                        0.0003542579268183
                        0.0002688563514247
                        0.0001662835866208
                        0.0000545890349911
                        0.0000599115676299
                        0.0001725697101623
                        0.0002803611652903
                        0.0003816560017935
                        0.0004759175722536
                        0.0005633102038829
                        0.0006440965999477
                        0.0007175677957066
                        0.0007795329563537
                        0.0008170063286730
                        0.0007993350276092
                        0.0006636758382060
                        0.0002968679982106
                        0.0004795887038041
                        0.0019148849846816
                        0.0043172125155026
                        0.0080213008960554
                        0.0133376325097306
                        0.0204923168193058
                        0.0295712881596738
                        0.0404837084265087
                        0.0529562944002783
                        0.0665627714274369
                        0.0807826699999679
                        0.0950745695298604
                        0.1089457624760271
                        0.1220019949357788
                        0.1339717717600234
                        0.1447093328835441
                        0.1541487217812232
                        0.1625024833801998
                        0.1701736913419560
                        0.2020259741127118
                        0.1621660251233260
                        0.1091199368925635
                        0.0928168829460229
                        0.0798722777423832
                        0.0757781409839545
                        0.0759730300276317
                        0.0792638245808210
                        0.0838861870631222
                        0.0883480350950477
                        0.0908954962113795
                        0.0891961627630636
                        0.0795307030917256
                        0.0549379314884364
                        0.0008636830059960
                        0.3542868581207355
                        0.2584104308639761
                        0.1780983337187742
                        0.1173876212435250
                        0.0701852302565272
                        0.0323228388855243
                        0.0007529290885558
                        0.0269840077200569
                        0.0530403441414155
                        0.0795896572076515
                        0.1084351875313177
                        0.1428146484042176
                        0.1813519884633088
                        0.2385134588225813
                        0.2772272776039110
                        0.2540295976537462
                        0.2270856777713470
                        0.2096764298221697
                        0.1882685016748669
                        0.1665044765220666
                        0.1441745723069560
                        0.1220289237370332
                        0.1006591379079308
                        0.0806809567449304
                        0.0626228759146511
                        0.0468849747353895
                        0.0336989668138472
                        0.0231133475963636
                        0.0150024090657861
                        0.0090978920803900
                        0.0050367576072435
                        0.0024158337842705
                        0.0008431179859524
                        0.0000229896626478
                        0.0004516026000682
                        0.0006347434072807
                        0.0006962785519249
                        0.0007081062876492
                        0.0007072489478963
                        0.0007089944573371
                        0.0007181094456338
                        0.0007365817633757
                        0.0007655273482427
                        0.0008053668674264
                        0.0008558908128163
                        0.0009160830719500
                        0.0009838492486245
                        0.0010556896015539
                        0.0011263190015602
                        0.0011884086970681
                        0.0012321567312356
                        0.0012472743148930
                        0.0012293838632101
                        0.0011730097275116
                        0.0010786571681299
                        0.0009225990463750
                        0.0007651569779777
                        0.0004305539632883
                        0.0004301759922965
                        0.0004830258799187
                        0.0007672180109367
                        0.0009371365220499
                        0.0004791716225844
                        0.0007962225691600
                        0.0006704975017267
                        0.0006233004046423
                        0.0005338204538084
                        0.0004105391245949
                        0.0002468912033187
                        0.0000528480694719
                        0.0001319662823443
                        0.0002573843283411
                        0.0003018957944291
                        0.0002602964949902
                        0.0001455312345884
                        0.0000096126391877
                        0.0001651505977952
                        0.0002852429682657
                        0.0003485865896758
                        0.0003573696828641
                        0.0003241395105841
                        0.0002559526702196
                        0.0001553725817541
                        0.0000207732842252
                        0.0001535100912883
                        0.0003778035972087
                        0.0006684312991485
                        0.0010498248672181
                        0.0015572174392763
                        0.0022394138236342
                        0.0031607633228547
                        0.0044012559764010
                        0.0060537828159915
                        0.0082181047852796
                        0.0109918428705001
                        0.0144596083326081
                        0.0186818810266711
                        0.0236855787555104
                        0.0294571007034746
                        0.0359412760583608
                        0.0430364157522759
                        0.0506221289197857
                        0.0584833739494602
                        0.0666066836915849
                        0.0742614734113775
                        0.0826669773573497
                        0.0907543724358630
                        0.0997582555641528
                        0.1080470853913148
                        0.1171559804624009
                        0.1258380581995242
                        0.1337142344125461
                        0.1397286940644505
                        0.1427095551365424
                        0.1412164354717646
                        0.1337701645610260
                        0.1191719411966769
                        0.0968916510364787
                        0.0678034035791214
                        0.0338798668110164
                        0.0011587573571167
                        0.0360882265324221
                        0.0697142174301077
                        0.0983975073615210
                        0.1202618139954126
                        0.1345128329321687
                        0.1417233794074461
                        0.1430996718308994
                        0.1401042290396287
                        0.1341484835026299
                        0.1263762167886287
                        0.1178107363338314
                        0.1088279948465476
                        0.1006141935326763
                        0.0917391407490650
                        0.0837236557316861
                        0.0754309668624067
                        0.0678290932098386
                        0.0597882438302805
                        0.0519929891728699
                        0.0444632857802355
                        0.0374047838966889
                        0.0309359492430811
                        0.0251573570620297
                        0.0201260819026250
                        0.0158597897927488
                        0.0123373635625207
                        0.0095049425619089
                        0.0072843883080982
                        0.0055835134704171
                        0.0043063366876021
                        0.0033618556009429
                        0.0026702115739755
                        0.0021658119628501
                        0.0017976797672135
                        0.0015278084388354
                        0.0013284799606075
                        0.0011793722626667
                        0.0010649716292654
                        0.0009724582210023
                        0.0008900233273349
                        0.0008053348487582
                        0.0007044446615728
                        0.0005712265272974
                        0.0004019981301250
                        0.0002164491746182
                        0.0000461706863326
                        0.0000743463706598
                        0.0001170037604553
                        0.0000708893039280
                        0.0000582758973647
                        0.0002487483237567
                        0.0004495765292290
                        0.0006207130890226
                        0.0007498754942095
                        0.0008480392941551
                        0.0008299319758739
                        0.0008117238388041
                        0.0005775998261744
                        0.0008687542944657
                        0.0007640188696049
                        0.0005177002264542
                        0.0001177851377969
                        0.0001358997851309
                        0.0003727388987333
                        0.0004876667736403
                        0.0005953336732192
                        0.0006549986760051
                        0.0006810753623869
                        0.0006728345247445
                        0.0006327201191906
                        0.0005631990737366
                        0.0004728293834269
                        0.0003703623948482
                        0.0002625017642586
                        0.0001539655651819
                        0.0000475810951534
                        0.0000554554089868
                        0.0001552911006715
                        0.0002530868996556
                        0.0003505157255915
                        0.0004487525112534
                        0.0005457294380165
                        0.0006314605691866
                        0.0006830549395902
                        0.0006544033190005
                        0.0004587799074174
                        0.0000493793715244
                        0.0010891757199054
                        0.0029580255053055
                        0.0060207006701564
                        0.0106800949384367
                        0.0173319954947019
                        0.0263107665765396
                        0.0378357519296557
                        0.0519686602065105
                        0.0685902340808138
                        0.0874010437152433
                        0.1079457534396294
                        0.1296599920404451
                        0.1519156935438741
                        0.1741301280811088
                        0.1955851602126145
                        0.2165259814817710
                        0.2333573727947403
                        0.2597792042619895
                        0.2829857966068450
                        0.2428059874789299
                        0.1836558370111097
                        0.1433875782060876
                        0.1075967459042356
                        0.0777299904269430
                        0.0505892722888410
                        0.0243783245978556
                        0.0031073974591344
                        0.0340921289985252
                        0.0711447273913891
                        0.1174517071446617
                        0.1773398189293414
                        0.2570733125026921
                        0.3529373319093602
                        0.4520074662047501
                        0.3802831726626347
                        0.3076878001261833
                        0.2415263211840391
                        0.1827774831439929
                        0.1312945507889693
                        0.0862403129479962
                        0.0463965075134853
                        0.0104112350114767
                        0.0230698131922495
                        0.0550498882895077
                        0.0866819811843470
                        0.1170006418550351
                        0.1493574293949118
                        0.1706582907836224
                        0.1573416880956991
                        0.1280651075702757
                        0.1131190388373264
                        0.0950734093266004
                        0.0787970684819129
                        0.0637189564358851
                        0.0503213172123745
                        0.0387213971814128
                        0.0289836587773889
                        0.0210644042089531
                        0.0148426146444284
                        0.0101355177006680
                        0.0067193093985931
                        0.0043497720402791
                        0.0027830613169688
                        0.0017947714796760
                        0.0011948490266910
                        0.0008359738562417
                        0.0006143971712874
                        0.0004642763718600
                        0.0003482253956699
                        0.0002472752786990
                        0.0001526634416455
                        0.0000607001167348
                        0.0000287237367048
                        0.0001150226192870
                        0.0001995665917806
                        0.0002845425109248
                        0.0003717648945161
                        0.0004623249796089
                        0.0005563332832803
                        0.0006526688538335
                        0.0007486909732667
                        0.0008398917990383
                        0.0009196679068509
                        0.0009788954251543
                        0.0010079562628195
                        0.0010031425435092
                        0.0009593915434973
                        0.0008775656309704
                        0.0007339260416370
                        0.0005892684375272
                        0.0002669615759286
                        0.0002793695415996
                        0.0006188341077094
                        0.0008426169008046
                        0.0010656964527744
                        0.0006040438744317
                        0.0009206504304311
                        0.0007923085168831
                        0.0007450878427593
                        0.0006560194250323
                        0.0005328010076696
                        0.0003673872486421
                        0.0001682847618356
                        0.0000252551322499
                        0.0001619205923055
                        0.0002189324204298
                        0.0001897869962067
                        0.0000864606813823
                        0.0000584494676744
                        0.0002043816818201
                        0.0003140712270779
                        0.0003641626591667
                        0.0003549694700555
                        0.0002975342703053
                        0.0001969281029043
                        0.0000532205814911
                        0.0001382993411119
                        0.0003869353530382
                        0.0007069233959210
                        0.0011180052103462
                        0.0016460685017831
                        0.0023235628759251
                        0.0031893741168420
                        0.0042878650346493
                        0.0056669122539617
                        0.0073749552053604
                        0.0094572772938278
                        0.0119518981273195
                        0.0148855561416704
                        0.0182702136206928
                        0.0221006515507630
                        0.0263528344301373
                        0.0309855204338039
                        0.0359364163408540
                        0.0411447209837054
                        0.0464853275321892
                        0.0520095851835378
                        0.0572007539979920
                        0.0631016641179355
                        0.0693125376673452
                        0.0752168050093134
                        0.0799885494029272
                        0.0846748223895364
                        0.0883354821464145
                        0.0906750592898786
                        0.0910489203072621
                        0.0889022027442248
                        0.0837552739708925
                        0.0753796358367520
                        0.0639046440616536
                        0.0497929119613730
                        0.0338078399976428
                        0.0165954445842467
                        0.0014391383553544
                        0.0194537566394755
                        0.0366126095615513
                        0.0525102834034463
                        0.0665047247411233
                        0.0778466793095120
                        0.0860947982638684
                        0.0911392078347300
                        0.0932193027815635
                        0.0928150961363319
                        0.0904760057045867
                        0.0868340366252096
                        0.0821850634211315
                        0.0774361675025607
                        0.0716030545014663
                        0.0654859663781938
                        0.0596467659951034
                        0.0544567591698308
                        0.0489308674601613
                        0.0435604907725454
                        0.0383018755906733
                        0.0332777212861836
                        0.0285511185041243
                        0.0241869148004280
                        0.0202305270934114
                        0.0167111839648711
                        0.0136400638576000
                        0.0110113897617669
                        0.0088042687380175
                        0.0069856332159952
                        0.0055138260170050
                        0.0043424623805609
                        0.0034241145860648
                        0.0027134082605262
                        0.0021692306380435
                        0.0017559278381834
                        0.0014435563247478
                        0.0012073931081982
                        0.0010269668793429
                        0.0008848251168705
                        0.0007652053020345
                        0.0006525339142291
                        0.0005302745097419
                        0.0003802456527764
                        0.0001990081566436
                        0.0000089162256995
                        0.0001566581518223
                        0.0002638224025017
                        0.0002874818470093
                        0.0002210439267414
                        0.0000737631789195
                        0.0001307716693780
                        0.0003405441131459
                        0.0005163484304557
                        0.0006477649638691
                        0.0007479817278117
                        0.0007290957706412
                        0.0007124119317917
                        0.0004729886436374
                        0.0007720019414494
                        0.0006035198094547
                        0.0004227551651801
                        0.0002209163123870
                        0.0002354726239126
                        0.0004782644555455
                        0.0005964708847798
                        0.0007100190466033
                        0.0007767017204351
                        0.0008119527076623
                        0.0008151638785840
                        0.0007888701274330
                        0.0007353815712230
                        0.0006633377573889
                        0.0005815840850627
                        0.0004968836422942
                        0.0004140262537542
                        0.0003359338647800
                        0.0002639210977731
                        0.0001979603971348
                        0.0001369347003298
                        0.0000789095885813
                        0.0000215114379851
                        0.0000367517869957
                        0.0000950285697867
                        0.0001519450440621
                        0.0002055969342513
                        0.0002482678407898
                        0.0002595433298156
                        0.0001969468305080
                        0.0000147634027902
                        0.0004928012539270
                        0.0014006409588230
                        0.0029448801332508
                        0.0053642474330269
                        0.0089124380538511
                        0.0138375390044854
                        0.0203604576781705
                        0.0286539990118723
                        0.0388222091758529
                        0.0508853071558912
                        0.0647501678559528
                        0.0802692523360316
                        0.0969242364102667
                        0.1152962388531830
                        0.1303109982213321
                        0.1600905112710485
                        0.1734489825960082
                        0.1519112214747488
                        0.1191854505874690
                        0.0884027558120569
                        0.0563616232003824
                        0.0240644683521476
                        0.0095940781314661
                        0.0455997282861479
                        0.0853164365346522
                        0.1301319530970463
                        0.1813194992957956
                        0.2397798358604350
                        0.3057201933959269
                        0.3782081559904775
                        0.4500221691262922
                        0.3926337522899170
                        0.3460047008173687
                        0.2957845127291669
                        0.2492056271118966
                        0.2066860248838340
                        0.1683722576613191
                        0.1342058232294972
                        0.1039867885655859
                        0.0774328196185578
                        0.0541885903941111
                        0.0339093669971921
                        0.0159450497360699
                        0.0001954856680984
                        0.0157951238491372
                        0.0277169614810496
                        0.0198721863980598
                        0.0058232832202532
                        0.0135264595320409
                        0.0213400136786652
                        0.0254894446127125
                        0.0272958541554813
                        0.0270230950876147
                        0.0251859644793960
                        0.0222405417548820
                        0.0186314141281412
                        0.0147595720811717
                        0.0109679366787003
                        0.0075246470095374
                        0.0046116936333541
                        0.0023209115082677
                        0.0006599455136849
                        0.0004315559069339
                        0.0010580404407490
                        0.0013414805926436
                        0.0013980272434479
                        0.0013224294678066
                        0.0011818069831092
                        0.0010172616934064
                        0.0008501870763626
                        0.0006908540602724
                        0.0005428040409640
                        0.0004046721418207
                        0.0002734485336369
                        0.0001463458099072
                        0.0000213329940194
                        0.0001025697533546
                        0.0002250588423372
                        0.0003442935303345
                        0.0004565845769373
                        0.0005562010809660
                        0.0006349308901150
                        0.0006838726405964
                        0.0006995739583141
                        0.0006770974248611
                        0.0006176816189434
                        0.0004979783792942
                        0.0003785675993705
                        0.0000840583861834
                        0.0001214562381720
                        0.0007381762478336
                        0.0008913107127150
                        0.0011491605487420
                        0.0006812959051675
                        0.0009907193165650
                        0.0008661445657544
                        0.0008274790391234
                        0.0007494249760752
                        0.0006426189066425
                        0.0004999261227738
                        0.0003293179000943
                        0.0001660012767469
                        0.0000555132189508
                        0.0000161642530295
                        0.0000517439460708
                        0.0001499132269648
                        0.0002806997813659
                        0.0004084836392288
                        0.0005017652457876
                        0.0005417467382050
                        0.0005302631382649
                        0.0004779669326747
                        0.0003893886030612
                        0.0002646638750413
                        0.0000998725130166
                        0.0001125234178603
                        0.0003834923774099
                        0.0007270426659140
                        0.0011593465725650
                        0.0016970905741783
                        0.0023549691494964
                        0.0031425505198726
                        0.0040610860762098
                        0.0051010515694228
                        0.0062411783510949
                        0.0074494306067351
                        0.0086859334063775
                        0.0099073440440134
                        0.0110720679395887
                        0.0121449033416758
                        0.0131026708208848
                        0.0139323453422957
                        0.0146504110151329
                        0.0152430740240085
                        0.0158648171430201
                        0.0162201279487489
                        0.0172842229244920
                        0.0189823895687404
                        0.0196324222508668
                        0.0189722961569484
                        0.0178668296717848
                        0.0158588362313011
                        0.0130602290568675
                        0.0095151253345761
                        0.0054775204372627
                        0.0013595729062365
                        0.0022740847041178
                        0.0048172630532032
                        0.0058269334128394
                        0.0051858281412706
                        0.0033181788006815
                        0.0012877521795015
                        0.0007118031903854
                        0.0024929445701476
                        0.0030209428930945
                        0.0019078135617752
                        0.0007009018060459
                        0.0043506017230403
                        0.0084392141673533
                        0.0124154457955239
                        0.0158824275969666
                        0.0185999204382299
                        0.0205318665218430
                        0.0215774724411196
                        0.0221833726118226
                        0.0215247530535617
                        0.0198894992918382
                        0.0188195184820847
                        0.0184009484382274
                        0.0176961705143689
                        0.0169912981025886
                        0.0161414560559265
                        0.0151640895701199
                        0.0140486230891138
                        0.0128133282758401
                        0.0114865792694773
                        0.0101082833201627
                        0.0087241952441651
                        0.0073811819225340
                        0.0061219883720504
                        0.0049808542016887
                        0.0039805600692929
                        0.0031313970700249
                        0.0024320687257986
                        0.0018720991760303
                        0.0014350130780203
                        0.0011014933326285
                        0.0008519005795210
                        0.0006678483156523
                        0.0005328352216809
                        0.0004321101366937
                        0.0003520399757697
                        0.0002790109726204
                        0.0001984473284731
                        0.0000932528263042
                        0.0000412379759667
                        0.0001866530570341
                        0.0003150709875194
                        0.0003972691580978
                        0.0004105373548693
                        0.0003477351308979
                        0.0002151091695440
                        0.0000313441726405
                        0.0001574944454558
                        0.0003163945906903
                        0.0004356386329839
                        0.0005292795073910
                        0.0005109562474703
                        0.0005021043854958
                        0.0002676167650468
                        0.0005780559742230
                        0.0003702673166636
                        0.0002665567674369
                        0.0003594162701077
                        0.0003557081709947
                        0.0005868223378367
                        0.0006948818011185
                        0.0008028735627310
                        0.0008678592870373
                        0.0009057858905019
                        0.0009160766714789
                        0.0009016828051931
                        0.0008652047019498
                        0.0008152360396442
                        0.0007604039579858
                        0.0007073732214690
                        0.0006610145480008
                        0.0006245010623463
                        0.0005995568212852
                        0.0005867025896441
                        0.0005854567101225
                        0.0005944272735414
                        0.0006111038072927
                        0.0006317587878229
                        0.0006502721680615
                        0.0006514913715909
                        0.0006032718631979
                        0.0004510007241365
                        0.0001129839733072
                        0.0005183616718125
                        0.0015662227280930
                        0.0031495967682332
                        0.0053571247559721
                        0.0082203233648176
                        0.0116923947416571
                        0.0156368896820554
                        0.0198273891801682
                        0.0239566319710721
                        0.0276516605816286
                        0.0304927589496754
                        0.0320287600010694
                        0.0318096531174048
                        0.0293359867342040
                        0.0243843905548342
                        0.0156118041306168
                        0.0071636954220462
                        0.0203398965477890
                        0.0285105381259126
                        0.0168270821669494
                        0.0011096134031762
                        0.0143383183676643
                        0.0319611353419240
                        0.0519088892715739
                        0.0748707819323754
                        0.1012263233759948
                        0.1313528744295328
                        0.1655377327843174
                        0.2039664835216409
                        0.2466662003710033
                        0.2934505102998076
                        0.3438666479293208
                        0.3907318061790348
                        0.0002650018166697
                        0.0670001034157191
                        0.1204425755022042
                        0.1586617562454165
                        0.1819946109377074
                        0.1925808983746276
                        0.1937354176070473
                        0.1892306566353750
                        0.1827135307216014
                        0.1773531621471577
                        0.1756839608051381
                        0.1795729400253544
                        0.1902320586660202
                        0.2079538342772963
                        0.2114904307785063
                        0.1886248563189864
                        0.1752604959850929
                        0.1516609705735193
                        0.1323342543196731
                        0.1139063186110905
                        0.0968763867516775
                        0.0809838922887284
                        0.0662681437609270
                        0.0527928621889567
                        0.0406772370112209
                        0.0300493014726090
                        0.0210149880128352
                        0.0136262194998287
                        0.0078589519077553
                        0.0036048858873205
                        0.0006794046823109
                        0.0011559443782103
                        0.0021618795091003
                        0.0025886210058596
                        0.0026497516473764
                        0.0025078277907681
                        0.0022726414920094
                        0.0020090830842446
                        0.0017496890563835
                        0.0015084609404628
                        0.0012891161375042
                        0.0010893427774659
                        0.0009050194396825
                        0.0007322730470483
                        0.0005680559613844
                        0.0004104370477333
                        0.0002588022504974
                        0.0001140679858369
                        0.0000210481011747
                        0.0001418721900535
                        0.0002413316164390
                        0.0003114839638785
                        0.0003492727086860
                        0.0003500385822494
                        0.0003154178301280
                        0.0002229014861864
                        0.0001317574626671
                        0.0001288777221112
                        0.0000670152780195
                        0.0008711939538609
                        0.0009495572647507
                        0.0012400684387733
                        0.0007752762488479
                        0.0010711600204695
                        0.0009523754521039
                        0.0009225612290951
                        0.0008565786819639
                        0.0007676491710497
                        0.0006495094656321
                        0.0005094058704699
                        0.0003779666734737
                        0.0002944139488128
                        0.0002726528016325
                        0.0003140175905210
                        0.0004061808901724
                        0.0005222533627710
                        0.0006318983964958
                        0.0007095724267375
                        0.0007410870571187
                        0.0007295346102515
                        0.0006848244139995
                        0.0006107346895935
                        0.0005073088454699
                        0.0003712088898326
                        0.0001962926271536
                        0.0000258759239054
                        0.0003050206724066
                        0.0006502795885236
                        0.0010671114889669
                        0.0015529310666149
                        0.0020918642003954
                        0.0026495084181043
                        0.0031689308096417
                        0.0035691910291911
                        0.0037473801916071
                        0.0035846004911793
                        0.0029555139358800
                        0.0017405988770199
                        0.0001611004635184
                        0.0028182089100300
                        0.0062620654204736
                        0.0104640015411655
                        0.0153884305316548
                        0.0208244452800593
                        0.0269000074554077
                        0.0327301563647740
                        0.0380059760987202
                        0.0451823959575596
                        0.0543145214629458
                        0.0647081907671942
                        0.0762579344088821
                        0.0882395250171732
                        0.0995956809813206
                        0.1088096075274939
                        0.1140235436104183
                        0.1132710175015543
                        0.1048881190669968
                        0.0880586302073321
                        0.0633550301232306
                        0.0330630863994151
                        0.0009404208616059
                        0.0310665617096261
                        0.0610442042567668
                        0.0853250781065378
                        0.1017315607314500
                        0.1097788407201564
                        0.1103306089385745
                        0.1050579274734268
                        0.0959049263010975
                        0.0846918441868040
                        0.0728951336159730
                        0.0615374486664869
                        0.0513162910976321
                        0.0423242278914322
                        0.0352355639697273
                        0.0299328416104072
                        0.0241792890689698
                        0.0182232454798295
                        0.0129372488603043
                        0.0081902089131974
                        0.0041846029521095
                        0.0009486715538027
                        0.0014967229513680
                        0.0031899481833213
                        0.0042057529815984
                        0.0046500059434020
                        0.0046459000739122
                        0.0043212816993310
                        0.0037965818286577
                        0.0031754829102683
                        0.0025391193721005
                        0.0019441346143413
                        0.0014241611797094
                        0.0009937644953429
                        0.0006536137141629
                        0.0003956829372954
                        0.0002075905106942
                        0.0000756251580988
                        0.0000135667378113
                        0.0000724037720074
                        0.0001125287188579
                        0.0001456036245102
                        0.0001840877435237
                        0.0002435967868593
                        0.0003297230329268
                        0.0004281412746711
                        0.0005165754178651
                        0.0005708269579784
                        0.0005710740751698
                        0.0005100565593669
                        0.0003913272003022
                        0.0002287808753341
                        0.0000619745926749
                        0.0000788137823248
                        0.0001847634524653
                        0.0002704747452315
                        0.0002532015304242
                        0.0002517900735122
                        0.0000272882048521
                        0.0003401221231781
                        0.0000976792639374
                        0.0000719722932470
                        0.0005227922284990
                        0.0005038360416337
                        0.0007199640501380
                        0.0008179256653474
                        0.0009204882111994
                        0.0009851419134891
                        0.0010279702373508
                        0.0010484718956691
                        0.0010499568782459
                        0.0010352712326704
                        0.0010128064458957
                        0.0009908438928432
                        0.0009758808201959
                        0.0009728441507814
                        0.0009851739065938
                        0.0010150545239824
                        0.0010636399558750
                        0.0011312204914909
                        0.0012172210975203
                        0.0013196727796509
                        0.0014342814372576
                        0.0015518896811638
                        0.0016496827062946
                        0.0016794516517828
                        0.0015566532287816
                        0.0011495375708330
                        0.0002749893708276
                        0.0012941235611430
                        0.0038085776897772
                        0.0075124178651566
                        0.0126094886169893
                        0.0192352912552653
                        0.0274412399498855
                        0.0371949032468117
                        0.0483957369621462
                        0.0609019985959960
                        0.0745642993172813
                        0.0892547467951746
                        0.1049104198704861
                        0.1214921108989010
                        0.1392777462428951
                        0.1576802473288109
                        0.1804268691166861
                        0.1908579594875968
                        0.2135692383531411
                        0.2091474173695233
                        0.1900169450486663
                        0.1778222942516249
                        0.1724533399572099
                        0.1728643781568949
                        0.1773369568734948
                        0.1834449574058396
                        0.1880713961301819
                        0.1875478825814770
                        0.1779957502246097
                        0.1559130770005108
                        0.1189182299526454
                        0.0664264787730968
                        0.0004392986524703
                </DataArray>
                <DataArray type="Float32" Name="aspect_ratio" NumberOfComponents="1" format="ascii">
                       26.3612850555613619
                       22.7061578578571906
                       20.4731456975495309
                       18.9282833289962068
                       17.8088482784594891
                       16.9753639581454044
                       16.3490516406816752
                       15.8822796201339391
                       15.5493505000378705
                       15.3227531184246149
                       15.2268684857315074
                       15.1269234131577984
                       15.4600629641309834
                       14.6139967056715750
                        9.8677997035170030
                        5.2760765049086181
                        4.8882608443140893
                        5.9190710673672059
                        6.7333197146904693
                        7.7625356340555493
                        8.9197118270516439
                       10.2438471875558430
                       11.7410347493835170
                       13.4232350968025017
                       15.2989546043102206
                       17.3765547571136405
                       19.6651218829681392
                       22.1762530505138280
                       24.9254458892433281
                       27.9329740206609190
                       31.2240296479821543
                       34.8281831101662770
                       38.7783444242366797
                       43.1094863860924877
                       47.8573754422122677
                       53.0574767268249497
                       58.7440775848663692
                       64.9495604557634356
                       71.7036627794685640
                       79.0318290666250651
                       86.9527161363022168
                       95.4764010781357415
                      104.6028160935057382
                      114.3192196285796260
                      124.5972679096679493
                      135.3900385554313135
                      146.6291846151945233
                      158.2225014276355349
                      170.0522023193075113
                      181.9742144798450295
                      193.8185315544762626
                      205.3915899672908169
                      216.4861095809764111
                      226.8915877204837017
                      236.4013109675236091
                      244.8065728007463474
                      251.9260689526586371
                      257.5428735711798161
                      261.5879781765346792
                      263.7574739438746014
                      256.8246352134728692
                      248.1690343158311408
                      245.2394504885227433
                      240.9801282410263332
                      235.3715456428481096
                      228.6718954752719047
                      221.0338785227793901
                      212.6706588212594234
                      203.8091440636006648
                      194.6852156415899955
                      185.4886380786999042
                      176.3110679157796601
                      167.1630931447069583
                      158.0195599201102030
                      148.8507863249712144
                      139.6554941855466627
                      130.4787274422517417
                      121.4073793459569733
                      112.5510673486852508
                      104.0111243285078709
                       95.8594757858782931
                       88.1409066732104663
                       80.8808731704524800
                       74.0904501567522909
                       67.7699373166440214
                       61.9115271642274457
                       56.5013708800262289
                       51.5212125802957645
                       46.9497162699082872
                       42.7635693449857781
                       38.9384185458790205
                       35.4496657706345540
                       32.2731256981146676
                       29.3855309052450460
                       26.7648672371395561
                       24.3905386035327502
                       22.2433682033672477
                       20.3055160980996932
                       18.5602128894986975
                       16.9919138024341892
                       15.5849332355282814
                       14.3274969952105536
                       13.1978766985595222
                       12.2075666848304556
                       11.2790619545967194
                       10.5221380523656256
                       10.3435084225449681
                       10.7043059379804595
                       11.1343509768960599
                       11.5159732395420650
                       11.9340478839957885
                       12.3781097150848488
                       12.8758701861995718
                       13.4366024139467560
                       14.0661934601483975
                       14.7525952337602783
                       15.4623267595531460
                       16.1261889810790577
                       16.6615338240537821
                       16.9601711494087596
                       17.0241252306939998
                       16.9290304074512211
                       16.6029106322140452
                       16.0457011639994628
                       15.3652941658260960
                       14.6425777712458899
                       13.9447875008443745
                       13.3040113484862992
                       12.7316058749004500
                       12.2216608625566295
                       11.7650339661464762
                       11.3350549883457411
                       10.9413711872885468
                       10.5032857347466788
                       10.1325802909586525
                       10.2914065308296923
                       11.0157244375972520
                       11.9021692121254224
                       12.8461405453439739
                       13.9209227435042336
                       15.1152277526948188
                       16.4491202747229747
                       17.9330997806749315
                       19.5811485046766876
                       21.4068617913892909
                       23.4246724446617297
                       25.6496494063303567
                       28.0976921325314823
                       30.7855589699540085
                       33.7308236314746515
                       36.9516862085777132
                       40.4666347614164223
                       44.2939672343290694
                       48.4512102487577704
                       52.9544861595762216
                       57.8178888599172154
                       63.0529377924184803
                       68.6681999536463425
                       74.6692102839901996
                       81.0588965579396793
                       87.8388167213840935
                       95.0117339880955065
                      102.5862240503542510
                      110.5850778682710717
                      119.0490343799086691
                      128.0147526969159082
                      137.4776364853083356
                      147.3625525783373194
                      157.5078968228002252
                      167.6746719522060704
                      177.5764873668700071
                      186.9144365041182748
                      195.4346131198114332
                      202.9683723610660207
                      209.4072053631099473
                      214.6639080890516316
                      218.7142666494785478
                      221.5469725962506209
                      223.2728924126595959
                      223.8540235603071042
                      230.1295181862950311
                      235.4479496928387034
                      233.1443508026417798
                      230.0064290510151004
                      225.9106270283333980
                      220.9107380534147310
                      214.9763038545491153
                      208.1345979603237451
                      200.4314537474230625
                      191.9514798895351827
                      182.8063743643721665
                      173.1292368465732592
                      163.0705848553107076
                      152.7915451735155041
                      142.4515255985964796
                      132.1980514780569844
                      122.1601267324591166
                      112.4447029729173229
                      103.1356710139435835
                       94.2946699092048911
                       85.9630663220350704
                       78.1645195300552447
                       70.9079122294001257
                       64.1907561364847967
                       58.0016324511705170
                       52.3212802521936749
                       47.1239620347425114
                       42.3792382182046505
                       38.0535602788168205
                       34.1118620403961788
                       30.5192406654463597
                       27.2426722411941746
                       24.2525786697728501
                       21.5239873911131650
                       19.0370293378223961
                       16.7766238671672025
                       14.7313717908847372
                       12.8919668005057392
                       11.2493364483838828
                        9.7938289671044872
                        8.5121435054482365
                        7.3967558876543587
                        6.4075890919948834
                        5.6310440230214915
                        4.6315528197897485
                        5.0670079098044695
                        9.7606097387313609
                       14.5912061228327695
                       15.4402997834061312
                       15.0833843399491383
                       15.1609268026436292
                       15.2321518466587020
                       15.4354205233939716
                       15.7482706982901202
                       16.2005051372152300
                       16.8200391237256777
                       17.6566309258473415
                       18.7910286399648446
                       20.3645966948393996
                       22.6422641518968720
                       26.3571217267497966
                       19.7776686547105211
                       18.8372105489319745
                       18.0771716979381584
                       17.4390892638830897
                       16.9031175510334739
                       16.4476844108938997
                       16.0514812901764865
                       15.6937740849862800
                       15.3560505027627058
                       15.0152740223320883
                       14.6646959393198240
                       14.2412228521396428
                       13.8617201663144687
                       13.0420653619439680
                       10.4837402274553265
                        7.5068366058831919
                        7.2865060846500170
                        8.5851726486447101
                        9.5712880456830570
                       10.7734099423991749
                       12.0795602716147935
                       13.5303778822958958
                       15.1316865942287415
                       16.9001482240275446
                       18.8530297877670104
                       21.0112231143178499
                       23.3988973522693804
                       26.0436198925825984
                       28.9759645272222833
                       32.2288611130107129
                       35.8367551325003101
                       39.8347738279551558
                       44.2580824778655630
                       49.1415424639635525
                       54.5196466004053818
                       60.4265686519813414
                       66.8960868164982582
                       73.9611677670836748
                       81.6530749346421992
                       89.9992659681352077
                       99.0202177721606424
                      108.7270225675874746
                      119.1193470477802900
                      130.1824588070399100
                      141.8838690465109308
                      154.1699401786514066
                      166.9626598129637160
                      180.1568950766277225
                      193.6184671201164391
                      207.1833887202208356
                      220.6583502434250436
                      233.8234177406122632
                      246.4429959126180801
                      258.2783110158804720
                      269.0942025862435926
                      278.6555505677909576
                      286.7519527582906886
                      293.1507860006532070
                      297.7409577133307002
                      300.2377653136965345
                      292.3432928688973122
                      282.4955789361082307
                      279.1976492140979467
                      274.3482351890660305
                      267.9838279048510937
                      260.3678614352930530
                      251.6814306654784732
                      242.1654674735913876
                      232.0779962490109526
                      221.6865796063401092
                      211.2077449734056959
                      200.7459844435888802
                      190.3150440447899487
                      179.8883337487819501
                      169.4339873607901781
                      158.9521095327621295
                      148.4948797465181606
                      138.1611676581104409
                      128.0750198688149433
                      118.3507358222863428
                      109.0692540660087538
                      100.2811356804407769
                       92.0151345159318235
                       84.2837864540248673
                       77.0874871554403405
                       70.4175443520453855
                       64.2585673590954729
                       58.5903770324326152
                       53.3895497041902595
                       48.6306554231168391
                       44.2872235581752226
                       40.3324590713833051
                       36.7397380013343201
                       33.4829231169500415
                       30.5365498347905942
                       27.8759361620964493
                       25.4772502284916677
                       23.3175939561657516
                       21.3749968214920785
                       19.6287437978047002
                       18.0585284923154177
                       16.6476236743640901
                       15.3727269394220787
                       14.2354042129361974
                       13.1746790830409858
                       12.2607561937548748
                       12.0492832180427518
                       12.4957671275016005
                       12.9778597318689010
                       13.3970028688181099
                       13.8053214906251341
                       14.1845695519541895
                       14.5380105018700723
                       14.8535722835128096
                       15.1182298521110056
                       15.3182678457133924
                       15.4493346442620866
                       15.5206938420961268
                       15.5623563451691569
                       15.6067746298095788
                       15.6286128539088302
                       15.5923403984584262
                       15.5323483200827731
                       15.4729273785595614
                       15.3817080640205842
                       15.2296489612025096
                       15.0086750678105774
                       14.7239999973043754
                       14.3897529473888991
                       14.0191317271208119
                       13.6241975893152876
                       13.2021170477799868
                       12.7705961474701286
                       12.2798127652721009
                       11.8247534617635958
                       12.0143751236233231
                       12.8897688801759606
                       13.9041353238140089
                       14.9895527147966114
                       16.2040861879843253
                       17.5455984697620263
                       19.0356391482946242
                       20.6892724681096568
                       22.5247454977207798
                       24.5604149203906497
                       26.8154977800303391
                       29.3096999739753287
                       32.0631565712285555
                       35.0962843181682514
                       38.4296497752175404
                       42.0838041461916985
                       46.0790632092585857
                       50.4351978015639296
                       55.1710130259854459
                       60.3038178618854988
                       65.8488223025171529
                       71.8185405106021294
                       78.2223246482734783
                       85.0662081995542164
                       92.3533164391696864
                      100.0852077934820051
                      108.2647297203913895
                      116.9011826515330982
                      126.0195499632790288
                      135.6651021040048142
                      145.8787981132470323
                      156.6553701164882270
                      167.9101455721563596
                      179.4605891729855872
                      191.0363241141104554
                      202.3130474317779301
                      212.9518414482538623
                      222.6634793278442635
                      231.2562216218841928
                      238.6050709073810038
                      244.6113734591819681
                      249.2402771940535561
                      252.4899798482196853
                      254.4606469762938465
                      255.1509370335584243
                      262.3101260514876200
                      268.3714957724012756
                      265.7645269054371026
                      262.1763571228913671
                      257.5096813774250739
                      251.8025936247130347
                      245.0307790599483692
                      237.2226351575184689
                      228.4323025712589347
                      218.7564723630568172
                      208.3232316673327440
                      197.2846732884075437
                      185.8127775679339750
                      174.0914344462030177
                      162.3023725976947642
                      150.6136522123846635
                      139.1721357158559743
                      128.0995001316316098
                      117.4911167728449078
                      107.4170032295779900
                       97.9241219731843655
                       89.0393987324472596
                       80.7732199949880930
                       73.1235034102389152
                       66.0787786660443265
                       59.6198541812908390
                       53.7216936742429277
                       48.3553030347989783
                       43.4889076828232512
                       39.0886240764053156
                       35.1189345462823199
                       31.5432497751434113
                       28.3247160624638375
                       25.4272514406203997
                       22.8166549035889687
                       20.4615817570447316
                       18.3341958891402687
                       16.4104624807670452
                       14.6698737546781486
                       13.0956395570603407
                       11.6714876611137031
                       10.3920666889265285
                        9.2158970696119525
                        8.2594624747542059
                        6.9728565096628729
                        7.2613372513245391
                       10.3200749331965846
                       12.8843453125384076
                       13.7003690425496931
                       14.0816848329774478
                       14.5081876955150813
                       14.8645486427211796
                       15.2136965213111243
                       15.5623739100593313
                       15.9332925024118779
                       16.3444447640612172
                       16.8159837008645558
                       17.3687575015618192
                       18.0241148348845480
                       18.8017222357497074
                       19.7606275492728795
                       15.7113892602758702
                       16.2070506170269301
                       16.6059911497723114
                       16.8957428576315475
                       17.0838041540092331
                       17.1713595137336656
                       17.1559439153810126
                       17.0332339574192532
                       16.7991926413313121
                       16.4488256871334721
                       15.9871205232233792
                       15.3998484991250977
                       14.7590393014479415
                       13.8728938388026005
                       12.0484568471554955
                       10.0665611601751636
                       10.3057620354917637
                       11.7796606722940179
                       12.9555674777774956
                       14.3314192494018081
                       15.8119082311020180
                       17.4396994987511437
                       19.2290987847651547
                       21.2057978349962205
                       23.3977966249941861
                       25.8374916778416470
                       28.5608060735020519
                       31.6066250534597034
                       35.0157947462001195
                       38.8299893324666806
                       43.0906235873183172
                       47.8380823434078225
                       53.1114620858954352
                       58.9488466299495412
                       65.3879136755365346
                       72.4665065059282663
                       80.2227883252870142
                       88.6947308733767646
                       97.9188560252549262
                      107.9275825643324090
                      118.7452741202392426
                      130.3851624106130319
                      142.8467683467025112
                      156.1123289836979836
                      170.1427901128515960
                      184.8737448323599564
                      200.2115744485469668
                      216.0301669120642494
                      232.1686253946969987
                      248.4303652906346931
                      264.5837506969272913
                      280.3652908552077077
                      295.4925473140743319
                      309.6797341213817769
                      322.6445644401039835
                      334.1071843903050687
                      343.8103996256123829
                      351.4899252345695073
                      356.9775749473060986
                      359.9977738127012892
                      350.5206360616455535
                      338.7084061164760449
                      334.7849144355249087
                      328.9591464680382965
                      321.3400556345369889
                      312.2123351700320723
                      301.8008667576854422
                      290.3930059004111685
                      278.2982743194987158
                      265.8368217063583713
                      253.2688214159411134
                      240.7190570481786748
                      228.2047186637234708
                      215.6948447467803752
                      203.1521024044634688
                      190.5774557411109088
                      178.0341283029886462
                      165.6408135839836993
                      153.5459819282827143
                      141.8861388329238206
                      130.7577949636965040
                      120.2214660031809198
                      110.3116280041375751
                      101.0434107457424151
                       92.4174738852747086
                       84.4236772111039217
                       77.0439577829339680
                       70.2546285719186953
                       64.0282214697146830
                       58.3349348910505872
                       53.1437179675683775
                       48.4230217814805292
                       44.1412666312258078
                       40.2670990850300462
                       36.7695274047222134
                       33.6180223072230816
                       30.7826389596914168
                       28.2342121290605370
                       25.9445352158533726
                       23.8868040157736694
                       22.0352168442411203
                       20.3673810081257337
                       18.8573797526048757
                       17.4974243453595833
                       16.2387850890865863
                       15.1204553373211330
                       14.8669239700010122
                       15.4339434910834956
                       16.0091425626759172
                       16.5077834893330326
                       16.9609238532296508
                       17.3502314383345426
                       17.6709139581865911
                       17.9094568181280712
                       18.0561916004403625
                       18.1094760038937559
                       18.0844459451521467
                       18.0151831236750893
                       17.9525389249322332
                       17.9459345163001674
                       17.9572824320052894
                       17.9281906436427485
                       17.9153522614086896
                       17.9554479808624109
                       17.9990106941897032
                       17.9963903803468552
                       17.9152455523981873
                       17.7419810012856677
                       17.4792074312646227
                       17.1370398634784001
                       16.7290552795587321
                       16.2602222077287489
                       15.7484659170474932
                       15.1639967687076589
                       14.5890945666519268
                       14.8177903806532646
                       15.8904658531519105
                       17.0956807076360362
                       18.3950698348870635
                       19.8350370140186074
                       21.4221720774130172
                       23.1803765839452484
                       25.1298966644881942
                       27.2939715757589854
                       29.6964687497026922
                       32.3622140804618051
                       35.3165033712472475
                       38.5848570382751021
                       42.1927495790816921
                       46.1654029603428527
                       50.5276038553911263
                       55.3035074162659380
                       60.5163686469913438
                       66.1881511615872974
                       72.3389928009440095
                       78.9865568339741202
                       86.1453568688950609
                       93.8262078780840803
                      102.0360264035114780
                      110.7782969423339395
                      120.0546496041533123
                      129.8682351592822256
                      140.2298601052142044
                      151.1686857943756736
                      162.7381322547260602
                      174.9868625113425979
                      187.9087966188433234
                      201.4032739056185086
                      215.2524398440879066
                      229.1329735029740541
                      242.6567368348780515
                      255.4178165677215547
                      267.0687067725164350
                      277.3799707371351109
                      286.2007307450458041
                      293.4140961242798101
                      298.9713009137791500
                      302.8834569084612115
                      305.2432147005131790
                      306.0950774230712109
                      314.6825108472568823
                      321.9472456712699918
                      318.8390591905829085
                      314.5225971573461535
                      308.9281842367977560
                      302.0766254000365072
                      293.9494513139766701
                      284.5774153156444720
                      274.0271046070962412
                      262.4144174932067311
                      249.8935111787682263
                      236.6469440707279707
                      222.8812499656892619
                      208.8171622035951176
                      194.6727011348361088
                      180.6494291084569186
                      166.9234349237779587
                      153.6405690850053336
                      140.9151125991240566
                      128.8309314400172514
                      117.4442508553850168
                      106.7873262428913332
                       96.8727056734620786
                       87.6981269742926777
                       79.2502819976431045
                       71.5070637093168653
                       64.4401180458350918
                       58.0172114745599481
                       52.2035692983488679
                       46.9623424398084665
                       42.2545866190711558
                       38.0392175777938446
                       34.2733109904521280
                       30.9128891117135272
                       27.9140957872490103
                       25.2345188950834375
                       22.8343921692281718
                       20.6775406824105662
                       18.7318153104126549
                       16.9698268009059632
                       15.3666158850004301
                       13.9090724223491554
                       12.5537877342969767
                       11.4040035766999412
                        9.9277803708890911
                        9.7502925339206293
                       11.8120923180430912
                       13.6273464611247942
                       14.5047622504872837
                       15.1471533064829949
                       15.7436311692039263
                       16.2226044402400466
                       16.5968285904772121
                       16.8595191652123020
                       17.0133550102942438
                       17.0598449481893147
                       17.0009074966953238
                       16.8371568607366935
                       16.5665066660296973
                       16.1816708489416708
                       15.6969952785970316
                       13.3636181588996063
                       14.4040151237200922
                       15.4061454941456492
                       16.3168494462576250
                       17.0901390628958907
                       17.6925196973530817
                       18.1038138824766837
                       18.3152901550457709
                       18.3269257857112281
                       18.1438223633573144
                       17.7783179062914291
                       17.2377439126258306
                       16.5669911782677555
                       15.7025540454993119
                       14.3464705415335044
                       13.3595284387417558
                       14.1255985096546873
                       15.6671000092070054
                       17.0931436610704573
                       18.7313896294338866
                       20.5375538999229871
                       22.5522573573469266
                       24.8004275122125629
                       27.3153285298620085
                       30.1330868416633821
                       33.2938764659034668
                       36.8412267585359104
                       40.8214306355387908
                       45.2826502518820594
                       50.2739857900015305
                       55.8446962412706833
                       62.0437790540501219
                       68.9199973561735504
                       76.5222653364039237
                       84.9001263420329926
                       94.1039716646153214
                      104.1846907583832733
                      115.1925867977299560
                      127.1755161308864374
                      140.1755517957824946
                      154.2240477852860561
                      169.3376945024178934
                      185.5151619229375024
                      202.7325376240905149
                      220.9382060220362030
                      240.0476404928023376
                      259.9384740950221540
                      280.4463444906240882
                      301.3620613278485990
                      322.4306031132650181
                      343.3521891264302939
                      363.7865539656097286
                      383.3692654206663246
                      401.7322410317813263
                      418.5114645338987543
                      433.3490476911168643
                      445.9094684616374110
                      455.8683857019736304
                      462.9741981968732004
                      466.9414019181353729
                      454.6705172353025046
                      439.3876300999784750
                      434.3875298664850450
                      426.8772947305712692
                      417.0594220917457608
                      405.2633796005031475
                      391.7903021223966784
                      377.0091257353509641
                      361.3188036957530541
                      345.1315048631220739
                      328.7847617677171276
                      312.4439038056036753
                      296.1387607573101636
                      279.8377433384960340
                      263.5002838889524591
                      247.1332145492170107
                      230.8208406995839650
                      214.7160809270970827
                      199.0082326289283879
                      183.8705123343224715
                      169.4251463655109157
                      155.7490097667740151
                      142.8859028815292193
                      130.8550018929156661
                      119.6570051903689367
                      109.2787782377277508
                       99.6969893367076300
                       90.8810055670806916
                       82.7952051328039122
                       75.4007942136339173
                       68.6571859742822601
                       62.5229953373881683
                       56.9567155771815122
                       51.9171583629007325
                       47.3637450828751750
                       43.2567302508736393
                       39.5574115069946461
                       36.2283706921630855
                       33.2337004205018586
                       30.5393805741553822
                       28.1131632486535433
                       25.9260316188360284
                       23.9484205425127768
                       22.1621284875773450
                       20.5284459672535707
                       19.0564849314507220
                       18.6634131725553526
                       19.2908881450273173
                       19.8830991051404237
                       20.3753251833933647
                       20.7847329431019457
                       21.1028045372013394
                       21.3287445065232866
                       21.4594708121731129
                       21.4974337157574297
                       21.4540550309678370
                       21.3542528064048965
                       21.2362540829207653
                       21.1474258189424873
                       21.1316233583131922
                       21.1412142398479220
                       21.1103297502590690
                       21.1033962311386503
                       21.1667552382420539
                       21.2563304245686018
                       21.3255628291208818
                       21.3376061196398805
                       21.2689645345296205
                       21.1093291626994433
                       20.8569733411358044
                       20.5153692305900216
                       20.0856370680479468
                       19.5763129128937301
                       18.9709784757024167
                       18.3330245509846573
                       18.6962734231422999
                       20.1142775725589151
                       21.6851956675363688
                       23.3992740524534569
                       25.2931025509637205
                       27.3830495338769945
                       29.6962616956258134
                       32.2590209559460525
                       35.1003700655641543
                       38.2506397797051509
                       41.7414963306220051
                       45.6055013844048183
                       49.8758031678306812
                       54.5857994288942625
                       59.7688203421908571
                       65.4577997581936205
                       71.6849026033210535
                       78.4810620247732103
                       85.8753870755809422
                       93.8944277635806911
                      102.5613311289807654
                      111.8949854291993415
                      121.9093268475614866
                      132.6130768997307558
                      144.0103040654610080
                      156.1023775228071175
                      168.8921706409969398
                      182.3917665937258292
                      196.6356776208153239
                      211.6889857025155748
                      227.6114106477541766
                      244.3942238581047576
                      261.9093434693772691
                      279.8796810588278149
                      297.8931643499958699
                      315.4539039488904134
                      332.0416688149901767
                      347.2077969670817737
                      360.6534184733660994
                      372.1781992388762437
                      381.6281936410478554
                      388.9276156969613159
                      394.0950495967240859
                      397.2202100928352297
                      398.4092200804716793
                      409.6283649666092076
                      419.1092962406179528
                      415.1014864928339352
                      409.4700120179938287
                      402.1770358564969432
                      393.2267386550546536
                      382.6096574410697078
                      370.3656867953239722
                      356.5863291314211917
                      341.4249738208712486
                      325.0850631607577695
                      307.8064206516538055
                      289.8595933763668029
                      271.5326812091049952
                      253.1094557140748099
                      234.8517347041378058
                      216.9878376876739596
                      199.7065417195232989
                      183.1554651835783826
                      167.4426524525470740
                      152.6402315098307353
                      138.7892191019848446
                      125.9050257601039737
                      113.9836127027507966
                      103.0061973084777195
                       92.9422154690577746
                       83.7528227194783556
                       75.3941981418448424
                       67.8197338723469916
                       60.9811934253809130
                       54.8291343874149349
                       49.3130060828359987
                       44.3813154585642264
                       39.9821059581532986
                       36.0637866704521361
                       32.5761786950496704
                       29.4715610431623438
                       26.7055528452802185
                       24.2376090662193870
                       22.0316020454643496
                       20.0544342074166735
                       18.2818128714297969
                       16.6722159272184586
                       15.2764446235951040
                       13.7355338207634460
                       13.0178330212212573
                       14.0688666183640907
                       15.4143216944118464
                       16.2728709773134802
                       16.9482950891639004
                       17.5031341523005926
                       17.8919821292512110
                       18.1057755316778057
                       18.1298162629693879
                       17.9561107110001786
                       17.5816059334931067
                       17.0122306243864702
                       16.2661452865297511
                       15.3760065398067834
                       14.3882153128161395
                       13.3579560602641276
                       12.9244431406254110
                       14.6836605242885419
                       16.5229194229522193
                       18.2809330871687960
                       19.8706913839770704
                       21.2195092795884471
                       22.2780110174645805
                       23.0218714563629008
                       23.4458896733065032
                       23.5536887482435102
                       23.3481399178796413
                       22.8265528295559796
                       21.9822090428220381
                       20.8157439591553641
                       19.3506497441208493
                       19.1705507313838196
                       20.3680727099008211
                       21.8534696585725940
                       23.6215861262326407
                       25.7001303352556003
                       28.1141931518525058
                       30.8947031592731485
                       34.0758672252856268
                       37.6955448616275598
                       41.7950618321812980
                       46.4192709822835184
                       51.6166233083515665
                       57.4392430362629114
                       63.9429561154265017
                       71.1872585537348909
                       79.2352328394592078
                       88.1534239278589410
                       98.0116561575630086
                      108.8827185666880344
                      120.8417950316510343
                      133.9654966411137539
                      148.3303769874444342
                      164.0108563744077294
                      181.0764721721036953
                      199.5874725872615048
                      219.5881578526831057
                      241.1015497741994789
                      264.1247272877741064
                      288.6224389819432393
                      314.5199188063409358
                      341.6955644700409628
                      369.9740377318425485
                      399.1205023825700475
                      428.8367956471726535
                      458.7602446328264945
                      488.4655236412860509
                      517.4708989157963198
                      545.2609469135838914
                      571.3159484849348193
                      595.1216074808870989
                      616.1756260988936448
                      634.0002725890661949
                      648.1549640229464628
                      658.2483984401608763
                      663.9520214741386779
                      646.5393535014046615
                      624.8656909342055159
                      617.8742775255932740
                      607.2679774043552590
                      593.3971871419001539
                      576.6865072456492640
                      557.5732061022005576
                      536.5772427190123102
                      514.2621113622854264
                      491.2098034950672102
                      467.9006597027978209
                      444.5751223255956385
                      421.2863429566086409
                      398.0015606704143210
                      374.6740284876704317
                      351.3210012850346564
                      328.0652502910402338
                      305.1225266491197592
                      282.7574635775220639
                      261.2112692424731547
                      240.6536492441526850
                      221.1915081834900330
                      202.8856902182853253
                      185.7626616307364784
                      169.8229836092504575
                      155.0477321539312769
                      141.4035141209315014
                      128.8464553769766562
                      117.3253888652257620
                      106.7843909402814601
                       97.1647741939285088
                       88.4066268944828223
                       80.4499810511714428
                       73.2356846788647915
                       66.7060451467437287
                       60.8052997574552736
                       55.4799590653833641
                       50.6790593133482702
                       46.3543521612593491
                       42.4604521292909968
                       38.9549500197616240
                       35.7985060663976048
                       32.9548684715787906
                       30.3910025390267250
                       28.0766370421003426
                       25.9854104102366442
                       25.3607129043185585
                       26.1219263956356666
                       26.7983098398235034
                       27.3552227304076054
                       27.8054120053767847
                       28.1627581850941177
                       28.4412055732738314
                       28.6547542559054298
                       28.8172995626212990
                       28.9426199413810058
                       29.0443294252086631
                       29.1359117444920747
                       29.2310563387350072
                       29.3444485600860908
                       29.3974775717163138
                       29.3087912591588391
                       29.1601449052301995
                       29.0299814330413242
                       28.9035496407363358
                       28.7671716342259990
                       28.6074754638298545
                       28.4110811816110966
                       28.1645703722219168
                       27.8545182857947963
                       27.4674887839255473
                       26.9901784720350746
                       26.4094224997278859
                       25.7132087634230469
                       24.9361645327893389
                       25.5218433403684039
                       27.5440289427849951
                       29.7776079853529089
                       32.2470398906835867
                       34.9802634956490040
                       38.0076220461157461
                       41.3622126631467801
                       45.0797088850707114
                       49.1982642306318054
                       53.7583365488120109
                       58.8024766307299249
                       64.3750681129443311
                       70.5220098014797150
                       77.2903232762412629
                       84.7276653580657237
                       92.8817239523038903
                      101.7994770047623459
                      111.5262985560319683
                      122.1049064886323412
                      133.5741691824565234
                      145.9678291469087989
                      159.3132661162133013
                      173.6305151775652768
                      188.9318850854687895
                      205.2227027820618758
                      222.5039698360947282
                      240.7781066522271262
                      260.0595819858501465
                      280.3930142694425705
                      301.8655365813016884
                      324.5574559301569230
                      348.4548817109335669
                      373.3787543473659216
                      398.9424517229479593
                      424.5702886130074984
                      449.5680486475064792
                      473.2050771803417239
                      494.8468278131071228
                      514.0667975744945821
                      530.5738966029222640
                      544.1449468280065127
                      554.6562776269177973
                      562.1357969014428165
                      566.6775224066465247
                      568.4831742135302741
                      584.5534350641220556
                      598.1218050408759935
                      592.4513282540980710
                      584.4019342987194442
                      573.9768615976600287
                      561.1598483612512723
                      545.9540493254553626
                      528.4177925749079512
                      508.6880969453174801
                      486.9877060575477407
                      463.6109062061313878
                      438.9030972090973512
                      413.2527420256866706
                      387.0720501604850713
                      360.7659262884761461
                      334.7071838887389198
                      309.2203491711749501
                      284.5732641821015365
                      260.9749491620750105
                      238.5779798249882436
                      217.4837629416091499
                      197.7493931005141224
                      179.3953793225949727
                      162.4141196097657611
                      146.7763074478703871
                      132.4349083736139860
                      119.3301343668535021
                      107.3943121822474175
                       96.5556485398521380
                       86.7409645078822486
                       77.8775737164143773
                       69.8945222763457972
                       62.7234070367051621
                       56.2989389157166407
                       50.5593435245541126
                       45.4466283149361392
                       40.9067182493535651
                       36.8894719302105473
                       33.3486139574765582
                       30.2416532336434630
                       27.5297966332632843
                       25.1781197202938926
                       23.1550843738955063
                       21.4352945770014174
                       19.9899881756607138
                       18.8259460608183918
                       19.0101198157367802
                       20.4629383846037438
                       21.6307898216687111
                       22.4871717910674508
                       23.0292493438774807
                       23.2621839173006184
                       23.1876251099317151
                       22.8017031207024689
                       22.0992535699632657
                       21.0830930346854003
                       19.7745234678645067
                       18.2199520000627676
                       16.4899648521234478
                       14.6708319173308238
                       12.9242533262491992
                </DataArray>
                <DataArray type="Float32" Name="jacobian" NumberOfComponents="1" format="ascii">
                        0.0015048273856284
                        0.0017203191033548
                        0.0018968357379265
                        0.0020309230504069
                        0.0021280823943948
                        0.0021927755709076
                        0.0022290478807682
                        0.0022405270448817
                        0.0022310256200090
                        0.0022021047368788
                        0.0021613541797320
                        0.0020928357542374
                        0.0020597424781809
                        0.0018522466708334
                        0.0011726816871294
                        0.0005925970651260
                        0.0005271330752233
                        0.0006069695673591
                        0.0006563750200599
                        0.0007184533881824
                        0.0007840601576360
                        0.0008564666385744
                        0.0009363193038360
                        0.0010251631568361
                        0.0011245862378804
                        0.0012363639252823
                        0.0013623492393911
                        0.0015044164622338
                        0.0016644012762417
                        0.0018440657824181
                        0.0020450919615804
                        0.0022691049388977
                        0.0025177181916196
                        0.0027925864928681
                        0.0030954496924059
                        0.0034281531694520
                        0.0037926375641146
                        0.0041908982185570
                        0.0046249166937508
                        0.0050965117833631
                        0.0056071170957628
                        0.0061576435946412
                        0.0067483823354461
                        0.0073788376537001
                        0.0080475262342481
                        0.0087517647065626
                        0.0094874561207311
                        0.0102488916164042
                        0.0110285842532402
                        0.0118171534671648
                        0.0126032634252279
                        0.0133736988729747
                        0.0141140848785729
                        0.0148097506695573
                        0.0154460886746378
                        0.0160081523912095
                        0.0164826563729239
                        0.0168540087022342
                        0.0171164586305367
                        0.0172492779404451
                        0.0167800027362403
                        0.0161940555602695
                        0.0159784410007355
                        0.0156745032189441
                        0.0152848664177830
                        0.0148296916906673
                        0.0143182796202838
                        0.0137655369097393
                        0.0131874636555582
                        0.0126005294773340
                        0.0120173992998659
                        0.0114423047963049
                        0.0108729712415283
                        0.0103044275889535
                        0.0097316729956237
                        0.0091525290817781
                        0.0085692123308160
                        0.0079879168785412
                        0.0074171509627276
                        0.0068650161882933
                        0.0063372776686752
                        0.0058375365892663
                        0.0053678711655012
                        0.0049292578112997
                        0.0045218727264022
                        0.0041453103819650
                        0.0037987478823003
                        0.0034810700238191
                        0.0031909645269234
                        0.0029269931806955
                        0.0026876431288201
                        0.0024713621712897
                        0.0022765822192500
                        0.0021017352390610
                        0.0019452655770186
                        0.0018056417631216
                        0.0016813684192006
                        0.0015710012964922
                        0.0014731529107367
                        0.0013865303103727
                        0.0013098461155107
                        0.0012421672793254
                        0.0011817402978994
                        0.0011297709533959
                        0.0010794175408365
                        0.0010411114276734
                        0.0010581496924032
                        0.0011356200394439
                        0.0012295977352402
                        0.0013279639020743
                        0.0014411703150391
                        0.0015687283175614
                        0.0017144070165675
                        0.0018789345980266
                        0.0020611843919333
                        0.0022554807721947
                        0.0024507517540376
                        0.0026289276521284
                        0.0027699767359323
                        0.0028514504979406
                        0.0028713775317226
                        0.0028419239265294
                        0.0027519376388510
                        0.0026041320198640
                        0.0024211760934000
                        0.0022228879064959
                        0.0020268800343323
                        0.0018437594514226
                        0.0016788376630323
                        0.0015330264414288
                        0.0014054585969843
                        0.0012924053798038
                        0.0011941597487838
                        0.0011007810888549
                        0.0010235493918241
                        0.0010050426733464
                        0.0010400114313204
                        0.0010860908369907
                        0.0011334749637042
                        0.0011885270885279
                        0.0012500717216623
                        0.0013196829531539
                        0.0013981582883623
                        0.0014866087201218
                        0.0015861334417059
                        0.0016978990627019
                        0.0018231013631197
                        0.0019629557195841
                        0.0021186782247701
                        0.0022914692453948
                        0.0024824973522018
                        0.0026928841371203
                        0.0029236886956732
                        0.0031758904771399
                        0.0034503697669163
                        0.0037478868043058
                        0.0040690632830697
                        0.0044143736451039
                        0.0047841581011871
                        0.0051786755568120
                        0.0055982224559783
                        0.0060433593118522
                        0.0065152990026819
                        0.0070165656996697
                        0.0075512417664995
                        0.0081229990627928
                        0.0087320388352723
                        0.0093728101681995
                        0.0100328524590062
                        0.0106937669000283
                        0.0113338577906484
                        0.0119310459320107
                        0.0124674773659320
                        0.0129329354939811
                        0.0133218997089402
                        0.0136303484853381
                        0.0138588702241643
                        0.0140111556867318
                        0.0140950001752303
                        0.0141086414508110
                        0.0144847282579084
                        0.0148052473574265
                        0.0146534181707791
                        0.0144561211797140
                        0.0142046704602630
                        0.0139011984933326
                        0.0135423750869387
                        0.0131284883741238
                        0.0126611074965831
                        0.0121444352910247
                        0.0115845413098716
                        0.0109889022076704
                        0.0103663517337149
                        0.0097267533815639
                        0.0090801508121133
                        0.0084360416624982
                        0.0078028854646753
                        0.0071878219368622
                        0.0065965621710247
                        0.0060334069984708
                        0.0055013509445635
                        0.0050022359011335
                        0.0045369449218599
                        0.0041056479488255
                        0.0037079770321109
                        0.0033430930271490
                        0.0030097983391818
                        0.0027066794012859
                        0.0024322093518835
                        0.0021848049902871
                        0.0019628421065427
                        0.0017646416100002
                        0.0015884446192412
                        0.0014323949904632
                        0.0012945427348359
                        0.0011728740084689
                        0.0010653640630642
                        0.0009700477804104
                        0.0008850800098066
                        0.0008088402118339
                        0.0007397867690565
                        0.0006772817202415
                        0.0006181183108796
                        0.0005713942953803
                        0.0004941238844085
                        0.0005625756192357
                        0.0011471905647936
                        0.0018296637910444
                        0.0020353614715343
                        0.0020651792757033
                        0.0021301996666842
                        0.0021675136963911
                        0.0021936378056722
                        0.0022016183651357
                        0.0021904575545228
                        0.0021567333322556
                        0.0020969032139551
                        0.0020066248356416
                        0.0018807415755296
                        0.0017127284651476
                        0.0015045893073327
                        0.0008664442368427
                        0.0009365293743433
                        0.0009883184448363
                        0.0010221090596589
                        0.0010421271421548
                        0.0010511636022127
                        0.0010510862383200
                        0.0010430394945898
                        0.0010276707914230
                        0.0010047909926295
                        0.0009748944929959
                        0.0009343759542439
                        0.0008916664518134
                        0.0008149513656861
                        0.0006338247504630
                        0.0004450808049484
                        0.0004256760335862
                        0.0004918460027182
                        0.0005383946456149
                        0.0005952219106116
                        0.0006560593967950
                        0.0007231666078910
                        0.0007969597341360
                        0.0008784907922019
                        0.0009688825166288
                        0.0010694618115562
                        0.0011817085651499
                        0.0013072274777190
                        0.0014476992321195
                        0.0016048307809634
                        0.0017803122655309
                        0.0019757905458487
                        0.0021928644928962
                        0.0024331006372734
                        0.0026980602437097
                        0.0029893237529760
                        0.0033084982199728
                        0.0036571983618974
                        0.0040369974397673
                        0.0044493118732614
                        0.0048952263744486
                        0.0053753698869194
                        0.0058898168020327
                        0.0064379389157417
                        0.0070182356768134
                        0.0076281601341173
                        0.0082639502120565
                        0.0089204802647971
                        0.0095911490837570
                        0.0102678208407529
                        0.0109408234573102
                        0.0115990583374619
                        0.0122305689943806
                        0.0128232163886132
                        0.0133649849554932
                        0.0138437979139613
                        0.0142487662219914
                        0.0145679051961218
                        0.0147953160693729
                        0.0149165923202901
                        0.0145195182070302
                        0.0140241730099483
                        0.0138529713968789
                        0.0136042563532237
                        0.0132810454710237
                        0.0128974373065807
                        0.0124622123803103
                        0.0119876421253351
                        0.0114869050692566
                        0.0109736179741305
                        0.0104586196912489
                        0.0099465562443717
                        0.0094371935508646
                        0.0089281856957376
                        0.0084170094912870
                        0.0079030295763546
                        0.0073886184997907
                        0.0068788480795142
                        0.0063802940707433
                        0.0058990883146720
                        0.0054395756274139
                        0.0050044715371796
                        0.0045953286541181
                        0.0042128441772356
                        0.0038570823623810
                        0.0035276393409894
                        0.0032237705032706
                        0.0029444907458992
                        0.0026886537478143
                        0.0024550134621916
                        0.0022422696982312
                        0.0020490995304424
                        0.0018741769928285
                        0.0017161844317428
                        0.0015738192732504
                        0.0014457996741420
                        0.0013308707861854
                        0.0012278139893170
                        0.0011354524605166
                        0.0010526741939216
                        0.0009783916096438
                        0.0009117145682149
                        0.0008514022774086
                        0.0007975795182136
                        0.0007469256852487
                        0.0007033733657356
                        0.0006994667262406
                        0.0007348783199142
                        0.0007743399675117
                        0.0008119416762806
                        0.0008508621292148
                        0.0008898805946101
                        0.0009289940920350
                        0.0009670421230014
                        0.0010025600152531
                        0.0010337658977034
                        0.0010592654587370
                        0.0010784790402412
                        0.0010923202894942
                        0.0011021790678387
                        0.0011057582895938
                        0.0011004676171195
                        0.0010888753383665
                        0.0010732545729794
                        0.0010522568602485
                        0.0010250545332214
                        0.0009923062330315
                        0.0009554463905613
                        0.0009162573868466
                        0.0008761866770707
                        0.0008363672971661
                        0.0007968094312154
                        0.0007586782122306
                        0.0007189353290106
                        0.0006832364549236
                        0.0006859168745094
                        0.0007271208615189
                        0.0007749747547392
                        0.0008256905863026
                        0.0008824107778779
                        0.0009449775905410
                        0.0010145264704749
                        0.0010918484868273
                        0.0011779096711845
                        0.0012736848741379
                        0.0013801935109709
                        0.0014984749951279
                        0.0016295801096512
                        0.0017745585080580
                        0.0019344487740203
                        0.0021102693030189
                        0.0023030091345963
                        0.0025136165845383
                        0.0027429837099909
                        0.0029919257074539
                        0.0032611563876234
                        0.0035512634694779
                        0.0038626903323813
                        0.0041957340642559
                        0.0045505739523966
                        0.0049273502332723
                        0.0053263243903360
                        0.0057481632420842
                        0.0061944328654980
                        0.0066678293846304
                        0.0071707870232818
                        0.0077031975626565
                        0.0082606505760625
                        0.0088334835171565
                        0.0094074010127829
                        0.0099653717359895
                        0.0104897739455791
                        0.0109658513147947
                        0.0113843310547006
                        0.0117394889684620
                        0.0120269383017999
                        0.0122456187486524
                        0.0123968203014656
                        0.0124856999465483
                        0.0125123842654967
                        0.0128574006001806
                        0.0131500649830227
                        0.0130201464665604
                        0.0128443330267618
                        0.0126175699043210
                        0.0123413335737980
                        0.0120139888921900
                        0.0116364808333737
                        0.0112110517099220
                        0.0107420908381916
                        0.0102355779363871
                        0.0096986881625002
                        0.0091396533468160
                        0.0085674023725470
                        0.0079908478486138
                        0.0074182948666031
                        0.0068570487494207
                        0.0063132010915517
                        0.0057915608010062
                        0.0052956907041303
                        0.0048280137985216
                        0.0043899585965695
                        0.0039821330306773
                        0.0036045334485528
                        0.0032567015956910
                        0.0029378034790262
                        0.0026467277442344
                        0.0023821867692973
                        0.0021427761324119
                        0.0019269980331586
                        0.0017332634146189
                        0.0015598906630761
                        0.0014051158470076
                        0.0012671219383849
                        0.0011440858739355
                        0.0010342360481971
                        0.0009359091906059
                        0.0008475993566662
                        0.0007679808767718
                        0.0006959511272583
                        0.0006304861934038
                        0.0005712085760737
                        0.0005158411941280
                        0.0004708919034468
                        0.0004054120081428
                        0.0004283255320413
                        0.0006207445713391
                        0.0008014519491569
                        0.0008777732734157
                        0.0009205067817222
                        0.0009610960113013
                        0.0009912806160423
                        0.0010146887082781
                        0.0010308785446805
                        0.0010400625394806
                        0.0010415883586539
                        0.0010342726596463
                        0.0010161757163457
                        0.0009844022347170
                        0.0009345779257648
                        0.0008661699662598
                        0.0004888444396705
                        0.0004918108829728
                        0.0004929371001610
                        0.0004904196688439
                        0.0004851763501877
                        0.0004781371897274
                        0.0004700205248211
                        0.0004612545622372
                        0.0004520023884764
                        0.0004421425500698
                        0.0004315978121904
                        0.0004196022757609
                        0.0004075985036757
                        0.0003898490970878
                        0.0003451852051102
                        0.0002927004949649
                        0.0003029030238042
                        0.0003506786019593
                        0.0003912017685492
                        0.0004393398306984
                        0.0004922650097928
                        0.0005512537937299
                        0.0006166474967391
                        0.0006890879866645
                        0.0007692541978029
                        0.0008579564248751
                        0.0009561396198387
                        0.0010648948810855
                        0.0011854498730950
                        0.0013191439783642
                        0.0014673916954557
                        0.0016316435169126
                        0.0018133538312325
                        0.0020139620269820
                        0.0022348864432772
                        0.0024775242418122
                        0.0027432467560902
                        0.0030333810079329
                        0.0033491717485459
                        0.0036916998270026
                        0.0040617586537604
                        0.0044597544967598
                        0.0048856186099142
                        0.0053386857458208
                        0.0058175592243846
                        0.0063199756670325
                        0.0068426783429803
                        0.0073813122744563
                        0.0079303555690134
                        0.0084831008610844
                        0.0090316917990156
                        0.0095672454961806
                        0.0100802790589867
                        0.0105612107496119
                        0.0110006097043068
                        0.0113891643080031
                        0.0117183569684351
                        0.0119794260607706
                        0.0121668531228992
                        0.0122713940850183
                        0.0119511325571320
                        0.0115519798709707
                        0.0114224763055814
                        0.0112283592197067
                        0.0109726763279469
                        0.0106645497657880
                        0.0103117553921850
                        0.0099239172426959
                        0.0095113790068680
                        0.0090848695166897
                        0.0086532179749782
                        0.0082209928723220
                        0.0077893081616741
                        0.0073576977937804
                        0.0069254266017431
                        0.0064928912760177
                        0.0060623700964206
                        0.0056378154091068
                        0.0052240530090360
                        0.0048254797039656
                        0.0044451994649176
                        0.0040851568135149
                        0.0037464540559650
                        0.0034295622940660
                        0.0031344759816860
                        0.0028608301709221
                        0.0026079933129334
                        0.0023751423283806
                        0.0021613239675313
                        0.0019655045391259
                        0.0017866090352301
                        0.0016235502969772
                        0.0014752490931708
                        0.0013406465722643
                        0.0012187111128284
                        0.0011084419235858
                        0.0010088712513634
                        0.0009190674081021
                        0.0008381364613234
                        0.0007652325229627
                        0.0006995413563546
                        0.0006403548342881
                        0.0005868493322234
                        0.0005387663140535
                        0.0004945676060281
                        0.0004554376106750
                        0.0004427565898960
                        0.0004539421856577
                        0.0004643294948301
                        0.0004714999713635
                        0.0004764378018730
                        0.0004787965969799
                        0.0004787058867654
                        0.0004761615534104
                        0.0004713583637235
                        0.0004647491546807
                        0.0004571860880574
                        0.0004498827422306
                        0.0004443111348935
                        0.0004417706445394
                        0.0004413544803467
                        0.0004416403113867
                        0.0004439958790186
                        0.0004492821063351
                        0.0004561816242316
                        0.0004632328600086
                        0.0004692514378978
                        0.0004734198198278
                        0.0004753161030056
                        0.0004747702669567
                        0.0004718041741917
                        0.0004663082537538
                        0.0004586322558300
                        0.0004478352196721
                        0.0004362824864418
                        0.0004481868794005
                        0.0004860043234248
                        0.0005286502502602
                        0.0005749548326944
                        0.0006263912477091
                        0.0006831833287407
                        0.0007460972995240
                        0.0008157794641068
                        0.0008929693360377
                        0.0009784256446230
                        0.0010729400131945
                        0.0011773246893918
                        0.0012924083883082
                        0.0014190307573046
                        0.0015580376562605
                        0.0017102753578308
                        0.0018765822515773
                        0.0020577763898694
                        0.0022546378814232
                        0.0024678862517191
                        0.0026981543581029
                        0.0029459620474474
                        0.0032116944668133
                        0.0034955919734951
                        0.0037977615478102
                        0.0041182237804840
                        0.0044570174800619
                        0.0048143933173349
                        0.0051911598616765
                        0.0055888866582667
                        0.0060090053123364
                        0.0064512178796286
                        0.0069122069126350
                        0.0073848843181362
                        0.0078587237237548
                        0.0083210248981066
                        0.0087584030741665
                        0.0091592362541144
                        0.0095155659410416
                        0.0098219718128140
                        0.0100741707451779
                        0.0102701069076863
                        0.0104093834540568
                        0.0104950358658952
                        0.0105284684897524
                        0.0108273413977595
                        0.0110798683082072
                        0.0109741585049503
                        0.0108256028805106
                        0.0106319685207532
                        0.0103941990842117
                        0.0101119148409450
                        0.0097864330544399
                        0.0094202826771300
                        0.0090176542997828
                        0.0085840253382102
                        0.0081258380394230
                        0.0076503121267278
                        0.0071650910829699
                        0.0066776733900729
                        0.0061949552333831
                        0.0057229336977508
                        0.0052665535118992
                        0.0048296693520092
                        0.0044150913356953
                        0.0040246840297960
                        0.0036594938040741
                        0.0033198932119661
                        0.0030057436565208
                        0.0027165205506192
                        0.0024513884917899
                        0.0022092824377336
                        0.0019889828285712
                        0.0017891618278563
                        0.0016084096559084
                        0.0014452541565843
                        0.0012981856088512
                        0.0011656930010185
                        0.0010463100090789
                        0.0009386625305624
                        0.0008415075981997
                        0.0007537554580402
                        0.0006744734356913
                        0.0006028679936970
                        0.0005382768223491
                        0.0004800681473426
                        0.0004279187378180
                        0.0003805035640077
                        0.0003408788951135
                        0.0002930894833497
                        0.0002848636276669
                        0.0003400523347135
                        0.0003847832711318
                        0.0004024914135944
                        0.0004146761413441
                        0.0004269970699320
                        0.0004379988536212
                        0.0004484069435036
                        0.0004582608159454
                        0.0004676429425442
                        0.0004763525204460
                        0.0004839278735715
                        0.0004896265819674
                        0.0004925104137417
                        0.0004916732242757
                        0.0004889458745632
                        0.0002693019878484
                        0.0002564986513750
                        0.0002456071612511
                        0.0002359099145477
                        0.0002274838479446
                        0.0002203681772780
                        0.0002145409672857
                        0.0002099150247185
                        0.0002063536248692
                        0.0002036807617135
                        0.0002017420576113
                        0.0002002872076724
                        0.0001994510597600
                        0.0001980754381823
                        0.0001912929654678
                        0.0001873041998527
                        0.0002066765879003
                        0.0002392781307716
                        0.0002718132239725
                        0.0003093461188807
                        0.0003511610351894
                        0.0003978724765651
                        0.0004497966636888
                        0.0005073677949286
                        0.0005710589339850
                        0.0006414234623208
                        0.0007191050887245
                        0.0008048494372970
                        0.0008995060511983
                        0.0010040217389787
                        0.0011194254854180
                        0.0012468076530281
                        0.0013872971509658
                        0.0015420399736626
                        0.0017121806956332
                        0.0018988458865144
                        0.0021031261366141
                        0.0023260525716651
                        0.0025685642710897
                        0.0028314522802969
                        0.0031152777856555
                        0.0034202976843037
                        0.0037463947306574
                        0.0040929864777496
                        0.0044589256574276
                        0.0048424013473706
                        0.0052408486279506
                        0.0056508772859193
                        0.0060682312334026
                        0.0064877893136253
                        0.0069036121355534
                        0.0073090514336198
                        0.0076970527962170
                        0.0080605122200879
                        0.0083924615730175
                        0.0086861176872711
                        0.0089351833473342
                        0.0091335798688291
                        0.0092766341475209
                        0.0093588827447584
                        0.0091177321646241
                        0.0088174304452397
                        0.0087245002238778
                        0.0085816782092043
                        0.0083918570507388
                        0.0081606224601688
                        0.0078942247636681
                        0.0075997553528127
                        0.0072848503188601
                        0.0069574469226219
                        0.0066242308750568
                        0.0062890629975752
                        0.0059534588177291
                        0.0056178066525029
                        0.0052822249764377
                        0.0049474806473006
                        0.0046154751178776
                        0.0042891109691878
                        0.0039717724691515
                        0.0036664838242191
                        0.0033753760642074
                        0.0030997900434776
                        0.0028404823332339
                        0.0025977651383771
                        0.0023716098966632
                        0.0021617274092849
                        0.0019676321989722
                        0.0017886953027761
                        0.0016241881040221
                        0.0014733187622543
                        0.0013352621466975
                        0.0012091837629866
                        0.0010942579865394
                        0.0009896809721115
                        0.0008946788335995
                        0.0008085120082678
                        0.0007304768518264
                        0.0006599058885697
                        0.0005961667846641
                        0.0005386639883568
                        0.0004868321568409
                        0.0004401585365757
                        0.0003981149830002
                        0.0003603605203143
                        0.0003262037505190
                        0.0002957470943941
                        0.0002827324446638
                        0.0002844201990161
                        0.0002843462859282
                        0.0002816953220995
                        0.0002769035173896
                        0.0002701449062262
                        0.0002617879608718
                        0.0002522549428217
                        0.0002420872797711
                        0.0002319291972903
                        0.0002225086094071
                        0.0002145733240440
                        0.0002088204513187
                        0.0002057824566834
                        0.0002050180879714
                        0.0002058704827088
                        0.0002089696383975
                        0.0002147349461496
                        0.0002226193448936
                        0.0002319199291565
                        0.0002418916449865
                        0.0002518158849925
                        0.0002610617312953
                        0.0002691028217747
                        0.0002755318653248
                        0.0002799955746021
                        0.0002823315044167
                        0.0002821208130304
                        0.0002801749134209
                        0.0002927652956526
                        0.0003225598538260
                        0.0003559277237199
                        0.0003927553584046
                        0.0004337066844485
                        0.0004790973119480
                        0.0005294224507946
                        0.0005851565914883
                        0.0006468190351656
                        0.0007149504567310
                        0.0007901177437868
                        0.0008729106780657
                        0.0009639411739713
                        0.0010638412758541
                        0.0011732599148872
                        0.0012928571327904
                        0.0014232949218769
                        0.0015652241141774
                        0.0017192673334712
                        0.0018859986683546
                        0.0020659214147533
                        0.0022594459909383
                        0.0024668710855590
                        0.0026883724664391
                        0.0029240059877965
                        0.0031737344206480
                        0.0034374929731399
                        0.0037153157809401
                        0.0040075648114057
                        0.0043150914388892
                        0.0046386889089971
                        0.0049780291159616
                        0.0053307540729633
                        0.0056919116838775
                        0.0060541115744284
                        0.0064083370358538
                        0.0067449458982545
                        0.0070553336430887
                        0.0073332598764724
                        0.0075742263356837
                        0.0077746371873875
                        0.0079322985515246
                        0.0080462037027229
                        0.0081179447797613
                        0.0081494852537656
                        0.0083850937907609
                        0.0085836522460537
                        0.0085037708898377
                        0.0083884290816002
                        0.0082371418290549
                        0.0080503919781320
                        0.0078284351018753
                        0.0075725415154971
                        0.0072850005783269
                        0.0069693057414755
                        0.0066299219357230
                        0.0062720388163082
                        0.0059013916196737
                        0.0055239606321284
                        0.0051455475609680
                        0.0047714423559276
                        0.0044062103178073
                        0.0040535869665430
                        0.0037164590049540
                        0.0033969067658915
                        0.0030962854262346
                        0.0028153258858467
                        0.0025542449069965
                        0.0023128616349027
                        0.0020906878804221
                        0.0018869914358923
                        0.0017008611993102
                        0.0015312661278533
                        0.0013770981949195
                        0.0012372052434768
                        0.0011104197411692
                        0.0009955874213052
                        0.0008915966197464
                        0.0007974061270315
                        0.0007120678128716
                        0.0006347406145802
                        0.0005646940249685
                        0.0005013020420434
                        0.0004440276775308
                        0.0003924104427394
                        0.0003460217523048
                        0.0003045516667147
                        0.0002673574853188
                        0.0002352535658884
                        0.0002026429055921
                        0.0001840917332359
                        0.0001892118168546
                        0.0001960996120678
                        0.0001975666630308
                        0.0001985741132184
                        0.0002002634400187
                        0.0002024819256553
                        0.0002054569623130
                        0.0002093182025029
                        0.0002142175503340
                        0.0002202707985694
                        0.0002275499996570
                        0.0002360701413245
                        0.0002457955777540
                        0.0002566652034060
                        0.0002694248647380
                        0.0001491603323287
                        0.0001296707663978
                        0.0001150462566231
                        0.0001039865262401
                        0.0000959611519039
                        0.0000904225743038
                        0.0000868577124827
                        0.0000848262595117
                        0.0000839828724142
                        0.0000840862273775
                        0.0000849992693415
                        0.0000866836192136
                        0.0000891903858143
                        0.0000926359879132
                        0.0000977377808423
                        0.0001102174221385
                        0.0001307233435496
                        0.0001536946267946
                        0.0001790809433838
                        0.0002070965565084
                        0.0002379479371273
                        0.0002718869358943
                        0.0003092075230420
                        0.0003502523126352
                        0.0003954161666588
                        0.0004451487862313
                        0.0004999556958590
                        0.0005603976467509
                        0.0006270885141310
                        0.0007006918074633
                        0.0007819158115227
                        0.0008715071951264
                        0.0009702427760066
                        0.0010789191216545
                        0.0011983397765894
                        0.0013292999611334
                        0.0014725684055563
                        0.0016288656049235
                        0.0017988374035760
                        0.0019830176347190
                        0.0021817769562496
                        0.0023952698587298
                        0.0026233835904188
                        0.0028656757317061
                        0.0031213064912135
                        0.0033889718791917
                        0.0036668436757811
                        0.0039525238424150
                        0.0042430218351172
                        0.0045347622934641
                        0.0048236268603662
                        0.0051050383833566
                        0.0053741605900326
                        0.0056261342562807
                        0.0058562044826027
                        0.0060597923047928
                        0.0062325954617396
                        0.0063706713679197
                        0.0064705146173821
                        0.0065291352348725
                        0.0063623438036008
                        0.0061547822643671
                        0.0060927826209465
                        0.0059956361278489
                        0.0058656964153422
                        0.0057061753658622
                        0.0055216054145583
                        0.0053168113704860
                        0.0050969995873730
                        0.0048675871748758
                        0.0046332091498505
                        0.0043967381354733
                        0.0041595514519681
                        0.0039222775734914
                        0.0036853275850310
                        0.0034494626278427
                        0.0032160904231791
                        0.0029871840692079
                        0.0027649610289568
                        0.0025513696418636
                        0.0023477831388564
                        0.0021550702949800
                        0.0019737203248064
                        0.0018039304449792
                        0.0016456714202782
                        0.0014987391235440
                        0.0013627963696668
                        0.0012374074482231
                        0.0011220668632285
                        0.0010162233094992
                        0.0009192996258611
                        0.0008307092525897
                        0.0007498695558105
                        0.0006762122761506
                        0.0006091913217908
                        0.0005482881436718
                        0.0004930149734936
                        0.0004429162454943
                        0.0003975685511594
                        0.0003565794797535
                        0.0003195857151983
                        0.0002862506643198
                        0.0002562620888210
                        0.0002293294308193
                        0.0002051825538685
                        0.0001835679260125
                        0.0001729122156946
                        0.0001709722588509
                        0.0001673731063643
                        0.0001619817293585
                        0.0001550600522130
                        0.0001469431615395
                        0.0001380347852242
                        0.0001287931703455
                        0.0001197068920153
                        0.0001112615651689
                        0.0001039025888271
                        0.0000980015775557
                        0.0000938333206611
                        0.0000915647489996
                        0.0000909537021432
                        0.0000916788345220
                        0.0000940498679536
                        0.0000982995240854
                        0.0001042522832310
                        0.0001116266031959
                        0.0001200470438785
                        0.0001290680443584
                        0.0001382074931109
                        0.0001469832799324
                        0.0001549454945270
                        0.0001616995055939
                        0.0001669192326138
                        0.0001703510255411
                        0.0001721336025556
                        0.0001825828761836
                        0.0002039081320228
                        0.0002277046919882
                        0.0002542144916880
                        0.0002836938062352
                        0.0003164166612434
                        0.0003526754799710
                        0.0003927830772173
                        0.0004370742438907
                        0.0004859072444282
                        0.0005396647601514
                        0.0005987540109735
                        0.0006636056972218
                        0.0007346714301729
                        0.0008124193423390
                        0.0008973276292711
                        0.0009898758717168
                        0.0010905341276709
                        0.0011997499647801
                        0.0013179338249682
                        0.0014454433977642
                        0.0015825680879381
                        0.0017295152948654
                        0.0018864011958748
                        0.0020532501812323
                        0.0022300092133687
                        0.0024165865481987
                        0.0026129294301532
                        0.0028191645594685
                        0.0030357117665929
                        0.0032629776069619
                        0.0035006883828662
                        0.0037472879449224
                        0.0039995458608738
                        0.0042526155421421
                        0.0045005267729460
                        0.0047368230613807
                        0.0049556235536730
                        0.0051524863507347
                        0.0053240962594438
                        0.0054677915199870
                        0.0055817408756460
                        0.0056649012348436
                        0.0057180246275859
                        0.0057429690737399
                        0.0059110037150877
                        0.0060523637170682
                        0.0059970269817816
                        0.0059155707187265
                        0.0058082982542631
                        0.0056754132004086
                        0.0055173650501940
                        0.0053351646236183
                        0.0051305836405658
                        0.0049062014298280
                        0.0046652704139395
                        0.0044115440880438
                        0.0041491339891796
                        0.0038822845078019
                        0.0036150827150967
                        0.0033512335462988
                        0.0030939177433385
                        0.0028457241396889
                        0.0026086410215652
                        0.0023840894519364
                        0.0021729827174941
                        0.0019757988035557
                        0.0017926578533601
                        0.0016233994320163
                        0.0014676425921238
                        0.0013248356769395
                        0.0011943056798410
                        0.0010753017096689
                        0.0009670289726475
                        0.0008686755231366
                        0.0007794334084710
                        0.0006985152177937
                        0.0006251667241934
                        0.0005586762385279
                        0.0004983812825017
                        0.0004436730958835
                        0.0003939993188063
                        0.0003488650196865
                        0.0003078321406155
                        0.0002705174531690
                        0.0002365890825635
                        0.0002057623447158
                        0.0001777924198082
                        0.0001524793160480
                        0.0001296049713896
                        0.0001092587824455
                        0.0000968668916703
                        0.0000918458662916
                        0.0000885146059191
                        0.0000861473608661
                        0.0000846240261458
                        0.0000838837116398
                        0.0000839504313175
                        0.0000849447815480
                        0.0000870925479788
                        0.0000907273594137
                        0.0000962838962034
                        0.0001042768016560
                        0.0001152620844315
                        0.0001297840377660
                        0.0001491581325357
                </DataArray>
            </PointData>
        </Piece>
    </StructuredGrid>
</VTKFile>