<?xml version="1.0"?>
<VTKFile type="StructuredGrid" version="0.1" byte_order="LittleEndian" header_type="UInt32" compressor="vtkZLibDataCompressor">
  <StructuredGrid WholeExtent="0 30 0 40 0 0">
  <Piece Extent="0 30 0 40 0 0">
    <PointData>
      <DataArray type="Float32" Name="orthogonality" format="ascii" RangeMin="0" RangeMax="0.7955638766288757">
        0 0.06989691 0.13866264 0.20524885 0.26879436 0.32867765
        0.38453194 0.4362269 0.4838282 0.52754325 0.56766176 0.60449314
        0.6383049 0.66926384 0.69738954 0.7225317 0.74439126 0.7625974
        0.77683085 0.7869523 0.793077 0.7955639 0.79493 0.7917318
        0.78645796 0.7794652 0.7709622 0.7610269 0.7496316 0.7366558
        0.7218926 7.357384e-05 0.069117665 0.1371932 0.20311965 0.26604503
        0.3253502 0.3806641 0.4318471 0.47895217 0.52217346 0.56178963
        0.59810567 0.6313957 0.66184956 0.6895292 0.7143454 0.73606837
        0.7543849 0.7689971 0.77973396 0.7866301 0.7899388 0.7900802
        0.78754914 0.78281957 0.77627337 0.76816857 0.7586418 0.7477274
        0.7353683 0.72143173 0.0001466686 0.06834383 0.13573356 0.20100358
        0.26331085 0.32203847 0.37681124 0.42748022 0.47408578 0.5168085
        0.5559157 0.59170675 0.6244611 0.6543899 0.68159634 0.70605236
        0.72760105 0.74599373 0.7609623 0.77231073 0.77999395 0.7841562
        0.7851144 0.78329575 0.7791543 0.77309364 0.7654193 0.7563263
        0.74591136 0.7341844 0.72107863 0.00021893757 0.06758043 0.13429356
        0.19891569 0.2606126 0.31876975 0.37300816 0.42317015 0.46928397
        0.5115172 0.550126 0.58540404 0.6176347 0.64704764 0.67378306
        0.6978687 0.71921587 0.7376405 0.7529115 0.76482075 0.77325815
        0.77826804 0.7800646 0.77900034 0.77549845 0.7699737 0.7627717
        0.75414085 0.7442365 0.7331324 0.7208138 0.0002900638 0.06682767
        0.13287336 0.19685607 0.2579503 0.31554407 0.36925492 0.41891685
        0.46454665 0.50629944 0.5444203 0.579197 0.6109158 0.6398223
        0.6660897 0.68979627 0.7109171 0.7293319 0.7448525 0.7572712
        0.7664272 0.7722746 0.7749266 0.7746546 0.77184016 0.7668989
        0.7602086 0.7520664 0.74268293 0.7321927 0.72062355 0.0003597549
        0.06608573 0.13147303 0.19482474 0.255324 0.31236142 0.36555147
        0.4147203 0.4598738 0.50115496 0.5387982 0.57308507 0.6043036
        0.6327133 0.65851635 0.6818367 0.70270866 0.7210742 0.73679274
        0.74966866 0.75950474 0.7661756 0.76969594 0.7702504 0.76816845
        0.76385605 0.7577152 0.75008696 0.7412341 0.73134965 0.7204975
        0.00042773894 0.06535478 0.13009265 0.19282171 0.2527336 0.3092217
        0.36189774 0.4105804 0.45526516 0.49608344 0.5332593 0.5670677
        0.5977976 0.6257201 0.6510631 0.67399156 0.6945942 0.7128733
        0.7287395 0.7420196 0.7524942 0.7599701 0.7643674 0.7657791
        0.7644726 0.76083297 0.75527847 0.7481888 0.7398764 0.7305908
        0.72042775 0.00049376104 0.06463496 0.12873226 0.19084693 0.25017902
        0.30612484 0.35829353 0.40649697 0.45072055 0.4910846 0.527803
        0.5611441 0.59139687 0.61884207 0.64372987 0.666262 0.68657696
        0.7047348 0.72069967 0.7343302 0.7453985 0.7536566 0.7589352
        0.7612319 0.76074195 0.7578183 0.7528864 0.7463598 0.73859805
        0.7299059 0.72040814 0.0005575804 0.06392638 0.12739187 0.18890037
        0.24766019 0.30307066 0.35473877 0.40246978 0.4462397 0.48615813
        0.52242893 0.5553138 0.5851007 0.6120785 0.63651663 0.65864927
        0.6786603 0.69666415 0.71268016 0.7266065 0.73822075 0.7472334
        0.7533929 0.75659907 0.7569653 0.75480056 0.750528 0.7445893
        0.737389 0.72928643 0.7204337 0.00061896804 0.06322916 0.12607151
        0.18698192 0.24517694 0.30005902 0.35123318 0.39849865 0.44182235
        0.48130357 0.5171366 0.54957604 0.57890844 0.6054288 0.62942326
        0.6511544 0.67084694 0.6886665 0.70468765 0.71885484 0.7309639
        0.7406982 0.74773324 0.7518701 0.753131 0.7517683 0.7481925
        0.7428675 0.7362405 0.7287251 0.7205003 0.0006777048 0.0625434
        0.12477116 0.1850915 0.24272914 0.2970897 0.3477766 0.39458328
        0.4374681 0.47652054 0.5119253 0.5439301 0.5728192 0.5988923
        0.6224495 0.6437783 0.66313976 0.680747 0.6967289 0.71108174
        0.72363126 0.7340492 0.74194866 0.74703354 0.7492262 0.7487095
        0.7458694 0.7411853 0.73514473 0.72821563 0.7206045 0.0007335796
        0.061869204 0.1234908 0.18322903 0.24031663 0.2941625 0.34436873
        0.39072338 0.4331767 0.47180858 0.5067946 0.5383754 0.5668322
        0.5924682 0.6155951 0.63652176 0.65554136 0.67291033 0.6888107
        0.7032938 0.7162266 0.72728425 0.73603106 0.7420768 0.74523705
        0.74561125 0.7435478 0.73953384 0.73409444 0.7277527 0.72074324
        0.000786388 0.061206646 0.122230425 0.1813944 0.23793924 0.29127723
        0.34100935 0.38691866 0.4289477 0.4671672 0.5017438 0.532911
        0.56094664 0.5861559 0.60885984 0.6293854 0.64805406 0.6651614
        0.68093973 0.69549817 0.7087541 0.72040206 0.72997206 0.7369866
        0.74114823 0.7424593 0.7412163 0.7379042 0.73308295 0.72733134
        0.72091407 0.0008359308 0.060555812 0.12099001 0.17958748 0.23559676
        0.28843364 0.33769816 0.3831688 0.4247807 0.46259594 0.49677235
        0.52753633 0.55516165 0.57995445 0.6022432 0.62236995 0.6406802
        0.6575045 0.67312276 0.6877023 0.701219 0.7134017 0.7237632
        0.73174816 0.73694277 0.73923814 0.7388624 0.7362874 0.7321038
        0.7269471 0.72111464 0.0008820131 0.05991678 0.119769506 0.17780817
        0.23328903 0.28563148 0.33443487 0.37947342 0.4206753 0.45809427
        0.4918796 0.52225053 0.5494764 0.5738632 0.59574485 0.6154757
        0.63342184 0.6499443 0.66536665 0.6799141 0.69362706 0.7062831
        0.71739644 0.7263464 0.73260206 0.7359301 0.7364723 0.73467374
        0.73115057 0.726596 0.721343 0.0009244431 0.05928962 0.1185689
        0.17605631 0.23101585 0.28287047 0.3312192 0.37583217 0.4166311
        0.45366165 0.48706493 0.5170529 0.54389006 0.56788135 0.58936435
        0.6087032 0.62628084 0.64248484 0.65767807 0.6721419 0.6859852
        0.69904757 0.710864 0.720765 0.7281056 0.73251545 0.73403054
        0.7330528 0.7302166 0.72627395 0.72159725 0.0009630312 0.058674414
        0.117388144 0.17433181 0.22877699 0.2801504 0.3280508 0.37224472
        0.41264763 0.44929758 0.4823276 0.51194257 0.53840166 0.56200796
        0.5831011 0.6020526 0.61925906 0.63513017 0.6500639 0.6643944
        0.67830133 0.69169766 0.7041592 0.7149875 0.723431 0.728972
        0.7315194 0.73141265 0.7292951 0.72597724 0.7218758 0.0009975891
        0.05807123 0.11622721 0.17263454 0.22657228 0.27747098 0.32492933
        0.3687106 0.40872443 0.44500145 0.47766697 0.50691867 0.5330104
        0.55624217 0.57695454 0.5955242 0.6123581 0.6278842 0.64253074
        0.6566806 0.67058444 0.6842375 0.69727653 0.7089973 0.7185539
        0.7252744 0.7289185 0.72973996 0.7283783 0.725702 0.72217715
        0.0010279285 0.057480138 0.11508606 0.17096435 0.22440149 0.2748319
        0.32185453 0.36522952 0.404861 0.44077268 0.47308233 0.50198054
        0.52771527 0.5505832 0.5709241 0.5891179 0.60557926 0.6207505
        0.6350851 0.6490099 0.66284454 0.6766732 0.6902123 0.7027779
        0.7134482 0.7213942 0.72620416 0.7280192 0.7274579 0.72544426
        0.7224999 0.0010538611 0.056901213 0.11396465 0.1693211 0.22226441
        0.27223292 0.31882596 0.36180097 0.4010569 0.4366107 0.46857294
        0.49712715 0.52251536 0.54502994 0.565009 0.5828337 0.5989239
        0.61373246 0.6277334 0.6413919 0.6550927 0.6690127 0.6829649
        0.6963138 0.7080862 0.7172993 0.72334886 0.7262318 0.7265241
        0.72519994 0.722843 0.0010751962 0.056334525 0.112862945 0.16770467
        0.22016081 0.26967373 0.31584334 0.35842454 0.3973115 0.43251482
        0.46413803 0.49235767 0.5174096 0.5395814 0.5592085 0.57667154
        0.59239304 0.6068332 0.62048185 0.6338363 0.6473412 0.6612664
        0.67553556 0.68959093 0.70243883 0.7129537 0.72032017 0.72435606
        0.72556555 0.72496444 0.72320527 0.0010917402 0.055780154 0.11178091
        0.16611491 0.21809047 0.26715404 0.31290627 0.3550998 0.39362434
        0.42848444 0.45977682 0.48767117 0.51239705 0.53423667 0.55352175
        0.57063097 0.5859875 0.6000556 0.61333627 0.62635285 0.6396028
        0.6534465 0.66792864 0.6825975 0.69647634 0.7083172 0.71708024
        0.7223654 0.7245686 0.7247327 0.7235859 0.0011032951 0.05523817
        0.11071851 0.16455168 0.21605316 0.26467353 0.3100143 0.35182625
        0.38999483 0.42451885 0.4554885 0.48306668 0.5074765 0.52899456
        0.54794776 0.5647117 0.5797079 0.5934021 0.60630214 0.618951
        0.6318911 0.64556766 0.66015184 0.675325 0.69016904 0.70334566
        0.7135846 0.7202276 0.7235165 0.72449887 0.72398424 0.0011096563
        0.054708656 0.10967568 0.16301481 0.21404861 0.2622318 0.30716705
        0.3486034 0.38642234 0.4206173 0.45127213 0.47854313 0.50264686
        0.5238538 0.5424855 0.558913 0.5735547 0.5868749 0.5993846
        0.61164016 0.62422013 0.6376463 0.65221715 0.667769 0.6834884
        0.6979906 0.70978117 0.7179032 0.72238845 0.724256 0.7244
        0.0011106094 0.054191686 0.10865239 0.16150415 0.21207654 0.25982854
        0.30436406 0.34543064 0.3829062 0.41677898 0.44712678 0.4740994
        0.49790683 0.5188131 0.53713363 0.55323404 0.5675279 0.5804758
        0.59258825 0.6044291 0.61660415 0.6297008 0.64414024 0.65993035
        0.67640847 0.69220006 0.705609 0.71534353 0.7211579 0.72399545
        0.7248331 0.0011059279 0.05368735 0.107648574 0.16001949 0.21013665
        0.2574633 0.30160478 0.34230736 0.3794456 0.41300294 0.44305134
        0.46973422 0.493255 0.5138709 0.5318908 0.5476738 0.56162727
        0.5742061 0.58591706 0.59732604 0.60905707 0.6217508 0.63594115
        0.65181607 0.6689075 0.68591964 0.7009975 0.7124882 0.71979076
        0.72370625 0.725284 0.0010953663 0.053195726 0.10666416 0.15856063
        0.20822859 0.25513563 0.2988886 0.33923283 0.37603974 0.4092882
        0.4390446 0.4654462 0.48868975 0.5090256 0.5267554 0.5422309
        0.5558521 0.56806654 0.57937425 0.5903384 0.60159236 0.6138167
        0.62764347 0.6434402 0.6609703 0.6790938 0.6958651 0.709262
        0.7182425 0.723374 0.7257536 0.0010786548 0.052716903 0.105699055
        0.15712729 0.20635192 0.25284493 0.29621482 0.33620614 0.37268755
        0.4056335 0.43510514 0.46123368 0.4842092 0.504275 0.5217252
        0.53690344 0.55020124 0.5620572 0.5729622 0.5834724 0.59422255
        0.6059191 0.61927426 0.63482434 0.65259 0.67166847 0.6901192
        0.7055716 0.71645397 0.72297907 0.7262437 0.0010554872 0.05225097
        0.10475314 0.15571916 0.20450613 0.25059047 0.29358253 0.33322626
        0.36938772 0.40203738 0.43123123 0.4570946 0.47981116 0.49961683
        0.5167978 0.53168905 0.5446727 0.55617714 0.5666821 0.57673293
        0.5869586 0.59807813 0.6108627 0.62599766 0.6437713 0.6635947
        0.68365645 0.70130044 0.714346 0.72249377 0.7267565 0.0010255076
        0.051798023 0.10382624 0.1543358 0.20269057 0.24837142 0.29099065
        0.33029184 0.36613873 0.39849797 0.4274207 0.4530266 0.47549278
        0.49504793 0.51196986 0.5265845 0.53926367 0.55042446 0.5605339
        0.5701232 0.5798095 0.590312 0.6024388 0.61699635 0.6345319
        0.6548333 0.67636466 0.6963045 0.7118112 0.72187835 0.72729534
        0.0009882888 0.051358152 0.10291813 0.15297669 0.20090438 0.2461866
        0.28843775 0.32740116 0.3629385 0.3950129 0.42367083 0.4490265
        0.47125062 0.49056444 0.5072374 0.5215855 0.53397006 0.54479575
        0.5545155 0.5636441 0.5727816 0.5826364 0.59403217 0.6078621
        0.62490463 0.6453607 0.668127 0.69040674 0.7087033 0.72107375
        0.72786355 0.0009433044 0.050931472 0.10202851 0.1516411 0.19914648
        0.24403456 0.28592193 0.32455197 0.35978442 0.39157912 0.41997814
        0.44509035 0.46708015 0.4861614 0.50259477 0.5166865 0.5287862
        0.5392857 0.5486227 0.55729383 0.5658778 0.5750631 0.5856692
        0.5986396 0.614937 0.6351759 0.65883034 0.6833934 0.70482135
        0.7199909 0.72846425 0.0008898889 0.050518107 0.10115697 0.15032813
        0.19741541 0.24191336 0.28344086 0.32174143 0.35667312 0.3881927
        0.41633815 0.44121304 0.46297565 0.4818324 0.4980352 0.5118798
        0.5237042 0.53388655 0.5428486 0.5510671 0.5590967 0.56759876
        0.5773718 0.5893731 0.60469013 0.6243072 0.6483781 0.6750132
        0.69988936 0.71849215 0.72909814 0.00082718657 0.05011823 0.100303024
        0.14903662 0.19570942 0.23982058 0.28099144 0.3189658 0.35360023
        0.38484868 0.4127451 0.4373881 0.45892984 0.47756937 0.49354964
        0.50715584 0.5187138 0.52858764 0.53718257 0.5449546 0.55243206
        0.5602439 0.5691543 0.58010274 0.5942346 0.6128175 0.63670945
        0.66498464 0.69352835 0.7163615 0.7297597 0.00075408746 0.04973212
        0.0994661 0.14776517 0.1940263 0.23775329 0.27856997 0.3162206
        0.35056055 0.38154095 0.409192 0.43360755 0.45493376 0.47336233
        0.4891271 0.5025026 0.51380205 0.5233754 0.53161067 0.5389428
        0.54587233 0.5529923 0.5610232 0.57086056 0.58364445 0.6008064
        0.62382567 0.65302 0.68522453 0.7132528 0.7304296 0.0006691562
        0.049360234 0.09864573 0.1465124 0.19236374 0.23570824 0.27617234
        0.31350085 0.34754804 0.37826258 0.405671 0.4298625 0.45097736
        0.46919993 0.484755 0.49790624 0.50895405 0.5182338 0.52611625
        0.5330149 0.5394018 0.5458322 0.55297667 0.5616691 0.5729913
        0.58840734 0.6098204 0.6388783 0.674299 0.7085998 0.73106015
        0.0005705724 0.04900346 0.09784186 0.14527735 0.19071989 0.2336827
        0.27379492 0.31080207 0.3445574 0.3750073 0.4021748 0.42614457
        0.44705117 0.4650716 0.48042163 0.4933538 0.50415564 0.5131477
        0.5206834 0.5271547 0.5330052 0.5387513 0.5450107 0.55254513
        0.5623421 0.57578075 0.59490895 0.6224671 0.6599099 0.70145065
        0.7315478 0.00045613438 0.048663512 0.09705575 0.14406079 0.18909508
        0.23167658 0.27143717 0.30812326 0.3415872 0.3717732 0.398701
        0.4224509 0.44315174 0.46097338 0.4761225 0.4888405 0.49940178
        0.508112 0.51530725 0.52135813 0.5266801 0.5317511 0.53713477
        0.5435165 0.55177087 0.5631128 0.5794484 0.6040082 0.64116985
        0.6901508 0.73167664 0.0003234666 0.048343897 0.09629202 0.14286847
        0.18749614 0.22969778 0.2691081 0.30547443 0.33864853 0.3685725
        0.39526302 0.4187961 0.43929514 0.45692295 0.4718772 0.4843881
        0.49471712 0.5031548 0.51002014 0.5156627 0.52047074 0.5248843
        0.5294141 0.53466916 0.5414068 0.55064493 0.5639518 0.5842576
        0.617604 0.6716995 0.73099756 0.00017083723 0.04805209 0.095563844
        0.14171916 0.18594736 0.227776 0.26684275 0.3028961 0.33578736
        0.36545685 0.39191842 0.41524416 0.4355524 0.45299906 0.4677732
        0.48009428 0.4902108 0.49839872 0.5049602 0.51022464 0.51455414
        0.5183527 0.5220803 0.52627224 0.53157324 0.53880864 0.5491583
        0.56470144 0.59048736 0.6403946 0.72852993 0 0.04778451
        0.09486553 0.14060481 0.18443805 0.22589768 0.26462448 0.3003682
        0.33297986 0.3623984 0.38863498 0.41175812 0.43188128 0.44915393
        0.46375665 0.47589827 0.4858145 0.49376667 0.50004 0.50494397
        0.5088144 0.5120197 0.514969 0.5181237 0.5220155 0.52727777
        0.5346989 0.54533386 0.561491 0.59677804 0.7218926
      </DataArray>
      <DataArray type="Float32" Name="aspect_ratio" format="ascii" RangeMin="1.1780290603637695" RangeMax="11.484928131103516">
        11.484928 11.385643 11.204174 10.920187 10.546779 10.0996475
        9.595438 9.050353 8.479202 7.8949037 7.3084097 6.728932
        6.1643643 5.6217427 5.1076026 4.628083 4.188682 3.793609
        3.4449072 3.1417203 2.8802 2.6542716 2.4569786 2.2818217
        2.12361 1.978678 1.8446504 1.7200387 1.6038871 1.4955363
        1.3890395 11.432596 11.33426 11.155164 10.874842 10.506123
        10.06441 9.5660715 9.027081 8.462079 7.8838816 7.303382
        6.729762 6.170886 5.633727 5.124701 4.6497564 4.214141
        3.8218217 3.4747024 3.1719797 2.9100604 2.6832354 2.4848876
        2.3087387 2.14968 2.0040352 1.869383 1.7441924 1.6274924
        1.5186522 1.4118192 11.380789 11.283425 11.106698 10.830019
        10.465955 10.029623 9.53712 9.004196 8.445331 7.873235
        7.2987456 6.73101 6.177849 5.646156 5.1422 4.6717067
        4.239652 3.8497627 3.5038457 3.2012286 2.938655 2.7108247
        2.5114489 2.3344111 2.174618 2.0283332 1.8930655 1.7672386
        1.6498752 1.5403917 1.4330504 11.329499 11.233153 11.058801
        10.785739 10.426283 9.995267 9.508523 8.981581 8.428759
        7.8626633 7.2940683 6.73208 6.1844697 5.6580477 5.1589365
        4.6926537 4.2639303 3.8762836 3.531449 3.2288918 2.9656782
        2.736898 2.5365694 2.358722 2.198262 2.05138 1.915508
        1.7890252 1.6709553 1.560778 1.4528793 11.278722 11.183432
        11.011455 10.741983 10.387085 9.96132 9.480258 8.959213
        8.412345 7.852151 7.2893395 6.7329698 6.1907587 5.669427
        5.174957 4.712668 4.2870674 3.90149 3.5576181 3.2550573
        2.9911897 2.7614815 2.5602493 2.3816578 2.2205992 2.0731754
        1.9367309 1.8095957 1.6908017 1.5799052 1.4714268 11.228449
        11.134249 10.964644 10.698736 10.348345 9.927763 9.452308
        8.937078 8.396074 7.841686 7.2845516 6.7336783 6.196725
        5.6803193 5.1903048 4.7318144 4.3091497 3.9254818 3.5824544
        3.2798157 3.0152562 2.7846134 2.5824995 2.403212 2.241619
        2.0937176 1.9567485 1.8289858 1.7094721 1.5978519 1.4887946
        11.178675 11.085593 10.918358 10.655981 10.310046 9.894583
        9.424658 8.915162 8.379935 7.8312593 7.2797 6.734208
        6.2023787 5.6907477 5.2050204 4.750153 4.330256 3.9483523
        3.606056 3.3032577 3.03795 2.8063395 2.6033392 2.4233842
        2.2613137 2.1130033 1.9755712 1.8472238 1.7270142 1.6146849
        1.505068 11.129391 11.037456 10.872583 10.613706 10.272176
        9.861766 9.397297 8.893455 8.363919 7.8208647 7.2747817
        6.7345614 6.2077312 5.700734 5.2191415 4.7677393 4.350459
        3.970189 3.6285176 3.3254743 3.059348 2.8267145 2.6227973
        2.4421816 2.2796786 2.1310284 1.9932058 1.8643323 1.743468
        1.6304607 1.5203192 11.080593 10.989828 10.827311 10.571899
        10.234722 9.8293 9.3702135 8.871944 8.348019 7.8104978
        7.2697954 6.734741 6.212794 5.7103004 5.2327027 4.784624
        4.3698273 3.9910736 3.6499293 3.346556 3.079531 2.8457992
        2.64091 2.4596174 2.2967122 2.1477892 2.0096555 1.8803287
        1.7588668 1.6452272 1.5346104 11.032273 10.9427 10.782528
        10.530552 10.197677 9.797177 9.343401 8.850627 8.332228
        7.800154 7.264741 6.7347527 6.2175765 5.7194667 5.2457366
        4.800854 4.3884225 4.011082 3.6703765 3.3665915 3.0985816
        2.8636613 2.6577222 2.4757118 2.3124175 2.1632817 2.0249217
        1.8952255 1.7732372 1.6590247 1.5479945 10.984426 10.896064
        10.738228 10.489653 10.161028 9.7653885 9.31685 8.829495
        8.316544 7.7898326 7.2596188 6.7345996 6.222091 5.7282524
        5.2582736 4.816473 4.4063015 4.030285 3.6899412 3.385668
        3.1165848 2.8803735 2.6732855 2.4904926 2.3268013 2.1775026
        2.0390027 1.9090316 1.7866014 1.6718874 1.5605172 10.937043
        10.849913 10.694401 10.449193 10.124769 9.733927 9.290556
        8.808545 8.3009615 7.779532 7.254431 6.734288 6.226348
        5.7366753 5.270341 4.8315196 4.423517 4.048748 3.7087002
        3.4038703 3.1336262 2.8960133 2.6876593 2.5039935 2.3398743
        2.1904497 2.0518954 1.9217519 1.798976 1.6838437 1.5722181
        10.8901205 10.804236 10.651038 10.409166 10.088893 9.7027855
        9.264513 8.787772 8.28548 7.769251 7.2491784 6.733824
        6.230357 5.7447534 5.2819653 4.846031 4.4401183 4.0665317
        3.7267256 3.4212804 3.149793 2.910663 2.7009091 2.516256
        2.3516529 2.2021224 2.0635943 1.9333874 1.8103733 1.6949174
        1.583131 10.843651 10.759029 10.608134 10.369565 10.053393
        9.671961 9.238718 8.767175 8.270097 7.7589903 7.243865
        6.7332125 6.2341304 5.752503 5.293171 4.8600416 4.4561486
        4.0836926 3.7440856 3.4379766 3.1651704 2.9244075 2.7131078
        2.5273292 2.362159 2.2125218 2.0740933 1.9439356 1.8208015
        1.7051274 1.5932854 10.797629 10.714285 10.5656805 10.330382
        10.018263 9.641446 9.213166 8.746749 8.254811 7.7487516
        7.238494 6.7324605 6.2376766 5.759939 5.3039804 4.8735814
        4.4716496 4.1002817 3.7608435 3.454035 3.1798444 2.937335
        2.7243345 2.5372703 2.3714206 2.2216508 2.083384 1.953391
        1.8302644 1.7144883 1.6027067 10.7520485 10.669995 10.52367
        10.291612 9.983499 9.611238 9.187855 8.726494 8.239625
        7.738536 7.233068 6.7315736 6.2410064 5.767078 5.314415
        4.8866796 4.4866586 4.1163464 3.7770584 3.469527 3.1938987
        2.9495366 2.7346747 2.5461442 2.3794727 2.229517 2.0914571
        1.9617434 1.8387614 1.7230103 1.6114165 10.7069025 10.626154
        10.482097 10.253247 9.949094 9.581332 9.162783 8.7064085
        8.224537 7.7283454 7.227592 6.7305593 6.24413 5.7739334
        5.324495 4.8993635 4.50121 4.1319313 3.7927845 3.4845204
        3.2074153 2.961104 2.7442195 2.5540252 2.386359 2.2361307
        2.0983033 1.9689794 1.846287 1.7306999 1.6194327 10.662187
        10.582754 10.440955 10.215284 9.915046 9.551727 9.137948
        8.686494 8.209549 7.7181826 7.2220697 6.7294235 6.2470574
        5.780519 5.334239 4.911658 4.515336 4.147075 3.8080723
        3.4990792 3.2204735 2.9721305 2.7530656 2.560996 2.3921318
        2.241509 2.1039128 1.9750817 1.852831 1.7375585 1.6267706
        10.617893 10.539791 10.400238 10.177717 9.88135 9.52242
        9.113349 8.666749 8.194663 7.708051 7.216507 6.728174
        6.249798 5.7868485 5.343665 4.9235854 4.5290656 4.161816
        3.8229685 3.5132627 3.23315 2.9827094 2.7613149 2.5671492
        2.3968542 2.2456746 2.1082764 1.9800286 1.8583775 1.743583
        1.6334419 10.5740185 10.497258 10.3599415 10.140542 9.848002
        9.493408 9.088985 8.647175 8.17988 7.6979547 7.210909
        6.7268186 6.2523623 5.7929354 5.3527904 4.9351683 4.5424266
        4.1761866 3.8375154 3.527126 3.245517 2.992933 2.769073
        2.5725873 2.4006011 2.24866 2.111387 1.9837947 1.8629042
        1.748765 1.6394557 10.530556 10.45515 10.320061 10.103755
        9.815002 9.464691 9.064858 8.627774 8.165205 7.6878977
        7.2052813 6.7253647 6.2547603 5.7987933 5.3616323 4.9464273
        4.5554442 4.190219 3.851752 3.5407205 3.2576435 3.002892
        2.77645 2.5774214 2.4034607 2.2505085 2.113242 1.9863505
        1.866382 1.7530899 1.6448175 10.487499 10.41346 10.28059
        10.067353 9.782347 9.436269 9.040968 8.608549 8.150641
        7.677886 7.199632 6.7238216 6.2570043 5.8044357 5.3702073
        4.957383 4.568143 4.203942 3.8657143 3.5540924 3.269594
        3.012675 2.7835574 2.5817735 2.4055364 2.2512767 2.1138432
        1.9876636 1.868774 1.756536 1.64953 10.444844 10.372185
        10.241527 10.031333 9.750035 9.408142 9.017318 8.589503
        8.136194 7.6679273 7.19397 6.7221994 6.259105 5.8098774
        5.378533 4.968056 4.580546 4.217383 3.8794355 3.5672855
        3.2814283 3.0223672 2.790509 2.5857742 2.4069467 2.2510386
        2.1132028 1.9876989 1.8700343 1.7590735 1.6535922 10.402585
        10.331319 10.202866 9.995694 9.718068 9.380313 8.993912
        8.570643 8.121872 7.658029 7.188305 6.720511 6.261078
        5.8151336 5.3866267 4.978467 4.5926776 4.2305694 3.8929477
        3.5803397 3.2932022 3.0320497 2.7974184 2.5895622 2.4078286
        2.2498872 2.1113448 1.986421 1.8701073 1.7606621 1.6569989
        10.360716 10.290858 10.164607 9.960436 9.686447 9.352786
        8.970756 8.551978 8.107684 7.648204 7.1826496 6.7187696
        6.2629375 5.820223 5.39451 4.988638 4.604562 4.243528
        3.9062812 3.5932927 3.3049676 3.0417995 2.8043978 2.5932841
        2.4083366 2.2479413 2.1083117 1.9837968 1.8689269 1.7612494
        1.6597402 10.319232 10.250799 10.126747 9.925559 9.655177
        9.325567 8.947859 8.533517 8.093643 7.6384664 7.1770205
        6.716994 6.2647047 5.8251667 5.402204 4.998594 4.6162257
        4.2562866 3.9194674 3.6061814 3.3167737 3.0516899 2.8115585
        2.5970929 2.4086454 2.245347 2.10417 1.9798006 1.8664162
        1.7607684 1.6617999 10.278128 10.211141 10.089289 9.891068
        9.624264 9.298667 8.925235 8.515277 8.079767 7.628836
        7.17144 6.715207 6.2664037 5.8299913 5.4097385 5.0083637
        4.6276994 4.2688785 3.93254 3.6190429 3.3286674 3.0617895
        2.8190076 2.6011453 2.4089475 2.2422838 2.0990198 1.9744195
        1.8624886 1.7591332 1.6631529 10.237399 10.17188 10.052235
        9.856971 9.59372 9.272102 8.902903 8.49728 8.066083
        7.6193404 7.165937 6.7134404 6.268067 5.83473 5.417147
        5.017984 4.63902 4.28134 3.9455369 3.6319182 3.3406973
        3.0721662 2.8268504 2.605602 2.4094555 2.2389681 2.0930018
        1.9676645 1.8570496 1.7562358 1.6637616 10.19704 10.133018
        10.01559 9.823278 9.563564 9.245894 8.88089 8.479558
        8.052623 7.610018 7.160551 6.7117352 6.269738 5.8394284
        5.4244766 5.0275006 4.650234 4.2937183 3.9585052 3.644855
        3.3529158 3.0828874 2.8351896 2.6106255 2.4103987 2.2356577
        2.0863123 1.9595827 1.8500026 1.7519411 1.6635679 10.157046
        10.094558 9.979366 9.790011 9.533821 9.220078 8.859236
        8.462155 8.039438 7.60092 7.1553383 6.7101493 6.2714763
        5.8441463 5.431788 5.0369763 4.661404 4.306075 3.9715052
        3.6579127 3.3653848 3.0940266 2.844129 2.6163797 2.4120228
        2.2326548 2.0792134 1.9502772 1.8412584 1.7460812 1.6624804
        10.117414 10.056506 9.943581 9.757196 9.504531 9.1947
        8.837997 8.445136 8.026597 7.592121 7.1503744 6.7087617
        6.2733626 5.848966 5.4391637 5.046494 4.6726127 4.3184915
        3.9846163 3.6711693 3.3781817 3.105667 2.8537772 2.623031
        2.4145882 2.2303078 2.0720491 1.9399304 1.8307519 1.7384516
        1.6603523 10.078138 10.018873 9.90826 9.724876 9.475749
        9.16983 8.817253 8.428587 8.014194 7.583721 7.1457663
        6.7076817 6.2755084 5.8540006 5.4467187 5.0561666 4.683972
        4.331079 3.9979472 3.6847296 3.3914087 3.1179135 2.8642554
        2.6307516 2.418367 2.2290108 2.0652578 1.9288367 1.8184704
        1.7288077 1.6569413 10.039216 9.981676 9.873443 9.693108
        9.447551 9.145561 8.7971115 8.41263 8.002361 7.575861
        7.141659 6.707059 6.278066 5.8594046 5.454606 5.066149
        4.6956353 4.3439875 4.011645 3.6987355 3.4052024 3.1308997
        2.8757067 2.639726 2.423642 2.229199 2.0593834 1.9174392
        1.8044957 1.7168674 1.6518401 10.000643 9.94494 9.839181
        9.661971 9.420042 9.12202 8.7777195 8.3974285 7.991275
        7.568726 7.1382465 6.7070937 6.2812405 5.8653836 5.4630337
        5.0766478 4.7078075 4.3574185 4.025906 3.7133787 3.4197466
        3.1448023 2.8883076 2.6501572 2.430707 2.2313414 2.0550802
        1.9063715 1.7890682 1.7023257 1.6443552 9.962417 9.908697
        9.805543 9.631571 9.393359 9.099372 8.759268 8.383194
        7.9811635 7.562559 7.135782 6.708046 6.2852945 5.8722053
        5.4722695 5.0879292 4.720753 4.3716345 4.0409875 3.7289076
        3.435281 3.15985 2.9022791 2.662277 2.439864 2.2359235
        2.0531 1.8964959 1.7726765 1.6848933 1.6332945 9.924534
        9.87299 9.772615 9.602034 9.367668 9.077819 8.741987
        8.370183 7.9723063 7.5576553 7.1345716 6.7102313 6.2905517
        5.880194 5.48264 5.10032 4.7347956 4.386954 4.057202
        3.745628 3.4520998 3.176323 2.9178863 2.676345 2.4514148
        2.243418 2.054257 1.8889205 1.7561712 1.6643834 1.6165949
        9.886995 9.837863 9.740489 9.573495 9.343145 9.057575
        8.726125 8.358669 7.964999 7.5543284 7.1349444 6.7139874
        6.297355 5.889699 5.4944935 5.1141686 4.7502823 4.403719
        4.074887 3.7638676 3.4705198 3.1945226 2.9354098 2.6926231
        2.4656312 2.2542267 2.059338 1.8849626 1.7408869 1.6408919
        1.59067 9.849798 9.803348 9.709225 9.546047 9.319913
        9.038787 8.711852 8.348845 7.9594483 7.5527987 7.13713
        6.719552 6.3059487 5.9009657 5.5080795 5.129723 4.767458
        4.4221735 4.094279 3.7838573 3.4907613 3.2146547 2.9550354
        2.7112687 2.48265 2.2685535 2.0689175 1.885985 1.7287025
        1.6151425 1.5492657 9.812943 9.769406 9.678755 9.519588
        9.297839 9.021298 8.69899 8.340514 7.955447 7.5528493
        7.140905 6.726699 6.316103 5.913765 5.5231676 5.146754
        4.786095 4.442089 4.1151514 3.8053687 3.5125928 3.2364805
        2.9765112 2.732006 2.5021594 2.2860816 2.082947 1.8929423
        1.7218498 1.5890901 1.4814732 9.776427 9.735772 9.648545
        9.493337 9.275912 9.003894 8.686149 8.332142 7.9513445
        7.5527406 7.144466 6.733578 6.3259416 5.9262056 5.5378633
        5.1633706 4.804313 4.461601 4.1356573 3.826576 3.534211
        3.258219 2.9980738 2.7530808 2.5223918 2.3050032 2.0997093
        1.9051661 1.7218825 1.5666679 1.3683876 9.74024 9.702336
        9.618398 9.4670105 9.2537775 8.986159 8.672867 8.323234
        7.9466248 7.5519476 7.1472874 6.739675 6.334964 5.937807
        5.5517087 5.179141 4.8217053 4.480325 4.155438 3.8471441
        3.5553067 3.2795913 3.0194826 2.7742977 2.5432034 2.3252187
        2.1192122 1.9239007 1.7365593 1.5358754 1.1780291
      </DataArray>
      <DataArray type="Float32" Name="jacobian" format="ascii" RangeMin="0.0029347275849431753" RangeMax="0.019799279049038887">
        0.019799279 0.019721463 0.01959481 0.019371286 0.019054793 0.018651046
        0.01816746 0.017612884 0.016997185 0.016330803 0.015624223 0.014887501
        0.014129868 0.013359552 0.012583874 0.011809612 0.011043461 0.010292275
        0.00956285 0.008861318 0.008192494 0.0075595444 0.00696407 0.006406425
        0.005886103 0.0054020546 0.004952915 0.0045371465 0.0041531227 0.003799195
        0.0034604007 0.019709062 0.019630805 0.019503694 0.019279808 0.018963056
        0.018559143 0.01807543 0.017520674 0.01690463 0.016237624 0.01553009
        0.0147921415 0.014033285 0.013262301 0.012487388 0.011716465 0.010957388
        0.010217786 0.009504354 0.008821989 0.00817338 0.0075593847 0.0069799004
        0.0064346064 0.005923247 0.005445533 0.0050009466 0.0045886445 0.0042074956
        0.0038561437 0.0035195919 0.01961975 0.019541033 0.019413464 0.019189239
        0.018872285 0.018468296 0.017984591 0.01742984 0.016813703 0.016146408
        0.015438335 0.014699661 0.013940124 0.013168974 0.012395135 0.011627443
        0.010874707 0.010145235 0.009445795 0.008780502 0.0081504565 0.0075545576
        0.006990997 0.0064584925 0.0059566773 0.005485756 0.005045937 0.004637055
        0.0042584995 0.003909248 0.0035744172 0.01953133 0.019452095 0.019324029
        0.019099457 0.018782329 0.01837833 0.017894743 0.017340163 0.016724162
        0.01605688 0.015348656 0.014609713 0.013849982 0.013079103 0.012306581
        0.011541989 0.0107948985 0.010074227 0.009386952 0.008736777 0.008123689
        0.0075449743 0.006997171 0.006477819 0.0059861136 0.005522483 0.0050877216
        0.0046823113 0.0043061893 0.003958727 0.0036253163 0.019443793 0.019363992
        0.019235397 0.019010479 0.018693205 0.018289262 0.017805895 0.017251642
        0.016635992 0.015969006 0.015260982 0.014522183 0.0137626985 0.012992482
        0.012221502 0.011459907 0.010717874 0.010004846 0.0093281 0.008691217
        0.0080934875 0.007530932 0.006998558 0.006492586 0.006011488 0.005555646
        0.00512628 0.004724468 0.0043507144 0.0040048417 0.0036726454 0.019357124
        0.019276714 0.019147571 0.018922308 0.018604921 0.018201098 0.017718052
        0.017164273 0.016549172 0.015882742 0.015175241 0.01443696 0.013678119
        0.012908918 0.012139688 0.011381016 0.010643546 0.00993716 0.009269477
        0.008644184 0.008060233 0.007512726 0.0069953105 0.0065028146 0.0060327486
        0.0055851853 0.00516159 0.0047635674 0.0043921983 0.004047806 0.0037166972
        0.019271316 0.019190263 0.019060548 0.01883495 0.018517483 0.01811384
        0.017631216 0.017078046 0.01646368 0.015798043 0.0150913615 0.014353938
        0.013596098 0.012828232 0.012060946 0.011305148 0.010571823 0.009871212
        0.009211288 0.00859601 0.00802429 0.007490651 0.006987592 0.0065085427
        0.0060498575 0.0056110467 0.0051936274 0.0047996417 0.0044307415 0.0040877964
        0.003757715 0.019186353 0.019104628 0.01897433 0.018748404 0.018430892
        0.01802749 0.017545378 0.016992947 0.016379487 0.015714867 0.015009271
        0.014273017 0.013516501 0.012750259 0.011985095 0.0112321405 0.010502618
        0.009807033 0.009153712 0.008546992 0.007986003 0.0074649993 0.0069755777
        0.0065098214 0.006062785 0.0056331796 0.0052223657 0.0048327134 0.0044664275
        0.0041249604 0.0037959046 0.019102229 0.019019803 0.018888913 0.01866267
        0.018345146 0.017942045 0.017460532 0.01690896 0.016296566 0.015633164
        0.0149289025 0.014194097 0.013439198 0.012674841 0.011911967 0.011161845
        0.010435838 0.009744644 0.009096903 0.008497408 0.007945699 0.007436061
        0.006959451 0.006506714 0.006071512 0.005651535 0.0052477736 0.0048627956
        0.004499324 0.0041594207 0.0038314397 0.019018928 0.018935781 0.01880429
        0.018577743 0.018260239 0.017857496 0.017376665 0.016826065 0.016214885
        0.01555289 0.014850186 0.014117086 0.013364068 0.012601836 0.011841405
        0.011094118 0.010371396 0.009684052 0.009040995 0.0084475055 0.00790369
        0.007404125 0.0069394046 0.006499296 0.006076024 0.0056660646 0.0052698157
        0.004889892 0.0045294845 0.0041912817 0.0038644702 0.01893644 0.018852556
        0.018720455 0.018493619 0.018176168 0.017773837 0.017293766 0.016744245
        0.016134415 0.015473996 0.014773058 0.014041896 0.0132909985 0.0125311045
        0.011773263 0.011028825 0.010309205 0.009625256 0.008986103 0.008397518
        0.007860278 0.0073694787 0.006915642 0.0064876527 0.0060763117 0.0056767184
        0.0052884496 0.004913998 0.00455695 0.0042206296 0.0038951242 0.018854756
        0.018770117 0.018637406 0.01841029 0.018092925 0.017691055 0.017211817
        0.016663473 0.016055122 0.015396439 0.014697453 0.013968439 0.013219881
        0.012462521 0.011707405 0.010965841 0.010249179 0.009568247 0.008932328
        0.008347654 0.007815746 0.0073324116 0.006888375 0.0064718807 0.0060723727
        0.005683444 0.005303626 0.004935098 0.004581751 0.004247538 0.0039235135
        0.018773863 0.018688457 0.018555129 0.01832775 0.018010503 0.017609144
        0.017130807 0.01658373 0.015976975 0.015320171 0.01462331 0.013896636
        0.013150613 0.012395966 0.0116437 0.010905044 0.010191231 0.009513008
        0.008879751 0.008298108 0.0077703707 0.0072932127 0.0068578287 0.0064520906
        0.006064209 0.0056861853 0.005315287 0.004953167 0.0046039047 0.0042720647
        0.0039497344 0.018693753 0.018607564 0.01847362 0.018245991 0.017928887
        0.017528087 0.017050715 0.01650499 0.015899938 0.015245148 0.0145505695
        0.0138264075 0.013083098 0.0123313265 0.011582029 0.010846321 0.01013528
        0.00945952 0.008828443 0.008249057 0.0077244155 0.0072521726 0.0068242387
        0.006428406 0.006051831 0.005684884 0.0053233644 0.004968167 0.0046234187
        0.004294259 0.0039738715 0.018614413 0.018527433 0.018392868 0.018165004
        0.017848073 0.017447872 0.016971525 0.01642723 0.015823983 0.015171328
        0.014479172 0.0137576815 0.013017247 0.012268497 0.011522277 0.010789563
        0.010081243 0.009407751 0.008778458 0.00820066 0.0076781334 0.0072095827
        0.0067878566 0.00640097 0.0060352557 0.0056794765 0.0053277775 0.0049800463
        0.004640286 0.0043141562 0.003995998 0.018535834 0.018448051 0.018312868
        0.018084776 0.017768046 0.017368484 0.016893217 0.016350426 0.015749073
        0.015098664 0.014409062 0.013690385 0.012952971 0.012207376 0.011464338
        0.010734667 0.010029038 0.009357672 0.008729845 0.008153062 0.0076317643
        0.007165737 0.0067489464 0.0063699423 0.0060145142 0.005669899 0.005328433
        0.004988739 0.004654488 0.0043317815 0.004016177 0.018458005 0.01836941
        0.018233605 0.018005302 0.017688794 0.01728991 0.016815774 0.016274553
        0.01567518 0.015027117 0.014340186 0.013624451 0.012890189 0.012147871
        0.011408109 0.010681535 0.009978589 0.009309245 0.008682635 0.00810639
        0.007585537 0.007120928 0.0067077903 0.0063355067 0.0059896503 0.0056560836
        0.0053252256 0.004994161 0.0046659904 0.004347148 0.004034463 0.018380916
        0.018291501 0.018155072 0.017926566 0.017610306 0.017212132 0.016739177
        0.016199587 0.015602266 0.014956644 0.014272489 0.013559813 0.012828821
        0.0120898895 0.011353494 0.010630071 0.009929813 0.009262428 0.008636848
        0.008060758 0.007539667 0.007075448 0.006664685 0.006297873 0.005960728
        0.0056379656 0.0053180335 0.0049962085 0.004674742 0.0043602567 0.0040509016
        0.018304558 0.018214313 0.01807726 0.01784856 0.017532567 0.017135138
        0.016663402 0.016125498 0.015530303 0.0148872025 0.0142059205 0.013496407
        0.012768794 0.012033348 0.0113004 0.010580186 0.009882637 0.009217175
        0.0085924985 0.008016262 0.007494356 0.007029588 0.006619944 0.0062572784
        0.0059278356 0.005615485 0.00530672 0.0049947547 0.004680672 0.004371095
        0.004065532 0.01822892 0.018137837 0.018000158 0.017771274 0.017455563
        0.017058905 0.016588433 0.016052267 0.015459257 0.014818754 0.01414043
        0.013434174 0.012710033 0.011978163 0.011248741 0.0105317915 0.009836983
        0.009173437 0.008549586 0.0079729855 0.0074497885 0.0069836313 0.0065738945
        0.0062139924 0.0058910903 0.00558859 0.0052911346 0.0049896482 0.0046836874
        0.0043796347 0.0040783826 0.018153992 0.018062063 0.017923752 0.01769469
        0.017379282 0.016983422 0.016514245 0.01597986 0.015389094 0.0147512555
        0.0140759675 0.013373052 0.012652469 0.0119242575 0.01119843 0.010484803
        0.009792775 0.0091311615 0.008508104 0.007930991 0.0074061323 0.006937857
        0.0065268786 0.006168319 0.005850647 0.005557245 0.0052711125 0.0049807066
        0.004683667 0.0043858304 0.004089476 0.018079765 0.017986977 0.017848033
        0.0176188 0.017303705 0.016908664 0.016440816 0.015908254 0.015319782
        0.014684668 0.014012483 0.013312982 0.012596034 0.011871553 0.011149388
        0.010439138 0.009749937 0.009090291 0.008468033 0.00789033 0.0073635373
        0.0068925293 0.006479248 0.006120596 0.0058067036 0.0055214376 0.00524648
        0.0049677165 0.004680458 0.004389615 0.004098824 0.01800623 0.017912574
        0.01777299 0.017543586 0.017228818 0.016834617 0.016368123 0.01583742
        0.015251284 0.014618948 0.013949928 0.013253908 0.012540662 0.011819975
        0.011101532 0.010394714 0.009708393 0.009050768 0.008429346 0.007851034
        0.007322132 0.0068479013 0.0064313603 0.0060711987 0.005759508 0.005481189
        0.005217056 0.0049504284 0.0046738684 0.0043908954 0.004106431 0.017933378
        0.01783884 0.017698608 0.017469034 0.0171546 0.016761255 0.016296137
        0.015767325 0.015183566 0.014554053 0.013888249 0.013195768 0.012486283
        0.01176945 0.011054783 0.010351452 0.009668067 0.009012524 0.008392005
        0.00781312 0.0072820224 0.0068042036 0.0063835736 0.0060205343 0.005709367
        0.005436565 0.005182659 0.004928552 0.0046636593 0.004389549 0.004112286
        0.017861199 0.017765762 0.017624876 0.017395128 0.017081033 0.016688554
        0.016224833 0.015697936 0.015116585 0.014489936 0.013827395 0.013138501
        0.012432829 0.011719902 0.011009062 0.010309268 0.009628878 0.008975493
        0.008355966 0.0077765873 0.00724329 0.006761645 0.0063362415 0.005969043
        0.00565665 0.005387691 0.005143121 0.0049017584 0.004649535 0.004385413
        0.0041163685 0.017789682 0.017693331 0.017551772 0.017321847 0.017008092
        0.016616486 0.016154176 0.015629215 0.015050299 0.014426545 0.013767306
        0.013082042 0.012380227 0.011671252 0.010964285 0.010268078 0.009590744
        0.008939596 0.008321169 0.007741416 0.007205991 0.0067204046 0.0062897014
        0.0059171864 0.0056017954 0.005334767 0.0050982973 0.0048696743 0.004631131
        0.0043782736 0.004118637 0.017718822 0.017621532 0.017479284 0.017249169
        0.016935749 0.016545016 0.016084125 0.015561114 0.014984655 0.014363824
        0.013707918 0.01302632 0.012328401 0.011623415 0.010920363 0.010227791
        0.009553574 0.00890475 0.008287545 0.007707568 0.0071701524 0.0066806264
        0.006244268 0.0058654435 0.0055453107 0.0052780868 0.00504809 0.004831889
        0.0046079983 0.0043678526 0.004119026 0.01764861 0.017550351 0.017407387
        0.017177064 0.016863966 0.016474104 0.016014632 0.01549358 0.014919591
        0.014301703 0.013649154 0.012971252 0.01227726 0.011576299 0.010877199
        0.010188308 0.009517268 0.008870861 0.008255008 0.0076749837 0.0071357694
        0.006642415 0.0062002186 0.0058142925 0.0054877684 0.0052180523 0.004992473
        0.0047879596 0.004579588 0.004353787 0.004117435 0.017579032 0.017479768
        0.017336057 0.017105496 0.016792702 0.016403696 0.015945638 0.015426543
        0.014855032 0.014240099 0.013590925 0.01291674 0.012226701 0.011529792
        0.010834679 0.0101495115 0.009481712 0.0088378135 0.008223454 0.007643578
        0.0071028033 0.006605829 0.006157785 0.0057641943 0.0054297987 0.0051551936
        0.004931524 0.0047374275 0.0045452304 0.0043355986 0.004113708 0.017510088
        0.017409764 0.017265256 0.01703442 0.016721895 0.016333722 0.01587706
        0.015359914 0.014790878 0.014178904 0.013533117 0.012862664 0.0121765975
        0.011483766 0.010792669 0.010111267 0.00944677 0.008805474 0.008192752
        0.007613236 0.0070711756 0.0065708724 0.0061171367 0.005715573 0.0053720702
        0.0050901747 0.0048654685 0.0046798475 0.0045041163 0.0043126587 0.0041076047
        0.017441764 0.017340314 0.017194945 0.016963774 0.016651472 0.01626409
        0.015808795 0.015293576 0.014727001 0.014117981 0.013475582 0.012808869
        0.0121267885 0.011438054 0.010751002 0.010073406 0.009412271 0.008773675
        0.008162739 0.007583804 0.0070407595 0.0065374877 0.006078366 0.0056687864
        0.0053152605 0.005023801 0.004794729 0.0046148323 0.004455279 0.0042841295
        0.0040987446 0.017374057 0.017271383 0.017125063 0.016893478 0.016581327
        0.016194679 0.0157407 0.015227371 0.014663232 0.014057149 0.01341813
        0.012755156 0.012077069 0.011392447 0.010709465 0.010035713 0.009378004
        0.008742205 0.008133207 0.00755508 0.007011374 0.0065055476 0.0060414765
        0.0056240996 0.0052600205 0.0049570026 0.0047199745 0.004542128 0.0043975883
        0.004248891 0.0040865173 0.017306957 0.01720293 0.017055538 0.016823426
        0.016511325 0.016125323 0.01567259 0.015161093 0.014599345 0.013996168
        0.013360508 0.0127012655 0.012027173 0.0113466745 0.010667784 0.009997916
        0.009343696 0.008710793 0.008103889 0.0075268024 0.00698277 0.006474842
        0.006006364 0.0055816537 0.005206921 0.0048908032 0.004642176 0.0044617197
        0.0043297647 0.00420544 0.0040699244 0.017240461 0.017134905 0.01698627
        0.016753476 0.016441286 0.01605581 0.015604218 0.015094468 0.014535045
        0.013934726 0.013302391 0.0126468595 0.011976755 0.011300386 0.010625609
        0.009959666 0.0093089985 0.008679096 0.008074443 0.0074986327 0.0069546187
        0.006445069 0.005972806 0.005541438 0.0051563964 0.0048262593 0.00456264
        0.004373988 0.004250444 0.004151754 0.0040473063 0.017174562 0.017067242
        0.01691714 0.016683452 0.016370982 0.015985863 0.015535272 0.015027152
        0.01446996 0.013872426 0.013243366 0.012591513 0.011925381 0.011253144
        0.0105825 0.009920523 0.009273477 0.00864668 0.008044441 0.007470149
        0.0069265026 0.0064158277 0.005940456 0.0055032712 0.005108687 0.004764369
        0.0044830153 0.0042799185 0.0041583343 0.0040851184 0.004015874 0.017109256
        0.016999867 0.016848 0.016613143 0.016300144 0.01591516 0.015465378
        0.014958731 0.014403641 0.013808795 0.013182938 0.012534717 0.011872533
        0.011204423 0.010537933 0.0098799635 0.009236613 0.008613036 0.008013378
        0.007440848 0.006897923 0.0063866256 0.0059088515 0.0054668034 0.005063797
        0.0047059613 0.004405235 0.004181361 0.0040525394 0.004001929 0.0039708856
        0.017044542 0.0169327 0.0167787 0.016542329 0.016228486 0.01584336
        0.0153941475 0.014888771 0.014335623 0.013743338 0.013120592 0.012475939
        0.011817667 0.0111536775 0.010491357 0.009837441 0.009197865 0.008577624
        0.007980718 0.0074101994 0.0068683503 0.0063569336 0.0058774697 0.0054315673
        0.005021507 0.0046515963 0.0043313885 0.0040813154 0.0039331866 0.0038975
        0.0039042116 0.016980419 0.01686569 0.016709141 0.016470866 0.016155822
        0.015770238 0.015321322 0.014816988 0.014265595 0.013675724 0.013055979
        0.012414819 0.0117604155 0.011100531 0.010442395 0.009792578 0.009156853
        0.008540069 0.007946088 0.007377824 0.0068373964 0.00632635 0.005845893
        0.0053971447 0.0049815117 0.004601561 0.00426352 0.0039841705 0.0038025808
        0.003766004 0.003801816 0.016916884 0.016798902 0.016639449 0.016398937
        0.01608239 0.015696075 0.01524722 0.014743728 0.014193925 0.013606338
        0.012989494 0.012351754 0.011701174 0.011045374 0.01039143 0.009745748
        0.00911394 0.008500717 0.007909813 0.0073440243 0.006805333 0.006295105
        0.005814296 0.0053636422 0.0049438807 0.0045561893 0.00420353 0.0038957784
        0.0036672896 0.0036008684 0.0036393402 0.016853932 0.016732786 0.016570518
        0.01632785 0.01600987 0.015622888 0.015174143 0.014671529 0.014123338
        0.013538044 0.012924099 0.012289772 0.011642999 0.01099127 0.0103415055
        0.009699956 0.00907208 0.008462453 0.007874699 0.0073115113 0.0067747603
        0.0062656705 0.0057850005 0.005333196 0.00491052 0.004517214 0.0041539012
        0.0038234293 0.0035420116 0.0033966284 0.0033745128 0.01679155 0.01666749
        0.01650265 0.016258055 0.01593885 0.015551381 0.015102897 0.014601279
        0.01405479 0.013471848 0.0128608355 0.012229929 0.011586957 0.010939277
        0.010293668 0.009656228 0.009032275 0.008426255 0.007841692 0.0072811944
        0.006746543 0.006238851 0.0057587274 0.0053064064 0.00488183 0.0044846833
        0.0041143736 0.0037698245 0.0034493527 0.0031571186 0.0029347276
      </DataArray>
    </PointData>
    <CellData>
    </CellData>
    <Points>
      <DataArray type="Float32" Name="Points" NumberOfComponents="3" format="ascii" RangeMin="0.7364349035293741" RangeMax="0.8544659024807527">
        0.4840241 -0.0007864077 0.5550283 0.49280965 -0.000787226 0.5556059
        0.5015606 -0.0007880165 0.5561638 0.5102326 -0.00078877545 0.55669945
        0.51878285 -0.00078949996 0.5572108 0.52717113 -0.00079018745 0.557696
        0.5353602 -0.00079083606 0.55815375 0.5433167 -0.00079144427 0.558583
        0.5510114 -0.0007920114 0.55898327 0.5584194 -0.0007925371 0.5593543
        0.5655208 -0.00079302175 0.5596964 0.57230014 -0.00079346617 0.56001
        0.5787463 -0.00079387147 0.56029606 0.5848528 -0.0007942392 0.56055564
        0.59061694 -0.0007945714 0.56079006 0.59603965 -0.00079487 0.5610009
        0.60112506 -0.0007951374 0.5611896 0.6058801 -0.0007953759 0.5613579
        0.61031383 -0.00079558784 0.56150746 0.61443734 -0.0007957757 0.56164
        0.6182632 -0.0007959416 0.56175715 0.62180495 -0.0007960879 0.5618604
        0.62507695 -0.0007962166 0.5619512 0.6280941 -0.0007963295 0.562031
        0.6308712 -0.00079642865 0.5621009 0.6334233 -0.00079651555 0.5621622
        0.6357653 -0.0007965918 0.56221604 0.63791144 -0.0007966585 0.56226313
        0.63987565 -0.0007967168 0.56230426 0.64167136 -0.00079676777 0.5623402
        0.64331126 -0.0007968124 0.56237173 0.4840241 -0.00021028372 0.55502886
        0.4927695 -0.00020984506 0.55560386 0.50148016 -0.0002093783 0.55615926
        0.51011187 -0.0002088959 0.55669266 0.51862186 -0.00020841586 0.55720186
        0.52696997 -0.00020795429 0.5576851 0.535119 -0.00020752152 0.55814105
        0.54303557 -0.000207121 0.55856866 0.5506903 -0.00020675042 0.5589674
        0.55805844 -0.0002064049 0.55933714 0.5651196 -0.00020608291 0.55967796
        0.5718583 -0.00020579371 0.5599905 0.57826334 -0.00020556535 0.5602756
        0.5843282 -0.0002054489 0.56053436 0.59005046 -0.0002055143 0.56076807
        0.59543175 -0.00020583364 0.56097823 0.60047746 -0.00020645445 0.5611666
        0.6051962 -0.00020737402 0.5613347 0.60959923 -0.0002085301 0.5614844
        0.61369944 -0.00020981567 0.5616173 0.61751056 -0.00021110977 0.5617351
        0.62104625 -0.0002123065 0.5618392 0.62432003 -0.00021333052 0.56193113
        0.6273452 -0.00021413795 0.5620121 0.6301353 -0.00021470938 0.5620832
        0.63270384 -0.00021504026 0.56214577 0.6350647 -0.00021513231 0.5622007
        0.63723165 -0.00021498717 0.562249 0.6392182 -0.0002146024 0.56229126
        0.6410376 -0.00021396957 0.5623282 0.6427024 -0.00021306153 0.5623607
        0.4840241 0.00036584047 0.55502874 0.49272975 0.0003675191 0.5556012
        0.5014006 0.00036922304 0.55615413 0.50999236 0.00037092474 0.55668527
        0.5184626 0.00037258636 0.5571924 0.52677107 0.0003741744 0.5576737
        0.53488064 0.00037566668 0.5581278 0.5427579 0.00037705505 0.5585538
        0.55037355 0.00037834307 0.5589511 0.5577026 0.00037953994 0.5593195
        0.5647246 0.00038064944 0.5596592 0.57142395 0.00038165585 0.5599707
        0.5777893 0.00038250905 0.5602548 0.5838142 0.00038311613 0.5605127
        0.5894965 0.0003833486 0.5607458 0.5948383 0.00038307253 0.56095546
        0.5998461 0.00038219712 0.5611434 0.6045299 0.0003807225 0.56131136
        0.6089027 0.00037875873 0.5614611 0.6129791 0.00037650194 0.56159437
        0.6167741 0.00037417948 0.5617127 0.6203018 0.0003719965 0.56181765
        0.6235752 0.0003701052 0.5619105 0.6266065 0.00036860033 0.5619925
        0.6294078 0.0003675299 0.5620649 0.6319914 0.0003669112 0.5621286
        0.63436985 0.0003667468 0.5621847 0.6365563 0.00036703583 0.5622341
        0.6385639 0.00036778106 0.56227744 0.6404055 0.00036898677 0.56231546
        0.6420936 0.00037066545 0.5623489 0.4840241 0.00094196433 0.5550281
        0.4926904 0.00094486313 0.55559796 0.5013218 0.0009477819 0.5561485
        0.50987417 0.0009506787 0.5566774 0.5183051 0.0009534972 0.5571824
        0.52657443 0.0009561874 0.5576618 0.53464514 0.00095871603 0.5581142
        0.54248375 0.0009610703 0.55853856 0.5500609 0.00096325466 0.5589344
        0.55735177 0.0009652824 0.5593015 0.56433564 0.00096715987 0.55964
        0.57099676 0.00096886675 0.5599505 0.5773239 0.000970335 0.5602337
        0.5833105 0.00097143673 0.5604909 0.5889545 0.00097199355 0.5607233
        0.5942587 0.0009718171 0.56093246 0.5992303 0.0009707759 0.56112003
        0.6038804 0.00096886157 0.5612878 0.60822356 0.00096621824 0.5614376
        0.6122759 0.0009631129 0.5615711 0.6160535 0.0009598634 0.56169
        0.61957145 0.00095676404 0.56179565 0.62284243 0.00095404114 0.56188947
        0.6258779 0.00095184334 0.5619725 0.62868863 0.0009502528 0.562046
        0.6312856 0.00094930636 0.5621108 0.6336804 0.000949015 0.56216806
        0.6358852 0.00094938074 0.5622185 0.63791245 0.0009504047 0.5622629
        0.63977486 0.00095207704 0.56230193 0.6414848 0.00095436745 0.5623363
        0.4840241 0.001518087 0.5550268 0.49265143 0.0015221841 0.55559415
        0.50124377 0.0015262931 0.55614233 0.5097572 0.0015303591 0.556669
        0.51814926 0.0015343081 0.55717194 0.52638 0.0015380748 0.5576494
        0.5344123 0.0015416153 0.55810004 0.54221296 0.0015449125 0.5585228
        0.5497525 0.0015479715 0.5589172 0.5570058 0.001550809 0.5592831
        0.56395257 0.0015534345 0.55962044 0.57057667 0.0015558247 0.5599299
        0.57686687 0.0015578972 0.5602123 0.5828166 0.0015594955 0.56046873
        0.5884241 0.0015603988 0.56070054 0.59369236 0.0015603716 0.5609092
        0.5986293 0.0015592442 0.56109643 0.603247 0.0015569957 0.5612641
        0.6075611 0.0015537926 0.5614139 0.61158913 0.0015499572 0.5615476
        0.6153485 0.0015458826 0.5616669 0.61885494 0.0015419414 0.56177324
        0.6221216 0.0015384295 0.56186783 0.62515926 0.0015355503 0.5619519
        0.6279776 0.001533425 0.56202644 0.63058645 0.0015321153 0.56209236
        0.6329962 0.0015316454 0.56215066 0.635218 0.0015320225 0.56220216
        0.6372638 0.0015332451 0.56224763 0.6391457 0.0015352827 0.5622876
        0.640876 0.0015380431 0.5623229 0.4840241 0.0020942083 0.555025
        0.49261287 0.0020994793 0.55558974 0.5011666 0.0021047525 0.5561356
        0.50964147 0.00210996 0.55666006 0.5179951 0.0021150117 0.5571609
        0.5261877 0.0021198278 0.5576365 0.53418225 0.0021243547 0.5580854
        0.54194546 0.0021285708 0.55850667 0.54944795 0.0021324817 0.55889964
        0.55666476 0.0021361075 0.55926424 0.56357515 0.002139461 0.5596005
        0.5701633 0.0021425167 0.55990905 0.5764178 0.0021451819 0.5601906
        0.58233213 0.0021472764 0.5604463 0.58790463 0.0021485449 0.5606775
        0.5931387 0.00214871 0.5608858 0.5980425 0.0021475677 0.5610727
        0.602629 0.0021450813 0.56124014 0.6069147 0.0021414303 0.5613899
        0.6109184 0.0021369786 0.56152385 0.61465865 0.0021321804 0.5616435
        0.6181522 0.0021274758 0.5617504 0.6214126 0.0021232243 0.5618458
        0.62445045 0.0021196825 0.5619308 0.62727463 0.0021170138 0.56200624
        0.6298938 0.00211531 0.56207323 0.632317 0.002114613 0.5621326
        0.6345546 0.0021149386 0.5621851 0.63661766 0.002116283 0.5622316
        0.63851786 0.0021185898 0.5622726 0.64026725 0.0021216916 0.5623088
        0.4840241 0.0026703272 0.5550225 0.4925747 0.0026767463 0.5555848
        0.5010902 0.0026831555 0.5561283 0.5095269 0.0026894754 0.5566506
        0.51784265 0.0026956005 0.5571494 0.5259976 0.0027014378 0.55762315
        0.53395486 0.002706925 0.55807036 0.54168123 0.0027120353 0.55849004
        0.5491474 0.0027167748 0.55888164 0.55632836 0.0027211672 0.559245
        0.5632034 0.0027252277 0.5595802 0.56975657 0.0027289311 0.55988777
        0.57597655 0.0027321763 0.56016856 0.5818568 0.0027347654 0.5604236
        0.5873958 0.002736413 0.5606543 0.59259707 0.0027368085 0.56086206
        0.5974692 0.0027357151 0.5610487 0.6020257 0.0027330783 0.561216
        0.6062838 0.0027290834 0.5613657 0.6102631 0.0027241246 0.5614998
        0.6139836 0.0027187034 0.56161976 0.6174629 0.0027133168 0.56172717
        0.62071526 0.00270838 0.5618232 0.62375146 0.0027042013 0.561909
        0.62657964 0.0027009873 0.5619855 0.62920743 0.0026988636 0.5620535
        0.63164276 0.0026978957 0.5621138 0.63389486 0.00269811 0.56216735
        0.63597393 0.0026995016 0.5622148 0.63789123 0.002701986 0.56225675
        0.63965845 0.0027053114 0.5622939 0.4840241 0.003246443 0.5550194
        0.4925369 0.0032539826 0.55557925 0.5010146 0.0032614984 0.55612046
        0.5094136 0.0032689 0.55664057 0.5176918 0.0032760685 0.5571374
        0.5258096 0.0032828983 0.55760926 0.5337301 0.003289318 0.5580548
        0.5414202 0.0032952966 0.55847293 0.5488507 0.003300841 0.5588632
        0.5559965 0.003305977 0.5592253 0.562837 0.003310724 0.55955946
        0.5693562 0.003315057 0.5598662 0.5755428 0.003318869 0.5601462
        0.58139026 0.0033219485 0.56040055 0.5868971 0.0033239876 0.5606307
        0.592067 0.0033246453 0.5608381 0.59690887 0.0033236574 0.5610245
        0.60143644 0.00332095 0.56119156 0.60566765 0.003316708 0.5613413
        0.6096229 0.0033113454 0.56147546 0.61332303 0.0033054 0.5615957
        0.6167869 0.0032994149 0.56170356 0.6200296 0.003293853 0.5618002
        0.6230622 0.003289069 0.5618868 0.6258926 0.0032853142 0.5619641
        0.6285273 0.003282751 0.56203306 0.6309733 0.003281472 0.5620944
        0.63323855 0.0032815186 0.56214887 0.6353325 0.003282887 0.56219727
        0.63726574 0.0032854623 0.5622402 0.6390497 0.0032889012 0.56227815
        0.4840241 0.0038225558 0.55501574 0.4924995 0.0038311859 0.55557317
        0.5009398 0.0038397775 0.55611205 0.5093014 0.0038482295 0.55663
        0.5175426 0.0038564098 0.55712485 0.5256236 0.0038642017 0.5575949
        0.5335079 0.0038715252 0.5580387 0.5411624 0.0038783466 0.5584554
        0.5485578 0.0038846715 0.5588443 0.5556692 0.0038905286 0.5592053
        0.5624759 0.0038959405 0.55953836 0.5689621 0.0039008837 0.5598442
        0.57511634 0.0039052488 0.56012344 0.58093214 0.003908814 0.56037724
        0.5864081 0.003911252 0.5606069 0.591548 0.0039122007 0.5608139
        0.5963609 0.0039113676 0.561 0.6008608 0.003908662 0.56116694
        0.6050659 0.0039042628 0.5613166 0.6089972 0.0038985945 0.56145084
        0.6126766 0.0038922222 0.5615713 0.61612403 0.003885723 0.56167954
        0.6193555 0.0038795997 0.5617767 0.6223827 0.0038742495 0.56186396
        0.6252134 0.0038699647 0.56194216 0.6278534 0.0038669473 0.562012
        0.6303085 0.0038653216 0.56207424 0.6325857 0.0038651482 0.5621297
        0.6346934 0.0038664257 0.56217897 0.63664144 0.0038690092 0.5622228
        0.638441 0.0038724605 0.56226164 0.4840241 0.0043986645 0.55501145
        0.49246246 0.0044083544 0.5555665 0.5008657 0.0044179894 0.5561031
        0.50919044 0.0044274586 0.5566189 0.5173949 0.004436619 0.5571118
        0.52543974 0.004445342 0.55758005 0.5332883 0.004453541 0.55802226
        0.5409076 0.0044611776 0.55843747 0.54826856 0.004468258 0.558825
        0.5553462 0.0044748127 0.5591848 0.56212 0.0044808676 0.5595169
        0.568574 0.0044864025 0.55982184 0.5746969 0.004491306 0.5601004
        0.5804822 0.0044953492 0.5603535 0.5859285 0.0044981935 0.5605827
        0.5910397 0.0044994554 0.5607894 0.59582484 0.004498822 0.56097525
        0.60029805 0.004496183 0.561142 0.6044778 0.0044917087 0.5612917
        0.6083857 0.004485828 0.5614259 0.6120441 0.0044791223 0.56154656
        0.61547405 0.0044721947 0.5616551 0.6186929 0.0044655786 0.5617528
        0.6217129 0.0044597057 0.56184065 0.62454206 0.004454908 0.56191957
        0.62718564 0.0044514285 0.5619903 0.6296484 0.0044494257 0.56205344
        0.6319362 0.0044489834 0.5621098 0.6340564 0.004450106 0.56215996
        0.63601816 0.00445262 0.56220466 0.6378323 0.004455988 0.56224436
        0.4840241 0.004974768 0.55500656 0.49242577 0.004985486 0.5555593
        0.5007923 0.004996131 0.55609363 0.5090806 0.005006585 0.5566073
        0.5172488 0.0050166906 0.55709827 0.5252578 0.005026313 0.5575647
        0.53307116 0.0050353575 0.5580053 0.54065585 0.005043782 0.558419
        0.54798293 0.0050515924 0.5588053 0.55502754 0.005058821 0.55916387
        0.5617691 0.005065498 0.559495 0.5681918 0.005071604 0.55979913
        0.57428426 0.00507703 0.56007695 0.5800401 0.005081544 0.56032956
        0.5854579 0.005084797 0.56055826 0.5905416 0.005086391 0.5607646
        0.5953002 0.0050859964 0.56095016 0.59974784 0.0050834836 0.5611169
        0.6039031 0.0050790096 0.5612665 0.6077878 0.0050730044 0.5614008
        0.61142504 0.0050660563 0.56152153 0.6148369 0.005058785 0.5616303
        0.6180417 0.005051747 0.5617284 0.6210528 0.005045401 0.5618168
        0.6238786 0.0050401147 0.56189644 0.626524 0.0050361706 0.5619679
        0.62899286 0.0050337645 0.562032 0.63128996 0.00503301 0.56208915
        0.6334215 0.005033918 0.5621402 0.6353959 0.005036288 0.56218576
        0.6372236 0.005039481 0.56222624 0.4840241 0.005550866 0.55500114
        0.49238947 0.0055625783 0.5555514 0.5007197 0.0055742 0.55608356
        0.5089718 0.0055856016 0.55659515 0.51710427 0.0055966205 0.55708414
        0.52507794 0.005607109 0.5575488 0.53285646 0.005616968 0.5579878
        0.54040706 0.0056261527 0.55840003 0.5477009 0.005634668 0.5587851
        0.5547131 0.005642547 0.5591426 0.5614232 0.0056498228 0.55947274
        0.5678153 0.00565648 0.559776 0.5738783 0.0056624124 0.5600531
        0.57960564 0.005667387 0.5603052 0.58499604 0.0056710504 0.56053346
        0.5900533 0.0056729936 0.56073946 0.59478647 0.00567287 0.5609249
        0.59920955 0.005670535 0.5610914 0.60334116 0.0056661326 0.561241
        0.6072032 0.0056600836 0.5613753 0.6108192 0.00565298 0.5614962
        0.6142123 0.005645451 0.56160516 0.61740184 0.005638065 0.56170356
        0.6204024 0.0056313 0.5617925 0.623223 0.005625555 0.5618727
        0.62586844 0.00562115 0.56194496 0.6283419 0.0056183212 0.5620098
        0.6306469 0.0056172125 0.56206787 0.63278854 0.005617851 0.5621197
        0.6347746 0.0056200065 0.5621661 0.6366149 0.0056229397 0.5622074
        0.4840241 0.0061269584 0.55499506 0.49235353 0.0061396305 0.555543
        0.50064784 0.0061521926 0.55607295 0.5088642 0.0061645075 0.5565825
        0.5169613 0.006176403 0.5570696 0.52489996 0.006187725 0.5575325
        0.5326442 0.0061983685 0.55796987 0.54016125 0.0062082834 0.55838066
        0.5474223 0.0062174755 0.5587644 0.55440265 0.0062259804 0.55912083
        0.56108195 0.006233833 0.55945003 0.5674444 0.0062410226 0.55975246
        0.5734787 0.006247445 0.560029 0.5791785 0.006252869 0.5602805
        0.5845426 0.0062569412 0.5605084 0.58957446 0.0062592453 0.5607141
        0.5942833 0.006259423 0.56089926 0.5986828 0.006257314 0.56106573
        0.60279155 0.0062530446 0.5612152 0.6066314 0.0062470287 0.5613496
        0.6102264 0.006239854 0.5614705 0.6136001 0.0062321494 0.56157964
        0.6167733 0.00622449 0.5616783 0.61976177 0.006217366 0.56176764
        0.6225754 0.006211199 0.5618484 0.6252191 0.0062063434 0.56192136
        0.6276955 0.006203077 0.561987 0.63000697 0.0062015792 0.5620458
        0.6321577 0.006201895 0.5620985 0.63415426 0.00620377 0.56214565
        0.6360063 0.006206363 0.56218773 0.4840241 0.0067030443 0.5549884
        0.49231791 0.0067166407 0.555534 0.5005767 0.006730106 0.55606174
        0.50875765 0.006743298 0.5565693 0.5168197 0.0067560347 0.55705446
        0.52472395 0.006768156 0.5575156 0.5324343 0.0067795506 0.55795145
        0.53991824 0.006790168 0.5583609 0.54714715 0.006800011 0.55874336
        0.5540963 0.0068091163 0.5590986 0.5607454 0.0068175225 0.5594269
        0.5670788 0.006825223 0.55972856 0.5730853 0.0068321177 0.5600044
        0.57875854 0.006837981 0.56025547 0.5840971 0.006842458 0.560483
        0.5891047 0.006845133 0.5606884 0.5937902 0.0068456363 0.5608734
        0.5981671 0.006843793 0.5610397 0.60225385 0.0068397163 0.5611891
        0.6060721 0.006833804 0.5613235 0.60964614 0.0068266373 0.5614445
        0.6130001 0.0068188393 0.5615537 0.61615604 0.006810983 0.56165266
        0.6191309 0.006803563 0.5617423 0.6219358 0.006797015 0.56182355
        0.624576 0.006791726 0.56189716 0.6270536 0.0067880135 0.56196344
        0.6293702 0.006786096 0.5620231 0.63152874 0.00678604 0.56207657
        0.6335349 0.006787572 0.56212443 0.6353977 0.0067897495 0.5621673
        0.4840241 0.0072791227 0.5549812 0.49228266 0.0072936057 0.5555244
        0.5005062 0.007307938 0.55605 0.5086522 0.007321969 0.5565555
        0.51667964 0.0073355106 0.55703884 0.5245498 0.0073483963 0.5574983
        0.53222674 0.0073605105 0.5579325 0.5396781 0.0073718005 0.55834055
        0.5468753 0.007382266 0.5587218 0.5537938 0.007391947 0.559076
        0.5604135 0.0074008843 0.55940336 0.5667185 0.0074090743 0.55970424
        0.572698 0.007416424 0.5599795 0.5783454 0.007422712 0.5602301
        0.58365947 0.0074275914 0.56045717 0.58864367 0.007430642 0.5606623
        0.5933068 0.0074314917 0.56084716 0.59766215 0.0074299513 0.5610134
        0.60172766 0.0074261185 0.56116277 0.60552496 0.0074203764 0.5612971
        0.6090782 0.0074132914 0.5614182 0.6124123 0.0074054794 0.5615275
        0.61555004 0.0073975036 0.56162655 0.61850995 0.007389855 0.5617165
        0.6213043 0.007382975 0.56179816 0.6239391 0.0073772753 0.5618723
        0.6264163 0.007373113 0.5619393 0.62873656 0.007370749 0.5619996
        0.6309017 0.0073702782 0.5620539 0.6329164 0.0073714084 0.56210256
        0.63478905 0.0073730983 0.5621461 0.4840241 0.007855194 0.5549733
        0.49224776 0.007870525 0.5555143 0.5004365 0.007885686 0.5560377
        0.50854784 0.007900517 0.5565412 0.51654106 0.007914827 0.5570227
        0.5243775 0.007928442 0.55748045 0.53202146 0.007941243 0.5579131
        0.53944075 0.007953174 0.55831975 0.5466068 0.007964236 0.5586998
        0.55349517 0.007974466 0.55905294 0.56008595 0.00798391 0.5593794
        0.5663634 0.007992568 0.55967957 0.57231647 0.008000355 0.55995417
        0.5779389 0.008007056 0.56020427 0.5832293 0.008012328 0.56043106
        0.5881911 0.008015759 0.560636 0.59283274 0.008016972 0.56082064
        0.5971674 0.008015767 0.56098676 0.6012125 0.008012225 0.5611361
        0.6049895 0.0080067115 0.5612704 0.6085224 0.00799978 0.5613915
        0.6118363 0.00799203 0.5615009 0.61495525 0.007984011 0.5616
        0.6178989 0.007976203 0.5616902 0.620681 0.007969045 0.5617722
        0.6233086 0.007962965 0.5618468 0.6257837 0.007958357 0.56191444
        0.6281061 0.007955527 0.56197554 0.63027656 0.0079546 0.5620305
        0.6322988 0.007955274 0.56207985 0.6341804 0.007956408 0.5621242
        0.4840241 0.008431256 0.55496484 0.4922132 0.008447398 0.5555036
        0.5003674 0.008463346 0.5560249 0.50844455 0.00847894 0.55652636
        0.51640385 0.008493979 0.557006 0.52420706 0.008508287 0.55746204
        0.5318185 0.008521742 0.5578932 0.5392061 0.008534283 0.5582985
        0.5463414 0.008545912 0.5586774 0.5532003 0.008556667 0.55902946
        0.5597627 0.008566594 0.5593551 0.56601316 0.008575699 0.5596545
        0.57194066 0.008583903 0.5599285 0.5775389 0.008591001 0.5601781
        0.5828064 0.008596661 0.56040454 0.5877466 0.008600473 0.5606093
        0.59236765 0.008602061 0.5607938 0.5966824 0.008601218 0.5609598
        0.60070807 0.008598008 0.5611091 0.6044654 0.00859278 0.5612435
        0.60797834 0.008586067 0.5613645 0.6112722 0.008578452 0.5614739
        0.61437166 0.008570467 0.56157315 0.6172978 0.008562571 0.56166345
        0.6200661 0.008555193 0.56174576 0.6226846 0.008548771 0.5618208
        0.62515575 0.008543728 0.561889 0.6274788 0.008540416 0.5619507
        0.6296534 0.008538998 0.56200635 0.6316821 0.008539163 0.56205636
        0.63357186 0.008539678 0.5621014 0.4840241 0.00900731 0.5549558
        0.49217895 0.0090242205 0.5554923 0.500299 0.009040918 0.5560115
        0.5083422 0.009057234 0.556511 0.5162681 0.009072964 0.55698884
        0.5240384 0.009087929 0.5574432 0.5316177 0.009102002 0.55787283
        0.53897405 0.009115123 0.5582768 0.5460792 0.009127289 0.5586544
        0.5529091 0.009138542 0.55900556 0.5594438 0.009148928 0.5593302
        0.5656678 0.0091584595 0.55962896 0.57157034 0.00916706 0.5599024
        0.5771451 0.009174541 0.5601516 0.58239055 0.0091805775 0.5603777
        0.58730996 0.00918477 0.5605822 0.5919113 0.009186745 0.5607666
        0.5962071 0.009186287 0.5609326 0.60021394 0.009183447 0.5610818
        0.60395235 0.009178551 0.5612162 0.60744584 0.009172116 0.5613372
        0.6107197 0.009164707 0.5614466 0.6137992 0.00915683 0.56154585
        0.61670697 0.00914892 0.56163627 0.61945975 0.009141387 0.5617188
        0.62206733 0.009134666 0.56179416 0.62453264 0.009129207 0.5618628
        0.6268547 0.009125403 0.5619251 0.62903214 0.009123461 0.5619815
        0.63106626 0.00912307 0.5620322 0.6329633 0.009122906 0.56207794
        0.4840241 0.009583352 0.5549461 0.49214503 0.009600994 0.5554804
        0.50023127 0.0096184 0.55599755 0.50824094 0.009635396 0.55649513
        0.5161337 0.009651778 0.55697113 0.52387154 0.009667361 0.55742383
        0.5314191 0.009682018 0.557852 0.5387447 0.009695686 0.5582546
        0.5458201 0.009708362 0.55863106 0.5526214 0.009720086 0.5589812
        0.55912894 0.009730907 0.559305 0.5653272 0.00974084 0.55960304
        0.57120544 0.00974982 0.55987597 0.5767574 0.009757666 0.5601247
        0.5819815 0.009764068 0.56035054 0.58688086 0.009768638 0.5605548
        0.59146327 0.009771006 0.56073904 0.59574085 0.009770951 0.560905
        0.5997298 0.009768513 0.5610542 0.60345 0.009763996 0.5611885
        0.60692453 0.009757896 0.5613095 0.61017865 0.009750756 0.56141895
        0.613238 0.00974306 0.5615182 0.6161263 0.009735212 0.5616087
        0.61886215 0.009727593 0.56169134 0.62145686 0.009720625 0.561767
        0.62391454 0.009714774 0.56183606 0.62623394 0.009710476 0.5618989
        0.6284128 0.009707984 0.56195587 0.6304513 0.009706992 0.56200725
        0.63235474 0.009706091 0.5620537 0.4840241 0.010159385 0.5549359
        0.49211147 0.010177715 0.55546796 0.5001642 0.010195785 0.555983
        0.5081407 0.010213422 0.5564786 0.5160007 0.0102304155 0.55695283
        0.5237064 0.01024658 0.557404 0.53122264 0.010261785 0.55783063
        0.53851783 0.010275968 0.55823195 0.54556406 0.010289123 0.5586073
        0.55233735 0.010301291 0.5589564 0.55881816 0.010312522 0.5592794
        0.5649912 0.010322835 0.5595767 0.5708457 0.010332175 0.5598491
        0.5763755 0.010340368 0.5600974 0.58157897 0.010347124 0.56032294
        0.58645904 0.010352066 0.560527 0.59102327 0.010354831 0.5607112
        0.59528345 0.010355196 0.560877 0.59925526 0.010353186 0.5610263
        0.60295796 0.0103490865 0.56116056 0.6064142 0.010343374 0.56128156
        0.6096489 0.010336564 0.56139094 0.61268795 0.010329117 0.5614902
        0.615556 0.010321406 0.5615806 0.6182735 0.010313773 0.5616633
        0.6208536 0.010306617 0.5617392 0.62330157 0.010300407 0.56180865
        0.62561655 0.010295621 0.561872 0.62779546 0.010292556 0.5619295
        0.6298372 0.0102909235 0.5619816 0.63174623 0.010289234 0.56202865
        0.4840241 0.010735407 0.554925 0.4920782 0.010754381 0.55545497
        0.5000978 0.010773074 0.5559679 0.5080414 0.010791309 0.55646163
        0.515869 0.010808873 0.5569341 0.523543 0.01082558 0.5573836
        0.53102833 0.010841299 0.5578088 0.53829354 0.010855963 0.5582088
        0.5453109 0.010869568 0.55858296 0.55205667 0.010882153 0.5589311
        0.5585113 0.010893767 0.55925333 0.56465966 0.010904438 0.55955
        0.5704911 0.010914113 0.5598218 0.5759993 0.01092264 0.56006974
        0.5811828 0.010929735 0.560295 0.58604425 0.010935042 0.5604989
        0.5905911 0.010938205 0.56068295 0.59483457 0.010939002 0.5608488
        0.59878993 0.010937444 0.56099796 0.602476 0.010933798 0.56113225
        0.6059146 0.010928515 0.56125325 0.6091302 0.010922092 0.56136256
        0.61214894 0.010914962 0.56146175 0.6149963 0.01090746 0.56155217
        0.6176941 0.010899889 0.5616349 0.6202577 0.010892611 0.5617109
        0.62269396 0.010886087 0.56178063 0.62500274 0.010880822 0.5618444
        0.6271801 0.010877171 0.56190246 0.62922406 0.010874861 0.56195515
        0.6311377 0.010872331 0.56200284 0.4840241 0.011311417 0.55491364
        0.49204525 0.011330993 0.5554413 0.500032 0.011350265 0.5559523
        0.5079431 0.011369054 0.5564441 0.5157387 0.011387148 0.5569148
        0.52338123 0.011404359 0.55736274 0.53083605 0.011420553 0.55778646
        0.53807175 0.011435665 0.5581852 0.54506075 0.011449689 0.5585583
        0.5517793 0.0114626605 0.5589054 0.5582083 0.011474635 0.5592268
        0.5643325 0.011485639 0.5595228 0.5701413 0.011495632 0.5597941
        0.57562864 0.01150447 0.56004167 0.5807927 0.011511893 0.5602667
        0.58563626 0.0115175545 0.5604704 0.59016633 0.011521115 0.56065434
        0.5943939 0.011522351 0.5608201 0.59833366 0.011521264 0.56096935
        0.6020037 0.0115181 0.56110364 0.6054253 0.011513291 0.56122464
        0.6086225 0.011507305 0.5613339 0.6116211 0.011500552 0.561433
        0.6144472 0.011493333 0.5615233 0.6171242 0.011485903 0.561606
        0.6196695 0.011478575 0.56168205 0.62209207 0.011471789 0.561752
        0.62439257 0.011466069 0.56181616 0.6265669 0.0114618195 0.56187475
        0.62861174 0.011458798 0.561928 0.6305293 0.011455383 0.5619763
        0.4840241 0.011887416 0.5549016 0.49201262 0.011907547 0.5554272
        0.4999669 0.011927354 0.5559361 0.50784576 0.011946654 0.55642605
        0.5156097 0.011965234 0.556895 0.5232212 0.011982908 0.55734134
        0.53064585 0.011999541 0.5577637 0.5378524 0.012015067 0.55816114
        0.5448134 0.012029477 0.5585331 0.5515054 0.01204281 0.55887926
        0.5579091 0.012055119 0.55919987 0.5640096 0.012066433 0.5594952
        0.56979644 0.012076722 0.559766 0.5752633 0.012085853 0.5600132
        0.58040863 0.012093585 0.5602379 0.5852349 0.012099592 0.5604415
        0.5897488 0.0121035455 0.5606254 0.5939611 0.0121052265 0.56079113
        0.59788597 0.012104626 0.5609404 0.6015408 0.0121019725 0.5610747
        0.6049462 0.012097669 0.5611957 0.6081255 0.012092168 0.56130487
        0.6111043 0.01208585 0.56140393 0.6139089 0.012078981 0.56149405
        0.6165641 0.012071772 0.56157666 0.6190894 0.012064473 0.5616527
        0.6214961 0.012057487 0.56172276 0.6237863 0.012051344 0.56178725
        0.6259558 0.012046494 0.56184626 0.62800044 0.012042733 0.5619001
        0.62992084 0.012038389 0.56194896 0.4840241 0.012463402 0.55488896
        0.4919803 0.012484042 0.5554124 0.49990237 0.012504337 0.55591935
        0.5077494 0.012524105 0.55640745 0.51548195 0.012543129 0.5568747
        0.5230628 0.012561224 0.5573194 0.5304577 0.012578258 0.5577404
        0.53763545 0.012594164 0.5581366 0.54456884 0.0126089305 0.55850744
        0.5512346 0.012622594 0.5588527 0.55761355 0.01263521 0.55917245
        0.5636909 0.01264681 0.5594672 0.56945616 0.012657372 0.5597375
        0.5749032 0.012666778 0.5599843 0.58003026 0.012674803 0.5602088
        0.5848398 0.012681143 0.5604122 0.5893383 0.012685484 0.56059605
        0.593536 0.012687611 0.5607618 0.5974466 0.012687508 0.56091106
        0.601087 0.012685384 0.56104535 0.6044769 0.01268162 0.56116635
        0.6076391 0.012676643 0.56127554 0.61059844 0.01267081 0.5613744
        0.61338156 0.01266436 0.5614645 0.6160141 0.012657448 0.5615469
        0.6185179 0.012650265 0.56162286 0.62090653 0.012643156 0.56169295
        0.62318414 0.012636632 0.5617577 0.6253471 0.012631186 0.5618171
        0.62739 0.01262666 0.5618714 0.6293124 0.012621347 0.5619209
        0.4840241 0.013039374 0.5548757 0.49194828 0.013060478 0.5553971
        0.49983847 0.013081215 0.55590206 0.5076539 0.013101402 0.5563883
        0.51535547 0.013120825 0.55685383 0.522906 0.013139302 0.55729705
        0.5302714 0.013156699 0.5577166 0.5374208 0.013172948 0.55811155
        0.5443271 0.013188037 0.5584813 0.550967 0.013202004 0.5588257
        0.5573216 0.013214898 0.5591447 0.56337625 0.013226761 0.55943877
        0.56912047 0.013237575 0.5597086 0.5745481 0.013247234 0.55995506
        0.5796575 0.013255536 0.5601793 0.5844509 0.0132621955 0.5603826
        0.5889345 0.013266915 0.5605663 0.59311825 0.013269488 0.56073207
        0.5970153 0.013269889 0.5608814 0.60064197 0.0132683115 0.5610157
        0.6040172 0.013265112 0.5611367 0.60716295 0.013260693 0.56124586
        0.6101035 0.013255396 0.5613446 0.6128652 0.013249422 0.5614345
        0.61547464 0.013242886 0.56151676 0.61795527 0.013235909 0.5615926
        0.6203237 0.013228759 0.5616626 0.6225865 0.013221912 0.56172746
        0.62474084 0.013215886 0.56178725 0.6267806 0.013210578 0.56184196
        0.62870395 0.013204255 0.56189203 0.4840241 0.013615333 0.55486184
        0.49191657 0.013636851 0.5553812 0.49977517 0.013657983 0.5558842
        0.50755936 0.013678542 0.5563686 0.51523024 0.013698323 0.5568325
        0.5227508 0.013717136 0.55727416 0.5300872 0.013734857 0.5576923
        0.53720856 0.013751412 0.55808604 0.544088 0.013766792 0.55845475
        0.5507025 0.01378103 0.55879813 0.55703324 0.013794178 0.5591164
        0.5630655 0.013806277 0.5594099 0.5687892 0.013817319 0.55967927
        0.574198 0.013827211 0.5599254 0.57929015 0.013835771 0.5601494
        0.5840679 0.0138427345 0.56035256 0.5885372 0.013847822 0.56053627
        0.5927076 0.013850836 0.56070197 0.59659183 0.013851748 0.5608513
        0.6002054 0.013850728 0.56098574 0.6035668 0.013848115 0.56110674
        0.6066969 0.013844287 0.5612158 0.6096193 0.013839562 0.5613145
        0.61236 0.013834122 0.5614042 0.6149459 0.013828035 0.56148624
        0.6174022 0.013821357 0.5615618 0.61974835 0.01381426 0.56163174
        0.6219937 0.013807162 0.56169665 0.6241372 0.0138005875 0.5617567
        0.6261723 0.01379448 0.56181186 0.62809557 0.013787114 0.5618624
        0.4840241 0.014191275 0.5548474 0.49188513 0.01421316 0.55536467
        0.49971247 0.014234637 0.55586576 0.5074658 0.014255523 0.5563484
        0.51510626 0.0142756095 0.55681056 0.5225972 0.01429472 0.55725074
        0.5299048 0.014312722 0.5576675 0.5369985 0.014329547 0.55806005
        0.54385155 0.014345184 0.5584277 0.550441 0.014359663 0.55877024
        0.5567483 0.014373037 0.55908775 0.56275874 0.014385347 0.5593806
        0.5684622 0.014396594 0.55964947 0.5738526 0.014406699 0.5598953
        0.5789281 0.014415496 0.56011903 0.5836907 0.014422746 0.5603221
        0.5881462 0.014428191 0.56050575 0.5923038 0.014431639 0.56067157
        0.5961758 0.01443306 0.56082094 0.5997771 0.014432609 0.56095535
        0.6031254 0.0144305965 0.5610764 0.6062407 0.014427383 0.5611855
        0.6091458 0.014423265 0.56128407 0.611866 0.014418406 0.5613736
        0.6144283 0.014412841 0.56145537 0.6168592 0.014406552 0.56153065
        0.6191809 0.014399617 0.5616004 0.6214064 0.014392358 0.56166524
        0.6235365 0.014385277 0.56172544 0.6255651 0.014378368 0.561781
        0.6274872 0.014369921 0.5618321 0.4840241 0.0147672035 0.5548324
        0.49185398 0.014789402 0.5553476 0.49965036 0.014811175 0.55584675
        0.5073731 0.014832338 0.5563276 0.5149835 0.014852687 0.55678815
        0.5224451 0.014872045 0.5572268 0.5297243 0.01489029 0.5576422
        0.5367907 0.014907345 0.5580336 0.5436177 0.014923204 0.55840015
        0.5501826 0.014937893 0.5587418 0.5564667 0.014951463 0.55905855
        0.5624557 0.014963959 0.55935085 0.56813943 0.014975387 0.5596193
        0.5735119 0.0149856815 0.55986476 0.5785711 0.014994697 0.56008834
        0.58331907 0.015002216 0.5602913 0.5877613 0.015008001 0.56047493
        0.59190667 0.015011876 0.5606407 0.595767 0.015013802 0.5607901
        0.5993567 0.015013922 0.5609246 0.60269266 0.015012524 0.5610457
        0.60579413 0.015009942 0.5611548 0.6086829 0.015006459 0.56125325
        0.61138326 0.015002224 0.56134266 0.61392206 0.014997241 0.56142414
        0.6163268 0.014991433 0.5614991 0.61862224 0.0149847735 0.5615685
        0.62082493 0.0149774635 0.5616332 0.6229391 0.014969943 0.5616935
        0.62495923 0.014962236 0.56174934 0.62687886 0.0149526745 0.5618009
        0.4840241 0.015343116 0.5548168 0.49182314 0.015365576 0.5553299
        0.49958882 0.015387592 0.5558272 0.50728124 0.015408979 0.55630624
        0.5148619 0.0154295415 0.5567652 0.5222945 0.015449105 0.55720234
        0.5295457 0.015467546 0.5576165 0.53658515 0.015484795 0.5580066
        0.54338646 0.015500839 0.5583722 0.54992706 0.015515705 0.55871296
        0.5561884 0.015529443 0.559029 0.5621564 0.015542098 0.5593207
        0.5678208 0.015553682 0.5595887 0.57317567 0.015564144 0.5598338
        0.57821906 0.015573355 0.5600572 0.5829528 0.0155811235 0.56026006
        0.58738226 0.015587234 0.5604437 0.5915159 0.015591519 0.56060946
        0.5953652 0.015593945 0.56075895 0.598944 0.015594637 0.56089354
        0.6022684 0.015593859 0.56101465 0.6053569 0.015591926 0.5611237
        0.6082302 0.015589099 0.5612222 0.6109117 0.015585518 0.5613113
        0.6134276 0.015581173 0.56139255 0.6158057 0.015575934 0.5614672
        0.6180731 0.01556967 0.56153625 0.6202503 0.015562438 0.5616007
        0.62234545 0.015554566 0.56166095 0.62435466 0.015546082 0.56171703
        0.6262705 0.015535376 0.561769 0.4840241 0.015919011 0.55480057
        0.4917926 0.01594168 0.55531174 0.4995279 0.015963884 0.5558071
        0.5071903 0.015985444 0.55628437 0.51474154 0.016006168 0.5567417
        0.5221455 0.016025888 0.55717736 0.52936894 0.016044483 0.5575902
        0.5363818 0.016061883 0.55797917 0.54315776 0.016078075 0.5583437
        0.5496744 0.016093085 0.55868363 0.55591345 0.01610696 0.558999
        0.5618607 0.016119746 0.5592901 0.56750613 0.01613146 0.5595577
        0.5728439 0.016142065 0.5598025 0.57787186 0.016151449 0.5600257
        0.58259183 0.016159447 0.5602284 0.58700895 0.01616586 0.56041205
        0.5911314 0.016170543 0.56057787 0.5949702 0.01617346 0.5607274
        0.5985387 0.016174719 0.5608621 0.60185236 0.016174564 0.5609833
        0.60492873 0.016173285 0.5610924 0.60778767 0.01617113 0.5611908
        0.6104514 0.01616823 0.5612798 0.612945 0.016164565 0.5613607
        0.6152965 0.016159974 0.5614349 0.61753446 0.01615423 0.5615035
        0.61968327 0.016147222 0.56156766 0.621756 0.016139122 0.56162775
        0.62375176 0.0161299 0.56168395 0.6256622 0.016118022 0.56173635
        0.4840241 0.016494889 0.5547837 0.4917623 0.016517706 0.55529296
        0.49946752 0.016540043 0.55578643 0.50710016 0.016561722 0.556262
        0.5146223 0.016582554 0.5567177 0.5219979 0.016602382 0.557152
        0.52919394 0.016621083 0.5575634 0.53618056 0.016638592 0.5579513
        0.5429315 0.016654894 0.5583148 0.5494246 0.016670013 0.5586539
        0.5556416 0.016683992 0.5589685 0.5615685 0.01669688 0.55925906
        0.5671954 0.016708696 0.5595262 0.5725164 0.016719418 0.55977076
        0.5775294 0.016728953 0.55999374 0.582236 0.016737156 0.5601964
        0.5866412 0.016743854 0.56038 0.5907529 0.016748914 0.5605459
        0.5945817 0.016752306 0.5606955 0.59814054 0.016754124 0.5608303
        0.6014442 0.01675459 0.56095153 0.6045094 0.016753968 0.56106067
        0.607355 0.016752493 0.561159 0.61000216 0.01675029 0.5612479
        0.6124747 0.016747337 0.56132853 0.6147998 0.01674346 0.5614023
        0.61700726 0.016738357 0.5614705 0.619125 0.016731743 0.5615341
        0.6211717 0.01672357 0.56159395 0.6231507 0.016713686 0.5616502
        0.6250539 0.016700612 0.5617029 0.4840241 0.017070752 0.5547663
        0.4917323 0.017093657 0.55527353 0.49940768 0.017116064 0.5557652
        0.50701094 0.017137803 0.55623907 0.51450425 0.017158689 0.5566932
        0.52185184 0.017178569 0.557126 0.5290208 0.017197328 0.5575362
        0.5359814 0.017214902 0.55792284 0.5427077 0.017231273 0.5582854
        0.5491775 0.017246462 0.5586236 0.5553729 0.017260512 0.5589376
        0.5612799 0.01727347 0.5592276 0.5668886 0.017285362 0.5594943
        0.57219315 0.017296175 0.5597386 0.5771915 0.017305832 0.5599614
        0.5818851 0.017314214 0.560164 0.5862788 0.017321173 0.56034756
        0.59038025 0.017326592 0.5605135 0.59419966 0.017330438 0.5606632
        0.5977494 0.017332802 0.56079805 0.6010437 0.017333878 0.5609194
        0.6040987 0.017333914 0.5610286 0.6069321 0.017333118 0.56112695
        0.6095639 0.017331619 0.5612157 0.61201656 0.0173294 0.5612961
        0.6143162 0.01732629 0.5613695 0.6164927 0.017321935 0.56143713
        0.6185769 0.017315896 0.56150013 0.6205935 0.017307851 0.56155956
        0.62255186 0.017297423 0.56161577 0.6244456 0.017283147 0.56166875
        0.4840241 0.017646592 0.5547483 0.49170256 0.017669523 0.5552536
        0.49934843 0.017691938 0.5557434 0.50692254 0.017713673 0.5562156
        0.5143873 0.017734554 0.55666816 0.5217072 0.01775443 0.5570995
        0.52884936 0.017773194 0.55750847 0.53578436 0.017790783 0.557894
        0.5424863 0.01780718 0.55825555 0.54893327 0.017822398 0.558593
        0.5551073 0.017836481 0.5589062 0.5609947 0.01784948 0.5591957
        0.5665855 0.017861418 0.559462 0.57187396 0.017872289 0.559706
        0.57685804 0.017882042 0.55992866 0.58153903 0.017890574 0.56013113
        0.58592165 0.017897764 0.5603147 0.59001327 0.017903514 0.5604807
        0.59382373 0.017907793 0.56063056 0.59736496 0.017910685 0.5607655
        0.6006507 0.01791236 0.560887 0.6036963 0.01791304 0.56099623
        0.6065186 0.017912924 0.5610946 0.6091364 0.017912127 0.5611832
        0.61157084 0.01791065 0.56126344 0.61384624 0.017908335 0.56133646
        0.61599183 0.017904822 0.56140345 0.6180404 0.017899547 0.5614658
        0.62002265 0.017891876 0.5615247 0.6219559 0.017881084 0.56158066
        0.6238374 0.017865622 0.5616338 0.4840241 0.018222418 0.55472964
        0.4916731 0.018245298 0.55523306 0.49928972 0.018267654 0.5557211
        0.506835 0.018289316 0.55619156 0.51427156 0.018310124 0.5566426
        0.52156395 0.018329939 0.5570726 0.52867967 0.018348651 0.5574802
        0.5355894 0.018366199 0.55786467 0.5422673 0.018382572 0.5582253
        0.54869175 0.018397776 0.55856186 0.5548448 0.018411858 0.5588744
        0.5607128 0.018424856 0.55916333 0.56628615 0.018436803 0.5594293
        0.5715589 0.018447706 0.55967295 0.576529 0.01845752 0.55989546
        0.5811978 0.018466173 0.5600979 0.5855697 0.018473566 0.56028146
        0.5896518 0.018479615 0.5604476 0.5934538 0.0184843 0.5605975
        0.5969871 0.018487694 0.56073254 0.60026497 0.018489948 0.56085414
        0.603302 0.018491257 0.5609635 0.6061143 0.018491803 0.56106186
        0.6087196 0.0184917 0.5611505 0.6111374 0.018490959 0.5612305
        0.6133903 0.018489456 0.56130314 0.6155059 0.01848685 0.5613696
        0.6175175 0.018482514 0.5614312 0.619461 0.01847551 0.56148934
        0.6213636 0.018464623 0.5615449 0.62322915 0.01844804 0.5615981
        0.4840241 0.01879822 0.55471045 0.4916439 0.018820975 0.55521196
        0.49923155 0.01884319 0.55569816 0.5067483 0.01886471 0.556167
        0.51415694 0.018885376 0.5566165 0.5214222 0.018905055 0.55704504
        0.52851176 0.018923651 0.5574515 0.53539646 0.018941106 0.5578348
        0.5420507 0.0189574 0.5581945 0.5484529 0.018972544 0.5585303
        0.55458534 0.018986575 0.5588422 0.5604344 0.018999534 0.5591306
        0.5659905 0.019011453 0.55939615 0.5712479 0.019022346 0.5596396
        0.57620436 0.01903219 0.5598619 0.5808613 0.019040927 0.56006426
        0.5852228 0.019048486 0.56024784 0.5892959 0.0190548 0.560414
        0.5930898 0.019059855 0.56056404 0.59661573 0.019063719 0.5606992
        0.59988636 0.01906652 0.560821 0.6029157 0.019068435 0.56093043
        0.60571915 0.019069623 0.5610289 0.60831326 0.019070195 0.5611175
        0.6107162 0.019070175 0.56119734 0.6129487 0.019069469 0.56126964
        0.61503595 0.019067803 0.56133556 0.6170101 0.019064547 0.56139636
        0.61891097 0.019058544 0.5614536 0.6207762 0.019047951 0.56150854
        0.62262094 0.019030398 0.5615617 0.4840241 0.019374004 0.55469066
        0.49161497 0.019396545 0.5551902 0.49917394 0.019418534 0.55567473
        0.5066624 0.019439824 0.5561419 0.5140434 0.019460263 0.5565899
        0.52128184 0.019479735 0.5570171 0.5283456 0.019498145 0.5574223
        0.5352056 0.019515438 0.5578045 0.5418365 0.01953159 0.5581633
        0.54821676 0.01954662 0.55849826 0.55432886 0.01956055 0.5588095
        0.5601593 0.01957342 0.5590974 0.56569856 0.019585269 0.5593626
        0.57094085 0.019596111 0.5596057 0.57588404 0.019605944 0.5598279
        0.5805294 0.019614723 0.5600302 0.5848809 0.019622406 0.56021386
        0.5889453 0.019628938 0.5603801 0.5927317 0.019634327 0.56053025
        0.5962508 0.019638618 0.5606656 0.5995147 0.019641932 0.56078744
        0.6025372 0.019644419 0.56089705 0.6053328 0.01964622 0.5609956
        0.6079172 0.019647436 0.56108415 0.6103072 0.019648103 0.56116396
        0.61252165 0.019648168 0.561236 0.61458296 0.019647429 0.5613014
        0.6165207 0.019645354 0.56136143 0.6183755 0.019640675 0.56141764
        0.62019557 0.019630898 0.56147164 0.6220128 0.019612692 0.56152445
        0.4840241 0.019949766 0.5546702 0.49158633 0.019971993 0.555168
        0.49911687 0.019993655 0.5556507 0.5065774 0.020014616 0.5561163
        0.51393104 0.020034742 0.5565628 0.52114296 0.020053918 0.5569886
        0.5281812 0.020072058 0.5573926 0.53501683 0.020089112 0.55777377
        0.54162467 0.020105058 0.55813164 0.54798335 0.020119904 0.55846584
        0.5540755 0.020133672 0.55877644 0.5598876 0.020146403 0.55906385
        0.56541026 0.02015813 0.5593286 0.5706378 0.020168874 0.55957156
        0.5755681 0.020178644 0.5597936 0.58020216 0.020187423 0.5599958
        0.584544 0.020195173 0.5601795 0.5886002 0.020201877 0.56034577
        0.5923794 0.02020754 0.5604961 0.5958921 0.02021221 0.5606316
        0.59915006 0.020215992 0.56075364 0.6021664 0.020219008 0.5608634
        0.6049552 0.020221377 0.560962 0.6075312 0.0202232 0.56105065
        0.6099102 0.020224512 0.5611304 0.6121091 0.020225298 0.5612022
        0.61414766 0.02022543 0.5612672 0.6160514 0.020224543 0.5613265
        0.61785847 0.020221472 0.5613815 0.61962485 0.020213198 0.56143427
        0.62140465 0.020194925 0.5614865 0.4840241 0.020525508 0.55464923
        0.49155796 0.020547302 0.55514514 0.49906036 0.020568525 0.55562615
        0.5064932 0.020589048 0.5560901 0.5138198 0.020608747 0.5565351
        0.5210055 0.020627527 0.5569596 0.52801853 0.020645306 0.55736244
        0.53483015 0.020662034 0.5577426 0.5414153 0.020677691 0.5580995
        0.54775274 0.02069228 0.55843294 0.55382514 0.02070582 0.55874294
        0.55961925 0.020718347 0.5590299 0.5651257 0.020729888 0.5592943
        0.57033885 0.020740481 0.55953693 0.57525647 0.020750131 0.55975884
        0.57987964 0.020758843 0.559961 0.5842122 0.02076661 0.5601447
        0.5882604 0.020773424 0.56031114 0.5920329 0.020779299 0.5604616
        0.5955397 0.020784289 0.56059724 0.59879225 0.02078847 0.56071943
        0.60180336 0.020791955 0.56082934 0.6045863 0.020794842 0.5609281
        0.60715526 0.020797214 0.56101686 0.60952497 0.020799113 0.5610966
        0.61171097 0.020800553 0.5611683 0.6137304 0.020801477 0.561233
        0.61560416 0.020801693 0.5612916 0.61736447 0.020800367 0.5613455
        0.6190685 0.020794377 0.56139666 0.6207965 0.020777097 0.5614478
        0.4840241 0.021101227 0.55462766 0.49152982 0.021122456 0.5551217
        0.49900436 0.021143109 0.555601 0.5064098 0.021163067 0.5560634
        0.51370966 0.021182224 0.556507 0.52086955 0.021200491 0.5569302
        0.52785766 0.021217795 0.5573318 0.53464556 0.021234097 0.55771095
        0.5412083 0.02124937 0.55806696 0.5475248 0.021263616 0.5583996
        0.5535779 0.021276852 0.558709 0.55935436 0.021289097 0.5589954
        0.5648449 0.021300392 0.55925953 0.5700439 0.02131076 0.55950195
        0.5749492 0.021320224 0.5597237 0.57956177 0.021328807 0.55992585
        0.5838854 0.021336516 0.5601096 0.5879261 0.021343365 0.56027615
        0.5916922 0.021349382 0.5604267 0.5951936 0.021354612 0.56056255
        0.5984414 0.021359125 0.560685 0.6014479 0.021363009 0.56079507
        0.60422593 0.021366343 0.560894 0.6067891 0.021369193 0.5609829
        0.60915136 0.021371612 0.56106263 0.61132693 0.021373622 0.56113434
        0.6133309 0.02137522 0.5611988 0.61518013 0.02137636 0.5612569
        0.6168985 0.02137667 0.5613097 0.618534 0.021373667 0.56135905
        0.6201884 0.021359203 0.56140834 0.4840241 0.021676922 0.5546054
        0.491502 0.021697443 0.5550977 0.49894893 0.021717383 0.5555754
        0.50632733 0.02173664 0.5560362 0.5136007 0.02175512 0.5564784
        0.520735 0.021772748 0.5569003 0.5276986 0.021789463 0.55730075
        0.5344631 0.02180523 0.5576788 0.5410038 0.02182002 0.55803394
        0.5472997 0.02183383 0.5583659 0.55333376 0.02184667 0.5586747
        0.5590929 0.02185856 0.5589607 0.56456786 0.021869523 0.5592244
        0.56975305 0.021879593 0.5594666 0.57464635 0.021888802 0.5596882
        0.57924867 0.02189718 0.5598904 0.58356357 0.02190476 0.56007415
        0.58759713 0.021911565 0.5602408 0.5913573 0.021917637 0.56039155
        0.59485376 0.021923024 0.5605276 0.5980973 0.021927785 0.5606502
        0.6010999 0.021931982 0.5607605 0.60387397 0.021935679 0.5608596
        0.60643256 0.021938933 0.5609486 0.6087889 0.021941788 0.56102854
        0.6109564 0.021944275 0.5611002 0.6129485 0.021946419 0.5611645
        0.6147792 0.021948252 0.5612223 0.6164645 0.021949757 0.56127435
        0.618033 0.021949897 0.56132185 0.6195803 0.021941243 0.5613681
        0.4840241 0.022252595 0.55458266 0.4914744 0.02227228 0.5550732
        0.49889407 0.022291377 0.55554914 0.5062456 0.022309806 0.55600846
        0.5134929 0.022327492 0.55644923 0.52060187 0.022344371 0.55686986
        0.5275412 0.022360394 0.5572692 0.5342827 0.022375524 0.5576463
        0.5408016 0.02238974 0.55800056 0.5470772 0.02240303 0.5583318
        0.55309254 0.022415398 0.55864 0.5588346 0.022426855 0.5589255
        0.5642943 0.022437422 0.5591889 0.569466 0.022447132 0.5594309
        0.57434756 0.02245602 0.55965245 0.5789398 0.022464132 0.55985457
        0.58324635 0.022471508 0.5600384 0.58727306 0.022478199 0.56020516
        0.5910277 0.022484254 0.5603561 0.59451956 0.022489721 0.56049234
        0.5977594 0.02249465 0.5606151 0.6007587 0.022499084 0.5607256
        0.6035296 0.02250307 0.560825 0.6060846 0.022506649 0.56091416
        0.60843647 0.022509858 0.5609942 0.61059785 0.022512738 0.5610659
        0.61258125 0.022515317 0.5611302 0.61439884 0.022517629 0.56118786
        0.6160624 0.0225197 0.5612395 0.6175833 0.022521555 0.5612857
        0.61897224 0.022523219 0.5613271
        <InformationKey name="L2_NORM_RANGE" location="vtkDataArray" length="2">
          <Value index="0">
            0.73643490353
          </Value>
          <Value index="1">
            0.85446590248
          </Value>
        </InformationKey>
      </DataArray>
    </Points>
  </Piece>
  </StructuredGrid>
</VTKFile>
