<?xml version="1.0"?>
<VTKFile type="StructuredGrid" version="0.1" byte_order="LittleEndian" header_type="UInt32" compressor="vtkZLibDataCompressor">
  <StructuredGrid WholeExtent="0 30 0 40 0 0">
  <Piece Extent="0 30 0 40 0 0">
    <PointData>
      <DataArray type="Float32" Name="orthogonality" format="ascii" RangeMin="6.010000304498483e-14" RangeMax="0.05871181935071945">
        0.05792031 0.057211775 0.05659328 0.056045316 0.05554341 0.0550629
        0.05458165 0.05408079 0.05354422 0.05295768 0.052307956 0.051582202
        0.05076732 0.04984923 0.048811845 0.047635913 0.046297982 0.044770136
        0.043021012 0.041018285 0.038732126 0.036138725 0.03322302 0.02998027
        0.026416669 0.022549467 0.018406881 0.014027808 0.009461064 0.0047639506
        6.01e-14 0.05643445 0.056452416 0.056314625 0.05606484 0.055733144
        0.055339508 0.054894168 0.0543996 0.053852852 0.053247448 0.052574646
        0.051824134 0.05098422 0.050041597 0.048980635 0.047782376 0.046423618
        0.044876665 0.04311035 0.041092467 0.038793206 0.036188662 0.033263568
        0.030012928 0.026442662 0.022569766 0.018422227 0.014038754 0.009468013
        0.0047672093 2.7113322e-07 0.055727106 0.055993006 0.056064595 0.056000832
        0.055811893 0.055514663 0.055126 0.054658365 0.05411827 0.05350662
        0.052819848 0.052051045 0.051190678 0.05022677 0.04914453 0.047925565
        0.046547096 0.04498178 0.043198746 0.041165993 0.03885379 0.03623819
        0.033303764 0.030045275 0.026468385 0.02258983 0.018437376 0.014049537
        0.009474831 0.004770366 6.158533e-07 0.055276137 0.05561579 0.0557857
        0.055840768 0.05576995 0.055573624 0.055260368 0.054841895 0.05432854
        0.05372665 0.05303785 0.05225935 0.05138461 0.050403703 0.04930319
        0.0480656 0.046668813 0.04508602 0.04328676 0.041239362 0.038914293
        0.036287624 0.03334383 0.030077467 0.026493942 0.022609733 0.018452378
        0.014060196 0.00948155 0.0047734496 1.0082829e-06 0.054949053 0.055317722
        0.055535454 0.055660456 0.055673085 0.055561572 0.05532328 0.054962955
        0.054488916 0.053909183 0.053228814 0.052448764 0.051565707 0.05057217
        0.049456492 0.048202436 0.046788782 0.045189414 0.04337444 0.041312646
        0.038974777 0.036337033 0.033383835 0.030109564 0.026519384 0.022629522
        0.018467277 0.014070768 0.009488203 0.0047764876 1.4265313e-06 0.05469641
        0.05507866 0.055321783 0.05548848 0.055557482 0.055511132 0.055338394
        0.055035967 0.054606926 0.054057542 0.053393923 0.052619517 0.051733855
        0.050732 0.049604293 0.04833598 0.04690695 0.04529195 0.0434618
        0.04138585 0.039035268 0.036386445 0.033423807 0.030141598 0.026544748
        0.022649227 0.018482098 0.014081278 0.009494811 0.004779498 1.8555437e-06
        0.05449413 0.05488337 0.055141047 0.055333573 0.05544063 0.05544266
        0.05532374 0.055074055 0.054690655 0.054176 0.053535063 0.052772257
        0.05188915 0.050883096 0.049746454 0.048466112 0.04702322 0.045393553
        0.04354878 0.04145896 0.03909576 0.03643586 0.03346376 0.030173583
        0.026570044 0.022668865 0.01849686 0.01409174 0.009501388 0.0047824937
        2.2845775e-06 0.05432846 0.054721463 0.054987974 0.055197164 0.055330336
        0.055367988 0.055291932 0.055087943 0.05474773 0.05426919 0.05365466
        0.05290804 0.052031938 0.05102547 0.04988288 0.048592713 0.047137495
        0.045494147 0.043635335 0.041531924 0.039156217 0.036485266 0.033503685
        0.03020552 0.026595283 0.022688441 0.01851157 0.0141021665 0.009507945
        0.0047854837 2.7055953e-06 0.05419074 0.054585792 0.054857884 0.055078216
        0.0552297 0.0552937 0.05525137 0.055085875 0.05478482 0.05434168
        0.053755406 0.05302824 0.052162793 0.051159304 0.05001357 0.04871571
        0.047249682 0.04559365 0.04372138 0.041604698 0.03921661 0.03653464
        0.03354357 0.030237406 0.026620464 0.022707963 0.018526234 0.014112562
        0.009514487 0.004788474 3.1123689e-06 0.05407516 0.054471288 0.05474702
        0.05497503 0.055139646 0.055223346 0.05520748 0.055073924 0.054807425
        0.05439769 0.05384008 0.053134434 0.0522825 0.05128491 0.050138593
        0.04883508 0.047359716 0.045691982 0.043806862 0.041677218 0.0392769
        0.036583956 0.033583406 0.030269234 0.026645584 0.022727432 0.01854086
        0.014122931 0.0095210215 0.004791471 3.499951e-06 0.053977635 0.054374274
        0.05465243 0.05488587 0.0550601 0.05515872 0.05516369 0.055056456
        0.054819964 0.05444093 0.053911354 0.053228308 0.05239198 0.05140272
        0.05025812 0.04895084 0.047467556 0.04578909 0.04389171 0.041749436
        0.03933704 0.036633182 0.033623166 0.030300993 0.026670642 0.022746846
        0.018555444 0.014133279 0.009527551 0.004794479 3.864347e-06 0.0538952
        0.054292016 0.05457182 0.054809187 0.054990593 0.05510067 0.05512215
        0.05503658 0.05482588 0.054474577 0.053971734 0.053311568 0.052492253
        0.051513277 0.050372384 0.049063068 0.04757319 0.045884915 0.04397586
        0.04182129 0.039396986 0.036682285 0.033662837 0.030332671 0.02669563
        0.022766206 0.01856999 0.014143608 0.00953408 0.0047974996 4.2022957e-06
        0.053825658 0.054222453 0.054503385 0.054743655 0.054930523 0.055049513
        0.055084184 0.055016465 0.054827835 0.05450129 0.054023474 0.053385876
        0.0525844 0.05161719 0.050481685 0.04917187 0.04767663 0.045979425
        0.044059265 0.041892733 0.039456695 0.03673124 0.033702392 0.030364258
        0.02672054 0.022785507 0.018584497 0.014153918 0.009540609 0.0048005376
        4.5111155e-06 0.053767346 0.05416401 0.05444573 0.05468818 0.054879274
        0.0550053 0.05505061 0.054997668 0.054827884 0.05452328 0.054068584
        0.053452816 0.05266951 0.05171513 0.05058638 0.049277406 0.04777791
        0.04607259 0.04414187 0.041963708 0.03951612 0.036780003 0.03374181
        0.030395737 0.02674537 0.022804748 0.018598966 0.01416421 0.009547141
        0.0048035933 4.7885956e-06 0.053719 0.05411547 0.054397747 0.05464188
        0.054836296 0.054967955 0.055021927 0.05498128 0.054827604 0.054542366
        0.05410883 0.05351387 0.05274868 0.05180781 0.050686873 0.049379863
        0.04787709 0.046164405 0.044223636 0.042034168 0.03957522 0.036828548
        0.033781063 0.030427093 0.026770107 0.022823924 0.018613394 0.014174486
        0.009553677 0.0048066694 5.0329145e-06 0.053679653 0.054075908 0.054358587
        0.05460404 0.054801118 0.054937344 0.054998443 0.054968096 0.054828223
        0.05456004 0.054145753 0.053570405 0.052822962 0.051895943 0.050783597
        0.049479455 0.047974247 0.04625486 0.044304524 0.042104058 0.039633945
        0.036876835 0.033820134 0.030458312 0.026794743 0.022843031 0.018627781
        0.014184744 0.009560218 0.004809767 5.242584e-06 0.053648576 0.054044615
        0.054327596 0.054574106 0.054773357 0.054913342 0.05498037 0.054958716
        0.054830715 0.054577556 0.054180704 0.053623676 0.05289339 0.051980272
        0.05087701 0.04957643 0.048069473 0.046343967 0.044384494 0.042173333
        0.039692253 0.036924828 0.033858996 0.03048938 0.02681927 0.022862062
        0.018642124 0.014194985 0.009566763 0.004812887 5.416401e-06 0.05362523
        0.054021064 0.05430429 0.054551676 0.054752726 0.05489585 0.05496787
        0.054953612 0.05483588 0.054595973 0.054214865 0.05367484 0.052960932
        0.052061517 0.050967578 0.049671043 0.04816288 0.04643174 0.04446352
        0.04224195 0.039750095 0.036972493 0.03389762 0.030520275 0.026843674
        0.022881012 0.01865642 0.014205206 0.009573314 0.004816029 5.5534138e-06
        0.053609226 0.05400489 0.05428832 0.054536454 0.054739036 0.054884825
        0.054961093 0.054953188 0.054844387 0.054616198 0.0542493 0.053724956
        0.05302653 0.0521404 0.051055785 0.049763564 0.048254583 0.046518203
        0.04454157 0.04230986 0.039807435 0.037019797 0.033935983 0.030550983
        0.02686795 0.022899877 0.018670663 0.014215408 0.00957987 0.0048191953
        5.6528984e-06 0.053600326 0.053995844 0.054279476 0.05452827 0.054732185
        0.054880273 0.054960206 0.05495782 0.054856837 0.05463905 0.054284956
        0.05377501 0.053091068 0.052217618 0.051142108 0.04985427 0.0483447
        0.046603378 0.04461863 0.042377025 0.03986422 0.037066698 0.033974055
        0.030581487 0.026892085 0.022918649 0.018684855 0.014225587 0.00958643
        0.0048223846 5.714341e-06 0.053598404 0.05399382 0.05427766 0.05452706
        0.05473216 0.054882273 0.054965425 0.054967873 0.054873798 0.054665275
        0.05432272 0.05382591 0.053155385 0.05229385 0.051227022 0.049943436
        0.048433367 0.046687298 0.044694666 0.042443395 0.039920412 0.037113164
        0.034011815 0.03061177 0.026916066 0.022937324 0.01869899 0.014235744
        0.009592993 0.0048255967 5.737426e-06 0.053603455 0.053998817 0.05428288
        0.054532863 0.054739054 0.054890987 0.054977003 0.054983757 0.054895833
        0.05469559 0.054363426 0.053878542 0.05322029 0.052369747 0.05131098
        0.050031338 0.048520703 0.046769988 0.044769663 0.042508934 0.039975967
        0.037159156 0.034049235 0.030641813 0.026939886 0.02295589 0.018713063
        0.014245874 0.00959956 0.0048288316 5.722027e-06 0.05361559 0.05401095
        0.054295275 0.05454584 0.05475306 0.05490667 0.05499529 0.055005923
        0.05492352 0.054730717 0.054407883 0.053933732 0.05328655 0.052445937
        0.05139443 0.050118238 0.048606835 0.04685148 0.04484359 0.042573594
        0.040030837 0.037204638 0.034086283 0.030671598 0.026963528 0.022974348
        0.018727072 0.014255977 0.009606127 0.004832089 5.668207e-06 0.053635035
        0.05403045 0.054315086 0.054566257 0.054774486 0.05492968 0.055020712
        0.05503489 0.054957498 0.05477139 0.054456905 0.053992294 0.0533549
        0.052523017 0.051477782 0.050204385 0.04869187 0.046931796 0.04491643
        0.042637337 0.040084984 0.037249576 0.034122944 0.030701106 0.026986986
        0.022992684 0.01874101 0.014266049 0.009612693 0.004835367 5.576223e-06
        0.053662144 0.05405768 0.0543427 0.054594517 0.054803766 0.054960504
        0.055053823 0.055071298 0.054998484 0.0548184 0.05451131 0.054055028
        0.053426057 0.052601542 0.051561438 0.050290007 0.048775915 0.047010954
        0.04498815 0.042700116 0.04013836 0.037293933 0.03415918 0.030730322
        0.027010245 0.02301089 0.018754875 0.014276086 0.009619257 0.004838666
        5.446529e-06 0.05369742 0.054093152 0.054378636 0.054631174 0.054841485
        0.054999772 0.055095308 0.0551159 0.055047296 0.054872606 0.05457196
        0.054122735 0.0535007 0.052682042 0.05164575 0.050375313 0.048859056
        0.04708897 0.04505873 0.042761885 0.04019092 0.037337672 0.034194965
        0.030759225 0.027033294 0.023028964 0.01876866 0.014286088 0.009625818
        0.004841984 5.2797923e-06 0.053741515 0.054137535 0.054423597 0.054676957
        0.054888416 0.055048298 0.05514604 0.055169616 0.055104896 0.05493497
        0.05463976 0.054196216 0.053579476 0.052765004 0.051731035 0.050460476
        0.048941366 0.04716584 0.04512813 0.0428226 0.040242624 0.037380755
        0.03423028 0.030787796 0.02705612 0.023046896 0.018782362 0.014296048
        0.00963237 0.004845319 5.076909e-06 0.0537953 0.054191712 0.054478493
        0.05473281 0.054945547 0.055107128 0.05520711 0.055233583 0.055172414
        0.05500657 0.05471568 0.054276276 0.05366301 0.052850857 0.05181757
        0.050545644 0.0490229 0.04724156 0.04519631 0.042882215 0.04029342
        0.037423145 0.03426509 0.030816017 0.027078712 0.023064675 0.018795973
        0.014305965 0.009638915 0.004848669 4.839031e-06 0.053859882 0.05425682
        0.054544497 0.054799963 0.05501416 0.0551776 0.05527991 0.055309188
        0.055251196 0.055088636 0.054800756 0.054363716 0.05375188 0.05293998
        0.051905572 0.050630923 0.04910368 0.04731611 0.045263227 0.042940676
        0.040343273 0.03746481 0.034299374 0.03084387 0.027101055 0.023082297
        0.01880949 0.014315833 0.009645445 0.0048520328 4.567598e-06 0.053936683
        0.054334313 0.054623134 0.05488 0.05509591 0.055261426 0.05536618
        0.055398155 0.055342846 0.055182546 0.054896083 0.05445933 0.05384659
        0.05303268 0.05199521 0.050716378 0.04918371 0.04738946 0.045328833
        0.04299793 0.040392123 0.037505705 0.0343331 0.030871337 0.02712314
        0.023099748 0.018822905 0.014325649 0.009651961 0.004855407 4.2643796e-06
        0.054027546 0.05442608 0.054716375 0.05497499 0.055192962 0.055360842
        0.055468164 0.05550263 0.05544928 0.05528987 0.055002812 0.054563876
        0.053947598 0.05312919 0.05208657 0.050802022 0.049262967 0.04746155
        0.04539307 0.04305393 0.040439934 0.037545804 0.034366243 0.030898398
        0.02714495 0.023117024 0.018836211 0.014335407 0.009658456 0.004858789
        3.9315305e-06 0.054134864 0.0545346 0.054826826 0.055087674 0.055308167
        0.055478767 0.05558873 0.055625267 0.055572756 0.055412337 0.055122122
        0.054678045 0.054055233 0.053229626 0.05217967 0.050887827 0.049341395
        0.047532327 0.045455873 0.043108605 0.04048665 0.03758506 0.034398776
        0.030925034 0.027166475 0.023134114 0.018849403 0.014345102 0.009664928
        0.0048621753 3.5716669e-06 0.05426183 0.054663178 0.05495799 0.055221744
        0.05544537 0.055619072 0.05573159 0.05576936 0.055715926 0.055551834
        0.055255156 0.05480241 0.05416971 0.053334013 0.05227445 0.050973702
        0.049418904 0.047601707 0.045517176 0.043161903 0.040532228 0.037623443
        0.034430675 0.030951224 0.0271877 0.023151007 0.018862473 0.014354728
        0.0096713705 0.0048655616 3.1879613e-06 0.05441276 0.05481633 0.0551147
        0.05538232 0.055609863 0.055786993 0.05590157 0.055938963 0.055881813
        0.055710312 0.05540296 0.054937374 0.054291066 0.05344222 0.05237075
        0.051059507 0.049495377 0.047669593 0.045576893 0.043213762 0.040576614
        0.037660908 0.034461908 0.030976953 0.02720861 0.023167694 0.018875413
        0.01436428 0.009677778 0.0048689437 2.784273e-06 0.05459372 0.055000465
        0.055303883 0.055576738 0.055809125 0.055989675 0.05610492 0.05613897
        0.056073744 0.055889662 0.055566344 0.055083085 0.054419123 0.05355399
        0.05246832 0.05114504 0.049570665 0.047735877 0.045634948 0.043264113
        0.04061976 0.037697427 0.03449245 0.031002197 0.027229194 0.023184165
        0.018888213 0.014373748 0.009684145 0.004872316 2.3653322e-06 0.054813575
        0.055225063 0.055535913 0.055815946 0.056053996 0.05623697 0.056349665
        0.056375075 0.056295153 0.056091502 0.055745732 0.055239342 0.05455346
        0.053668886 0.0525668 0.051230043 0.049644593 0.047800433 0.04569124
        0.043312892 0.04066162 0.037732963 0.03452228 0.031026943 0.027249437
        0.023200408 0.018900866 0.014383126 0.0096904645 0.0048756716 1.9370007e-06
        0.05508611 0.05550513 0.05582738 0.056117103 0.056360647 0.056542456
        0.056645744 0.05665348 0.05654912 0.056316808 0.055940956 0.05540551
        0.054693364 0.053786308 0.05266576 0.05131422 0.049716953 0.047863126
        0.04574569 0.043360032 0.040702146 0.037767474 0.034551367 0.031051168
        0.027269322 0.023216411 0.018913362 0.014392406 0.009696727 0.0048790025
        1.5066587e-06 0.055434663 0.0558668 0.056207154 0.056508563 0.05675347
        0.056924265 0.057004604 0.056980014 0.056837667 0.05656549 0.05615103
        0.055580426 0.05483783 0.05390549 0.05276466 0.05139722 0.049787536
        0.04792382 0.045798197 0.043405477 0.040741295 0.03780094 0.03457969
        0.031074861 0.027288843 0.023232166 0.018925691 0.0144015765 0.009702924
        0.0048822993 1.0837981e-06 0.055904675 0.056362886 0.056730982 0.05703909
        0.05726833 0.057404492 0.05743719 0.057358354 0.057160616 0.05683583
        0.05637396 0.055762373 0.054985568 0.054025553 0.05286294 0.051478695
        0.049856126 0.04798239 0.045848697 0.04344918 0.040779043 0.037833344
        0.034607247 0.031098008 0.02730799 0.023247665 0.018937847 0.014410629
        0.009709043 0.0048855506 6.809182e-07 0.056606818 0.05712884 0.057517536
        0.057789784 0.057950366 0.05800273 0.05794841 0.057786632 0.05751391
        0.05712376 0.05660647 0.05594897 0.055134952 0.05414544 0.05295994
        0.051558252 0.049922504 0.04803871 0.04589712 0.0434911 0.040815365
        0.037864663 0.034634016 0.031120606 0.02732675 0.023262898 0.018949816
        0.014419553 0.009715074 0.004888741 3.143915e-07 0.05792031 0.05829183
        0.058544017 0.05868135 0.05871182 0.058643032 0.058479685 0.05822252
        0.057868183 0.057409436 0.056835376 0.056131598 0.055280473 0.05426175
        0.0530537 0.051634908 0.049986307 0.0480928 0.045943663 0.0435315
        0.040850494 0.03789508 0.034660116 0.031142712 0.027345154 0.023277866
        0.01896159 0.01442833 0.009720995 0.0048918524 6.01e-14
      </DataArray>
      <DataArray type="Float32" Name="aspect_ratio" format="ascii" RangeMin="1.0284725427627563" RangeMax="11.996748924255371">
        3.014868 2.530431 2.1544814 1.8351091 1.563893 1.3336335
        1.1381862 1.0284725 1.2025495 1.4041957 1.6370567 1.9049901
        2.2119663 2.561918 2.9585242 3.4049208 3.9033246 4.454576
        5.057605 5.708846 6.40166 7.125812 7.867128 8.607427
        9.324856 9.994726 10.590867 11.08747 11.461225 11.693508
        11.850956 3.0110602 2.5272205 2.1518824 1.8330855 1.5623479
        1.3324618 1.1372969 1.029191 1.2033048 1.4049945 1.6379062
        1.9058983 2.2129421 2.5629714 2.9596674 3.4061682 3.9046943
        4.456088 5.059281 5.7107077 6.4037247 7.128092 7.8696284
        8.610145 9.327783 9.997842 10.594149 11.090885 11.464735
        11.697073 11.854555 3.009288 2.5251415 2.1498451 1.8313053
        1.560889 1.3313087 1.1364019 1.0299224 1.204076 1.4058094
        1.6387707 1.9068196 2.2139285 2.564033 2.9608161 3.407419
        3.9060647 4.4575987 5.0609536 5.7125645 6.4057827 7.130364
        7.87212 8.612854 9.3307 10.000951 10.5974245 11.0942955
        11.468244 11.700638 11.858156 3.008004 2.5237155 2.1483853
        1.829925 1.5596672 1.3302804 1.1355662 1.0306277 1.2048339
        1.4066186 1.6396334 1.9077406 2.2149148 2.5650933 2.961962
        3.4086645 3.9074275 4.4590993 5.062614 5.714406 6.4078236
        7.132618 7.874593 8.615545 9.333599 10.004044 10.600685
        11.097695 11.471746 11.704201 11.86176 3.0068915 2.5225627
        2.1472278 1.8288085 1.5586394 1.3293761 1.1348011 1.0312954
        1.2055681 1.4074146 1.6404897 1.9086591 2.2159002 2.5661533
        2.9631069 3.409908 3.9087868 4.4605947 5.064267 5.716238
        6.4098535 7.134859 7.877052 8.618221 9.336486 10.007123
        10.603937 11.101089 11.475244 11.707763 11.865366 3.0058582
        2.5215478 2.1462383 1.8278592 1.5577531 1.3285762 1.1341041
        1.0319217 1.2062728 1.4081918 1.6413357 1.9095731 2.2168849
        2.5672143 2.9642534 3.4111528 3.9101467 4.462089 5.065918
        5.718066 6.411878 7.137093 7.8795033 8.620891 9.339364
        10.010197 10.607182 11.104476 11.478739 11.711325 11.868975
        3.0048678 2.5206115 2.1453493 1.8270179 1.5569676 1.3278589
        1.133467 1.0325077 1.2069458 1.4089468 1.6421679 1.91048
        2.217867 2.5682757 2.965402 3.4124005 3.911509 4.463586
        5.0675693 5.719894 6.4139004 7.139324 7.8819504 8.623554
        9.342237 10.013265 10.610423 11.1078615 11.482233 11.714887
        11.872585 3.003903 2.519724 2.144524 1.8262486 1.5562538
        1.3272052 1.13288 1.0330563 1.2075866 1.409677 1.6429834
        1.9113772 2.218845 2.5693367 2.9665527 3.4136517 3.9128754
        4.4650855 5.069224 5.7217236 6.415923 7.1415544 7.8843956
        8.626215 9.345107 10.01633 10.613662 11.111245 11.485726
        11.718451 11.876198 3.0029542 2.5188682 2.1437416 1.8255291
        1.555592 1.3266001 1.1323341 1.0335722 1.2081971 1.410382
        1.6437802 1.9122623 2.2198164 2.570396 2.9677045 3.4149058
        3.914246 4.4665904 5.0708823 5.723556 6.4179482 7.1437855
        7.886841 8.628875 9.347977 10.019394 10.6168995 11.114629
        11.489221 11.722014 11.879813 3.002016 2.518034 2.1429887
        1.824845 1.5549681 1.3260324 1.1318218 1.0340598 1.2087797
        1.4110622 1.6445574 1.9131339 2.2207801 2.571452 2.968857
        3.4161632 3.915621 4.4681 5.072546 5.7253933 6.4199767
        7.1460185 7.889287 8.631536 9.350844 10.022457 10.620137
        11.118012 11.492716 11.725581 11.8834305 3.001085 2.5172153
        2.142257 1.8241866 1.5543729 1.3254938 1.1313362 1.0345234
        1.209337 1.4117187 1.6453145 1.9139904 2.2217343 2.5725033
        2.9700089 3.4174228 3.9170003 4.469615 5.074215 5.7272353
        6.422009 7.148255 7.891735 8.634196 9.353714 10.02552
        10.623375 11.121396 11.496211 11.729149 11.887051 3.000159
        2.5164075 2.141541 1.8235475 1.5537995 1.3249778 1.1308725
        1.0349668 1.2098721 1.4123533 1.646052 1.9148315 2.2226777
        2.573549 2.9711592 3.4186842 3.9183838 4.471135 5.07589
        5.729083 6.4240465 7.150495 7.894186 8.63686 9.356585
        10.028585 10.626614 11.124781 11.499708 11.732718 11.890673
        2.9992366 2.515608 2.1408367 1.822923 1.5532428 1.3244796
        1.1304264 1.0353934 1.210388 1.4129676 1.6467707 1.9156568
        2.22361 2.574588 2.972307 3.4199467 3.9197712 4.4726615
        5.077571 5.730937 6.4260893 7.1527395 7.89664 8.639525
        9.359456 10.031651 10.629853 11.128167 11.503207 11.73629
        11.894298 2.9983168 2.5148149 2.1401412 1.8223099 1.5526992
        1.3239957 1.1299948 1.0358056 1.2108868 1.4135637 1.6474717
        1.9164667 2.2245302 2.5756195 2.9734516 3.42121 3.9211621
        4.4741926 5.079259 5.732797 6.428138 7.154989 7.899098
        8.642194 9.36233 10.0347185 10.633094 11.131555 11.506707
        11.739863 11.897924 2.9973986 2.5140264 2.1394527 1.8217055
        1.5521661 1.3235233 1.129575 1.0362059 1.2113711 1.4141434
        1.6481559 1.9172614 2.2254384 2.5766428 2.9745924 3.4224732
        3.9225562 4.47573 5.080953 5.7346644 6.4301925 7.1572437
        7.9015603 8.644866 9.365207 10.037787 10.636336 11.134944
        11.51021 11.743439 11.901553 2.996482 2.5132415 2.1387696
        1.8211081 1.5516412 1.3230602 1.129165 1.0365961 1.2118427
        1.4147085 1.6488248 1.9180416 2.2263343 2.5776575 2.975729
        3.423736 3.9239533 4.477272 5.082654 5.7365384 6.4322543
        7.1595044 7.9040275 8.647542 9.368087 10.04086 10.639582
        11.138335 11.513714 11.747017 11.905186 2.995566 2.5124595
        2.1380906 1.8205165 1.5511233 1.3226047 1.1287632 1.0369778
        1.2123033 1.4152606 1.6494796 1.918808 2.2272186 2.5786638
        2.9768608 3.4249983 3.925353 4.4788194 5.084361 5.7384195
        6.4343224 7.161771 7.9065 8.650222 9.37097 10.043934
        10.642829 11.141728 11.5172205 11.750597 11.908819 2.9946508
        2.51168 2.1374154 1.8199294 1.5506107 1.3221556 1.1283683
        1.0373522 1.2127544 1.4158012 1.6501217 1.9195616 2.2280915
        2.5796614 2.9779878 3.4262595 3.9267554 4.480372 5.0860753
        5.7403083 6.4363976 7.1640434 7.908977 8.652905 9.373856
        10.047011 10.646078 11.145124 11.520729 11.754179 11.912456
        2.9937363 2.510902 2.1367428 1.819346 1.5501027 1.3217117
        1.127979 1.0377206 1.2131974 1.4163315 1.650752 1.9203032
        2.2289536 2.5806508 2.9791098 3.4275196 3.9281602 4.48193
        5.0877967 5.742204 6.4384804 7.1663227 7.91146 8.655594
        9.376746 10.050093 10.649331 11.148522 11.52424 11.757764
        11.916095 2.9928222 2.5101256 2.1360729 1.8187656 1.5495986
        1.3212721 1.1275946 1.0380837 1.2136331 1.4168527 1.6513718
        1.9210339 2.2298055 2.581632 2.980227 3.4287786 3.9295673
        4.4834924 5.0895243 5.7441077 6.4405704 7.1686087 7.9139485
        8.658287 9.379641 10.053176 10.652586 11.151923 11.527753
        11.761351 11.919736 2.9919086 2.5093508 2.1354046 1.818188
        1.5490975 1.3208363 1.1272144 1.0384423 1.2140626 1.417366
        1.6519822 1.9217544 2.2306478 2.5826058 2.98134 3.430037
        3.9309769 4.4850607 5.091259 5.746019 6.442668 7.170902
        7.9164433 8.660986 9.382539 10.056264 10.655845 11.155326
        11.531269 11.76494 11.923379 2.9909952 2.5085769 2.134738
        1.8176124 1.5485994 1.3204038 1.1268377 1.0387969 1.2144866
        1.4178722 1.6525842 1.9224658 2.2314816 2.5835726 2.9824486
        3.4312944 3.9323893 4.486634 5.093001 5.7479377 6.444773
        7.173202 7.9189444 8.66369 9.385441 10.059355 10.659106
        11.158732 11.534787 11.768533 11.927025 2.9900823 2.5078042
        2.134073 1.8170388 1.5481035 1.319974 1.1264642 1.0391481
        1.214906 1.4183722 1.6531786 1.9231693 2.2323074 2.5845337
        2.9835541 3.4325516 3.9338043 4.4882126 5.09475 5.7498646
        6.446886 7.175509 7.9214516 8.666399 9.388349 10.062449
        10.662371 11.162142 11.538308 11.772127 11.930673 2.9891698
        2.5070324 2.1334093 1.8164668 1.5476096 1.3195466 1.1260936
        1.0394964 1.2153211 1.4188666 1.6537665 1.9238656 2.2331269
        2.5854893 2.9846566 3.4338093 3.9352229 4.489797 5.0965066
        5.7518 6.4490075 7.177824 7.9239655 8.669113 9.39126
        10.065549 10.665639 11.165554 11.541832 11.775723 11.934323
        2.9882581 2.5062618 2.1327467 1.8158964 1.5471176 1.3191215
        1.1257253 1.039842 1.2157325 1.4193562 1.6543487 1.9245558
        2.2339408 2.5864408 2.9857574 3.4350677 3.9366448 4.491388
        5.0982704 5.753743 6.451137 7.1801467 7.926486 8.671834
        9.394177 10.068652 10.668911 11.168969 11.545359 11.779324
        11.937977 2.9873474 2.5054922 2.1320856 1.8153275 1.5466274
        1.3186983 1.1253593 1.0401853 1.2161406 1.4198419 1.6549262
        1.9252411 2.2347503 2.5873892 2.9868572 3.4363275 3.938071
        4.492985 5.1000423 5.755695 6.453275 7.182477 7.9290137
        8.674561 9.3970995 10.07176 10.672187 11.172388 11.548888
        11.782926 11.941632 2.9864378 2.5047243 2.1314259 1.8147602
        1.5461389 1.318277 1.1249954 1.0405266 1.216546 1.4203241
        1.6554999 1.9259228 2.2355566 2.588336 2.987957 3.43759
        3.939502 4.4945884 5.1018224 5.7576556 6.4554214 7.1848154
        7.9315486 8.677294 9.400027 10.074872 10.675467 11.17581
        11.552421 11.7865305 11.94529 2.9855297 2.503958 2.1307678
        1.8141946 1.545652 1.3178575 1.1246332 1.040866 1.2169492
        1.4208037 1.656071 1.9266021 2.2363615 2.5892825 2.9890585
        3.438856 3.9409385 4.496199 5.1036105 5.759625 6.457577
        7.187162 7.934091 8.680034 9.402961 10.07799 10.678751
        11.179236 11.555956 11.790137 11.94895 2.9846237 2.5031939
        2.1301117 1.8136307 1.5451671 1.31744 1.1242731 1.041204
        1.2173506 1.4212815 1.6566405 1.9272805 2.2371664 2.5902305
        2.990163 3.4401264 3.9423814 4.497818 5.1054077 5.761604
        6.4597416 7.1895175 7.9366417 8.68278 9.405901 10.081113
        10.682039 11.182666 11.559495 11.793748 11.952613 2.9837208
        2.5024328 2.1294582 1.8130691 1.5446843 1.3170245 1.1239145
        1.0415405 1.2177507 1.4217584 1.65721 1.9279598 2.2379735
        2.5911818 2.9912717 3.441403 3.9438314 4.499445 5.107214
        5.7635922 6.461916 7.1918817 7.9392 8.685534 9.408847
        10.084241 10.685332 11.1861 11.563038 11.797361 11.956278
        2.9828222 2.5016756 2.1288078 1.8125104 1.544204 1.3166109
        1.1235576 1.0418761 1.2181504 1.4222358 1.657781 1.928642
        2.2387846 2.5921378 2.9923868 3.4426866 3.9452896 4.501081
        5.1090302 5.7655907 6.4641 7.1942554 7.9417667 8.688295
        9.411799 10.087375 10.688631 11.189538 11.566584 11.800978
        11.959945 2.9819295 2.5009239 2.128162 1.8119552 1.5437266
        1.3161997 1.1232022 1.0422113 1.2185507 1.4227153 1.6583558
        1.9293295 2.239602 2.5931015 2.9935098 3.4439788 3.946757
        4.5027275 5.110857 5.7675996 6.4662943 7.196639 7.944343
        8.691065 9.414759 10.090515 10.691936 11.192981 11.570133
        11.804597 11.963614 2.9810452 2.5001798 2.127522 1.811405
        1.5432528 1.3157908 1.1228478 1.042547 1.2189533 1.423199
        1.6589369 1.930025 2.2404287 2.5940747 2.9946427 3.445281
        3.9482353 4.5043845 5.1126947 5.76962 6.468499 7.199033
        7.9469285 8.693844 9.4177265 10.093662 10.695245 11.196428
        11.573688 11.808219 11.967287 2.9801733 2.4994466 2.126891
        1.8108612 1.5427835 1.3153841 1.1224935 1.0428846 1.2193601
        1.4236898 1.6595274 1.9307315 2.2412674 2.5950603 2.995788
        3.4465954 3.9497252 4.5060534 5.1145444 5.771652 6.4707165
        7.2014375 7.9495244 8.696631 9.420703 10.096818 10.698562
        11.199882 11.577246 11.811845 11.970962 2.97932 2.4987297
        2.126272 1.8103261 1.5423192 1.3149791 1.1221379 1.0432265
        1.2197746 1.4241915 1.6601315 1.9314531 2.2421215 2.5960612
        2.9969475 3.4479237 3.9512286 4.5077357 5.1164074 5.7736974
        6.4729457 7.2038546 7.9521317 8.6994295 9.423689 10.099981
        10.701885 11.203341 11.580809 11.815474 11.974638 2.978496
        2.498037 2.125671 1.8098025 1.5418602 1.3145739 1.1217778
        1.0435762 1.2202014 1.424709 1.6607536 1.932194 2.2429948
        2.5970802 2.9981244 3.4492679 3.952747 4.5094323 5.1182847
        5.775757 6.475189 7.206285 7.9547515 8.70224 9.426685
        10.103153 10.705216 11.206806 11.584377 11.819106 11.978317
        2.9777207 2.497383 2.125096 1.8092932 1.5414048 1.3141639
        1.1214074 1.04394 1.2206469 1.4252486 1.6613998 1.9329591
        2.2438915 2.598121 2.999321 3.4506304 3.954283 4.511146
        5.1201787 5.777832 6.4774485 7.20873 7.957386 8.705063
        9.429694 10.106338 10.708558 11.21028 11.587951 11.822743
        11.981999 2.9770339 2.4967916 2.1245582 1.808798 1.5409459
        1.3137387 1.1210166 1.0443267 1.2211201 1.4258186 1.6620767
        1.9337538 2.2448158 2.5991871 3.000541 3.4520147 3.9558392
        4.5128794 5.1220913 5.7799263 6.479726 7.2111936 7.960037
        8.707903 9.432717 10.109534 10.71191 11.213763 11.591532
        11.8263855 11.985683 2.9765306 2.496306 2.1240673 1.8083056
        1.5404625 1.3132769 1.120588 1.0447499 1.2216328 1.4264283
        1.662792 1.9345845 2.245773 2.6002831 3.001788 3.4534237
        3.957419 4.514635 5.1240263 5.7820425 6.4820247 7.213678
        7.962709 8.710761 9.435759 10.112747 10.715277 11.2172575
        11.595121 11.830032 11.989369 2.9765058 2.495988 2.1236017
        1.8077645 1.5399029 1.3127389 1.1200954 1.0452263 1.2221977
        1.4270871 1.663552 1.9354554 2.2467663 2.6014116 3.0030644
        3.45486 3.959024 4.5164156 5.1259856 5.784182 6.4843473
        7.2161856 7.965403 8.713641 9.438819 10.115977 10.7186575
        11.220763 11.59872 11.833685 11.993058 2.978229 2.4963534
        2.123319 1.8072033 1.5392634 1.3121196 1.1195382 1.0457538
        1.2228099 1.4277887 1.6643503 1.93636 2.2477891 2.602566
        3.004364 3.4563167 3.960648 4.5182133 5.127961 5.786338
        6.486685 7.218707 7.96811 8.716534 9.441891 10.119217
        10.722048 11.224277 11.602324 11.837341 11.996749
      </DataArray>
      <DataArray type="Float32" Name="jacobian" format="ascii" RangeMin="0.0011920775286853313" RangeMax="0.043043412268161774">
        0.0011920775 0.0014223331 0.0016722976 0.0019648387 0.0023068285 0.0027060916
        0.00317147 0.003712873 0.0043412913 0.005068763 0.0059082634 0.006873489
        0.007978506 0.009237222 0.0106626265 0.012265781 0.0140545005 0.01603173
        0.018193642 0.020527527 0.02300968 0.025603525 0.028258359 0.030909117
        0.033477608 0.035875514 0.038009267 0.039786637 0.041124348 0.04195586
        0.042520314 0.0011936867 0.0014234605 0.0016730475 0.0019653197 0.0023071412
        0.0027063224 0.0031716907 0.0037131433 0.0043416624 0.0050692805 0.005908969
        0.006874424 0.007979712 0.009238745 0.010664519 0.012268105 0.014057331
        0.016035154 0.018197753 0.020532414 0.023015426 0.025610194 0.028265981
        0.030917699 0.033487123 0.0358859 0.03802044 0.03979847 0.04113669
        0.041968536 0.04253323 0.0011944373 0.0014241509 0.0016736794 0.0019658816
        0.0023076388 0.0027067775 0.003172138 0.003713624 0.004342221 0.005069962
        0.005909817 0.0068754824 0.0079810275 0.009240364 0.010666496 0.0122705065
        0.014060234 0.016038647 0.018201929 0.020537369 0.023021238 0.025616923
        0.028273664 0.03092634 0.033496693 0.03589634 0.038031653 0.039810333
        0.041149054 0.041981228 0.04254615 0.0011949771 0.0014247595 0.0016743244
        0.001966544 0.0023083044 0.0027074423 0.003172811 0.0037143277 0.004342988
        0.005070832 0.005910834 0.006876691 0.007982475 0.0092421025 0.010668585
        0.012273013 0.014063236 0.016042238 0.018206203 0.020542422 0.023027152
        0.025623756 0.028281447 0.030935075 0.03350635 0.035906855 0.038042936
        0.039822258 0.041161463 0.04199395 0.04255908 0.0011954409 0.001425307
        0.0016749386 0.0019672192 0.0023090316 0.002708213 0.003173623 0.0037151887
        0.0043439176 0.005071859 0.0059119957 0.006878031 0.00798404 0.0092439465
        0.010670768 0.012275605 0.014066323 0.01604591 0.01821056 0.020547556
        0.023033146 0.02563067 0.02828931 0.03094389 0.03351608 0.03591744
        0.038054273 0.039834224 0.041173905 0.042006686 0.042572018 0.0011958684
        0.0014258167 0.0016755234 0.0019678825 0.0023097734 0.0027090302 0.0031745126
        0.003716152 0.0043449635 0.0050730077 0.005913276 0.006879481 0.0079857055
        0.009245879 0.010673029 0.01227827 0.014069475 0.016049646 0.018214978
        0.020552754 0.023039203 0.025637645 0.028297236 0.030952761 0.033525866
        0.03592807 0.038065657 0.039846227 0.041186374 0.042019445 0.042584963
        0.0011962758 0.0014263031 0.0016760861 0.0019685302 0.0023105124 0.002709864
        0.0031754419 0.0037171773 0.00434609 0.0050742473 0.0059146504 0.006881022
        0.007987454 0.009247886 0.010675358 0.012280994 0.014072682 0.016053433
        0.018219449 0.020558003 0.023045313 0.025644673 0.028305212 0.030961681
        0.033535697 0.035938744 0.03807707 0.03985826 0.04119886 0.042032216
        0.04259792 0.0011966709 0.0014267743 0.0016766336 0.0019691645 0.0023112437
        0.0027107005 0.003176389 0.0037182386 0.0043472694 0.0050755525 0.0059160977
        0.0068826363 0.0079892725 0.009249957 0.010677743 0.0122837685 0.014075935
        0.016057264 0.01822396 0.020563295 0.023051465 0.025651744 0.028313227
        0.03097064 0.033545565 0.03594945 0.03808852 0.039870314 0.04121137
        0.042045 0.04261088 0.0011970579 0.0014272354 0.0016771702 0.0019697882
        0.0023119664 0.0027115338 0.0031773422 0.0037193187 0.004348481 0.0050769034
        0.005917599 0.006884309 0.007991148 0.009252082 0.010680176 0.012286587
        0.014079229 0.016061135 0.018228512 0.020568624 0.023057655 0.02565885
        0.028321281 0.030979633 0.033555463 0.035960186 0.03809999 0.039882388
        0.041223895 0.042057797 0.04262385 0.0011974395 0.0014276895 0.001677699
        0.0019704036 0.0023126814 0.0027123617 0.003178295 0.0037204064 0.004349712
        0.0050782836 0.0059191394 0.006886026 0.00799307 0.009254251 0.010682652
        0.012289443 0.014082558 0.016065039 0.018233098 0.020573989 0.02306388
        0.025665993 0.028329367 0.03098866 0.03356539 0.035970945 0.03811148
        0.039894484 0.041236438 0.04207061 0.042636834 0.0011978174 0.0014281386
        0.0016782222 0.001971013 0.00231339 0.0027131836 0.0031792445 0.0037214959
        0.0043509514 0.005079682 0.0059207054 0.006887775 0.007995027 0.009256455
        0.01068516 0.012292332 0.01408592 0.016068976 0.018237716 0.020579385
        0.023070136 0.025673166 0.028337482 0.030997712 0.03357534 0.03598173
        0.038122997 0.0399066 0.041248992 0.042083427 0.04264982 0.0011981924
        0.001428584 0.0016787412 0.001971617 0.002314093 0.002714 0.003180189
        0.003722583 0.0043521933 0.0050810883 0.0059222872 0.0068895454 0.007997009
        0.009258687 0.010687697 0.012295249 0.014089309 0.016072942 0.018242363
        0.020584812 0.023076424 0.025680367 0.028345626 0.03100679 0.03358532
        0.035992537 0.03813453 0.03991873 0.04126156 0.04209626 0.042662818
        0.0011985654 0.0014290267 0.001679257 0.0019722176 0.0023147913 0.0027148107
        0.0031811276 0.003723665 0.0043534325 0.0050824964 0.005923875 0.006891328
        0.007999008 0.009260938 0.010690254 0.012298188 0.014092722 0.016076932
        0.018247036 0.020590268 0.023082739 0.025687598 0.028353795 0.031015895
        0.03359532 0.036003362 0.03814608 0.039930873 0.04127414 0.042109102
        0.042675823 0.001198937 0.0014294672 0.0016797702 0.0019728148 0.0023154854
        0.002715616 0.00318206 0.0037247401 0.0043546655 0.005083901 0.0059254635
        0.006893114 0.008001015 0.0092632 0.010692827 0.012301146 0.014096157
        0.016080948 0.018251738 0.020595752 0.023089083 0.025694856 0.028361991
        0.031025022 0.03360534 0.036014207 0.038157646 0.039943032 0.041286737
        0.042121954 0.042688835 0.0011993073 0.0014299062 0.0016802814 0.0019734094
        0.002316176 0.0027164167 0.0031829863 0.0037258076 0.0043558897 0.0050852974
        0.0059270454 0.0068948977 0.0080030225 0.0092654675 0.010695409 0.012304117
        0.014099609 0.016084984 0.018256463 0.02060126 0.023095453 0.02570214
        0.02837021 0.031034172 0.03361538 0.03602507 0.03816923 0.039955202
        0.041299343 0.042134814 0.042701855 0.0011996768 0.0014303437 0.0016807907
        0.0019740013 0.002316863 0.0027172125 0.0031839057 0.0037268663 0.004357104
        0.0050866823 0.005928616 0.006896672 0.008005024 0.009267734 0.010697996
        0.012307098 0.014103077 0.01608904 0.018261213 0.020606795 0.02310185
        0.025709448 0.028378455 0.031043343 0.033625443 0.036035948 0.038180828
        0.039967388 0.041311957 0.04214769 0.042714886 0.0012000456 0.0014307802
        0.0016812985 0.0019745913 0.0023175466 0.0027180032 0.003184818 0.0037279155
        0.0043583056 0.0050880527 0.005930172 0.006898432 0.008007015 0.009269995
        0.010700582 0.012310085 0.014106558 0.016093116 0.018265985 0.020612355
        0.023108272 0.025716782 0.028386721 0.031052534 0.03363552 0.036046844
        0.03819244 0.039979585 0.041324586 0.042160567 0.042727925 0.0012004138
        0.0014312157 0.0016818048 0.0019751787 0.002318227 0.0027187888 0.0031857227
        0.0037289541 0.004359494 0.005089406 0.005931709 0.0069001736 0.0080089895
        0.009272243 0.010703162 0.012313075 0.014110048 0.016097208 0.01827078
        0.020617941 0.023114718 0.025724139 0.028395008 0.031061744 0.033645615
        0.03605775 0.038204063 0.039991796 0.04133722 0.04217346 0.04274097
        0.0012007816 0.0014316501 0.0016823097 0.001975764 0.0023189036 0.002719569
        0.0031866191 0.003729981 0.004360666 0.00509074 0.005933223 0.006901891
        0.008010942 0.009274475 0.010705735 0.012316065 0.014113548 0.016101317
        0.018275594 0.02062355 0.023121191 0.025731519 0.02840332 0.031070976
        0.033655725 0.036068678 0.0382157 0.040004015 0.04134987 0.042186357
        0.042754028 0.0012011488 0.0014320838 0.001682813 0.0019763466 0.0023195762
        0.002720343 0.0031875067 0.0037309949 0.004361821 0.005092052 0.005934711
        0.0069035813 0.008012868 0.009276686 0.010708293 0.012319051 0.014117054
        0.016105441 0.01828043 0.020629182 0.023127688 0.025738925 0.028411651
        0.031080224 0.033665854 0.036079615 0.038227353 0.04001625 0.041362528
        0.04219927 0.042767093 0.0012015158 0.0014325164 0.0016833147 0.0019769268
        0.0023202447 0.0027211101 0.0031883838 0.0037319944 0.0043629557 0.0050933384
        0.0059361705 0.00690524 0.008014766 0.009278872 0.010710836 0.012322032
        0.014120565 0.016109578 0.018285286 0.02063484 0.02313421 0.025746351
        0.028420001 0.03108949 0.033676 0.036090568 0.038239013 0.04002849
        0.041375197 0.042212185 0.042780165 0.0012018824 0.001432948 0.0016838146
        0.0019775038 0.002320908 0.0027218696 0.0031892497 0.0037329774 0.0043640686
        0.005094597 0.0059375963 0.006906864 0.008016628 0.009281031 0.01071336
        0.012325006 0.014124079 0.016113728 0.01829016 0.020640519 0.023140753
        0.025753802 0.028428374 0.031098776 0.033686157 0.036101535 0.03825069
        0.040040743 0.041387875 0.04222511 0.042793244 0.0012022485 0.0014333786
        0.0016843124 0.001978077 0.0023215655 0.00272262 0.0031901023 0.0037339418
        0.004365157 0.0050958246 0.005938986 0.0069084484 0.008018455 0.009283158
        0.010715864 0.01232797 0.014127596 0.016117891 0.018295055 0.02064622
        0.02314732 0.025761273 0.028436765 0.031108076 0.03369633 0.036112513
        0.03826237 0.040053006 0.04140056 0.04223805 0.042806335 0.0012026142
        0.0014338078 0.0016848077 0.0019786463 0.0023222163 0.0027233602 0.0031909395
        0.003734885 0.0043662167 0.005097017 0.0059403353 0.0069099907 0.00802024
        0.009285253 0.010718344 0.012330924 0.014131116 0.016122065 0.018299969
        0.020651944 0.023153912 0.025768766 0.028445175 0.031117393 0.033706516
        0.036123503 0.038274065 0.040065277 0.041413255 0.04225099 0.042819433
        0.0012029794 0.0014342354 0.0016853 0.0019792104 0.0023228591 0.0027240883
        0.003191759 0.0037358035 0.0043672444 0.0050981706 0.0059416397 0.0069114864
        0.008021981 0.009287311 0.010720801 0.012333867 0.014134637 0.016126253
        0.018304903 0.020657692 0.023160525 0.025776282 0.028453603 0.031126726
        0.033716716 0.036134504 0.03828577 0.04007756 0.04142596 0.042263944
        0.04283254 0.0012033439 0.0014346612 0.001685789 0.0019797685 0.0023234924
        0.002724802 0.003192558 0.0037366939 0.004368236 0.00509928 0.0059428955
        0.0069129323 0.008023678 0.009289332 0.010723231 0.012336799 0.01413816
        0.016130451 0.018309854 0.02066346 0.023167161 0.025783816 0.02846205
        0.031136073 0.033726927 0.036145512 0.03829748 0.040089846 0.04143867
        0.042276908 0.042845655 0.0012037075 0.0014350847 0.0016862735 0.0019803194
        0.002324114 0.002725498 0.0031933323 0.0037375512 0.004369186 0.00510034
        0.005944098 0.0069143246 0.008025326 0.0092913145 0.010725638 0.01233972
        0.014141684 0.016134663 0.018314825 0.020669252 0.02317382 0.025791371
        0.028470514 0.031145433 0.03373715 0.03615653 0.0383092 0.040102143
        0.041451387 0.042289875 0.04285878 0.0012040702 0.0014355053 0.0016867528
        0.0019808614 0.0023247218 0.0027261735 0.0031940774 0.00373837 0.0043700878
        0.005101345 0.0059452415 0.0069156596 0.008026923 0.009293258 0.010728018
        0.01234263 0.014145211 0.016138887 0.018319815 0.020675065 0.023180498
        0.025798945 0.028478993 0.031154808 0.033747382 0.036167562 0.038320933
        0.040114447 0.041464116 0.04230285 0.04287191 0.0012044314 0.0014359223
        0.0016872253 0.0019813923 0.002325312 0.0027268236 0.0031947875 0.0037391435
        0.004370935 0.005102289 0.005946322 0.006916935 0.008028469 0.009295163
        0.010730376 0.01234553 0.014148741 0.016143123 0.018324822 0.020680899
        0.023187198 0.025806537 0.028487487 0.031164194 0.033757627 0.036178596
        0.038332667 0.040126756 0.04147685 0.042315837 0.042885054 0.0012047909
        0.0014363347 0.0016876893 0.001981909 0.0023258808 0.0027274424 0.0031954558
        0.0037398639 0.00437172 0.005103165 0.0059473338 0.0069181477 0.008029964
        0.009297029 0.0107327085 0.012348422 0.0141522745 0.016147371 0.01832985
        0.020686751 0.023193916 0.025814146 0.028495993 0.031173589 0.033767875
        0.036189638 0.03834441 0.04013907 0.041489586 0.04232883 0.0428982
        0.001205148 0.001436741 0.0016881425 0.0019824076 0.0023264224 0.002728023
        0.003196073 0.0037405216 0.004372433 0.0051039653 0.0059482725 0.006919296
        0.0080314055 0.009298859 0.010735021 0.012351306 0.014155813 0.016151633
        0.018334894 0.020692624 0.023200653 0.025821768 0.028504513 0.031182993
        0.03377813 0.036200684 0.03835615 0.040151395 0.041502334 0.04234183
        0.04291136 0.0012055017 0.0014371392 0.0016885813 0.0019828836 0.0023269295
        0.0027285556 0.0031966283 0.003741105 0.0043730643 0.0051046824 0.0059491345
        0.0069203787 0.008032798 0.009300655 0.010737314 0.012354186 0.014159356
        0.016155908 0.018339954 0.020698516 0.023207407 0.025829405 0.02851304
        0.031192403 0.03378839 0.036211733 0.0383679 0.04016372 0.041515086
        0.042354833 0.042924527 0.001205851 0.0014375268 0.0016890009 0.0019833287
        0.0023273919 0.0027290278 0.0031971082 0.0037416015 0.004373603 0.00510531
        0.0059499163 0.0069213957 0.008034141 0.009302419 0.010739592 0.012357062
        0.014162906 0.016160198 0.018345032 0.020704424 0.023214174 0.025837053
        0.028521577 0.031201819 0.033798654 0.036222786 0.03837965 0.040176045
        0.041527838 0.042367846 0.042937703 0.0012061938 0.0014378992 0.0016893942
        0.001983733 0.0023277958 0.002729423 0.0031974951 0.0037419954 0.0043740384
        0.005105842 0.0059506167 0.0069223493 0.00803544 0.009304156 0.010741856
        0.012359936 0.014166464 0.016164498 0.018350126 0.020710345 0.023220954
        0.02584471 0.028530117 0.031211235 0.033808917 0.036233835 0.038391396
        0.040188372 0.041540597 0.042380866 0.042950887 0.0012065273 0.0014382502
        0.0016897508 0.001984081 0.0023281218 0.00272972 0.003197769 0.0037422704
        0.00437436 0.0051062736 0.0059512365 0.006923243 0.008036698 0.009305868
        0.01074411 0.012362811 0.014170029 0.01616881 0.01835523 0.020716278
        0.02322774 0.02585237 0.028538657 0.031220648 0.033819173 0.03624488
        0.038403142 0.040200695 0.041553356 0.04239389 0.04296408 0.0012068466
        0.0014385694 0.0016900537 0.0019843492 0.0023283423 0.0027298904 0.0031979051
        0.0037424099 0.004374559 0.005106604 0.0059517785 0.0069240825 0.008037921
        0.009307562 0.010746356 0.012365687 0.014173601 0.016173132 0.018360345
        0.020722218 0.023234531 0.025860028 0.028547194 0.031230055 0.033829425
        0.036255915 0.03841488 0.04021302 0.041566115 0.042406917 0.042977277
        0.0012071426 0.0014388387 0.0016902749 0.0019845022 0.0023284175 0.002729898
        0.0031978774 0.0037423987 0.004374632 0.0051068366 0.0059522507 0.0069248755
        0.008039117 0.009309241 0.010748598 0.012368563 0.014177176 0.016177459
        0.018365463 0.02072816 0.023241319 0.02586768 0.028555717 0.031239446
        0.033839658 0.036266938 0.038426608 0.04022533 0.04157887 0.042419948
        0.042990487 0.0012073979 0.0014390241 0.0016903649 0.0019844815 0.0023282932
        0.0027297013 0.0031976607 0.003742229 0.004374582 0.0051069804 0.005952663
        0.0069256304 0.00804029 0.009310909 0.010750834 0.012371438 0.0141807515
        0.016181784 0.018370578 0.020734092 0.023248093 0.025875313 0.02856422
        0.031248815 0.033849865 0.03627794 0.038438313 0.04023763 0.04159162
        0.04243298 0.043003704 0.0012075703 0.0014390526 0.0016902299 0.001984195
        0.0023278976 0.0027292585 0.0031972418 0.0037419056 0.004374423 0.0051070517
        0.0059530293 0.0069263577 0.008041447 0.009312565 0.010753063 0.012374307
        0.014184319 0.0161861 0.018375678 0.020740006 0.023254842 0.025882915
        0.028572688 0.031258147 0.03386004 0.036288906 0.038449995 0.04024991
        0.04160436 0.04244601 0.043016933 0.0012075326 0.0014387364 0.0016896843
        0.0019835106 0.0023271635 0.0027285554 0.0031966383 0.0037414604 0.0043741884
        0.0051070796 0.0059533725 0.0069270735 0.008042598 0.0093142195 0.010755288
        0.01237717 0.014187878 0.0161904 0.01838076 0.020745892 0.023261558
        0.02589048 0.028581114 0.031267434 0.03387017 0.036299836 0.038461644
        0.04026217 0.04161708 0.042459037 0.04303017 0.0012067427 0.0014378252
        0.0016887196 0.0019825608 0.002326284 0.0027277914 0.003196028 0.0037410401
        0.004373996 0.0051071555 0.005953764 0.006927835 0.00804379 0.009315909
        0.010757544 0.012380058 0.014191456 0.016194716 0.018385846 0.020751782
        0.023268271 0.025898037 0.02858953 0.031276714 0.033880293 0.03631075
        0.038473282 0.04027442 0.041629806 0.04247207 0.043043412
      </DataArray>
    </PointData>
    <CellData>
    </CellData>
    <Points>
      <DataArray type="Float32" Name="Points" NumberOfComponents="3" format="ascii" RangeMin="1.0749922618220256" RangeMax="1.2334159441785761">
        0.826677 -0.009384552 0.68999875 0.8271788 -0.009384579 0.6900008
        0.8277686 -0.009384612 0.69000316 0.8284615 -0.009384649 0.6900059
        0.82927513 -0.009384693 0.6900091 0.83022976 -0.009384743 0.69001275
        0.831349 -0.009384801 0.69001704 0.83266 -0.009384867 0.69002193
        0.83419394 -0.009384943 0.69002753 0.8359865 -0.009385031 0.690034
        0.838078 -0.00938513 0.6900413 0.84051424 -0.009385245 0.6900497
        0.8433461 -0.009385377 0.6900594 0.84663016 -0.009385531 0.69007075
        0.8504282 -0.009385714 0.6900843 0.85480684 -0.009385935 0.69010043
        0.85983646 -0.009386198 0.69011974 0.8655896 -0.009386509 0.69014263
        0.87213904 -0.009386876 0.69016963 0.87955445 -0.009387305 0.69020116
        0.8878987 -0.009387802 0.69023776 0.8972233 -0.009388372 0.6902796
        0.9075631 -0.009389017 0.69032705 0.9189305 -0.009389738 0.69038004
        0.93131024 -0.009390533 0.6904385 0.9446548 -0.009391397 0.6905021
        0.9588811 -0.009392325 0.69057024 0.97386944 -0.009393304 0.69064224
        0.9894658 -0.009394323 0.69071716 1.0054864 -0.009395367 0.69079393
        1.0217258 -0.009396417 0.6908712 0.82661706 -0.008351278 0.6900118
        0.8271194 -0.0083506815 0.6900139 0.82770973 -0.008350214 0.6900162
        0.8284032 -0.008349859 0.690019 0.82921726 -0.0083496 0.6900222
        0.8301724 -0.008349428 0.69002587 0.83129215 -0.008349329 0.69003016
        0.83260375 -0.0083492985 0.69003505 0.8341383 -0.008349331 0.69004065
        0.8359314 -0.008349421 0.6900471 0.83802366 -0.008349568 0.6900544
        0.84046066 -0.008349767 0.6900629 0.84329337 -0.0083500175 0.69007254
        0.8465784 -0.008350318 0.6900839 0.85037756 -0.0083506685 0.6900974
        0.8547575 -0.008351065 0.69011354 0.8597884 -0.008351507 0.69013286
        0.8655432 -0.008351987 0.69015574 0.87209445 -0.008352506 0.69018275
        0.87951195 -0.008353062 0.69021434 0.88785857 -0.008353656 0.6902509
        0.8971859 -0.00835429 0.6902927 0.9075287 -0.00835497 0.69034016
        0.9188994 -0.008355696 0.6903932 0.9312829 -0.00835647 0.6904517
        0.9446315 -0.008357289 0.6905153 0.958862 -0.008358152 0.69058347
        0.9738549 -0.0083590485 0.69065547 0.989456 -0.0083599705 0.69073045
        1.0054815 -0.008360906 0.69080716 1.0217258 -0.00836184 0.6908845
        0.8265571 -0.0073179863 0.6900233 0.82705975 -0.0073170518 0.6900253
        0.8276505 -0.007316224 0.6900277 0.8283444 -0.007315522 0.69003046
        0.82915896 -0.007314955 0.6900337 0.83011466 -0.0073145237 0.6900374
        0.83123493 -0.0073142233 0.6900417 0.83254707 -0.007314048 0.6900466
        0.83408225 -0.00731399 0.6900522 0.8358761 -0.0073140427 0.69005865
        0.83796906 -0.007314199 0.69006604 0.84040684 -0.0073144515 0.69007444
        0.8432405 -0.0073147938 0.69008416 0.84652656 -0.0073152175 0.6900954
        0.85032684 -0.0073157134 0.69010895 0.85470796 -0.0073162704 0.6901251
        0.8597403 -0.0073168757 0.6901444 0.86549675 -0.0073175137 0.6901673
        0.8720498 -0.007318174 0.6901943 0.8794694 -0.007318847 0.6902259
        0.88781846 -0.00731953 0.69026244 0.89714843 -0.0073202234 0.69030434
        0.90749425 -0.0073209307 0.6903518 0.91886836 -0.007321656 0.69040483
        0.9312555 -0.007322404 0.6904633 0.94460815 -0.007323175 0.69052696
        0.95884293 -0.007323969 0.69059515 0.9738404 -0.007324781 0.6906672
        0.98944616 -0.0073256036 0.6907422 1.0054765 -0.0073264274 0.6908189
        1.0217258 -0.007327244 0.6908962 0.82649714 -0.006284679 0.6900332
        0.827 -0.006283518 0.6900353 0.82759106 -0.006282431 0.69003767
        0.82828534 -0.006281454 0.69004047 0.8291004 -0.0062806145 0.6900436
        0.83005655 -0.006279932 0.6900474 0.8311774 -0.006279417 0.6900516
        0.83249015 -0.006279071 0.69005656 0.834026 -0.0062788925 0.6900622
        0.8358205 -0.006278875 0.69006866 0.8379143 -0.0062790103 0.69007605
        0.8403529 -0.006279289 0.6900844 0.84318745 -0.0062796976 0.6900941
        0.8464745 -0.006280223 0.69010544 0.85027593 -0.0062808464 0.69011897
        0.8546583 -0.006281548 0.6901351 0.85969216 -0.006282302 0.69015443
        0.86545014 -0.006283086 0.6901773 0.8720051 -0.006283876 0.6902043
        0.8794268 -0.006284658 0.6902359 0.8877782 -0.0062854225 0.69027245
        0.897111 -0.006286167 0.69031435 0.9074598 -0.0062868963 0.6903618
        0.9188373 -0.0062876167 0.69041485 0.93122816 -0.0062883343 0.6904734
        0.9445847 -0.006289054 0.690537 0.95882386 -0.0062897764 0.6906052
        0.9738259 -0.006290501 0.6906773 0.9894364 -0.006291222 0.69075227
        1.0054716 -0.0062919343 0.6908291 1.0217258 -0.0062926314 0.6909064
        0.82643723 -0.005251358 0.6900416 0.8269403 -0.0052500293 0.6900436
        0.8275316 -0.0052487473 0.6900461 0.82822615 -0.0052475524 0.6900489
        0.82904154 -0.005246483 0.6900521 0.8299982 -0.0052455734 0.6900558
        0.8311196 -0.0052448483 0.6900601 0.832433 -0.0052443244 0.690065
        0.8339694 -0.0052440083 0.6900707 0.8357647 -0.005243899 0.6900771
        0.8378593 -0.00524399 0.69008446 0.8402987 -0.005244271 0.6900929
        0.8431342 -0.005244725 0.69010264 0.8464224 -0.005245331 0.6901139
        0.8502249 -0.0052460646 0.69012743 0.8546086 -0.005246894 0.6901436
        0.8596439 -0.0052477852 0.6901629 0.86540353 -0.005248702 0.6901858
        0.87196034 -0.005249613 0.6902128 0.87938416 -0.005250494 0.6902444
        0.887738 -0.0052513317 0.6902809 0.89707345 -0.005252122 0.6903228
        0.90742534 -0.005252868 0.69037026 0.9188062 -0.0052535785 0.6904233
        0.93120074 -0.0052542626 0.69048184 0.94456136 -0.0052549266 0.6905455
        0.9588048 -0.0052555753 0.69061375 0.9738113 -0.00525621 0.69068587
        0.98942655 -0.0052568284 0.6907609 1.0054666 -0.005257427 0.6908377
        1.0217258 -0.0052580046 0.69091505 0.8263773 -0.004218026 0.69004846
        0.8268805 -0.0042165667 0.69005054 0.82747203 -0.00421513 0.6900529
        0.8281669 -0.004213759 0.69005567 0.82898265 -0.0042124977 0.6900589
        0.8299397 -0.004211389 0.69006264 0.83106166 -0.0042104707 0.69006693
        0.8323756 -0.004209772 0.6900719 0.83391273 -0.004209311 0.69007754
        0.8357087 -0.004209096 0.690084 0.837804 -0.004209126 0.6900914
        0.8402444 -0.0042093894 0.6900998 0.8430809 -0.0042098686 0.6901095
        0.84637004 -0.0042105387 0.6901209 0.8501738 -0.0042113652 0.69013435
        0.85455877 -0.0042123087 0.6901505 0.85959554 -0.0042133234 0.69016975
        0.86535686 -0.004214362 0.69019264 0.8719155 -0.004215383 0.69021964
        0.8793414 -0.0042163553 0.69025123 0.8876977 -0.004217259 0.6902878
        0.89703584 -0.004218088 0.69032973 0.9073908 -0.0042188456 0.69037724
        0.918775 -0.0042195423 0.6904303 0.9311733 -0.004220188 0.6904889
        0.944538 -0.004220794 0.69055253 0.9587857 -0.0042213667 0.6906208
        0.9737967 -0.0042219097 0.6906929 0.9894168 -0.0042224242 0.69076794
        1.0054617 -0.004222909 0.69084483 1.0217258 -0.0042233667 0.6909222
        0.8263173 -0.0031846857 0.69005376 0.82682073 -0.0031831202 0.69005585
        0.8274124 -0.0031815586 0.69005823 0.8281076 -0.0031800428 0.69006103
        0.8289237 -0.00317862 0.69006425 0.82988113 -0.003177339 0.69006795
        0.83100355 -0.0031762463 0.69007224 0.832318 -0.0031753825 0.6900772
        0.8338558 -0.0031747774 0.69008285 0.83565253 -0.00317445 0.6900893
        0.83774865 -0.003174405 0.69009674 0.84018993 -0.0031746367 0.69010514
        0.84302735 -0.003175126 0.69011486 0.8463176 -0.003175843 0.6901262
        0.8501226 -0.003176748 0.69013965 0.8545089 -0.0031777914 0.6901558
        0.8595471 -0.0031789166 0.6901751 0.8653101 -0.003180066 0.690198
        0.8718706 -0.0031811877 0.690225 0.8792987 -0.0031822422 0.6902566
        0.88765734 -0.0031832044 0.6902932 0.8969982 -0.0031840662 0.69033515
        0.90735626 -0.0031848303 0.6903826 0.91874385 -0.0031855083 0.6904357
        0.93114585 -0.0031861132 0.69049424 0.9445145 -0.0031866583 0.69055796
        0.9587666 -0.0031871523 0.6906262 0.9737822 -0.0031876024 0.6906984
        0.98940694 -0.0031880117 0.6907734 1.0054567 -0.003188382 0.6908503
        1.0217258 -0.003188719 0.6909277 0.82625735 -0.0021513386 0.6900575
        0.82676095 -0.0021496855 0.6900596 0.8273529 -0.0021480203 0.690062
        0.8280482 -0.0021463842 0.6900648 0.82886463 -0.0021448252 0.690068
        0.8298225 -0.0021433947 0.6900717 0.8309453 -0.0021421467 0.690076
        0.8322604 -0.0021411304 0.69008094 0.83379877 -0.0021403867 0.6900866
        0.8355962 -0.0021399448 0.6900931 0.83769315 -0.002139819 0.6901005
        0.8401353 -0.0021400072 0.6901089 0.8429737 -0.002140493 0.6901187
        0.8462651 -0.0021412438 0.69013 0.8500712 -0.0021422133 0.69014347
        0.85445887 -0.0021433432 0.6901596 0.85949856 -0.0021445667 0.69017893
        0.86526316 -0.0021458154 0.6902018 0.87182564 -0.0021470278 0.6902288
        0.87925583 -0.0021481558 0.6902604 0.88761693 -0.0021491696 0.690297
        0.89696056 -0.0021500576 0.69033897 0.90732163 -0.002150823 0.6903865
        0.9187127 -0.0021514778 0.6904396 0.93111837 -0.0021520385 0.6904982
        0.9444911 -0.0021525198 0.69056183 0.95874745 -0.002152934 0.69063014
        0.97376764 -0.0021532895 0.69070226 0.9893971 -0.0021535922 0.69077736
        1.0054518 -0.0021538471 0.69085425 1.0217258 -0.002154064 0.6909317
        0.8261974 -0.0011179877 0.6900597 0.82670116 -0.0011162611 0.69006175
        0.8272933 -0.0011145088 0.6900642 0.82798886 -0.001112771 0.69006693
        0.82880557 -0.0011110954 0.6900702 0.82976377 -0.0011095362 0.6900739
        0.8308871 -0.0011081508 0.6900782 0.8322026 -0.0011069959 0.69008315
        0.8337416 -0.001106122 0.69008887 0.83553976 -0.001105568 0.6900953
        0.8376375 -0.0011053573 0.6901027 0.84008056 -0.0011054948 0.69011116
        0.84291995 -0.0011059664 0.6901209 0.8462124 -0.0011067387 0.69013226
        0.8500197 -0.0011077602 0.69014573 0.8544087 -0.0011089644 0.6901619
        0.8594499 -0.0011102746 0.6901812 0.86521626 -0.0011116121 0.6902041
        0.8717806 -0.0011129053 0.6902311 0.879213 -0.0011140984 0.6902627
        0.8875765 -0.001115156 0.6902993 0.8969229 -0.001116064 0.69034123
        0.907287 -0.0011168253 0.69038874 0.91868144 -0.0011174533 0.69044185
        0.9310909 -0.0011179663 0.69050044 0.9444676 -0.0011183813 0.69056416
        0.9587283 -0.0011187132 0.6906325 0.97375304 -0.0011189729 0.6907047
        0.9893873 -0.0011191686 0.6907798 1.0054468 -0.0011193079 0.6908567
        1.0217258 -0.0011194044 0.6909342 0.8261374 -8.46349e-05 0.6900604
        0.8266414 -8.2845996e-05 0.6900624 0.8272337 -8.101984e-05 0.69006485
        0.8279295 -7.919544e-05 0.69006765 0.8287465 -7.7420234e-05 0.69007087
        0.82970506 -7.57493e-05 0.6900746 0.8308287 -7.424315e-05 0.6900789
        0.8321448 -7.296381e-05 0.69008386 0.8336844 -7.1969414e-05 0.6900895
        0.8354832 -7.1308095e-05 0.690096 0.83758175 -7.101222e-05 0.6901034
        0.84002566 -7.109414e-05 0.6901119 0.84286606 -7.154362e-05 0.6901216
        0.8461596 -7.2327224e-05 0.690133 0.84996814 -7.338947e-05 0.69014645
        0.8543585 -7.465642e-05 0.6901626 0.8594012 -7.604205e-05 0.6901819
        0.8651692 -7.745752e-05 0.6902048 0.87173545 -7.882176e-05 0.6902318
        0.87917 -8.0071135e-05 0.6902634 0.887536 -8.116515e-05 0.6903
        0.89688516 -8.208698e-05 0.69034195 0.9072524 -8.283909e-05 0.69038945
        0.9186502 -8.343614e-05 0.6904426 0.93106335 -8.3897954e-05 0.6905012
        0.9444442 -8.424428e-05 0.690565 0.9587092 -8.449208e-05 0.6906333
        0.97373843 -8.4654705e-05 0.69070554 0.98937744 -8.474269e-05 0.69078064
        1.0054419 -8.476623e-05 0.6908576 1.0217258 -8.474218e-05 0.6909351
        0.8260775 0.0009487173 0.6900595 0.8265816 0.00095055945 0.6900615
        0.82717407 0.0009524487 0.69006395 0.82787013 0.00095434714 0.69006675
        0.8286874 0.0009562079 0.69007 0.8296463 0.0009579756 0.6900737
        0.8307704 0.0009595877 0.690078 0.83208686 0.00096097804 0.69008297
        0.8336271 0.0009620824 0.6900887 0.83542657 0.0009628445 0.6900951
        0.83752584 0.0009632235 0.6901026 0.83997065 0.0009631996 0.69011104
        0.84281206 0.0009627781 0.69012076 0.8461067 0.0009619916 0.69013214
        0.84991646 0.0009608986 0.6901456 0.8543081 0.0009595796 0.69016176
        0.8593524 0.0009581294 0.690181 0.8651221 0.00095664634 0.6902039
        0.8716903 0.0009552208 0.6902309 0.879127 0.00095392374 0.69026256
        0.88749546 0.0009528009 0.69029915 0.89684737 0.00095187157 0.6903411
        0.9072177 0.0009511338 0.6903887 0.9186189 0.0009505719 0.6904418
        0.9310358 0.0009501643 0.69050044 0.9444207 0.00094988913 0.6905642
        0.95869 0.0009497272 0.6906326 0.9737238 0.0009496628 0.6907048
        0.98936754 0.0009496833 0.69078 1.0054369 0.00094977586 0.69085693
        1.0217258 0.0009499202 0.6909344 0.82601756 0.0019820665 0.69005704
        0.82652175 0.0019839543 0.6900591 0.82711446 0.0019858978 0.6900615
        0.82781076 0.0019878598 0.69006425 0.8286283 0.0019897942 0.6900675
        0.82958746 0.0019916457 0.6900713 0.83071196 0.0019933502 0.6900756
        0.832029 0.0019948387 0.6900805 0.8335697 0.0019960424 0.69008625
        0.8353698 0.0019968976 0.69009274 0.83746994 0.0019973563 0.69010013
        0.8399156 0.0019973905 0.6901086 0.84275794 0.001997001 0.6901184
        0.84605366 0.0019962182 0.6901297 0.84986466 0.0019951034 0.69014317
        0.8542577 0.0019937423 0.6901593 0.8593035 0.001992238 0.69017863
        0.86507493 0.0019906976 0.6902015 0.87164503 0.0019892205 0.6902285
        0.87908393 0.0019878843 0.6902601 0.88745487 0.0019867402 0.69029677
        0.8968095 0.0019858098 0.6903388 0.90718293 0.0019850913 0.6903863
        0.9185876 0.0019845688 0.69043946 0.9310083 0.0019842188 0.6904981
        0.94439715 0.0019840172 0.6905619 0.9586708 0.0019839427 0.6906303
        0.9737092 0.0019839779 0.69070256 0.9893577 0.0019841073 0.6907777
        1.005432 0.001984316 0.6908547 1.0217258 0.0019845804 0.6909322
        0.8259576 0.0030154106 0.69005305 0.826462 0.0030173378 0.69005513
        0.82705486 0.0030193273 0.6900575 0.82775134 0.0030213438 0.6900603
        0.8285692 0.0030233418 0.69006354 0.8295287 0.0030252652 0.6900673
        0.83065355 0.0030270503 0.69007164 0.831971 0.0030286256 0.69007653
        0.8335123 0.0030299176 0.69008225 0.8353131 0.0030308578 0.69008875
        0.83741385 0.0030313907 0.69009614 0.8398604 0.003031482 0.69010466
        0.84270376 0.0030311267 0.6901144 0.84600055 0.0030303535 0.69012576
        0.8498128 0.0030292242 0.69013923 0.8542072 0.0030278303 0.6901554
        0.8592545 0.003026282 0.6901747 0.86502767 0.0030246943 0.6901976
        0.8715997 0.0030231746 0.6902246 0.8790408 0.0030218086 0.6902562
        0.8874142 0.0030206505 0.69029284 0.89677167 0.0030197252 0.6903348
        0.9071482 0.0030190316 0.6903824 0.9185563 0.0030185524 0.6904356
        0.9309807 0.003018263 0.69049424 0.9443736 0.0030181373 0.690558
        0.9586516 0.003018152 0.69062644 0.97369456 0.0030182877 0.69069874
        0.9893479 0.003018527 0.6907739 1.005427 0.0030188519 0.6908509
        1.0217258 0.0030192363 0.69092846 0.82589763 0.0040487475 0.6900475
        0.8264022 0.004050708 0.6900496 0.82699525 0.004052737 0.690052
        0.827692 0.0040548 0.6900548 0.82851005 0.004056852 0.690058
        0.82946986 0.004058838 0.69006175 0.8305951 0.004060692 0.6900661
        0.831913 0.004062343 0.69007105 0.8334548 0.004063713 0.6900767
        0.8352562 0.00406473 0.69008327 0.83735776 0.004065331 0.69009066
        0.8398051 0.004065477 0.6900991 0.84264946 0.004065157 0.6901089
        0.8459474 0.004064397 0.6901202 0.84976083 0.0040632603 0.69013375
        0.8541566 0.004061842 0.69014984 0.8592054 0.0040602586 0.6901692
        0.8649803 0.0040586335 0.6901921 0.8715543 0.0040570814 0.6902191
        0.8789976 0.0040556937 0.6902507 0.8873735 0.0040545296 0.69028735
        0.89673376 0.0040536164 0.6903294 0.9071134 0.004052953 0.69037694
        0.91852486 0.004052521 0.6904301 0.9309531 0.0040522953 0.6904888
        0.94435006 0.004052248 0.6905526 0.9586324 0.0040523536 0.6906211
        0.97367996 0.004052591 0.6906933 0.989338 0.0040529403 0.6907686
        1.005422 0.0040533813 0.6908456 1.0217258 0.0040538856 0.69092315
        0.8258377 0.0050820746 0.6900404 0.8263424 0.005084063 0.6900425
        0.82693565 0.005086126 0.6900449 0.8276326 0.0050882287 0.6900477
        0.82845086 0.0050903265 0.69005096 0.82941103 0.005092365 0.69005466
        0.83053666 0.005094279 0.690059 0.831855 0.005095995 0.69006395
        0.8333973 0.0050974335 0.6900697 0.83519936 0.0050985175 0.6900762
        0.8373016 0.0050991806 0.6900836 0.8397498 0.005099377 0.6900921
        0.8425951 0.005099092 0.69010186 0.8458941 0.0050983485 0.6901132
        0.84970874 0.00509721 0.69012666 0.8541059 0.0050957752 0.6901428
        0.85915625 0.005094167 0.6901621 0.86493284 0.0050925137 0.690185
        0.87150884 0.005090939 0.6902121 0.87895435 0.0050895386 0.69024366
        0.8873327 0.005088376 0.6902803 0.8966958 0.0050874804 0.69032234
        0.9070785 0.005086852 0.69036996 0.9184935 0.0050864723 0.69042313
        0.9309254 0.0050863135 0.69048184 0.9443265 0.0050863465 0.6905457
        0.95861316 0.005086545 0.6906141 0.9736653 0.0050868844 0.69068646
        0.9893281 0.0050873444 0.6907617 1.005417 0.0050879023 0.69083875
        1.0217258 0.0050885254 0.69091636 0.8257777 0.0061153886 0.69003177
        0.82628256 0.006117401 0.69003385 0.826876 0.006119493 0.69003624
        0.8275732 0.006121628 0.69003904 0.82839173 0.006123765 0.69004226
        0.8293522 0.0061258487 0.690046 0.8304782 0.006127813 0.69005036
        0.83179694 0.006129584 0.6900553 0.83333975 0.00613108 0.69006103
        0.83514243 0.006132223 0.6900676 0.8372454 0.006132941 0.690075
        0.83969444 0.006133184 0.69008344 0.8425406 0.006132933 0.6900933
        0.8458407 0.006132208 0.6901046 0.8496566 0.0061310735 0.6901181
        0.8540551 0.006129629 0.6901342 0.85910696 0.006128004 0.69015354
        0.86488533 0.0061263326 0.6901764 0.8714633 0.006124744 0.6902034
        0.878911 0.0061233398 0.6902351 0.8872919 0.0061221863 0.69027174
        0.89665776 0.0061213155 0.69031376 0.90704364 0.0061207274 0.6903614
        0.91846204 0.006120403 0.6904146 0.9308978 0.0061203144 0.6904733
        0.9443029 0.006120431 0.69053715 0.9585939 0.006120723 0.69060564
        0.97365063 0.006121166 0.690678 0.98931825 0.0061217374 0.6907532
        1.0054121 0.0061224117 0.6908303 1.0217258 0.0061231535 0.69090796
        0.8257178 0.007148689 0.69002163 0.8262228 0.0071507217 0.69002366
        0.8268164 0.0071528363 0.6900261 0.82751375 0.007154999 0.69002885
        0.8283326 0.007157167 0.6900321 0.8292934 0.007159287 0.6900359
        0.83041966 0.007161293 0.69004023 0.8317389 0.0071631107 0.6900452
        0.83328223 0.0071646567 0.6900509 0.83508545 0.0071658497 0.6900574
        0.83718914 0.007166615 0.6900648 0.83963895 0.0071669 0.6900733
        0.8424861 0.0071666804 0.6900831 0.8457872 0.007165975 0.6900945
        0.8496043 0.007164847 0.69010794 0.8540042 0.007163401 0.6901241
        0.85905766 0.0071617677 0.6901434 0.8648377 0.0071600876 0.6901663
        0.87141764 0.0071584946 0.69019336 0.8788676 0.0071570952 0.69022495
        0.887251 0.0071559595 0.69026166 0.8966197 0.0071551194 0.6903037
        0.9070087 0.007154577 0.69035125 0.91843057 0.0071543134 0.6904045
        0.93087006 0.007154298 0.69046324 0.9442793 0.007154499 0.69052714
        0.95857465 0.0071548875 0.6905956 0.973636 0.007155435 0.690668
        0.98930836 0.0071561174 0.69074327 1.0054071 0.0071569076 0.6908204
        1.0217258 0.0071577686 0.690898 0.82565784 0.008181973 0.6900099
        0.826163 0.00818402 0.6900119 0.8267568 0.008186153 0.6900143
        0.8274544 0.008188338 0.69001716 0.8282735 0.008190532 0.6900204
        0.8292345 0.008192682 0.69002414 0.8303612 0.008194721 0.6900285
        0.8316808 0.008196576 0.69003344 0.83322465 0.008198163 0.69003916
        0.83502847 0.008199397 0.6900457 0.8371328 0.008200202 0.69005316
        0.83958346 0.008200523 0.6900616 0.84243155 0.0082003325 0.6900714
        0.8457337 0.008199648 0.6900828 0.849552 0.008198531 0.69009626
        0.8539532 0.00819709 0.6901124 0.8590082 0.008195456 0.69013166
        0.86479 0.008193777 0.6901546 0.8713719 0.008192189 0.6901816
        0.8788242 0.008190803 0.6902133 0.8872101 0.008189691 0.6902499
        0.8965816 0.008188889 0.690292 0.9069737 0.008188398 0.6903396
        0.9183991 0.008188198 0.69039285 0.93084234 0.00818826 0.6904516
        0.94425565 0.008188549 0.6905155 0.9585554 0.008189035 0.69058406
        0.9736213 0.0081896875 0.6906564 0.98929846 0.008190482 0.69073176
        1.0054021 0.008191388 0.69080883 1.0217258 0.008192368 0.6908865
        0.8255979 0.009215238 0.6899966 0.8261032 0.009217297 0.6899986
        0.8266972 0.009219443 0.6900011 0.82739496 0.009221646 0.6900039
        0.8282143 0.00922386 0.6900071 0.82917565 0.009226032 0.69001085
        0.8303027 0.009228096 0.6900152 0.8316227 0.0092299795 0.69002014
        0.833167 0.009231597 0.6900259 0.8349714 0.009232864 0.6900324
        0.8370765 0.009233702 0.6900399 0.8395279 0.009234054 0.6900484
        0.8423768 0.00923389 0.6900582 0.84568006 0.009233225 0.6900695
        0.8494995 0.009232124 0.690083 0.85390216 0.009230692 0.6900991
        0.85895866 0.009229067 0.69011843 0.8647423 0.009227397 0.6901414
        0.87132615 0.009225825 0.6901684 0.8787806 0.00922446 0.6902001
        0.88716906 0.009223381 0.69023675 0.89654344 0.009222624 0.69027877
        0.90693873 0.00922219 0.6903264 0.91836756 0.009222059 0.6903797
        0.9308146 0.009222199 0.69043845 0.944232 0.009222578 0.69050235
        0.9585361 0.009223162 0.6905709 0.9736066 0.009223922 0.6906433
        0.98928857 0.009224828 0.69071865 1.0053971 0.009225851 0.6907958
        1.0217258 0.009226948 0.69087344 0.8255379 0.01024848 0.6899818
        0.8260434 0.010250548 0.68998384 0.82663757 0.010252705 0.6899862
        0.8273356 0.010254919 0.68998903 0.82815516 0.010257146 0.6899923
        0.82911676 0.010259333 0.68999606 0.8302442 0.010261417 0.69000036
        0.8315646 0.01026332 0.69000536 0.83310944 0.010264961 0.6900111
        0.8349144 0.010266252 0.6900176 0.83702004 0.010267116 0.6900251
        0.83947223 0.010267491 0.69003356 0.8423221 0.01026735 0.69004333
        0.84562635 0.010266706 0.6900547 0.849447 0.010265622 0.69006824
        0.85385096 0.010264207 0.69008434 0.8589091 0.010262598 0.69010365
        0.8646944 0.010260947 0.6901266 0.8712803 0.010259397 0.69015366
        0.87873703 0.010258066 0.69018525 0.88712806 0.010257027 0.69022197
        0.89650524 0.01025632 0.69026405 0.9069037 0.010255948 0.6903117
        0.91833603 0.010255888 0.69036496 0.9307869 0.010256113 0.6904237
        0.9442083 0.010256584 0.6904876 0.9585168 0.010257268 0.6905562
        0.9735919 0.010258135 0.69062865 0.9892786 0.010259154 0.690704
        1.0053921 0.010260293 0.6907812 1.0217258 0.010261508 0.6908589
        0.82547796 0.011281699 0.6899654 0.8259836 0.011283773 0.68996745
        0.82657796 0.011285935 0.6899699 0.8272762 0.011288155 0.68997264
        0.828096 0.01129039 0.6899759 0.82905793 0.011292588 0.6899797
        0.83018565 0.011294682 0.689984 0.8315065 0.011296596 0.68998903
        0.8330518 0.011298251 0.6899947 0.8348573 0.011299558 0.69000125
        0.83696365 0.01130044 0.69000876 0.83941656 0.011300834 0.6900172
        0.84226733 0.011300713 0.69002706 0.8455726 0.011300088 0.6900384
        0.8493944 0.011299025 0.69005185 0.8537997 0.01129763 0.690068
        0.85885936 0.011296046 0.6900873 0.8646465 0.011294423 0.69011027
        0.8712344 0.011292907 0.69013727 0.8786934 0.011291615 0.690169
        0.8870869 0.011290625 0.6902057 0.89646703 0.011289977 0.6902477
        0.90686864 0.011289671 0.6902954 0.91830444 0.01128969 0.6903487
        0.9307591 0.011289999 0.69040745 0.94418466 0.011290564 0.6904714
        0.95849746 0.01129135 0.69054 0.9735772 0.011292326 0.69061244
        0.9892687 0.011293459 0.69068784 1.0053872 0.011294712 0.690765
        1.0217258 0.011296044 0.69084275 0.82541806 0.012314892 0.6899475
        0.8259238 0.012316967 0.6899496 0.8265183 0.012319132 0.68995196
        0.82721674 0.012321353 0.68995476 0.82803684 0.01232359 0.689958
        0.82899904 0.012325791 0.6899618 0.8301271 0.012327888 0.68996614
        0.8314484 0.012329808 0.6899711 0.83299416 0.012331466 0.6899768
        0.8348002 0.012332782 0.68998337 0.83690715 0.0123336725 0.6899908
        0.83936083 0.0123340795 0.68999934 0.84221244 0.012333974 0.6900091
        0.8455187 0.012333369 0.6900205 0.84934175 0.012332329 0.690034
        0.8537484 0.012330962 0.6900501 0.8588096 0.012329409 0.69006944
        0.86459845 0.012327823 0.6900924 0.8711884 0.012326349 0.6901194
        0.87864965 0.012325107 0.6901511 0.8870458 0.012324174 0.6901878
        0.8964287 0.012323589 0.6902299 0.9068335 0.012323356 0.6902775
        0.91827285 0.012323455 0.6903308 0.9307313 0.012323854 0.6903897
        0.94416094 0.012324516 0.69045365 0.95847815 0.012325407 0.6905222
        0.9735625 0.01232649 0.6905947 0.98925877 0.012327736 0.6906701
        1.0053822 0.012329107 0.69074726 1.0217258 0.012330555 0.69082505
        0.8253581 0.013348057 0.68992805 0.825864 0.013350129 0.6899301
        0.8264587 0.013352291 0.68993247 0.8271574 0.013354509 0.68993527
        0.82797766 0.013356744 0.68993855 0.8289402 0.013358939 0.6899423
        0.8300686 0.013361032 0.68994665 0.83139026 0.013362949 0.68995166
        0.83293647 0.013364605 0.6899573 0.8347431 0.013365919 0.68996394
        0.83685064 0.013366813 0.6899714 0.83930504 0.013367226 0.6899799
        0.84215754 0.013367133 0.68998975 0.8454648 0.0133665465 0.6900011
        0.84928894 0.013365531 0.6900146 0.85369694 0.013364199 0.6900307
        0.8587597 0.013362684 0.69005 0.86455035 0.013361145 0.69007295
        0.8711423 0.013359723 0.6901 0.8786059 0.013358538 0.69013166
        0.88700455 0.01335767 0.6901684 0.8963904 0.013357156 0.69021046
        0.90679836 0.013357002 0.69025815 0.9182412 0.013357186 0.6903115
        0.93070346 0.0133576775 0.69037026 0.9441372 0.013358439 0.6904343
        0.95845884 0.013359435 0.6905029 0.97354776 0.013360629 0.69057536
        0.9892489 0.013361988 0.6906508 1.0053772 0.013363475 0.690728
        1.0217258 0.013365039 0.6908058 0.82529813 0.014381192 0.689907
        0.82580423 0.014383257 0.6899091 0.8263991 0.0143854115 0.6899115
        0.82709795 0.0143876225 0.6899143 0.8279185 0.0143898465 0.6899175
        0.8288813 0.014392031 0.6899213 0.83001006 0.014394113 0.6899257
        0.8313321 0.0143960165 0.6899306 0.83287877 0.014397662 0.68993634
        0.8346859 0.014398967 0.68994296 0.8367941 0.0143998545 0.6899504
        0.83924925 0.014400269 0.68995893 0.8421025 0.014400185 0.6899687
        0.8454108 0.014399617 0.68998015 0.84923613 0.014398632 0.68999356
        0.85364544 0.014397337 0.6900097 0.85870975 0.014395871 0.690029
        0.8645022 0.014394386 0.690052 0.87109613 0.014393026 0.69007903
        0.87856203 0.0143919075 0.6901107 0.8869633 0.014391112 0.69014746
        0.896352 0.014390676 0.6901895 0.9067632 0.0143906055 0.6902372
        0.9182095 0.01439088 0.6902905 0.93067557 0.014391467 0.6903494
        0.9441135 0.014392329 0.6904134 0.95843947 0.014393431 0.690482
        0.973533 0.014394737 0.6905545 0.9892389 0.01439621 0.69062996
        1.0053722 0.014397813 0.6907072 1.0217258 0.014399494 0.690785
        0.82523817 0.015414292 0.6898845 0.8257444 0.015416348 0.6898865
        0.8263395 0.015418491 0.68988895 0.8270385 0.015420688 0.6898917
        0.8278594 0.015422897 0.689895 0.82882243 0.015425064 0.6898987
        0.8299515 0.015427126 0.6899031 0.8312739 0.01542901 0.6899081
        0.8328211 0.015430634 0.6899138 0.8346287 0.01543192 0.6899204
        0.8367375 0.0154327955 0.6899279 0.83919334 0.015433205 0.6899364
        0.8420475 0.015433128 0.6899462 0.8453567 0.015432578 0.6899576
        0.84918314 0.015431624 0.689971 0.8535938 0.015430374 0.6899872
        0.8586597 0.015428963 0.6900065 0.8644539 0.015427544 0.69002944
        0.87104994 0.015426253 0.6900565 0.8785181 0.015425212 0.69008815
        0.886922 0.015424497 0.6901249 0.8963136 0.015424145 0.690167
        0.90672797 0.015424165 0.6902147 0.9181778 0.015424532 0.6902681
        0.93064773 0.015425218 0.6903269 0.9440897 0.015426184 0.69039094
        0.9584201 0.015427395 0.6904596 0.97351825 0.015428811 0.69053215
        0.98922896 0.0154304 0.6906076 1.0053672 0.015432118 0.69068485
        1.0217258 0.015433914 0.6907627 0.8251782 0.016447358 0.68986034
        0.8256846 0.0164494 0.68986243 0.8262798 0.016451526 0.6898648
        0.82697916 0.016453704 0.6898676 0.8278002 0.01645589 0.6898709
        0.8287636 0.016458033 0.68987465 0.829893 0.016460067 0.689879
        0.83121574 0.01646192 0.689884 0.8327633 0.016463516 0.6898897
        0.8345715 0.016464775 0.6898963 0.8366809 0.01646563 0.6899038
        0.83913743 0.01646603 0.6899124 0.8419924 0.016465954 0.68992215
        0.8453026 0.016465424 0.68993354 0.84913015 0.016464507 0.689947
        0.85354215 0.016463306 0.68996316 0.85860956 0.016461961 0.6899825
        0.8644056 0.016460614 0.69000536 0.8710036 0.016459404 0.6900324
        0.8784741 0.016458448 0.69006413 0.88688064 0.016457822 0.69010085
        0.8962751 0.016457563 0.690143 0.9066927 0.016457677 0.6901907
        0.9181461 0.016458143 0.6902441 0.93061984 0.01645893 0.6903029
        0.9440659 0.016460003 0.6903669 0.95840067 0.016461322 0.69043565
        0.9735035 0.016462853 0.6905082 0.989219 0.016464556 0.69058365
        1.0053622 0.01646639 0.69066095 1.0217258 0.016468301 0.6907388
        0.82511824 0.017480386 0.6898347 0.8256248 0.017482411 0.68983674
        0.8262202 0.017484514 0.6898392 0.82691973 0.017486667 0.6898419
        0.827741 0.017488824 0.6898452 0.8287047 0.017490933 0.689849
        0.8298344 0.01749293 0.68985337 0.83115757 0.017494746 0.6898584
        0.83270556 0.017496303 0.6898641 0.8345142 0.017497528 0.68987066
        0.8366242 0.017498355 0.68987817 0.8390814 0.01749874 0.68988675
        0.8419372 0.017498666 0.6898965 0.8452483 0.017498154 0.6899079
        0.84907705 0.017497275 0.6899214 0.85349035 0.017496133 0.68993753
        0.8585593 0.01749486 0.68995684 0.8643571 0.017493594 0.6899798
        0.87095726 0.017492477 0.6900068 0.87843 0.017491614 0.6900385
        0.88683915 0.017491085 0.6900753 0.8962366 0.017490925 0.69011736
        0.9066574 0.017491138 0.6901651 0.9181143 0.017491708 0.6902185
        0.9305919 0.017492602 0.6902774 0.94404215 0.017493783 0.6903414
        0.9583813 0.017495213 0.69041014 0.97348875 0.017496858 0.6904827
        0.98920906 0.017498676 0.6905582 1.0053571 0.017500626 0.6906355
        1.0217258 0.01750265 0.69071335 0.82505834 0.018513374 0.6898075
        0.82556504 0.018515375 0.68980956 0.8261606 0.018517451 0.68981194
        0.8268603 0.018519571 0.68981475 0.82768184 0.01852169 0.689818
        0.82864577 0.01852376 0.6898218 0.8297758 0.01852571 0.68982613
        0.8310994 0.018527478 0.68983114 0.8326478 0.018528987 0.6898369
        0.8344569 0.018530168 0.68984354 0.83656746 0.018530963 0.689851
        0.8390253 0.018531328 0.68985957 0.8418819 0.018531252 0.68986934
        0.845194 0.018530764 0.6898808 0.8490238 0.018529927 0.68989426
        0.8534385 0.018528849 0.6899104 0.85850894 0.018527655 0.6899297
        0.8643086 0.018526485 0.6899526 0.87091076 0.018525466 0.6899797
        0.8783859 0.018524708 0.6900114 0.88679767 0.018524284 0.6900481
        0.896198 0.01852423 0.69009024 0.90662205 0.01852455 0.690138
        0.9180825 0.018525224 0.6901914 0.9305639 0.018526226 0.6902503
        0.9440183 0.018527519 0.69031435 0.95836186 0.018529063 0.6903831
        0.9734739 0.018530823 0.6904556 0.9891991 0.018532759 0.69053113
        1.0053521 0.018534824 0.6906085 1.0217258 0.018536963 0.69068635
        0.8249984 0.01954632 0.68977875 0.8255052 0.019548291 0.68978083
        0.826101 0.019550335 0.6897832 0.8268009 0.019552415 0.689786
        0.8276227 0.01955449 0.6897893 0.8285869 0.019556507 0.68979305
        0.8297172 0.019558402 0.6897974 0.83104116 0.019560112 0.68980247
        0.8325899 0.019561563 0.6898082 0.8343996 0.019562691 0.6898148
        0.83651066 0.019563446 0.6898223 0.83896923 0.019563787 0.68983084
        0.84182656 0.01956371 0.6898407 0.84513956 0.019563245 0.68985206
        0.84897053 0.019562457 0.6898656 0.8533865 0.01956145 0.6898817
        0.8584585 0.019560348 0.689901 0.86425996 0.019559281 0.68992394
        0.8708642 0.019558372 0.689951 0.87834173 0.019557728 0.68998265
        0.8867561 0.019557416 0.6900194 0.89615935 0.019557474 0.69006157
        0.90658665 0.019557904 0.6901093 0.91805065 0.01955869 0.6901627
        0.9305359 0.019559804 0.6902216 0.94399446 0.01956121 0.69028574
        0.95834243 0.019562872 0.6903544 0.9734591 0.019564746 0.690427
        0.98918915 0.019566797 0.6905026 1.0053471 0.019568978 0.69057995
        1.0217258 0.019571232 0.69065785 0.8249384 0.020579223 0.68974847
        0.8254454 0.020581158 0.6897505 0.82604134 0.02058316 0.68975294
        0.82674146 0.020585192 0.68975574 0.8275635 0.020587213 0.689759
        0.8285279 0.020589167 0.6897628 0.8296586 0.020590996 0.6897672
        0.83098286 0.020592635 0.6897721 0.8325321 0.020594021 0.689778
        0.8343422 0.02059509 0.6897845 0.8364538 0.020595795 0.6897921
        0.83891296 0.02059611 0.6898006 0.84177107 0.020596033 0.68981045
        0.845085 0.020595593 0.68982184 0.8489171 0.020594861 0.6898353
        0.8533344 0.020593936 0.6898514 0.85840803 0.020592934 0.6898707
        0.86421126 0.02059198 0.68989366 0.8708176 0.02059119 0.6899207
        0.87829745 0.020590669 0.68995243 0.88671446 0.020590477 0.6899892
        0.8961207 0.020590656 0.6900313 0.90655124 0.020591203 0.6900791
        0.91801876 0.020592105 0.6901325 0.9305079 0.020593334 0.69019145
        0.9439706 0.020594858 0.6902555 0.958323 0.020596633 0.69032425
        0.97344434 0.020598626 0.6903969 0.98917913 0.020600792 0.6904725
        1.005342 0.020603089 0.69054985 1.0217258 0.020605456 0.69062775
        0.82487845 0.021612076 0.68971664 0.82538563 0.02161397 0.68971866
        0.82598174 0.02161592 0.6897211 0.82668203 0.021617899 0.6897239
        0.8275043 0.021619853 0.6897272 0.82846904 0.021621734 0.68973094
        0.8296 0.021623485 0.6897353 0.8309246 0.021625046 0.68974036
        0.8324742 0.021626348 0.68974614 0.83428466 0.02162735 0.68975276
        0.8363969 0.021628004 0.6897602 0.8388567 0.02162829 0.6897688
        0.8417156 0.021628212 0.6897787 0.8450304 0.021627806 0.68979007
        0.8488636 0.021627137 0.68980354 0.8532823 0.0216263 0.68981963
        0.8583574 0.021625405 0.68983895 0.8641625 0.021624574 0.6898619
        0.8707709 0.021623919 0.68988895 0.87825316 0.02162353 0.68992066
        0.88667285 0.021623466 0.68995744 0.896082 0.02162377 0.6899995
        0.90651584 0.021624444 0.6900473 0.91798687 0.021625465 0.6901007
        0.9304799 0.021626813 0.6901597 0.9439467 0.021628452 0.6902238
        0.9583035 0.021630347 0.69029254 0.9734295 0.021632459 0.6903652
        0.9891692 0.021634743 0.6904408 1.005337 0.021637155 0.6905182
        1.0217258 0.021639634 0.69059616 0.8248185 0.02264488 0.68968326
        0.8253258 0.022646725 0.6896853 0.8259221 0.022648618 0.6896877
        0.8266226 0.022650527 0.68969053 0.8274451 0.022652404 0.68969375
        0.8284101 0.022654198 0.68969756 0.8295413 0.022655858 0.689702
        0.8308662 0.022657324 0.689707 0.8324162 0.022658544 0.68971276
        0.83422714 0.022659462 0.6897194 0.83633983 0.022660062 0.68972695
        0.83880025 0.022660319 0.68973553 0.8416599 0.022660246 0.6897453
        0.8449757 0.022659877 0.68975675 0.84881 0.022659276 0.6897702
        0.85323 0.02265854 0.6897863 0.8583067 0.022657765 0.6898056
        0.8641136 0.022657072 0.6898286 0.87072414 0.022656552 0.68985564
        0.87820876 0.022656305 0.6898873 0.8866311 0.022656381 0.68992406
        0.89604324 0.02265682 0.68996626 0.9064803 0.022657618 0.690014
        0.917955 0.022658763 0.6900674 0.93045187 0.022660235 0.69012636
        0.9439229 0.022661995 0.69019055 0.9582841 0.02266401 0.69025934
        0.9734147 0.02266624 0.69033194 0.98915917 0.022668643 0.6904076
        1.005332 0.02267117 0.690485 1.0217258 0.022673763 0.69056296
        0.8247585 0.023677638 0.68964833 0.825266 0.023679417 0.68965036
        0.82586247 0.023681242 0.6896528 0.8265632 0.023683066 0.6896556
        0.82738584 0.023684852 0.6896589 0.8283511 0.023686549 0.6896627
        0.8294826 0.0236881 0.68966705 0.8308078 0.02368946 0.68967205
        0.8323581 0.02369058 0.6896779 0.8341695 0.02369142 0.6896845
        0.83628273 0.02369196 0.689692 0.83874375 0.02369219 0.68970066
        0.8416041 0.023692122 0.68971044 0.8449209 0.023691798 0.6897219
        0.84875625 0.023691276 0.68973535 0.8531776 0.023690648 0.68975145
        0.8582559 0.02369001 0.68977076 0.86406463 0.023689458 0.68979365
        0.8706773 0.023689091 0.6898207 0.8781643 0.023688996 0.6898524
        0.8865893 0.023689222 0.6898892 0.89600444 0.023689797 0.6899314
        0.9064448 0.023690728 0.68997914 0.91792303 0.023692004 0.6900326
        0.93042374 0.023693599 0.69009155 0.9438989 0.023695486 0.6901557
        0.9582646 0.023697622 0.6902245 0.9733999 0.02369997 0.6902972
        0.98914915 0.023702493 0.6903728 1.005327 0.02370514 0.69045025
        1.0217258 0.023707848 0.6905282 0.8246986 0.024710335 0.6896118
        0.8252062 0.024712045 0.6896139 0.8258028 0.024713784 0.6896163
        0.8265037 0.024715513 0.6896191 0.8273266 0.02471719 0.6896224
        0.8282921 0.024718767 0.6896262 0.82942384 0.0247202 0.6896306
        0.83074933 0.02472144 0.68963563 0.8323 0.02472245 0.6896414
        0.8341118 0.024723204 0.6896481 0.83622545 0.024723683 0.68965566
        0.8386871 0.02472389 0.68966424 0.84154826 0.024723835 0.6896741
        0.8448659 0.024723563 0.68968546 0.84870243 0.024723135 0.68969893
        0.8531251 0.024722626 0.689715 0.858205 0.024722131 0.68973434
        0.8640156 0.024721738 0.6897572 0.8706303 0.024721533 0.6897843
        0.87811977 0.024721596 0.689816 0.8865475 0.024721976 0.6898528
        0.8959656 0.0247227 0.689895 0.9064092 0.02472377 0.6899427
        0.917891 0.024725182 0.6899962 0.93039566 0.024726905 0.69005513
        0.943875 0.024728915 0.6901193 0.95824504 0.024731176 0.69018817
        0.97338504 0.024733648 0.6902608 0.98913914 0.02473629 0.69033647
        1.005322 0.024739051 0.69041395 1.0217258 0.024741871 0.6904919
        0.82463866 0.02574298 0.68957376 0.8251464 0.0257446 0.68957585
        0.8257432 0.02574624 0.6895783 0.82644427 0.02574785 0.6895811
        0.82726735 0.025749402 0.6895844 0.828233 0.025750844 0.6895882
        0.829365 0.025752133 0.6895926 0.8306908 0.025753241 0.68959767
        0.8322418 0.025754135 0.68960345 0.83405393 0.025754794 0.6896101
        0.8361681 0.025755217 0.6896177 0.8386304 0.025755404 0.6896263
        0.84149224 0.025755376 0.6896361 0.8448108 0.025755169 0.68964756
        0.8486485 0.025754841 0.689661 0.8530725 0.025754469 0.68967706
        0.858154 0.025754126 0.6896964 0.86396646 0.0257539 0.68971926
        0.87058336 0.025753872 0.6897463 0.8780752 0.025754107 0.68977803
        0.8865056 0.025754647 0.6898148 0.89592665 0.025755525 0.689857
        0.9063736 0.025756743 0.68990475 0.917859 0.02575829 0.6899582
        0.9303675 0.02576015 0.6900172 0.94385105 0.025762288 0.6900814
        0.95822555 0.025764674 0.6901502 0.97337013 0.02576727 0.6902229
        0.9891292 0.025770033 0.6902986 1.0053169 0.02577291 0.6903761
        1.0217258 0.025775844 0.6904541 0.8245787 0.026775565 0.6895342
        0.8250866 0.02677708 0.6895363 0.8256835 0.026778594 0.6895387
        0.8263847 0.026780067 0.6895415 0.827208 0.026781464 0.68954486
        0.8281738 0.026782747 0.6895487 0.82930607 0.026783882 0.6895531
        0.8306321 0.026784843 0.68955815 0.83218336 0.026785612 0.689564
        0.83399594 0.026786182 0.6895706 0.8361106 0.02678655 0.6895782
        0.83857346 0.026786728 0.6895868 0.8414361 0.026786733 0.68959665
        0.8447556 0.026786605 0.6896081 0.8485944 0.026786393 0.6896215
        0.8530198 0.026786167 0.6896376 0.8581029 0.026785994 0.68965685
        0.86391723 0.02678595 0.6896798 0.87053627 0.026786104 0.68970686
        0.8780305 0.02678652 0.6897385 0.88646364 0.026787234 0.6897753
        0.89588773 0.026788272 0.6898175 0.906338 0.026789641 0.6898653
        0.91782695 0.02679133 0.68991876 0.9303394 0.026793323 0.68997777
        0.9438271 0.026795596 0.69004196 0.958206 0.026798109 0.6901108
        0.9733553 0.026800832 0.6901835 0.9891191 0.026803715 0.6902592
        1.0053118 0.02680671 0.6903367 1.0217258 0.026809756 0.6904147
        0.82451874 0.027808089 0.6894931 0.82502675 0.02780947 0.68949515
        0.8256238 0.02781083 0.6894976 0.8263252 0.027812138 0.68950045
        0.82714856 0.027813353 0.6895037 0.8281146 0.027814452 0.6895076
        0.829247 0.02781541 0.689512 0.83057326 0.027816216 0.6895171
        0.8321248 0.02781686 0.6895229 0.83393776 0.027817342 0.6895296
        0.8360529 0.027817667 0.68953717 0.8385164 0.027817847 0.68954575
        0.8413798 0.027817901 0.68955564 0.8447002 0.027817864 0.689567
        0.8485402 0.027817784 0.6895805 0.85296696 0.027817717 0.68959653
        0.8580517 0.027817726 0.68961585 0.86386794 0.02781788 0.68963873
        0.8704891 0.027818229 0.6896658 0.8779858 0.027818834 0.68969744
        0.8864216 0.027819727 0.6897342 0.89584875 0.027820935 0.6897764
        0.9063023 0.027822463 0.6898242 0.9177949 0.0278243 0.6898777
        0.9303112 0.027826432 0.6899367 0.9438031 0.02782884 0.69000095
        0.95818645 0.027831482 0.6900698 0.9733404 0.027834332 0.6901426
        0.9891091 0.027837336 0.69021827 1.0053068 0.027840449 0.69029576
        1.0217258 0.027843611 0.69037384 0.8244588 0.02884055 0.6894504
        0.8249669 0.028841762 0.68945247 0.8255641 0.028842932 0.6894549
        0.8262656 0.028844027 0.6894578 0.8270891 0.028845027 0.6894611
        0.8280552 0.028845917 0.689465 0.82918775 0.028846681 0.6894694
        0.83051425 0.028847326 0.6894745 0.8320661 0.028847847 0.6894803
        0.8338794 0.028848253 0.689487 0.835995 0.028848547 0.68949455
        0.83845913 0.028848745 0.6895032 0.8413233 0.028848868 0.6895131
        0.8446447 0.028848942 0.6895245 0.8484859 0.02884901 0.68953794
        0.85291404 0.028849117 0.689554 0.8580004 0.028849326 0.6895732
        0.8638185 0.028849682 0.6895961 0.87044185 0.028850239 0.6896232
        0.877941 0.028851047 0.6896548 0.8863796 0.02885213 0.68969166
        0.8958097 0.02885351 0.6897338 0.90626657 0.0288552 0.68978167
        0.9177628 0.028857192 0.68983513 0.930283 0.02885947 0.68989414
        0.94377905 0.028862013 0.6899584 0.9581669 0.02886479 0.69002724
        0.9733255 0.028867764 0.6901 0.9890991 0.028870894 0.6901757
        1.0053017 0.028874127 0.69025326 1.0217258 0.0288774 0.69033134
        0.8243988 0.029872945 0.6894062 0.824907 0.029873932 0.6894083
        0.82550424 0.02987485 0.68941075 0.8262058 0.029875685 0.6894136
        0.82702935 0.02987643 0.68941694 0.8279956 0.029877085 0.6894208
        0.8291283 0.029877651 0.6894253 0.83045495 0.029878136 0.68943036
        0.8320071 0.029878547 0.6894362 0.8338208 0.02987889 0.6894429
        0.83593696 0.029879175 0.6894505 0.8384017 0.029879415 0.6894591
        0.8412667 0.029879624 0.689469 0.8445891 0.029879827 0.68948036
        0.8484314 0.029880058 0.6894938 0.852861 0.02988036 0.68950987
        0.857949 0.029880779 0.6895291 0.86376905 0.029881356 0.689552
        0.8703945 0.029882135 0.68957907 0.87789613 0.02988315 0.6896107
        0.88633746 0.029884432 0.6896475 0.8957706 0.029885996 0.6896897
        0.9062308 0.029887855 0.6897375 0.9177306 0.029890003 0.68979096
        0.9302548 0.02989243 0.68985003 0.94375503 0.029895112 0.6899142
        0.9581473 0.029898025 0.6899832 0.97331065 0.02990113 0.69005597
        0.989089 0.029904386 0.6901317 1.0052967 0.029907737 0.69020927
        1.0217258 0.029911125 0.69028735 0.8243389 0.030905273 0.68936044
        0.82484704 0.03090593 0.6893626 0.8254443 0.030906511 0.689365
        0.82614577 0.030907022 0.68936795 0.8269694 0.030907474 0.6893712
        0.8279357 0.03090788 0.6893751 0.82906854 0.030908253 0.6893796
        0.8303954 0.030908596 0.6893847 0.83194786 0.030908918 0.6893906
        0.83376193 0.03090923 0.6893973 0.8358786 0.03090953 0.68940485
        0.83834404 0.030909834 0.6894135 0.8412099 0.030910153 0.6894234
        0.84453326 0.030910507 0.68943477 0.8483768 0.030910926 0.6894482
        0.8528078 0.03091144 0.6894642 0.8578975 0.030912086 0.68948346
        0.86371946 0.030912897 0.68950635 0.87034714 0.030913906 0.68953335
        0.87785125 0.030915141 0.689565 0.8862953 0.03091663 0.68960184
        0.8957315 0.030918384 0.689644 0.906195 0.030920416 0.68969184
        0.9176985 0.030922728 0.6897453 0.93022656 0.03092531 0.6898044
        0.943731 0.030928137 0.6898686 0.95812774 0.030931188 0.68993753
        0.9732957 0.030934425 0.6900103 0.989079 0.03093781 0.69008607
        1.0052916 0.030941281 0.6901637 1.0217258 0.030944783 0.69024175
        0.82427895 0.03193753 0.6893131 0.8247869 0.03193763 0.68931526
        0.8253839 0.031937744 0.68931776 0.8260853 0.03193788 0.6893207
        0.82690895 0.031938035 0.689324 0.8278753 0.031938214 0.6893279
        0.82900834 0.031938422 0.68933237 0.83033544 0.03193866 0.6893375
        0.83188826 0.031938933 0.6893434 0.8337028 0.031939242 0.68935007
        0.8358201 0.031939592 0.6893577 0.8382862 0.031939995 0.68936634
        0.8411529 0.031940453 0.6893762 0.8444773 0.031940978 0.68938756
        0.84832203 0.0319416 0.689401 0.85275453 0.03194234 0.689417
        0.8578459 0.031943236 0.68943626 0.86366975 0.031944294 0.6894591
        0.8702997 0.031945545 0.68948615 0.87780625 0.031947013 0.6895178
        0.8862531 0.031948715 0.6895546 0.89569235 0.03195067 0.6895968
        0.90615916 0.031952888 0.6896446 0.9176663 0.031955365 0.6896981
        0.93019825 0.031958103 0.68975717 0.9437069 0.03196108 0.6898214
        0.9581081 0.031964272 0.6898903 0.9732808 0.031967647 0.68996316
        0.9890689 0.031971157 0.6900389 1.0052866 0.03197475 0.6901165
        1.0217258 0.031978372 0.69019467
        <InformationKey name="L2_NORM_RANGE" location="vtkDataArray" length="2">
          <Value index="0">
            1.0749922618
          </Value>
          <Value index="1">
            1.2334159442
          </Value>
        </InformationKey>
      </DataArray>
    </Points>
  </Piece>
  </StructuredGrid>
</VTKFile>
