<?xml version="1.0"?>
<VTKFile type="StructuredGrid" version="0.1" byte_order="LittleEndian" header_type="UInt32" compressor="vtkZLibDataCompressor">
  <StructuredGrid WholeExtent="0 30 0 40 0 0">
  <Piece Extent="0 30 0 40 0 0">
    <PointData>
      <DataArray type="Float32" Name="orthogonality" format="ascii" RangeMin="0" RangeMax="0.9999909996986389">
        0.9985156 0.9993164 0.99875456 0.9960458 0.99031866 0.97970283
        0.9599661 0.92341477 0.8592806 0.75609344 0.6056883 0.4191809
        0.24680224 0.13502635 0.08071802 0.059392072 0.05225451 0.04979934
        0.048290595 0.04656696 0.044357147 0.041630607 0.03840822 0.034721456
        0.030607399 0.026109975 0.021281429 0.016182987 0.010884511 0.005463072
        0 0.99753416 0.9989732 0.9976674 0.99391097 0.9866301
        0.9732282 0.9487289 0.90561056 0.83512044 0.72886735 0.58136684
        0.40388528 0.2408419 0.13379614 0.080946274 0.059916176 0.05276043
        0.050218355 0.04862172 0.046825677 0.04456033 0.041792773 0.03854096
        0.03483359 0.03070522 0.026197495 0.02136064 0.01625413 0.010946368
        0.0055132117 3.467692e-05 0.99671865 0.99876255 0.9968599 0.99204826
        0.9824025 0.9642447 0.9322445 0.8807437 0.80452836 0.69765997
        0.5555502 0.3883746 0.2349529 0.13272148 0.0813865 0.060668252
        0.05348567 0.0508399 0.049138006 0.047253825 0.04491918 0.04209863
        0.038806967 0.03506992 0.030919356 0.026394526 0.021543538 0.016424058
        0.011102973 0.0056548906 0.00015811455 0.9971636 0.9984918 0.9958984
        0.989528 0.9763753 0.95203567 0.91217357 0.85406274 0.774863
        0.6692473 0.53284067 0.3749448 0.23000807 0.13214408 0.082235985
        0.061800342 0.054557484 0.05177206 0.049931366 0.047929544 0.04550013
        0.042604726 0.039254565 0.035472047 0.031286072 0.026733274 0.021859463
        0.01672032 0.011381067 0.0059149093 0.0003975099 0.99883604 0.9982371
        0.994772 0.98614395 0.9683806 0.9372815 0.89071834 0.82837844
        0.7480521 0.6442459 0.51281655 0.36256 0.22470713 0.13072854
        0.082265556 0.062241852 0.055065393 0.052247472 0.0503567 0.048310608
        0.045847252 0.042927723 0.039561786 0.03577033 0.0315809 0.027028926
        0.022159202 0.017026613 0.01169586 0.0062398766 0.0007318536 0.999991
        0.99788797 0.9926306 0.97947156 0.9541592 0.9148979 0.86281615
        0.7986005 0.7193788 0.6193103 0.4944934 0.35300392 0.2227285
        0.1326199 0.08529661 0.065279014 0.05776874 0.05456531 0.052327443
        0.049991857 0.047293648 0.04418609 0.04067126 0.036763534 0.032485165
        0.02786747 0.022952346 0.017793091 0.012454435 0.007011455 0.0015250458
        0.9999177 0.9972775 0.98927057 0.97083706 0.93900204 0.8941682
        0.8387599 0.77361274 0.695832 0.5998309 0.48196787 0.34931114
        0.22632435 0.13953425 0.09263874 0.071891256 0.06337906 0.05922079
        0.05616293 0.053147685 0.049892005 0.04632777 0.042437837 0.038220268
        0.033683546 0.028847322 0.023743464 0.018416487 0.01292322 0.0073312116
        0.001693579 0.9999409 0.9959235 0.983947 0.960053 0.92254114
        0.87258255 0.8127166 0.7442476 0.6653863 0.57168466 0.4600938
        0.3367157 0.2224189 0.14061765 0.09547567 0.07491564 0.06605373
        0.061437745 0.057957444 0.054587435 0.051041875 0.047242068 0.04316016
        0.038784858 0.03411669 0.02916851 0.02396634 0.018549621 0.012970703
        0.007293004 0.0015671854 0.99990195 0.99246883 0.97583586 0.9458691
        0.9012821 0.84369785 0.7766576 0.70303524 0.6224542 0.53134716
        0.42695022 0.31424403 0.2104345 0.13545166 0.093498446 0.07413191
        0.065643705 0.06112577 0.05767017 0.054312583 0.050780993 0.046997976
        0.04293447 0.038577747 0.033927027 0.028994039 0.023803832 0.018395048
        0.012819365 0.007139603 0.0014075176 0.9987714 0.9869014 0.9649577
        0.92785615 0.87469816 0.80828893 0.73406076 0.65642995 0.5756584
        0.48839924 0.39188224 0.29001242 0.1967977 0.1289747 0.09058439
        0.07267103 0.06471931 0.060409714 0.057061333 0.05378134 0.050316185
        0.04659245 0.042581905 0.03827201 0.03366204 0.028763708 0.02360205
        0.018215688 0.012656308 0.0069867196 0.0012602261 0.9963918 0.9795004
        0.9512168 0.9057407 0.84301853 0.7678857 0.6879108 0.60828084
        0.52900887 0.4465556 0.35806552 0.26655075 0.18339221 0.122542135
        0.08773245 0.07130211 0.06389031 0.059779033 0.056524992 0.053310532
        0.04990131 0.04622787 0.042262588 0.03799294 0.033418093 0.028549628
        0.02341245 0.01804506 0.012499072 0.0068372004 0.0011142191 0.99242216
        0.96962374 0.9337229 0.878326 0.8050542 0.7216641 0.6376258
        0.55791116 0.4816233 0.4048346 0.32459822 0.24318993 0.16978766
        0.11586126 0.08471911 0.06984627 0.063012324 0.059117343 0.055967543
        0.052825127 0.04947649 0.0458567 0.041939106 0.037711445 0.033173
        0.028335385 0.023223521 0.017875917 0.012344196 0.006691068 0.00097281253
        0.98658377 0.9567287 0.9115028 0.8444544 0.7601176 0.66972744
        0.5837603 0.5058949 0.43392155 0.363504 0.291663 0.22009827
        0.1561462 0.10905649 0.08162803 0.06836122 0.06212827 0.058458142
        0.055415682 0.052346487 0.049058765 0.04549249 0.041622147 0.03743587
        0.032933153 0.028125754 0.023038669 0.017710473 0.012192842 0.00654852
        0.0008352963 0.9783412 0.93985015 0.88304687 0.80255383 0.70732903
        0.61197126 0.5265001 0.4523603 0.38589707 0.32246518 0.2591468
        0.19721569 0.14246212 0.102133386 0.0784564 0.06683841 0.0612286
        0.05779297 0.054862414 0.051868964 0.04864364 0.045131687 0.041308932
        0.03716408 0.03269697 0.0279196 0.022857148 0.01754833 0.012044931
        0.0064097736 0.0007021683 0.9668195 0.9174943 0.84621537 0.75075996
        0.64593 0.5484862 0.46615735 0.39753693 0.33764884 0.28172728
        0.22703323 0.17455365 0.12877631 0.09512934 0.07522489 0.06528737
        0.06031808 0.057124794 0.05430995 0.05139433 0.04823256 0.04477548
        0.04100046 0.036896914 0.032465152 0.027717533 0.022679497 0.017389966
        0.01190089 0.0062752203 0.00057379046 0.9504446 0.887188 0.79789823
        0.6868763 0.57529265 0.47948006 0.4030627 0.34163907 0.2892627
        0.24129589 0.19530754 0.15212314 0.11512611 0.088078685 0.071952336
        0.06371634 0.059400525 0.0564559 0.053759992 0.05092399 0.047826737
        0.04442493 0.04069767 0.03663522 0.03223849 0.02752029 0.022506412
        0.017236056 0.011761386 0.006145528 0.0004508383 0.9262831 0.8447381
        0.73367846 0.6085744 0.49514198 0.40540773 0.337666 0.2849506
        0.24087967 0.20122623 0.16399716 0.12996489 0.101567164 0.08102804
        0.068666846 0.06214092 0.058485635 0.055793338 0.053218164 0.05046258
        0.04743003 0.044083286 0.04040331 0.03638134 0.03201899 0.027329607
        0.02233941 0.017087936 0.011627611 0.0060217697 0.00033427813 0.8885468
        0.7828547 0.64761496 0.51388705 0.4058509 0.32708892 0.27060035
        0.22786649 0.19272341 0.16164091 0.13318314 0.10815779 0.088180155
        0.07404143 0.0654098 0.060587198 0.0575916 0.055151116 0.052695792
        0.05001942 0.047050174 0.043756973 0.040122747 0.03613978 0.031810444
        0.027148686 0.022181205 0.01694791 0.011501518 0.0059055975 0.00022548676
        0.8249451 0.6888521 0.53284997 0.4022596 0.30887613 0.2458897
        0.20279452 0.17097507 0.14516151 0.122775346 0.103033856 0.086844444
        0.07509012 0.067214966 0.06224722 0.05910094 0.056752574 0.05455628
        0.05221487 0.049612585 0.04670206 0.04345831 0.03986617 0.035918973
        0.03161984 0.026983315 0.02203657 0.016819887 0.011386267 0.0057995054
        0.0001263391 0.7072205 0.5422938 0.38465628 0.27625793 0.20728856
        0.16396159 0.13563794 0.11518274 0.098800026 0.08504939 0.0738598
        0.06627367 0.06250025 0.06070403 0.05929208 0.057765897 0.05603371
        0.054061204 0.05181812 0.049277086 0.04641443 0.043210883 0.039652955
        0.0357348 0.03146015 0.026844028 0.021913974 0.016710553 0.011286979
        0.005707197 3.9202365e-05 0.4708997 0.32016224 0.20732602 0.14311689
        0.105990514 0.08431299 0.071035326 0.061753534 0.054509927 0.04908598
        0.046129785 0.046818428 0.050712768 0.054745812 0.05672607 0.056723166
        0.055547442 0.053757016 0.0515799 0.049073704 0.046236973 0.043055274
        0.03951615 0.035614092 0.03135302 0.026748093 0.021826943 0.016630188
        0.011211035 0.0056334063 3.3709624e-05 0.042396426 0.026521001 0.016421357
        0.011062883 0.008714747 0.00867835 0.00983453 0.011109159 0.012497338
        0.014991312 0.019922573 0.028569788 0.03983551 0.04944645 0.054639723
        0.056046013 0.055352733 0.05369132 0.051538717 0.04903356 0.046194766
        0.043011602 0.039471798 0.035569493 0.031308245 0.026702894 0.021780781
        0.016582254 0.0111602405 0.0055783824 9.364843e-05 0.4079394 0.2725158
        0.17488705 0.12057701 0.088124596 0.06663901 0.051151894 0.039369833
        0.029349087 0.01890238 0.0060362592 0.010596267 0.029206932 0.04432593
        0.052665494 0.055440854 0.0552103 0.05366762 0.051532734 0.049023185
        0.046177622 0.042988837 0.039444663 0.035538852 0.031274572 0.026666323
        0.021741148 0.016539108 0.011112832 0.0055256668 0.00015207299 0.6692472
        0.50477195 0.35430104 0.2535854 0.18894379 0.14593881 0.115556285
        0.092635855 0.07339175 0.054452136 0.033162948 0.008139404 0.018085295
        0.038841352 0.05038529 0.054573003 0.054847218 0.053461764 0.051377386
        0.048890404 0.04605996 0.04288327 0.039349083 0.03545145 0.031193731
        0.026590573 0.021669116 0.016469479 0.0110442825 0.005456818 0.00022168689
        0.7998165 0.66009766 0.506123 0.38059968 0.29080126 0.22810328
        0.18300761 0.14863922 0.11971336 0.09177015 0.061536707 0.027655734
        0.0065010935 0.03304008 0.04784282 0.053477798 0.054291468 0.053095955
        0.05109029 0.048649132 0.045852695 0.042703353 0.039191492 0.035312057
        0.031069098 0.026477825 0.02156584 0.01637361 0.010953995 0.0053704423
        0.00030465968 0.87014073 0.76023114 0.6245986 0.49390438 0.3886592
        0.31008554 0.25159973 0.20613384 0.16746627 0.13024916 0.09068914
        0.047566887 0.0052283583 0.027169488 0.0452261 0.05230091 0.053659122
        0.052664235 0.05074813 0.04836202 0.04560698 0.042490814 0.03900584
        0.035148174 0.030922798 0.026345683 0.021445062 0.01626189 0.010849382
        0.005271223 0.00039890458 0.91195214 0.82632196 0.71379185 0.59042877
        0.4791949 0.3896071 0.31988263 0.2641936 0.21604411 0.16946892
        0.12029745 0.06760127 0.016879877 0.021396067 0.042654198 0.051130522
        0.053018987 0.05222203 0.050396137 0.048066124 0.04535322 0.0422706
        0.03881258 0.03497655 0.030768495 0.026205229 0.021315672 0.016141323
        0.010735782 0.005163002 0.00050199404 0.93896365 0.87180066 0.78048766
        0.6704378 0.5607456 0.46519437 0.38688922 0.32223687 0.26510584
        0.20921673 0.15019727 0.08760442 0.028318115 0.015817747 0.0401917
        0.05001111 0.052404463 0.051795915 0.05005599 0.047779284 0.04510614
        0.042054888 0.038621806 0.034805547 0.030613124 0.02606221 0.021182422
        0.016015813 0.0106163705 0.0050483043 0.00061200594 0.9575809 0.9044434
        0.8307502 0.7357697 0.63277787 0.5359326 0.45196635 0.3799024
        0.31448448 0.24941926 0.18032989 0.10749644 0.03946091 0.010492249
        0.037872158 0.048962805 0.051829442 0.051396627 0.049736436 0.04750875
        0.044871803 0.041848768 0.03843781 0.034638815 0.030459808 0.02591931
        0.021047639 0.015887389 0.01049293 0.004928706 0.0007275495 0.97102106
        0.92873627 0.86913395 0.78868407 0.6953923 0.6012153 0.51459485
        0.43691128 0.3640818 0.29006293 0.21068205 0.12722641 0.050245725
        0.0054616584 0.035716776 0.04799613 0.051300183 0.051028684 0.049441095
        0.04725754 0.044652756 0.041654408 0.03826245 0.034477964 0.030309957
        0.025777781 0.020912444 0.015757076 0.01036641 0.0048051015 0.00084777694
        0.9809965 0.9473601 0.89894044 0.8314473 0.7491676 0.6607686
        0.57445866 0.4931522 0.41395667 0.33127445 0.24135007 0.14681722
        0.060659032 0.0007327156 0.033720464 0.047101554 0.050807156 0.05068395
        0.049163353 0.047020383 0.044444837 0.04146857 0.038093243 0.034321133
        0.030162232 0.025636734 0.02077634 0.015624723 0.010236981 0.004677966
        0.00097191613 0.98835444 0.9618313 0.92233455 0.8658165 0.7945279
        0.7140113 0.6307773 0.54804856 0.46377173 0.37286428 0.27218434
        0.16610552 0.07055605 0.0035977329 0.031943794 0.046320368 0.050381225
        0.05038663 0.048922528 0.04681274 0.044260405 0.041301064 0.037937943
        0.03417438 0.030021284 0.025499636 0.020641794 0.015491925 0.010105465
        0.004547411 0.0011005282 0.99382746 0.9734109 0.9412605 0.89392644
        0.83300877 0.76177967 0.684236 0.6024895 0.51458293 0.41586658
        0.30401042 0.18562931 0.08027276 0.007770832 0.030197157 0.045500416
        0.04989992 0.050038174 0.04863944 0.046571158 0.044048786 0.041111667
        0.037764844 0.03401303 0.029868282 0.025352579 0.020499097 0.015352654
        0.009969127 0.004413752 0.0012304005 0.996996 0.98180854 0.9559367
        0.9158611 0.86330074 0.80082893 0.7303252 0.65174794 0.56209016
        0.45664468 0.33389974 0.20315336 0.08820744 0.010654787 0.029318176
        0.045292128 0.04988121 0.050054867 0.048649255 0.046565127 0.044026013
        0.04107272 0.037710473 0.03394403 0.029785551 0.025257135 0.020392064
        0.015235191 0.00984232 0.004278456 0.0013723351 0.9972343 0.98536986
        0.96608263 0.9322569 0.88518596 0.82797736 0.76213396 0.68607974
        0.5953304 0.48448834 0.35246563 0.21120153 0.088741586 0.007993961
        0.032657575 0.04841089 0.052556198 0.052279826 0.050477292 0.048057444
        0.045237195 0.042048246 0.038487557 0.03455295 0.030250845 0.025598535
        0.020625224 0.015372193 0.009891979 0.004246446 0.0014822783 0.99381465
        0.98589903 0.9732577 0.9470828 0.90646017 0.85323036 0.7889941
        0.71228796 0.61842227 0.5016279 0.360947 0.21063758 0.0825846
        0.00033482007 0.039822716 0.054577842 0.057728924 0.056581914 0.054045808
        0.05101537 0.04768794 0.04407689 0.040163577 0.035932876 0.031380463
        0.026514664 0.021357084 0.015942391 0.010317156 0.004537554 0.0013202498
        0.98317385 0.9854904 0.97833353 0.9602531 0.92861444 0.8819357
        0.82057506 0.74366426 0.64699674 0.52458173 0.37534988 0.21572828
        0.08157242 0.0028475327 0.043238416 0.05767687 0.06042468 0.058901854
        0.05604042 0.052734915 0.049176693 0.045372676 0.04129866 0.036935072
        0.032274157 0.027321722 0.0220977 0.016635897 0.010982861 0.005195732
        0.00065790693 0.9740503 0.98459363 0.9802633 0.9670732 0.9426411
        0.9035568 0.8476505 0.7730751 0.67566544 0.549195 0.39237824
        0.22381729 0.08358128 0.003210004 0.044166733 0.05864892 0.061326265
        0.05971471 0.056768227 0.053386122 0.049760062 0.045896288 0.041769926
        0.037360895 0.03266115 0.027676398 0.022426603 0.016945722 0.011280519
        0.0054883813 0.00036457024 0.97129655 0.9840429 0.98170704 0.97208416
        0.9538464 0.92298514 0.87477005 0.8047619 0.707721 0.5769701
        0.41109374 0.23174696 0.08453596 0.0046394994 0.04595099 0.060295165
        0.0627693 0.060967367 0.05785346 0.054325983 0.050573926 0.04660086
        0.042379625 0.037888326 0.03311748 0.028071662 0.022769937 0.017245509
        0.011544448 0.0057234187 0.00015319904 0.9754248 0.984042 0.98279583
        0.9755228 0.96191317 0.9384831 0.8992137 0.8365421 0.7423134
        0.6082417 0.43253478 0.24083164 0.08581927 0.005832422 0.04744775
        0.061642673 0.06393453 0.061972346 0.058719832 0.055071644 0.05121398
        0.047148276 0.042845737 0.038283173 0.03345012 0.028350398 0.023002487
        0.017439077 0.011705743 0.0058585783 3.905734e-05 0.9815494 0.9855094
        0.98510385 0.97924715 0.968275 0.9494397 0.9167187 0.86113244
        0.77180076 0.63728505 0.45362434 0.24998091 0.08718973 0.006850009
        0.048715077 0.06275572 0.06488207 0.062781595 0.059411403 0.05566083
        0.051713187 0.047568075 0.043195356 0.038570836 0.033683307 0.028536059
        0.023147166 0.01754899 0.011786765 0.00591617 2.597e-13
      </DataArray>
      <DataArray type="Float32" Name="aspect_ratio" format="ascii" RangeMin="1.0016710758209229" RangeMax="50.97037124633789">
        1.7017832 2.2399638 2.2239444 1.9930537 1.8618082 1.8940339
        2.122179 2.607382 3.4382777 4.7063165 6.43861 8.450734
        10.373809 12.114774 13.856813 15.731779 17.785461 20.028923
        22.458847 25.06082 27.808573 30.662577 33.56898 36.459427
        39.2523 41.85568 44.17221 46.105644 47.568497 48.489914
        49.141937 1.7609957 2.2535677 2.1416843 1.9615589 1.9051359
        2.0050557 2.2968009 2.8477786 3.7487922 5.0874314 6.8852987
        8.9732065 11.012759 12.892532 14.761892 16.746288 18.896284
        21.226145 23.732044 26.396332 29.18798 32.062035 34.95913
        37.80586 40.516567 42.99692 45.14932 46.87983 48.106033
        48.764755 49.137817 1.9557147 2.2912693 2.0869236 1.9348161
        1.9361806 2.1074493 2.4858248 3.1355467 4.136983 5.5664115
        7.4411936 9.613077 11.778846 13.811206 15.823923 17.933645
        20.19486 22.62469 25.218319 27.954174 30.795671 33.69159
        36.576256 39.370533 41.98425 44.320457 46.281437 47.776096
        48.72798 49.082817 49.133694 2.3763943 2.2845595 2.0258722
        1.9209149 1.9862195 2.2321951 2.6960456 3.4364018 4.526009
        6.0346813 7.978443 10.229025 12.51524 14.696308 16.851492
        19.087076 21.460785 23.992632 26.67694 29.48828 32.38447
        35.30789 38.186317 40.934494 43.45725 45.65442 47.42751
        48.687584 49.363537 49.40951 49.129566 3.4246933 2.2112813
        1.9880153 1.9675088 2.1333919 2.4971273 3.097218 3.9931855
        5.260448 6.9700418 9.137546 11.641001 14.215246 16.696121
        19.134876 21.633043 24.253496 27.018166 29.917082 32.915504
        35.958614 38.9741 41.873947 44.557076 46.913677 48.831528
        50.204105 50.93969 50.97037 50.259506 49.125427 4.328016
        2.0776055 1.8910569 1.898738 2.0749354 2.4261312 2.9823842
        3.7960267 4.935384 6.4643774 8.403654 10.6708145 13.062718
        15.42384 17.768982 20.179323 22.716652 25.407808 28.248463
        31.20934 34.240894 37.275738 40.230118 43.006046 45.495132
        47.584423 49.16417 50.13681 50.426163 49.985355 49.121365
        2.8967845 1.9247117 1.757459 1.7232119 1.7891225 1.9660488
        2.282514 2.779428 3.5075016 4.5176754 5.8404217 7.450692
        9.23842 11.0869 12.979854 14.968048 17.10534 19.424799
        21.936127 24.628998 27.476059 30.434002 33.443604 36.430126
        39.305023 41.96957 44.320477 46.257275 47.690804 48.551723
        49.117134 1.9792151 1.7689304 1.6597245 1.619239 1.649857
        1.7690232 2.00183 2.3815765 2.949754 3.7505538 4.8187895
        6.1572504 7.7016344 9.353346 11.076657 12.904784 14.88837
        17.064735 19.450552 22.043758 24.826092 27.763775 30.806984
        33.889477 36.929394 39.831898 42.49387 44.81062 46.684067
        48.031494 49.112766 1.7510421 1.6763761 1.5980632 1.570546
        1.6145124 1.7476615 1.9914075 2.3733082 2.9282284 3.6960404
        4.7147403 6.003082 7.519259 9.16812 10.896444 12.725377
        14.704804 16.875 19.255075 21.84438 24.625488 27.565222
        30.614248 33.706707 36.76098 39.682266 42.367268 44.710857
        46.614277 47.99389 49.10838 1.717872 1.617999 1.5406935
        1.5268562 1.5906299 1.7472149 2.014831 2.4159138 2.9793491
        3.7412508 4.7422996 6.0138073 7.5307946 9.20007 10.953538
        12.80176 14.793969 16.972996 19.359718 21.954031 24.73838
        27.679213 30.72676 33.814785 36.86139 39.771667 42.442417
        44.76885 46.652767 48.01132 49.104004 1.6254925 1.5430068
        1.477115 1.4781753 1.5603348 1.7372794 2.024286 2.4393156
        3.0065472 3.7593966 4.7410727 5.993385 7.505574 9.187302
        10.958584 12.820389 14.82092 17.005178 19.395702 21.993023
        24.77965 27.721859 30.769663 33.856606 36.900635 39.806763
        42.471806 44.791126 46.666798 48.016346 49.099632 1.5409323
        1.4655007 1.4101722 1.4271216 1.5288653 1.7272387 2.0343153
        2.463958 3.0366464 3.7839866 4.7516513 5.9902143 7.500533
        9.194976 10.983815 12.859511 14.869134 17.059528 19.454659
        22.055567 24.84472 27.788157 30.8356 33.920326 36.960087
        39.8598 42.516335 44.825245 46.688965 48.025517 49.095264
        1.4453498 1.3810326 1.3384607 1.3725754 1.4948924 1.7150378
        2.0416806 2.4851947 3.0633566 3.8066823 4.763192 5.9907823
        7.4998317 9.205304 11.0096445 12.897896 14.91593 17.112123
        19.511673 22.11604 24.90764 27.852272 30.899376 33.98197
        37.01762 39.911144 42.559452 44.858284 46.710415 48.03434
        49.0909 1.3431507 1.2906353 1.262483 1.3156407 1.4602247
        1.7029048 2.0489278 2.5059872 3.090097 3.8312743 4.779768
        5.999576 7.508775 9.2246 11.043219 12.943328 14.969633
        17.171757 19.575916 22.183895 24.978004 27.923777 30.970352
        34.050476 37.081497 39.968147 42.607372 44.89511 46.734493
        48.044518 49.086544 1.2327913 1.1941408 1.18286 1.2576207
        1.4263575 1.6920921 2.0570648 2.5272634 3.1177669 3.8585434
        4.8019204 6.016944 7.527797 9.253568 11.085446 12.996835
        15.031352 17.23961 19.648642 22.260439 25.057161 28.00404
        31.049883 34.127144 37.15295 40.03193 42.661057 44.93649
        46.761734 48.056328 49.082195 1.1146804 1.0923263 1.1011976
        1.2007403 1.3954548 1.6844219 2.0677555 2.5507596 3.148266
        3.890521 4.8317595 6.045153 7.559575 9.295457 11.14007
        13.06253 15.105507 17.32037 19.734756 22.35075 25.150284
        28.098238 31.143053 34.21685 37.236507 40.10653 42.723938
        44.98512 46.794003 48.070724 49.077854 1.0107627 1.0135282
        1.0200684 1.1478822 1.3699228 1.6817977 2.082742 2.5783231
        3.1836483 3.9294605 4.871715 6.086891 7.6072702 9.354041
        11.211411 13.14517 15.197217 17.419466 19.83995 22.460709
        25.263365 28.212378 31.255758 34.325237 37.33741 40.19664
        42.8 45.044132 46.83346 48.08881 49.073517 1.1652472
        1.1365788 1.0601102 1.1026094 1.3524504 1.6863552 2.1040769
        2.6122012 3.2264655 3.9782379 4.924997 6.1457973 7.6751494
        9.434337 11.305172 13.251018 15.313214 17.544035 19.971693
        22.598036 25.404266 28.354326 31.395708 34.459682 37.46251
        40.308376 42.894417 45.117596 46.88292 48.112026 49.06919
        1.3816643 1.2878385 1.1413589 1.0689739 1.3458025 1.7002913
        2.133945 2.6548407 3.2795334 4.040071 4.9952555 6.226051
        7.7680864 9.542014 11.42776 13.387097 15.461041 17.702055
        20.138325 22.771336 25.581728 28.53281 31.571442 34.62834
        37.61935 40.448463 43.01289 45.20998 46.945446 48.14193
        49.064873 1.690304 1.4613509 1.2119261 1.0507256 1.3519328
        1.7248605 2.1734776 2.7074761 3.3442621 4.116555 5.0842595
        6.329613 7.8883 9.679606 11.582005 13.55648 15.643958
        17.896938 20.34336 22.98418 25.79933 28.75135 31.786352
        34.834393 37.810833 40.61944 43.15752 45.3229 47.022137
        48.179073 49.060562 2.0969796 1.6253308 1.2566007 1.0480044
        1.3680481 1.7556131 2.2169878 2.7632368 3.4125078 4.1980877
        5.180649 6.4429445 8.019699 9.828401 11.7467985 13.73597
        15.836934 18.102036 20.55878 23.20748 26.027313 28.980024
        32.010952 35.04949 38.010513 40.79757 43.308083 45.440376
        47.10191 48.217766 49.05626 2.379944 1.7070436 1.2711012
        1.0506542 1.3787901 1.7728951 2.240475 2.7934127 3.450353
        4.244851 5.2376323 6.5107646 8.097127 9.913069 11.837524
        13.832901 15.940329 18.211649 20.673819 23.326662 26.148907
        29.101852 32.130424 35.163666 38.1162 40.891476 43.387005
        45.501396 47.142616 48.23644 49.051956 2.160394 1.6460317
        1.2609688 1.0481203 1.3700793 1.7592736 2.2228467 2.7728353
        3.4280803 4.22197 5.214272 6.484828 8.063939 9.86842
        11.781222 13.767585 15.868606 18.13518 20.593685 23.243837
        26.064507 29.017225 32.047173 35.083614 38.04135 40.82393
        43.328846 45.45458 47.108837 48.217007 49.047653 1.7545459
        1.4918817 1.2215929 1.0490017 1.353429 1.7290218 2.1813467
        2.7220032 3.3697886 4.1576195 5.1435485 6.403962 7.9657955
        9.747217 11.637177 13.604897 15.691414 17.946362 20.39548
        23.038584 25.855047 28.807056 31.840456 34.8851 37.856236
        40.657635 43.18674 45.34165 47.029335 48.174156 49.04335
        1.435933 1.3210523 1.1552038 1.0646205 1.345616 1.703525
        2.1420858 2.6721795 3.31247 4.0953054 5.07663 6.328544
        7.8736506 9.631296 11.497237 13.445404 15.5168915 17.7599
        20.199379 22.835184 25.647175 28.59819 31.634748 34.68731
        37.67158 40.491577 43.044693 45.228657 46.94973 48.131226
        49.03905 1.2122444 1.1696248 1.0765389 1.0955851 1.3504757
        1.6885504 2.1123934 2.6322813 3.2668128 4.0477643 5.028657
        6.2765026 7.808493 9.544755 11.388441 13.318792 15.377068
        17.60989 20.041243 22.670858 25.478945 28.428871 31.467709
        34.526424 37.521114 40.356 42.92846 45.135933 46.8841
        48.095436 49.034763 1.0528777 1.045436 1.0016711 1.1380992
        1.3661077 1.6829545 2.0913198 2.6013713 3.2318802 4.0141
        4.99877 6.246869 7.7690315 9.485933 11.308883 13.223017
        15.269817 17.494156 19.918863 22.543398 25.348188 28.297
        31.33735 34.40061 37.40319 40.249496 42.8369 45.062614
        46.831882 48.066513 49.03048 1.0690398 1.0573293 1.0785866
        1.1878891 1.3895292 1.6843234 2.0764642 2.5768235 3.2047658
        3.9911337 4.983454 6.235539 7.7502446 9.448836 11.25178
        13.150679 15.1872225 17.404331 19.823502 22.443796 25.245749
        28.19344 31.234734 34.301334 37.30991 40.16502 42.764038
        45.00402 46.78985 48.042812 49.026207 1.1819526 1.1550653
        1.1558741 1.2411357 1.4176729 1.690083 2.0652926 2.5559015
        3.1824787 3.9756386 4.9791875 6.2384105 7.7470856 9.427429
        11.210312 13.094343 15.121319 17.331982 19.746338 22.362936
        25.16235 28.1089 31.15075 34.21988 37.23318 40.095345
        42.703762 44.95534 46.75468 48.02264 49.02194 1.2899508
        1.2492568 1.2314978 1.2951161 1.4481232 1.698294 2.0560524
        2.5368319 3.1632073 3.96584 4.9842234 6.253485 7.7569275
        9.418425 11.18073 13.049923 15.067726 17.272469 19.682497
        22.295769 25.09283 28.038202 31.080303 34.151356 37.16845
        40.036392 42.652584 44.913834 46.724487 48.00502 49.017677
        1.3898358 1.3386286 1.3039566 1.347258 1.4777693 1.705692
        2.0452404 2.5157282 3.1426792 3.957147 4.993584 6.2749977
        7.772746 9.41356 11.153819 13.007434 15.015781 17.214516
        19.620201 22.230137 25.024832 27.968996 31.0113 34.084206
        37.105 39.978603 42.60243 44.873158 46.69489 47.987724
        49.013424 1.4982164 1.4277053 1.3750156 1.3986176 1.5078946
        1.7145698 2.0364285 2.4974954 3.1273308 3.9578724 5.0177193
        6.31536 7.8084946 9.428235 11.146465 12.985163 14.98501
        17.178719 19.580904 22.188105 24.980705 27.923536 30.965446
        34.03909 37.061905 39.93891 42.567554 44.84445 46.67353
        47.974632 49.009174 1.5568606 1.5017585 1.4402372 1.4438564
        1.5293152 1.7109733 2.0104854 2.457635 3.0872567 3.9325492
        5.0150237 6.325747 7.807444 9.398402 11.088295 12.907141
        14.894428 17.079693 19.47561 22.078098 24.867613 27.809317
        30.852444 33.93 36.9597 39.846695 42.488384 44.78114
        46.62845 47.949497 49.004932 1.7902966 1.6123884 1.5165377
        1.5018593 1.5710794 1.7389574 2.030638 2.481559 3.1322763
        4.017733 5.1512437 6.5022035 7.994673 9.575778 11.255311
        13.071567 15.062375 17.253534 19.655085 22.261486 25.052351
        27.992224 31.029842 34.097824 37.113644 39.98242 42.601765
        44.868515 46.686886 47.97702 49.0007 2.621491 1.8029885
        1.6655918 1.6664096 1.7775388 2.008785 2.3884773 2.9585667
        3.76708 4.8524547 6.216706 7.79371 9.471672 11.203041
        13.022659 14.979771 17.109955 19.432293 21.949194 24.64708
        27.497053 30.45485 33.46054 36.43892 39.301334 41.949375
        44.28057 46.195763 47.60752 48.4485 48.996452 3.8142345
        2.0131674 1.8951211 1.9675523 2.2067323 2.6168983 3.2291234
        4.095601 5.2768426 6.816598 8.695455 10.782286 12.901193
        15.011734 17.186817 19.49195 21.959435 24.597136 27.392694
        30.315224 33.316452 36.33144 39.27941 42.06567 44.585262
        46.72869 48.38948 49.473026 49.905693 49.642803 48.992096
        3.060615 2.1567144 2.0151706 2.0610428 2.291663 2.7185235
        3.3743787 4.3141522 5.6055374 7.2979236 9.357016 11.600325
        13.813663 15.982448 18.213226 20.57958 23.109322 25.804028
        28.645985 31.599737 34.612843 37.616474 40.526424 43.2454
        45.66706 47.682114 49.186188 50.088802 50.32237 49.84985
        48.987648 2.1791928 2.1733284 2.0022745 1.9639995 2.094157
        2.4098015 2.9439228 3.7497659 4.895137 6.432265 8.322791
        10.363214 12.3356085 14.258035 16.258045 18.409582 20.736547
        23.240137 25.906971 28.709663 31.606352 34.54036 37.44042
        40.222054 42.790596 45.046055 46.88978 48.23235 49.00189
        49.151615 48.983223 1.809779 2.1476703 2.0340009 1.951997
        2.016226 2.2572856 2.7136955 3.444701 4.525336 6.014972
        7.8671503 9.838339 11.69074 13.479065 15.358579 17.405426
        19.63899 22.05803 24.650034 27.390905 30.243458 33.156338
        36.063732 38.886242 41.533363 43.907787 45.911495 47.45323
        48.4566 48.867683 48.978786 1.6284686 2.08276 2.056812
        1.9512279 1.956281 2.12361 2.4970114 3.143427 4.149443
        5.585552 7.3978796 9.297558 11.026248 12.679938 14.440644
        16.384932 18.527401 20.864605 23.385073 26.06803 28.880877
        31.777414 34.697014 37.565002 40.294598 42.790672 44.95531
        46.694923 47.928165 48.5937 48.97434 1.563101 2.0393312
        2.096861 1.9484886 1.8845906 1.9890314 2.304765 2.8948038
        3.8473942 5.2411933 7.0191226 8.852107 10.46507 11.996151
        13.651215 15.505528 17.568546 19.834455 22.29249 24.924675
        27.702377 30.583887 33.513123 36.419567 39.219772 41.82057
        44.124245 46.035248 47.467987 48.354687 48.969883
      </DataArray>
      <DataArray type="Float32" Name="jacobian" format="ascii" RangeMin="-1.3304293133842293e-05" RangeMax="0.009446104057133198">
        1.3059249e-05 9.527898e-06 1.7812019e-05 4.8619895e-05 0.00011157662 0.00021697383
        0.0003700485 0.000563155 0.0007748139 0.000983166 0.0011821698 0.001385152
        0.00161608 0.0018888206 0.0022043688 0.0025627562 0.0029652414 0.0034125724
        0.0039039126 0.0044362396 0.005003861 0.005598008 0.0062065823 0.0068141497
        0.0074022887 0.007950345 0.00843662 0.008839927 0.009141369 0.009326112
        0.009446104 1.408183e-05 1.2411526e-05 2.9828963e-05 7.1964e-05 0.0001421558
        0.00024246117 0.0003728887 0.00052958954 0.00070352317 0.0008842746 0.0010687499
        0.001266071 0.0014927329 0.0017577054 0.0020612774 0.0024044681 0.0027899176
        0.003219698 0.0036941506 0.0042113713 0.004766823 0.005352958 0.0059589245
        0.0065704733 0.0071701803 0.0077380706 0.008252677 0.008692494 0.00903771
        0.009271994 0.009445312 1.4299197e-05 1.5485051e-05 4.2598924e-05 9.472351e-05
        0.0001687071 0.00026133537 0.00037099395 0.00049751345 0.00063984684 0.0007954328
        0.00096424785 0.0011529134 0.001372049 0.0016265922 0.0019162219 0.0022426653
        0.0026096338 0.0030203185 0.0034761413 0.003976304 0.004517472 0.0050934195
        0.0056946953 0.0063084406 0.0069184843 0.0075058215 0.008049519 0.008528039
        0.008920886 0.009210379 0.00944452 1.3159584e-05 2.1204263e-05 5.951871e-05
        0.000118302814 0.00018948912 0.0002694558 0.00035955288 0.00046381587 0.0005849557
        0.00072327745 0.0008800252 0.0010606173 0.0012721523 0.0015168008 0.001793664
        0.0021048724 0.0024548937 0.0028477695 0.0032857887 0.0037690823 0.0042953775
        0.0048596724 0.0054538813 0.0060665836 0.0066830176 0.0072854226 0.007853795
        0.008367062 0.008804605 0.009147971 0.009443725 8.659665e-06 3.0479989e-05
        7.835872e-05 0.0001353203 0.00019372984 0.00025410755 0.00032191345 0.00040311206
        0.00050113973 0.0006172827 0.0007535241 0.00091459876 0.0011052741 0.0013258578
        0.0015751007 0.001855364 0.002171613 0.0025286356 0.0029297322 0.0033763824
        0.0038680811 0.004402072 0.0049730064 0.005572655 0.006189806 0.0068104495
        0.0074183336 0.007995915 0.008525685 0.008991784 0.009442927 1.2060028e-06
        4.7262944e-05 0.00010306115 0.00016033927 0.00021669515 0.00027650045 0.00034663838
        0.00043262076 0.00053725677 0.0006619061 0.00080909755 0.0009838836 0.0011902355
        0.0014270401 0.0016920222 0.0019872347 0.0023177722 0.0026884829 0.0031024301
        0.0035605715 0.0040616742 0.004602116 0.005175603 0.0057729427 0.0063820146
        0.0069880425 0.0075742356 0.008122821 0.008616424 0.009039684 0.0094421385
        -9.6923995e-06 7.203407e-05 0.00013332341 0.00019755859 0.00026837437 0.0003533397
        0.00045916677 0.000589524 0.0007450739 0.0009257332 0.0011340992 0.0013762901
        0.0016557077 0.0019679724 0.0023073955 0.0026749412 0.003075994 0.0035151558
        0.0039939675 0.004510687 0.0050604795 0.005635453 0.006224573 0.006813676
        0.0073857373 0.007921508 0.008400537 0.008802555 0.009109072 0.009305017
        0.009441323 -1.3304293e-05 9.7079326e-05 0.0001647926 0.00023373759 0.00031301694
        0.0004116799 0.0005362126 0.00068976486 0.00087285007 0.0010857933 0.0013321091
        0.0016186043 0.0019468332 0.002307595 0.002690912 0.0030966639 0.0035310932
        0.00399941 0.0045027477 0.0050381366 0.0055990797 0.0061758654 0.0067556873
        0.007322839 0.007859174 0.00834493 0.008759915 0.009085009 0.009303789
        0.0094041005 0.009440485 1.7713219e-05 0.00012925333 0.00019709935 0.0002649546
        0.00034272057 0.00043811154 0.00055657723 0.00070187554 0.0008767278 0.0010841689
        0.0013298105 0.0016214495 0.001959547 0.0023313835 0.0027235982 0.0031350565
        0.003572767 0.004042932 0.0045472407 0.005082903 0.005643414 0.0062189978
        0.006796787 0.0073610377 0.007893601 0.008374758 0.008784408 0.009103568
        0.009315999 0.009409762 0.009439644 6.0871513e-05 0.00016588221 0.00022915653
        0.00029318695 0.00036641367 0.00045505675 0.0005640506 0.00069786585 0.0008609067
        0.0010582624 0.0012973321 0.0015870451 0.0019275163 0.002303568 0.002699043
        0.0031117322 0.0035491465 0.004018343 0.0045215986 0.005056429 0.0056164954
        0.00619213 0.00677055 0.0073360708 0.007870576 0.008354338 0.0087672025
        0.009090086 0.009306607 0.009404647 0.009438805 0.00010221489 0.00020060905
        0.0002589872 0.00031840857 0.00038655684 0.00046898457 0.0005705109 0.0006960071
        0.00085075514 0.0010411001 0.001275804 0.0015648798 0.001908361 0.002289072
        0.002688348 0.0031029182 0.0035406982 0.0040095085 0.004512144 0.0050463732
        0.0056059742 0.006181348 0.006759762 0.007325572 0.007860687 0.008345382
        0.008759489 0.009083881 0.009302108 0.009401966 0.009437966 0.00014348405
        0.00023405513 0.00028613687 0.00033990672 0.00040245437 0.00047886994 0.0005737927
        0.0006922068 0.00083988707 0.0010240445 0.0012545211 0.0015423165 0.0018875955
        0.0022716795 0.002673777 0.0030896082 0.0035273803 0.0039955718 0.004497443
        0.005031003 0.005590152 0.006165369 0.0067439824 0.007310394 0.007846541
        0.008332701 0.00874868 0.009075291 0.009295996 0.009398478 0.009437128
        0.0001836037 0.00026509527 0.00030997777 0.00035769926 0.00041488337 0.0004860849
        0.00057556375 0.00068822835 0.0008301486 0.0010091634 0.001235977 0.0015224535
        0.0018689829 0.0022557394 0.002660132 0.003076954 0.0035146237 0.0039821835
        0.0044833035 0.0050162086 0.0055749104 0.006149964 0.0067287544 0.0072957315
        0.007832858 0.008320418 0.008738193 0.009066939 0.009290038 0.009395063
        0.009436291 0.00022192445 0.0002930653 0.00033011424 0.00037183208 0.00042421158
        0.0004909999 0.0005759325 0.0006837959 0.0008208699 0.0009954601 0.00121895
        0.001503933 0.0018510664 0.002239678 0.002645704 0.0030631176 0.0035004816
        0.00396731 0.004467627 0.004999853 0.005558109 0.0061330236 0.006712045
        0.0072796703 0.007817893 0.008307002 0.0087267505 0.009057843 0.009283569
        0.009391388 0.009435454 0.00025786104 0.0003173156 0.00034635546 0.00038257783
        0.0004309264 0.0004940625 0.0005751849 0.00067899947 0.0008119546 0.0009827019
        0.0012031492 0.0014864828 0.0018336278 0.0022233126 0.0026303101 0.0030478989
        0.0034847346 0.0039507137 0.0044501633 0.004981676 0.005539478 0.0061142757
        0.0066935834 0.00726195 0.0078014005 0.00829223 0.0087141665 0.009047853
        0.009276484 0.0093874 0.009434619 0.00029078696 0.0003373355 0.0003586629
        0.00039021097 0.00043532296 0.00049542944 0.00057330495 0.0006736441 0.00080303184
        0.0009703664 0.0011879456 0.0014694148 0.0018159427 0.002205871 0.0026131133
        0.003030393 0.0034664166 0.0039313785 0.0044298545 0.004960592 0.00551792
        0.0060926313 0.00667231 0.0072415643 0.007782455 0.0082752835 0.008699751
        0.009036432 0.009268418 0.009382914 0.0094337845 0.0003200667 0.00035274104
        0.0003670871 0.00039494928 0.0004375357 0.0004950924 0.00057015085 0.00066745264
        0.00079368404 0.00095790596 0.001172687 0.0014520019 0.0017972251 0.0021865016
        0.0025931848 0.0030095938 0.003444452 0.003908169 0.0044055167 0.004935382
        0.0054922015 0.0060668597 0.0066470252 0.0072173714 0.007760002 0.008255227
        0.008682715 0.009022964 0.009258947 0.009377715 0.009432952 0.00034496616
        0.00036322649 0.00037166892 0.0003968725 0.00043750822 0.0004928687 0.0005654343
        0.00066002354 0.0007833847 0.00094466674 0.0011566014 0.0014333674 0.0017765019
        0.0021641322 0.0025693495 0.0029842276 0.0034174782 0.0038796451 0.004375647
        0.0049044974 0.0054607484 0.0060353917 0.0066161943 0.0071879076 0.007732687
        0.008230854 0.008662039 0.009006654 0.009247527 0.009371526 0.00943212
        0.00036453683 0.00036848622 0.00037241168 0.0003959463 0.00043505916 0.00048848044
        0.0005588002 0.00065091206 0.000771582 0.0009299803 0.0011389025 0.0014126125
        0.001752767 0.0021376503 0.0025403884 0.0029529722 0.0033840784 0.0038443047
        0.004338671 0.004866311 0.0054219035 0.0059965686 0.00657819 0.0071516167
        0.007699067 0.008200876 0.008636634 0.008986644 0.009233568 0.009364046
        0.00943129 0.00037744967 0.00036831855 0.00036953983 0.00039227953 0.00043016244
        0.00048185908 0.0005501575 0.0006399935 0.0007581058 0.0009136278 0.0011193309
        0.0013894552 0.001725737 0.0021067779 0.00250602 0.0029155293 0.0033439274
        0.003801793 0.004294205 0.004820412 0.005375235 0.005949943 0.0065325606
        0.0071080537 0.0076587163 0.008164904 0.00860616 0.008962663 0.009216876
        0.009355176 0.0094304625 0.00038252724 0.00036390562 0.00036464605 0.0003871824
        0.00042409523 0.00047440061 0.000541059 0.0006289989 0.0007449027 0.000897833
        0.0011004789 0.0013669762 0.0016990873 0.002075811 0.0024710947 0.0028772063
        0.0033027076 0.003758102 0.004248486 0.0047732065 0.0053272247 0.0059019616
        0.0064855865 0.0070631877 0.007617138 0.008127819 0.008574724 0.008937912
        0.009199643 0.009346024 0.009429635 0.00038248533 0.00036093744 0.0003624149
        0.00038498666 0.0004214835 0.0004712013 0.0005371546 0.0006242485 0.0007391326
        0.00089082494 0.0010919515 0.0013565292 0.001686231 0.00206028 0.0024530601
        0.002857082 0.0032808818 0.0037348706 0.0042241113 0.004747984 0.0053015193
        0.005876219 0.0064603323 0.0070390124 0.0075946776 0.008107723 0.008557618
        0.008924352 0.009190081 0.009340764 0.0094288075 0.00038360388 0.00036509542
        0.00036633093 0.0003891103 0.0004261459 0.00047651873 0.000543182 0.00063105306
        0.0007468186 0.0008995277 0.0011018211 0.0013676287 0.0016983576 0.002073083
        0.0024663655 0.0028709406 0.0032953809 0.0037500125 0.004239802 0.004764054
        0.00531774 0.0058923108 0.006475968 0.0070538255 0.007608276 0.008119703
        0.008567592 0.008931968 0.00919505 0.009342886 0.0094279805 0.00038079536
        0.0003716948 0.000373635 0.000396888 0.00043511862 0.00048706017 0.0005554868
        0.0006453182 0.0007633053 0.0009185605 0.001123766 0.0013927483 0.0017265131
        0.002103794 0.002499255 0.0029059025 0.0033323776 0.0037888964 0.0042802696
        0.004805652 0.0053598736 0.00593425 0.0065168585 0.00709271 0.0076441267
        0.008151471 0.008594263 0.0089526335 0.00920897 0.00934955 0.0094271535
        0.00037038577 0.00037428373 0.0003792762 0.0004036472 0.00044341598 0.00049735396
        0.00056802254 0.0006602899 0.00078093633 0.0009391015 0.0011474527 0.0014196323
        0.0017561927 0.0021356149 0.0025328677 0.0029413535 0.003369766 0.003828146
        0.004321101 0.004847615 0.0054023676 0.0059765372 0.0065580755 0.00713189
        0.007680234 0.0081834495 0.008621096 0.00897341 0.0092229545 0.009356244
        0.0094263265 0.00035331323 0.0003711458 0.00038117127 0.00040766777 0.00044936925
        0.00050560903 0.00057882513 0.00067379203 0.0007972602 0.00095832895 0.0011695625
        0.0014443175 0.0017826846 0.0021630889 0.0025610935 0.0029706375 0.0034004299
        0.003860257 0.00435448 0.0048819073 0.005437083 0.0060110707 0.0065917186
        0.00716385 0.0077096624 0.008209482 0.008642903 0.008990251 0.009234234
        0.009361559 0.009425502 0.0003309752 0.00036238186 0.00037885152 0.00040864796
        0.00045287175 0.00051180064 0.00058791693 0.0006858906 0.00081237924 0.0009763617
        0.0011902023 0.0014668771 0.001806026 0.0021862388 0.002583965 0.0029938067
        0.0034244424 0.0038853218 0.0043805186 0.004908658 0.005464167 0.006038012
        0.0066179596 0.007188767 0.007732588 0.008229737 0.008659836 0.009003282
        0.009242897 0.009365546 0.009424678 0.0003043679 0.0003483272 0.0003721665
        0.0004064652 0.0004540197 0.0005161925 0.0005956923 0.0006971035 0.0008269276
        0.0009939342 0.0012101904 0.0014882075 0.0018272108 0.0022061835 0.0026027367
        0.003012243 0.003443294 0.0039049238 0.004400875 0.0049295835 0.005485366
        0.0060591092 0.0066385134 0.0072082817 0.0077505326 0.0082455715 0.008673043
        0.009013402 0.009249565 0.00936852 0.009423857 0.0002742367 0.0003293706
        0.0003609943 0.00040088317 0.00045277493 0.0005189774 0.00060254143 0.0007079969
        0.0008416245 0.0010118864 0.001230457 0.0015093203 0.0018473518 0.0022241683
        0.0026188002 0.00302747 0.003458622 0.0039207935 0.0044173547 0.0049465424
        0.0055025658 0.0060762414 0.0066552134 0.0072241393 0.0077651087 0.008258419
        0.008683735 0.009021559 0.009254886 0.00937081 0.009423035 0.00024100352
        0.00030597262 0.0003452295 0.000391449 0.00044874902 0.00052000413 0.0006085589
        0.00071887777 0.0008569378 0.0010307818 0.0012516008 0.001530818 0.0018670683
        0.002240868 0.0026329104 0.0030403237 0.0034713293 0.0039338907 0.004430963
        0.0049605714 0.00551682 0.006090462 0.0066690915 0.007237326 0.0077772294
        0.008269094 0.008692598 0.0090282895 0.00925923 0.009372606 0.009422216
        0.00020533179 0.00027875882 0.0003250227 0.00037784164 0.00044157816 0.0005192241
        0.0006141271 0.000730532 0.00087397 0.00105194 0.0012750832 0.001554277
        0.0018880783 0.0022581809 0.002647158 0.0030530673 0.0034838237 0.0039467383
        0.0044443104 0.004974337 0.0055308123 0.0061044237 0.0066827154 0.0072502675
        0.0077891187 0.008279555 0.008701273 0.009034865 0.009263461 0.009374341
        0.009421397 0.00016693858 0.00024851935 0.00030060142 0.00035934604 0.0004298257
        0.0005149393 0.00061758736 0.0007413889 0.000891118 0.0010735381 0.0012986823
        0.0015769562 0.0019071072 0.0022723817 0.0026574705 0.0030613532 0.0034915293
        0.0039545754 0.0044525014 0.0049828687 0.0055395714 0.0061132414 0.006691385
        0.007258551 0.0077967583 0.008286284 0.008706837 0.009039036 0.009266062
        0.0093752565 0.009420579 0.00012723204 0.00021544685 0.00027275918 0.00033684066
        0.00041454326 0.0005091705 0.00062272593 0.0007572779 0.00091606664 0.001104829
        0.0013330939 0.001611058 0.0019379626 0.002298849 0.002680626 0.003083144
        0.0035133932 0.0039771423 0.0044758534 0.0050068083 0.0055637537 0.0061372286
        0.0067146653 0.007280559 0.007816897 0.00830396 0.008721494 0.009050201
        0.00927338 0.009378528 0.009419762 8.743659e-05 0.00018338753 0.00024235564
        0.0003081062 0.000389268 0.0004901728 0.0006121287 0.00075512164 0.0009201067
        0.0011113246 0.0013376385 0.0016091765 0.0019263693 0.0022769754 0.0026505664
        0.0030477617 0.0034748295 0.003936651 0.0044342005 0.0049646143 0.0055216625
        0.0060959584 0.00667501 0.0072433646 0.007783028 0.008274252 0.008696705
        0.009030958 0.009260132 0.009371507 0.009418947 5.3241944e-05 0.00014845119
        0.00020559796 0.00026388682 0.00033276103 0.0004180179 0.00052202673 0.00064516993
        0.0007880004 0.0009535035 0.001148647 0.0013822514 0.0016565862 0.0019642906
        0.00229895 0.0026620536 0.0030591027 0.0034945146 0.0039697005 0.004482938
        0.005029524 0.005601749 0.00618877 0.006776596 0.0073483284 0.007884769
        0.008365428 0.008769894 0.00907944 0.009278679 0.009418129 3.176886e-05
        0.00010781955 0.00016501742 0.00021328965 0.0002618989 0.00031860673 0.0003882959
        0.00047361132 0.00057629374 0.000698691 0.0008454074 0.0010228851 0.0012341813
        0.0014762023 0.0017462756 0.002046851 0.0023831476 0.002759863 0.003179815
        0.0036436857 0.0041499324 0.0046945596 0.0052708182 0.0058689625 0.0064762146
        0.007077027 0.007653721 0.008187504 0.008659813 0.009053864 0.009417294
        3.4851353e-05 8.032341e-05 0.00013746496 0.00019057911 0.00024182997 0.0002981693
        0.0003656186 0.00044764974 0.00054593076 0.00066211395 0.00080010033 0.0009663991
        0.0011649497 0.0013937249 0.0016509937 0.0019395273 0.002264417 0.0026302722
        0.0030400734 0.0034949067 0.0039938004 0.004533444 0.0051078354 0.0057079922
        0.006321854 0.006934478 0.0075285994 0.00808558 0.008586707 0.009014711
        0.009416444 4.2713276e-05 6.6127766e-05 0.00011955494 0.00018386904 0.00025287023
        0.0003285352 0.0004156041 0.0005173565 0.0006346686 0.000768175 0.0009218995
        0.0011044231 0.0013218458 0.0015723903 0.0018541014 0.0021696165 0.0025236285
        0.0029200488 0.0033609085 0.003846064 0.0043729753 0.0049363836 0.0055279583
        0.006136059 0.006745736 0.007339085 0.007896006 0.008395381 0.008816582
        0.009141163 0.009415596 4.582867e-05 5.6718265e-05 9.880027e-05 0.00016304548
        0.00024251745 0.00033501792 0.0004415778 0.0005627027 0.00069659913 0.000841854
        0.0010026717 0.0011906712 0.0014150835 0.0016747888 0.001967726 0.0022963034
        0.0026646547 0.0030759731 0.0035315396 0.004030413 0.0045691566 0.00514149
        0.0057379557 0.0063457335 0.0069487314 0.0075280485 0.008062865 0.008531741
        0.008914231 0.009192636 0.009414743 4.8137743e-05 5.1701223e-05 8.140591e-05
        0.00013907612 0.00022288947 0.00033145168 0.0004630555 0.0006126284 0.0007712358
        0.00093243044 0.0011008802 0.0012936096 0.0015246925 0.0017938187 0.0020986118
        0.0024410568 0.0028245184 0.0032512827 0.0037217343 0.0042340253 0.004783744
        0.005363545 0.005962847 0.0065677157 0.0071610557 0.0077231936 0.008232888
        0.008668744 0.0090109 0.0092428 0.009413888 4.9564474e-05 4.7680165e-05
        6.4656146e-05 0.00011265873 0.00019704229 0.00032132855 0.00048259457 0.0006671863
        0.0008547523 0.0010322639 0.0012060466 0.0014003848 0.0016353179 0.0019116268
        0.002226555 0.0025814434 0.0029786583 0.0034194356 0.003903208 0.004427229
        0.004986166 0.005571702 0.006172263 0.0067729675 0.007355915 0.007900875
        0.008386407 0.008791357 0.009096599 0.009286797 0.009413032
      </DataArray>
    </PointData>
    <CellData>
    </CellData>
    <Points>
      <DataArray type="Float32" Name="Points" NumberOfComponents="3" format="ascii" RangeMin="1.0349012171726584" RangeMax="1.178728585617832">
        0.81366867 0.03164822 0.6387192 0.81414 0.03164845 0.6387239
        0.814693 0.031648725 0.63872945 0.8153413 0.031649042 0.6387359
        0.81610096 0.031649414 0.63874334 0.81699055 0.031649847 0.63875204
        0.8180314 0.031650346 0.6387622 0.81924796 0.031650927 0.6387739
        0.82066846 0.031651597 0.63878745 0.82232493 0.031652376 0.6388032
        0.82425356 0.031653278 0.6388213 0.8264952 0.031654317 0.6388423
        0.8290952 0.03165552 0.6388666 0.8321038 0.031656917 0.6388948
        0.83557564 0.031658538 0.63892746 0.83956933 0.031660408 0.6389652
        0.84414655 0.031662554 0.6390086 0.8493708 0.03166501 0.6390581
        0.855305 0.0316678 0.6391144 0.8620094 0.031670943 0.63917786
        0.8695377 0.03167446 0.63924885 0.8779333 0.031678353 0.6393274
        0.88722485 0.031682618 0.6394135 0.8974211 0.03168724 0.63950676
        0.9085068 0.031692192 0.6396067 0.9204385 0.031697433 0.63971245
        0.933142 0.03170292 0.6398232 0.94651175 0.03170861 0.63993806
        0.9604126 0.031714458 0.6400561 0.97468406 0.031720426 0.64017653
        0.9891472 0.031726476 0.6402986 0.8138486 0.031657998 0.6387205
        0.8143137 0.031656127 0.6387253 0.81490785 0.031663768 0.6387308
        0.8156177 0.031680893 0.638737 0.81643325 0.0317057 0.6387438
        0.8173548 0.031735957 0.6387513 0.81839305 0.0317682 0.6387598
        0.8195732 0.031797692 0.63876975 0.820935 0.031820007 0.6387816
        0.82252526 0.031833433 0.63879603 0.8243911 0.03183971 0.6388133
        0.8265802 0.031842522 0.6388337 0.8291429 0.03184527 0.6388576
        0.83212984 0.031849027 0.6388855 0.8355914 0.031853337 0.6389179
        0.8395811 0.031857885 0.6389555 0.84415704 0.031862617 0.6389987
        0.84938085 0.03186754 0.6390481 0.8553149 0.031872682 0.6391043
        0.86201906 0.031878054 0.63916767 0.86954695 0.031883664 0.6392385
        0.87794214 0.031889506 0.639317 0.887233 0.03189557 0.639403
        0.8974286 0.031901844 0.63949615 0.9085134 0.031908296 0.639596
        0.9204442 0.03191488 0.63970166 0.93314666 0.031921554 0.63981235
        0.9465153 0.031928282 0.63992715 0.960415 0.031935025 0.6400451
        0.9746853 0.031941745 0.6401655 0.9891472 0.03194841 0.6402876
        0.8140095 0.031666506 0.6387217 0.8144921 0.03166632 0.6387266
        0.81514794 0.03168851 0.63873196 0.8159192 0.031729165 0.6387376
        0.81677216 0.031782117 0.63874334 0.81769866 0.031840887 0.6387495
        0.81871235 0.031898174 0.63875645 0.81984854 0.031946868 0.6387649
        0.82115793 0.031982053 0.63877565 0.8226945 0.032002915 0.6387892
        0.8245097 0.0320128 0.6388058 0.8266553 0.032017395 0.63882565
        0.82918596 0.032022007 0.6388492 0.83215374 0.032028288 0.63887674
        0.835606 0.032035448 0.638909 0.83959204 0.032042902 0.63894635
        0.8441669 0.032050524 0.6389894 0.8493904 0.032058306 0.6390386
        0.85532427 0.032066267 0.6390947 0.8620282 0.032074403 0.6391579
        0.86955583 0.032082725 0.63922864 0.8779505 0.03209122 0.63930696
        0.8872409 0.03209987 0.6393928 0.8974358 0.03210865 0.6394859
        0.90851986 0.032117527 0.6395856 0.92044973 0.032126453 0.6396912
        0.9331512 0.032135386 0.6398017 0.9465188 0.032144275 0.63991636
        0.9604174 0.03215309 0.64003426 0.9746865 0.032161787 0.6401545
        0.9891472 0.032170333 0.64027643 0.81415206 0.031673864 0.6387228
        0.8146856 0.031681832 0.63872766 0.81541735 0.031726845 0.63873273
        0.81623775 0.031796034 0.63873744 0.8171024 0.0318768 0.63874185
        0.8180097 0.031958543 0.6387466 0.8189863 0.03203242 0.63875234
        0.820079 0.03209206 0.63875985 0.8213442 0.03213423 0.6387698
        0.82283753 0.032159474 0.6387826 0.8246119 0.03217206 0.6387988
        0.82672143 0.03217859 0.6388182 0.82922465 0.032185324 0.63884133
        0.83217555 0.032194253 0.6388686 0.83561957 0.032204352 0.6389006
        0.83960235 0.03221485 0.6389378 0.8441761 0.03222557 0.6389806
        0.8493993 0.032236505 0.63902974 0.8553331 0.032247648 0.63908565
        0.8620368 0.032259014 0.6391487 0.8695642 0.03227059 0.6392192
        0.8779585 0.03228238 0.6392974 0.88724834 0.032294344 0.63938314
        0.89744264 0.032306474 0.639476 0.908526 0.032318722 0.6395755
        0.9204551 0.032331046 0.63968086 0.93315566 0.0323434 0.63979125
        0.94652224 0.032355737 0.6399057 0.9604197 0.032368015 0.6400234
        0.9746877 0.032380197 0.6401435 0.9891472 0.032392256 0.6402653
        0.8142834 0.03168048 0.63872373 0.81490594 0.031706467 0.6387287
        0.81571645 0.03178254 0.63873297 0.8165618 0.031881943 0.6387363
        0.81741226 0.03198643 0.6387394 0.81828535 0.032084104 0.638743
        0.81922233 0.032167673 0.6387478 0.8202766 0.032233205 0.6387546
        0.8215052 0.032279305 0.638764 0.8229629 0.03230745 0.6387764
        0.82470286 0.032322336 0.63879204 0.8267814 0.032330915 0.63881105
        0.8292604 0.032339916 0.6388339 0.83219606 0.032351512 0.6388609
        0.83563244 0.03236454 0.6388926 0.8396122 0.032378115 0.6389296
        0.84418494 0.032392014 0.63897234 0.8494079 0.032406207 0.6390213
        0.85534155 0.03242071 0.63907695 0.8620451 0.03243552 0.63913983
        0.8695722 0.032450646 0.6392102 0.8779662 0.03246608 0.6392882
        0.8872556 0.0324818 0.63937366 0.8974493 0.03249779 0.63946635
        0.908532 0.03251401 0.63956565 0.92046034 0.032530427 0.6396708
        0.93316 0.032547 0.639781 0.94652563 0.032563686 0.6398952
        0.96042204 0.03258046 0.6400126 0.9746889 0.0325973 0.6401325
        0.9891472 0.03261418 0.64025396 0.8143833 0.031685427 0.6387245
        0.81516874 0.031745203 0.63872933 0.81603205 0.031856414 0.6387324
        0.8168624 0.031979777 0.63873434 0.8176715 0.032096595 0.63873637
        0.81850034 0.03219882 0.6387393 0.8193994 0.03228348 0.6387437
        0.8204226 0.03234931 0.63875014 0.8216238 0.032396004 0.6387592
        0.8230558 0.03242529 0.6387713 0.8247711 0.032441784 0.6387866
        0.826827 0.03245231 0.6388054 0.82928795 0.0324636 0.63882786
        0.832212 0.032477826 0.6388546 0.8356426 0.03249377 0.63888615
        0.83962 0.032510478 0.638923 0.844192 0.032527704 0.6389655
        0.8494148 0.032545436 0.6390143 0.85534847 0.032563698 0.63906974
        0.86205196 0.032582518 0.63913244 0.8695789 0.032601926 0.63920254
        0.87797266 0.032621954 0.6392803 0.88726175 0.032642618 0.63936555
        0.8974551 0.032663945 0.63945794 0.9085373 0.032685965 0.63955694
        0.920465 0.03270871 0.6396618 0.93316394 0.032732215 0.6397716
        0.94652873 0.03275657 0.63988537 0.96042424 0.032781873 0.64000237
        0.97469 0.032808308 0.6401217 0.9891472 0.032836094 0.64024264
        0.81454206 0.031693377 0.6387257 0.81549585 0.031806678 0.6387296
        0.816372 0.03195619 0.6387307 0.817177 0.03210524 0.6387311
        0.8179535 0.03223895 0.63873196 0.81875086 0.032352325 0.6387339
        0.8196204 0.032444384 0.6387376 0.82061434 0.032515123 0.6387436
        0.82178515 0.032565217 0.63875216 0.82318497 0.03259708 0.6387638
        0.8248673 0.0326157 0.6387786 0.82689214 0.032628115 0.63879704
        0.82932794 0.03264128 0.63881916 0.8322357 0.032657593 0.6388457
        0.8356579 0.032675806 0.638877 0.8396318 0.03269488 0.6389137
        0.84420264 0.03271452 0.63895607 0.84942496 0.03273468 0.6390047
        0.8553583 0.032755397 0.63906 0.86206144 0.032776687 0.6391226
        0.869588 0.03279858 0.6391926 0.87798125 0.032821104 0.6392702
        0.88726974 0.03284428 0.63935524 0.89746237 0.03286813 0.63944757
        0.9085438 0.032892674 0.6395464 0.9204706 0.032917954 0.6396511
        0.9331686 0.032944005 0.63976073 0.9465323 0.0329709 0.6398744
        0.9604267 0.032998756 0.6399913 0.9746913 0.03302772 0.64011043
        0.9891472 0.033058006 0.64023125 0.8148979 0.03172813 0.6387275
        0.8158723 0.031899847 0.6387286 0.8167232 0.032087136 0.6387276
        0.8175012 0.03226407 0.6387263 0.8182554 0.032420456 0.6387257
        0.8190339 0.032553222 0.6387265 0.819884 0.03266133 0.63872916
        0.82085395 0.03274421 0.63873416 0.8219938 0.032802474 0.63874197
        0.8233562 0.032839216 0.638753 0.82499725 0.032860294 0.6387673
        0.8269816 0.032873407 0.63878524 0.82938397 0.03288615 0.6388071
        0.8322696 0.032901626 0.63883346 0.8356802 0.03291895 0.63886476
        0.839649 0.032937117 0.6389014 0.8442177 0.0329558 0.63894385
        0.84943897 0.03297495 0.6389925 0.8553715 0.03299459 0.6390479
        0.8620739 0.033014745 0.63911045 0.8695996 0.033035446 0.6391805
        0.8779919 0.033056717 0.63925815 0.88727945 0.03307859 0.63934326
        0.897471 0.033101078 0.6394356 0.90855134 0.033124216 0.63953453
        0.920477 0.03314803 0.63963926 0.9331737 0.033172563 0.639749
        0.9465362 0.03319789 0.6398627 0.96042925 0.033224113 0.6399796
        0.9746926 0.033251386 0.64009887 0.9891472 0.033279914 0.64021975
        0.8153286 0.031809084 0.6387278 0.8162529 0.032027986 0.638726
        0.81706685 0.032249317 0.6387228 0.8178152 0.032451775 0.6387198
        0.81854564 0.032628726 0.6387179 0.8193036 0.03277826 0.63871753
        0.820133 0.032899328 0.63871926 0.8210793 0.0329914 0.63872355
        0.82219064 0.033055615 0.6387308 0.82351905 0.033095818 0.63874125
        0.8251225 0.03311849 0.6387552 0.82706934 0.033131666 0.6387727
        0.82944006 0.033143308 0.63879436 0.8323043 0.03315717 0.6388206
        0.83570343 0.03317277 0.6388518 0.8396671 0.033189192 0.63888854
        0.8442336 0.033206098 0.63893104 0.8494536 0.033223443 0.63897973
        0.85538524 0.03324123 0.6390352 0.8620867 0.0332595 0.63909787
        0.8696115 0.033278283 0.639168 0.8780029 0.033297602 0.63924575
        0.88728935 0.033317484 0.639331 0.89747983 0.033337962 0.6394234
        0.908559 0.033359054 0.6395224 0.9204834 0.033380795 0.6396272
        0.93317896 0.033403233 0.639737 0.9465401 0.033426423 0.63985085
        0.9604319 0.033450477 0.63996786 0.9746939 0.033475544 0.6400872
        0.9891472 0.03350182 0.6402082 0.8157342 0.031926326 0.63872594
        0.81662 0.032190457 0.6387214 0.81739527 0.032441217 0.6387163
        0.8181104 0.032664318 0.63871187 0.8188129 0.032856274 0.63870883
        0.8195464 0.03301639 0.63870764 0.82035303 0.033144396 0.6387087
        0.8212762 0.033240743 0.6387125 0.8223621 0.03330756 0.6387193
        0.82366174 0.03334933 0.63872945 0.82523346 0.03337276 0.638743
        0.8271484 0.033385813 0.63876027 0.8294916 0.033396486 0.63878167
        0.8323369 0.033408944 0.6388078 0.83572567 0.03342305 0.638839
        0.83968455 0.033437967 0.6388757 0.844249 0.033453334 0.6389183
        0.849468 0.0334691 0.6389671 0.8553987 0.033485275 0.63902265
        0.8620994 0.033501897 0.63908535 0.8696233 0.033518992 0.63915557
        0.8780137 0.033536587 0.63923335 0.8872992 0.033554718 0.63931865
        0.8974886 0.033573404 0.63941115 0.9085666 0.033592675 0.6395102
        0.92048985 0.03361256 0.6396151 0.9331841 0.033633105 0.63972497
        0.94654405 0.033654377 0.63983893 0.9604345 0.033676464 0.639956
        0.9746952 0.033699516 0.64007545 0.9891472 0.03372372 0.6401965
        0.8161376 0.032085925 0.6387219 0.8169743 0.032387573 0.6387149
        0.8177064 0.032662015 0.63870806 0.8183853 0.03290028 0.63870245
        0.81905746 0.033101637 0.6386985 0.81976515 0.03326693 0.63869673
        0.8205491 0.03339729 0.63869745 0.8214507 0.03349453 0.6387009
        0.8225142 0.03356174 0.63870746 0.823789 0.03360382 0.6387173
        0.8253335 0.03362739 0.6387305 0.8272208 0.03364008 0.6387476
        0.8295397 0.033649713 0.6387688 0.83236796 0.03366074 0.63879484
        0.83574724 0.03367332 0.6388261 0.83970183 0.033686686 0.6388628
        0.8442643 0.033700485 0.6389054 0.84948224 0.033714652 0.6389543
        0.8554121 0.0337292 0.6390099 0.862112 0.033744156 0.6390727
        0.869635 0.03375956 0.639143 0.87802446 0.033775434 0.6392209
        0.88730896 0.033791814 0.63930625 0.8974973 0.03380872 0.6393988
        0.90857416 0.03382618 0.639498 0.9204962 0.03384423 0.63960296
        0.9331893 0.033862904 0.6397129 0.9465479 0.033882264 0.6398269
        0.9604371 0.033902407 0.6399441 0.97469646 0.033923466 0.64006364
        0.9891472 0.033945616 0.64018476 0.8165269 0.032285713 0.6387157
        0.8173105 0.032618124 0.63870645 0.81799644 0.03290957 0.63869816
        0.8186368 0.03315647 0.6386916 0.81927735 0.033361092 0.63868713
        0.8199592 0.033526313 0.63868505 0.82072157 0.03365502 0.6386855
        0.8216038 0.03375041 0.63868886 0.82264775 0.03381631 0.6386953
        0.8239014 0.03385775 0.63870496 0.8254227 0.033881012 0.638718
        0.82728624 0.03389319 0.6387348 0.8295842 0.033901796 0.6387559
        0.83239734 0.033911433 0.63878185 0.83576816 0.033922527 0.6388131
        0.83971876 0.033934396 0.63884985 0.84427947 0.033946678 0.63889253
        0.84949636 0.0339593 0.63894147 0.8554254 0.03397227 0.6389972
        0.86212444 0.03398563 0.6390601 0.8696466 0.033999406 0.6391304
        0.8780352 0.034013625 0.6392084 0.8873187 0.034028325 0.6392938
        0.89750594 0.03404353 0.6393864 0.90858173 0.034059253 0.63948566
        0.9205026 0.034075532 0.63959074 0.9331944 0.03409241 0.63970083
        0.9465518 0.034109935 0.63981485 0.9604397 0.034128204 0.63993216
        0.97469777 0.03414734 0.6400517 0.9891472 0.034167506 0.64017296
        0.81689966 0.03252628 0.6387071 0.8176254 0.032880835 0.6386961
        0.8182625 0.033181496 0.63868666 0.8188631 0.03343003 0.63867956
        0.8194722 0.033631966 0.6386748 0.8201295 0.033792526 0.6386726
        0.8208722 0.033916377 0.6386731 0.82173723 0.03400783 0.6386765
        0.8227645 0.034071155 0.6386829 0.8240002 0.034111246 0.6386924
        0.82550186 0.03413385 0.6387053 0.8273452 0.03414541 0.63872194
        0.82962495 0.034152985 0.6387429 0.832425 0.03416126 0.6387688
        0.8357883 0.0341709 0.6388 0.8397353 0.034181297 0.63883686
        0.84429437 0.034192093 0.6388796 0.8495103 0.03420321 0.6389286
        0.8554386 0.034214653 0.6389844 0.86213684 0.03422646 0.6390473
        0.8696581 0.03423866 0.6391177 0.8780458 0.03425128 0.63919574
        0.8873283 0.034264352 0.6392813 0.8975145 0.034277905 0.63937396
        0.90858924 0.034291957 0.6394733 0.9205089 0.03430653 0.63957846
        0.9331995 0.034321673 0.6396886 0.9465557 0.034337427 0.63980275
        0.96044225 0.034353882 0.63992006 0.9746991 0.034371153 0.6400398
        0.9891472 0.034389395 0.6401611 0.8172507 0.0328066 0.63869625
        0.8179151 0.0331736 0.63868374 0.818502 0.033474885 0.6386737
        0.8190631 0.033717833 0.63866633 0.8196421 0.03391157 0.6386616
        0.820277 0.034063596 0.6386596 0.82100224 0.03418003 0.6386604
        0.82185256 0.034265954 0.6386638 0.8228656 0.03432576 0.6386702
        0.8240862 0.03436397 0.6386796 0.8255714 0.03438568 0.6386924
        0.82739776 0.034396544 0.63870895 0.82966214 0.034403104 0.6387299
        0.83245087 0.03441006 0.6387557 0.8358077 0.034418285 0.6387869
        0.8397516 0.03442726 0.6388238 0.84430915 0.034436617 0.6388666
        0.84952414 0.034446277 0.63891566 0.85545164 0.034456246 0.6389715
        0.8621491 0.034466553 0.6390345 0.8696696 0.034477238 0.639105
        0.87805635 0.03448832 0.6391831 0.8873379 0.034499835 0.6392687
        0.8975231 0.034511805 0.6393615 0.9085967 0.034524247 0.63946086
        0.92051524 0.03453719 0.63956606 0.93320465 0.034550663 0.6396763
        0.94655955 0.034564715 0.63979053 0.96044487 0.034579422 0.63990796
        0.97470033 0.034594897 0.64002776 0.9891472 0.034611277 0.6401491
        0.8175754 0.033125445 0.6386829 0.81817615 0.033493817 0.63866955
        0.818713 0.03378655 0.6386593 0.8192362 0.03401696 0.63865215
        0.8197877 0.034197636 0.6386478 0.8204027 0.034337945 0.6386461
        0.821113 0.034444988 0.63864714 0.8219508 0.034524184 0.63865083
        0.822952 0.03457976 0.63865733 0.82416016 0.034615714 0.63866675
        0.82563186 0.03463634 0.63867944 0.8274442 0.03464647 0.6386959
        0.82969576 0.034652043 0.6387167 0.832475 0.03465773 0.6387425
        0.8358263 0.034664594 0.63877374 0.83976746 0.03467219 0.6388107
        0.84432364 0.03468016 0.63885355 0.84953785 0.034688424 0.63890266
        0.8554646 0.034696978 0.63895863 0.8621613 0.03470586 0.6390217
        0.86968094 0.03471509 0.6390922 0.87806684 0.0347247 0.6391704
        0.88734746 0.03473473 0.63925606 0.8975316 0.034745187 0.6393489
        0.90860415 0.034756094 0.6394484 0.92052156 0.03476748 0.63955367
        0.9332098 0.03477936 0.63966393 0.94656336 0.034791782 0.63977826
        0.96044743 0.034804817 0.63989574 0.97470164 0.034818567 0.64001566
        0.9891472 0.03483316 0.6401371 0.81786865 0.03348078 0.6386672
        0.8184054 0.03383829 0.6386536 0.818894 0.034113146 0.6386437
        0.8193823 0.034324598 0.63863707 0.8199095 0.034488108 0.6386333
        0.82050765 0.03461418 0.63863224 0.8212055 0.034710314 0.63863367
        0.822033 0.03478189 0.6386376 0.8230245 0.03483273 0.6386442
        0.8242226 0.034866147 0.6386537 0.8256834 0.03488558 0.63866633
        0.82748455 0.03489496 0.6386827 0.82972586 0.034899592 0.63870347
        0.8324974 0.034904074 0.63872933 0.8358441 0.034909636 0.63876057
        0.83978295 0.03491592 0.6387976 0.844338 0.03492258 0.6388405
        0.8495514 0.034929514 0.6388897 0.8554774 0.034936726 0.63894564
        0.8621734 0.034944247 0.6390088 0.86969227 0.034952104 0.63907945
        0.87807727 0.034960333 0.63915765 0.88735694 0.034968954 0.63924336
        0.8975401 0.034977984 0.6393363 0.90861154 0.034987442 0.6394358
        0.9205278 0.034997348 0.6395412 0.93321484 0.035007723 0.63965154
        0.94656724 0.0350186 0.6397659 0.96045 0.03503005 0.63988346
        0.97470295 0.03504215 0.64000344 0.9891472 0.035055034 0.640125
        0.81812567 0.03386978 0.6386492 0.8186003 0.034203313 0.63863605
        0.8190442 0.034451235 0.638627 0.8195017 0.0346381 0.6386213
        0.8200084 0.034781102 0.6386184 0.82059264 0.03489099 0.638618
        0.82128054 0.0349751 0.63861996 0.8220999 0.035038415 0.63862425
        0.8230839 0.035084166 0.63863105 0.8242742 0.03511488 0.6386406
        0.82572657 0.035133064 0.6386532 0.827519 0.035141703 0.6386695
        0.8297524 0.03514546 0.6386903 0.832518 0.035148818 0.6387161
        0.835861 0.035153165 0.6387474 0.83979803 0.035158224 0.63878447
        0.84435207 0.035163652 0.6388274 0.84956473 0.035169348 0.6388767
        0.8554901 0.03517531 0.6389327 0.8621853 0.035181563 0.6389959
        0.8697034 0.035188142 0.6390666 0.8780876 0.03519508 0.63914484
        0.88736635 0.035202388 0.63923067 0.89754856 0.03521009 0.63932365
        0.9086189 0.0352182 0.6394232 0.9205341 0.03522673 0.63952863
        0.9332199 0.03523569 0.639639 0.94657105 0.035245128 0.6397535
        0.96045256 0.035255086 0.6398712 0.9747042 0.035265643 0.63999116
        0.9891472 0.035276905 0.6401128 0.81834155 0.034288716 0.63862896
        0.8187585 0.034584668 0.63861704 0.81916296 0.03479728 0.6386094
        0.81959474 0.03495488 0.63860494 0.8200851 0.035074785 0.63860303
        0.8206587 0.035167057 0.63860345 0.82133895 0.03523836 0.638606
        0.8221523 0.035293 0.6386107 0.82313067 0.03533346 0.63861775
        0.82431525 0.03536138 0.63862735 0.82576156 0.03537831 0.63864
        0.8275477 0.035386268 0.63865626 0.82977545 0.03538924 0.63867706
        0.8325367 0.035391584 0.63870287 0.8358772 0.035394825 0.6387342
        0.8398127 0.035398766 0.6387713 0.8443659 0.035403077 0.63881433
        0.84957784 0.03540764 0.6388636 0.8555026 0.035412464 0.6389197
        0.86219716 0.03541757 0.63898295 0.8697145 0.035422992 0.6390537
        0.87809783 0.035428755 0.6391321 0.88737565 0.035434872 0.6392179
        0.8975569 0.035441365 0.63931096 0.9086262 0.035448242 0.63941056
        0.9205403 0.035455517 0.63951606 0.9332249 0.035463195 0.6396265
        0.94657487 0.0354713 0.639741 0.9604551 0.035479885 0.6398587
        0.9747055 0.03548901 0.6399788 0.9891472 0.035498776 0.64010054
        0.81851196 0.034732856 0.6386066 0.81887853 0.034977596 0.6385968
        0.8192504 0.035147615 0.63859105 0.81966215 0.035272304 0.63858813
        0.8201405 0.035367247 0.6385875 0.8207065 0.035440963 0.6385888
        0.82138157 0.035499003 0.638592 0.82219076 0.035544764 0.63859713
        0.8231654 0.035579845 0.6386044 0.82434624 0.03560498 0.6386141
        0.8257886 0.035620715 0.63862675 0.8275709 0.035628084 0.6386431
        0.8297951 0.035630397 0.6386638 0.8325537 0.03563186 0.63868964
        0.8358924 0.035634145 0.63872105 0.83982694 0.03563711 0.6387582
        0.8443794 0.03564044 0.6388013 0.8495908 0.035644025 0.63885057
        0.85551494 0.035647854 0.6389067 0.86220884 0.03565196 0.63897
        0.8697254 0.03565637 0.6390408 0.87810796 0.0356611 0.6391192
        0.8873849 0.03566618 0.63920516 0.8975652 0.035671614 0.6392982
        0.9086335 0.035677414 0.6393979 0.9205464 0.03568358 0.6395034
        0.9332299 0.035690118 0.6396139 0.9465787 0.035697043 0.6397285
        0.9604577 0.035704397 0.63984627 0.97470677 0.035712235 0.6399664
        0.9891472 0.035720635 0.6400882 0.818633 0.035196517 0.6385824
        0.8189593 0.03537675 0.6385756 0.8193069 0.035498388 0.6385722
        0.81970495 0.035587665 0.638571 0.82017565 0.035656504 0.6385717
        0.8207372 0.035711184 0.638574 0.8214093 0.035755802 0.63857794
        0.82221615 0.035792667 0.6385835 0.82318884 0.035822432 0.63859105
        0.8243677 0.03584487 0.6386009 0.8258082 0.03585952 0.6386136
        0.82758874 0.035866447 0.6386299 0.82981145 0.03586827 0.63865066
        0.8325689 0.03586904 0.6386765 0.83590674 0.03587054 0.63870794
        0.8398407 0.035872716 0.6387451 0.84439266 0.03587525 0.6387882
        0.84960353 0.035878032 0.63883764 0.85552704 0.035881054 0.6388938
        0.8622203 0.03588434 0.63895714 0.86973625 0.03588792 0.63902795
        0.878118 0.035891812 0.6391064 0.8873941 0.035896033 0.63919234
        0.8975734 0.035900593 0.6392855 0.9086407 0.035905495 0.6393852
        0.92055255 0.035910737 0.6394908 0.93323493 0.035916314 0.63960135
        0.94658244 0.035922244 0.6397159 0.9604602 0.035928547 0.63983375
        0.974708 0.03593528 0.639954 0.9891472 0.03594249 0.64007574
        0.8187019 0.03567317 0.6385566 0.81900096 0.03577649 0.6385537
        0.8193342 0.035845954 0.638553 0.8197251 0.035898477 0.6385538
        0.82019234 0.035940763 0.63855594 0.8207521 0.035976365 0.6385593
        0.8214232 0.03600768 0.6385639 0.82222944 0.03603581 0.63856995
        0.82320166 0.03606042 0.63857776 0.82438034 0.03608033 0.6385877
        0.8258208 0.03609407 0.63860047 0.82760155 0.03610073 0.63861686
        0.8298247 0.03610226 0.6386376 0.8325824 0.03610256 0.63866353
        0.83592033 0.036103502 0.63869494 0.83985406 0.0361051 0.6387322
        0.84440565 0.036107052 0.6387753 0.84961605 0.036109246 0.6388247
        0.855539 0.036111675 0.6388809 0.8622317 0.036114357 0.6389443
        0.86974686 0.036117323 0.63901514 0.8781279 0.036120594 0.63909364
        0.88740313 0.036124177 0.6391796 0.8975816 0.03612808 0.63927275
        0.9086479 0.0361323 0.63937247 0.92055863 0.03613683 0.6394781
        0.9332399 0.036141664 0.63958865 0.9465862 0.036146812 0.63970333
        0.96046275 0.03615228 0.6398212 0.97470933 0.03615811 0.6399414
        0.9891472 0.036164347 0.6400633 0.81871694 0.036155667 0.6385296
        0.8190066 0.03617314 0.63853145 0.8193361 0.036188778 0.6385337
        0.81972593 0.03620419 0.6385366 0.82019305 0.03621998 0.6385402
        0.8207532 0.036236726 0.63854456 0.82142496 0.036254983 0.6385499
        0.82223195 0.0362746 0.6385565 0.82320505 0.036294244 0.6385645
        0.8243849 0.036311787 0.63857466 0.825827 0.03632477 0.6385875
        0.82760984 0.03633134 0.6386038 0.8298352 0.03633276 0.6386246
        0.8325945 0.036332775 0.63865054 0.8359332 0.03633336 0.63868207
        0.83986706 0.03633457 0.63871926 0.8444184 0.036336135 0.6387624
        0.8496284 0.036337934 0.6388118 0.8555509 0.036339965 0.6388681
        0.86224294 0.03634224 0.63893145 0.8697575 0.03634479 0.6390023
        0.8781377 0.036347628 0.6390808 0.88741213 0.036350764 0.63916683
        0.8975897 0.036354207 0.63926 0.908655 0.036357943 0.6393598
        0.9205647 0.03636196 0.6394654 0.9332448 0.036366247 0.639576
        0.94658995 0.036370803 0.6396907 0.96046525 0.036375627 0.63980854
        0.9747106 0.03638075 0.6399288 0.9891472 0.0363862 0.6400507
        0.8186776 0.036636543 0.6385018 0.81898 0.036568824 0.6385086
        0.8193162 0.036530998 0.63851404 0.8197099 0.03650945 0.63851905
        0.82017976 0.036498837 0.6385242 0.8207421 0.036496773 0.63852966
        0.8214156 0.036501992 0.63853574 0.8222245 0.036513083 0.6385428
        0.8231997 0.03652774 0.6385512 0.8243821 0.03654289 0.6385614
        0.8258274 0.036555097 0.6385743 0.82761407 0.036561552 0.6385907
        0.8298432 0.036562882 0.63861156 0.8326054 0.036562633 0.63863754
        0.8359456 0.03656287 0.6386691 0.83987993 0.036563717 0.6387063
        0.84443116 0.03656491 0.6387495 0.8496407 0.036566336 0.63879895
        0.85556275 0.036567982 0.63885516 0.86225414 0.036569867 0.63891864
        0.869768 0.03657202 0.63898945 0.87814754 0.03657445 0.63906795
        0.8874212 0.03657717 0.639154 0.8975978 0.036580168 0.6392472
        0.9086621 0.03658344 0.63934696 0.92057073 0.03658697 0.63945264
        0.9332497 0.036590733 0.6395632 0.9465937 0.03659472 0.6396779
        0.9604678 0.036598925 0.63979584 0.97471184 0.03660336 0.6399161
        0.9891472 0.036608044 0.6400381 0.818585 0.03710837 0.6384737
        0.81891775 0.03696602 0.63848513 0.81927115 0.036877207 0.6384937
        0.8196746 0.03681943 0.6385009 0.8201505 0.03678251 0.6385076
        0.8207171 0.036761492 0.6385142 0.82139415 0.036753427 0.63852113
        0.8222062 0.036755737 0.6385287 0.8231849 0.036765154 0.6385374
        0.8243715 0.036777668 0.6385479 0.82582176 0.036788873 0.63856083
        0.8276141 0.036795024 0.6385773 0.8298489 0.036796056 0.6385982
        0.8326153 0.03679537 0.63862425 0.83595777 0.03679508 0.63865584
        0.8398928 0.036795385 0.63869315 0.844444 0.036796033 0.6387363
        0.84965324 0.036796905 0.6387858 0.85557467 0.036797993 0.6388421
        0.8622655 0.036799323 0.6389055 0.8697787 0.036800906 0.63897645
        0.87815744 0.03680276 0.63905495 0.8874302 0.036804885 0.63914096
        0.8976059 0.03680728 0.6392342 0.90866923 0.03680992 0.639334
        0.9205768 0.036812793 0.6394397 0.93325466 0.036815867 0.6395503
        0.94659746 0.036819123 0.63966507 0.9604703 0.036822543 0.639783
        0.97471315 0.036826126 0.6399033 0.9891472 0.03682988 0.6400253
        0.8184413 0.037564144 0.6384457 0.8188165 0.03736121 0.6384612
        0.81919664 0.03722607 0.63847274 0.81961644 0.037133846 0.63848215
        0.8201025 0.037071276 0.63849044 0.8206761 0.03703143 0.63849825
        0.8213587 0.03700998 0.638506 0.8221758 0.037003294 0.6385141
        0.8231597 0.037007224 0.6385232 0.8243522 0.037016846 0.6385339
        0.8258095 0.037026804 0.638547 0.82760966 0.037032403 0.6385635
        0.8298519 0.03703292 0.63858455 0.832624 0.037031565 0.6386107
        0.8359695 0.03703054 0.6386424 0.8399057 0.03703009 0.6386797
        0.8444569 0.037029978 0.63872296 0.84966576 0.03703009 0.6387725
        0.8555867 0.037030417 0.6388288 0.8622769 0.037030973 0.63889223
        0.8697894 0.03703178 0.6389632 0.8781674 0.037032854 0.6390418
        0.8874393 0.037034184 0.63912785 0.8976141 0.037035767 0.6392211
        0.90867645 0.03703758 0.63932097 0.92058295 0.0370396 0.63942665
        0.9332596 0.037041787 0.63953733 0.9466012 0.037044108 0.63965213
        0.9604728 0.037046548 0.6397701 0.9747144 0.037049085 0.6398905
        0.9891472 0.03705172 0.6400125 0.8182499 0.037997574 0.63841814
        0.81867605 0.037748553 0.63843703 0.81909084 0.037573766 0.63845134
        0.8195331 0.03745013 0.63846284 0.8200338 0.03736333 0.63847274
        0.82061756 0.03730526 0.63848174 0.821308 0.037270606 0.6384903
        0.8221321 0.03725491 0.6384991 0.82312316 0.037253216 0.63850856
        0.82432365 0.03725977 0.6385195 0.8257901 0.037268274 0.63853276
        0.8276004 0.037273113 0.63854945 0.82985234 0.037272908 0.6385706
        0.83263147 0.037270702 0.6385969 0.83598083 0.03726876 0.6386286
        0.83991843 0.037267372 0.63866603 0.84446985 0.037266314 0.6387093
        0.8496784 0.037265487 0.6387589 0.8555988 0.037264872 0.6388152
        0.8622884 0.037264485 0.63887876 0.8698002 0.037264347 0.6389498
        0.8781774 0.03726446 0.63902843 0.8874485 0.037264824 0.6391145
        0.8976223 0.037265424 0.6392078 0.9086836 0.037266236 0.63930774
        0.920589 0.03726723 0.6394135 0.9332646 0.037268355 0.6395242
        0.94660497 0.037269585 0.6396391 0.9604754 0.037270874 0.6397571
        0.97471565 0.037272204 0.63987756 0.9891472 0.03727355 0.6399996
        0.81801516 0.038403306 0.6383916 0.81849784 0.038122427 0.63841313
        0.8189533 0.037916154 0.63842976 0.8194234 0.037765384 0.63844323
        0.819943 0.037656583 0.6384547 0.82054013 0.037581407 0.6384648
        0.821241 0.037534077 0.6384743 0.82207435 0.03750955 0.63848364
        0.8230746 0.03750224 0.63849354 0.8242853 0.03750562 0.63850474
        0.82576346 0.03751252 0.6385182 0.82758623 0.03751643 0.6385351
        0.8298499 0.037515342 0.63855636 0.83263767 0.037512142 0.63858277
        0.8359917 0.037509136 0.6386146 0.8399311 0.037506666 0.63865215
        0.84448284 0.03750453 0.6386955 0.8496911 0.037502624 0.6387451
        0.85561097 0.03750092 0.6388016 0.8622999 0.037499458 0.6388652
        0.869811 0.03749823 0.6389362 0.8781874 0.037497252 0.6390149
        0.8874576 0.03749651 0.6391011 0.8976305 0.037495997 0.6391944
        0.9086908 0.03749568 0.6392943 0.92059517 0.03749551 0.6394002
        0.93326956 0.03749545 0.639511 0.9466088 0.037495445 0.63962585
        0.9604779 0.037495457 0.639744 0.9747169 0.03749545 0.6398645
        0.9891472 0.03749538 0.6399867 0.81774175 0.038777042 0.63836634
        0.818284 0.038477857 0.6383897 0.81878406 0.038249213 0.6384083
        0.8192866 0.038076725 0.63842344 0.8198291 0.037948996 0.63843626
        0.82044286 0.03785841 0.63844746 0.82115674 0.037799284 0.63845783
        0.82200164 0.03776634 0.6384678 0.8230135 0.03775355 0.63847816
        0.82423687 0.03775373 0.63848966 0.8257292 0.037758913 0.6385034
        0.82756716 0.037761766 0.6385204 0.8298448 0.037759677 0.63854194
        0.8326426 0.037755366 0.63856846 0.8360021 0.037751187 0.63860047
        0.8399436 0.03774753 0.6386381 0.8444958 0.0377442 0.63868153
        0.8497037 0.037741106 0.63873124 0.8556231 0.037738226 0.6387877
        0.8623115 0.037735566 0.63885134 0.86982185 0.037733145 0.6389225
        0.87819743 0.03773097 0.6390012 0.8874668 0.03772902 0.63908744
        0.89763874 0.03772729 0.63918084 0.908698 0.037725728 0.6392809
        0.9206013 0.037724297 0.6393868 0.93327457 0.03772294 0.6394977
        0.94661254 0.037721608 0.6396126 0.96048045 0.037720237 0.6397308
        0.97471815 0.037718788 0.6398514 0.9891472 0.037717205 0.63997364
        0.81743485 0.03911547 0.63834274 0.8180372 0.038810477 0.6383672
        0.8185841 0.03856904 0.6383871 0.8191222 0.038381252 0.6384036
        0.81969106 0.038238566 0.63841766 0.82032454 0.038134888 0.63842994
        0.8210542 0.03806525 0.638441 0.8219131 0.038024556 0.63845164
        0.82293904 0.03800656 0.6384624 0.82417786 0.038003597 0.6384742
        0.8256872 0.038007002 0.63848823 0.8275431 0.03800869 0.6385055
        0.8298369 0.03800549 0.6385273 0.83264637 0.037999976 0.63855404
        0.83601207 0.037994545 0.6385861 0.839956 0.03798962 0.63862383
        0.84450865 0.037985023 0.63866735 0.8497164 0.03798066 0.6387172
        0.8556353 0.037976503 0.6387737 0.86232305 0.037972577 0.6388374
        0.8698327 0.03796888 0.6389086 0.8782075 0.037965424 0.6389874
        0.88747597 0.037962187 0.6390737 0.897647 0.037959147 0.63916725
        0.90870523 0.037956264 0.6392673 0.9206074 0.03795349 0.63937324
        0.9332795 0.037950758 0.6394842 0.9466163 0.037948005 0.63959926
        0.96048295 0.037945177 0.6397175 0.97471946 0.0379422 0.63983816
        0.9891472 0.037939023 0.6399606 0.8170995 0.03941639 0.6383209
        0.8177609 0.039116595 0.6383458 0.8183547 0.03887185 0.6383665
        0.81893015 0.03867597 0.638384 0.819528 0.03852321 0.63839895
        0.820184 0.038409486 0.6384121 0.8209321 0.03833112 0.638424
        0.82180774 0.038283635 0.6384352 0.8228506 0.038260877 0.6384464
        0.82410777 0.038254898 0.6384586 0.82563734 0.0382565 0.6384729
        0.827514 0.038256925 0.63849044 0.8298264 0.038252525 0.63851243
        0.83264893 0.038245745 0.6385394 0.8360216 0.038238995 0.6385716
        0.8399682 0.038232736 0.6386094 0.8445216 0.038226806 0.63865304
        0.8497291 0.038221106 0.6387029 0.8556475 0.03821561 0.63875955
        0.8623346 0.038210344 0.6388234 0.86984354 0.038205307 0.6388946
        0.8782176 0.038200494 0.6389735 0.8874852 0.038195897 0.6390599
        0.89765525 0.038191486 0.6391534 0.9087125 0.038187213 0.6392536
        0.9206135 0.03818302 0.63935965 0.93328446 0.038178843 0.6394707
        0.94662005 0.038174607 0.6395858 0.9604855 0.038170245 0.6397041
        0.9747207 0.03816568 0.6398249 0.9891472 0.038160834 0.63994735
        0.81674117 0.03967796 0.6383012 0.8174589 0.039393052 0.63832587
        0.81809837 0.039153893 0.6383468 0.8187109 0.03895752 0.63836473
        0.8193391 0.038800437 0.63838035 0.8200199 0.03868057 0.6383942
        0.8207891 0.038595878 0.63840663 0.8216843 0.038542934 0.6384184
        0.8227472 0.03851607 0.63843006 0.82402605 0.038507313 0.6384427
        0.8255792 0.03850711 0.63845724 0.8274799 0.038506206 0.6384751
        0.8298133 0.038500536 0.6384974 0.8326504 0.038492434 0.63852453
        0.8360307 0.038484324 0.63855696 0.83998036 0.03847668 0.63859487
        0.84453446 0.03846936 0.6386386 0.8497418 0.03846227 0.63868856
        0.8556597 0.038455393 0.63874525 0.86234623 0.038448732 0.63880914
        0.86985445 0.038442295 0.63888055 0.8782277 0.03843608 0.63895947
        0.8874944 0.03843007 0.6390459 0.89766353 0.038424227 0.63913953
        0.9087197 0.038418498 0.63923985 0.92061967 0.038412835 0.63934594
        0.93328947 0.038407154 0.63945705 0.94662386 0.038401376 0.63957226
        0.960488 0.038395423 0.6396907 0.97472197 0.038389206 0.6398115
        0.9891472 0.038382646 0.63993406 0.81636274 0.03990051 0.6382836
        0.81713486 0.039637823 0.6383076 0.8178175 0.03941199 0.6383282
        0.8184656 0.039222706 0.63834614 0.8191238 0.039067812 0.638362
        0.8198306 0.038946662 0.6383762 0.82062316 0.03885884 0.6383891
        0.8215409 0.038802296 0.6384013 0.8226273 0.03877223 0.6384134
        0.8239319 0.03876102 0.6384264 0.8255126 0.038759053 0.6384414
        0.82744074 0.038756736 0.6384596 0.82979774 0.038749713 0.63848215
        0.8326509 0.038740225 0.6385096 0.83603954 0.03873069 0.6385422
        0.83999246 0.038721602 0.6385802 0.84454733 0.038712837 0.638624
        0.8497546 0.0387043 0.6386741 0.855672 0.038695965 0.6387308
        0.86235785 0.038687848 0.63879484 0.86986536 0.03867995 0.6388663
        0.8782378 0.03867226 0.6389453 0.8875036 0.038664766 0.6390318
        0.89767176 0.038657427 0.6391256 0.90872693 0.038650185 0.6392259
        0.9206258 0.03864298 0.6393321 0.9332944 0.038635723 0.63944334
        0.9466276 0.03862834 0.6395586 0.9604905 0.038620725 0.6396771
        0.9747232 0.038612798 0.6397981 0.9891472 0.03860445 0.6399207
        0.81597584 0.040080372 0.63826853 0.81679434 0.03984866 0.63829106
        0.8175167 0.039642718 0.63831097 0.8181972 0.039467227 0.63832843
        0.8188835 0.03932109 0.6383441 0.81961596 0.03920424 0.63835835
        0.82043344 0.03911733 0.6383715 0.82137656 0.039059702 0.63838404
        0.82249033 0.039027758 0.63839656 0.8238248 0.03901465 0.63841
        0.82543737 0.039011054 0.63842535 0.82739675 0.039007317 0.63844395
        0.82977986 0.038998935 0.63846684 0.8326504 0.038988072 0.6384945
        0.83604807 0.03897713 0.6385273 0.84000444 0.03896662 0.63856536
        0.8445602 0.03895642 0.6386093 0.8497673 0.03894644 0.6386595
        0.8556843 0.03893666 0.63871634 0.8623695 0.038927086 0.6387804
        0.8698763 0.03891772 0.63885194 0.8782479 0.03890856 0.63893104
        0.8875129 0.038899574 0.6390177 0.89768004 0.038890727 0.6391115
        0.9087342 0.03888196 0.63921195 0.92063195 0.038873196 0.6393182
        0.9332994 0.03886436 0.6394295 0.9466314 0.038855348 0.6395449
        0.960493 0.03884606 0.6396635 0.97472453 0.0388364 0.6397846
        0.9891472 0.03882625 0.6399073 0.8155592 0.04022719 0.6382552
        0.81643605 0.040026553 0.63827646 0.81719726 0.039845213 0.63829523
        0.81790614 0.039689712 0.6383118 0.8186159 0.039559547 0.6383268
        0.8193713 0.039454088 0.6383406 0.8202135 0.03937383 0.63835365
        0.8211849 0.03931885 0.6383663 0.82233095 0.039286915 0.63837916
        0.8237013 0.039272565 0.638393 0.82535154 0.03926736 0.63840884
        0.82734686 0.039261993 0.63842785 0.82975936 0.039252 0.6384511
        0.83264905 0.03923952 0.63847905 0.8360563 0.03922693 0.638512
        0.8400165 0.039214756 0.63855034 0.84457314 0.039202888 0.6385943
        0.8497802 0.03919124 0.6386446 0.8556966 0.039179783 0.6387016
        0.8623812 0.039168533 0.63876575 0.8698873 0.039157484 0.6388374
        0.8782581 0.03914663 0.6389166 0.88752216 0.03913594 0.63900334
        0.8976884 0.039125375 0.6390973 0.9087415 0.039114874 0.63919777
        0.92063814 0.039104357 0.6393042 0.9333044 0.039093733 0.63941556
        0.9466351 0.0390829 0.6395311 0.9604956 0.039071754 0.6396498
        0.9747258 0.039060175 0.6397709 0.9891472 0.039048042 0.63989383
        0.81520873 0.040316578 0.63824606 0.81608015 0.040167525 0.63826406
        0.8168708 0.040015027 0.6382814 0.8176059 0.039881818 0.63829696
        0.8183367 0.03977056 0.638311 0.8191125 0.03968029 0.6383241
        0.81997865 0.03961055 0.6383367 0.8209797 0.0395613 0.63834935
        0.8221611 0.039531425 0.63836247 0.8235709 0.03951703 0.63837665
        0.8252619 0.039510965 0.6383929 0.8272955 0.039504584 0.6384124
        0.8297384 0.039493676 0.638436 0.83264744 0.03948035 0.6384642
        0.8360644 0.0394669 0.6384973 0.8400283 0.039453823 0.63853574
        0.8445859 0.039441027 0.6385798 0.84979284 0.03942842 0.6386301
        0.8557088 0.039415997 0.6386872 0.8623928 0.039403744 0.6387514
        0.86989814 0.03939167 0.6388231 0.8782682 0.039379764 0.63890237
        0.8875314 0.039367996 0.63898915 0.8976966 0.039356317 0.63908315
        0.9087487 0.039344665 0.63918376 0.9206442 0.039332956 0.6392902
        0.9333094 0.039321095 0.6394017 0.9466389 0.039308973 0.63951725
        0.9604981 0.039296474 0.63963604 0.97472703 0.039283477 0.63975734
        0.9891472 0.03926984 0.6398803 0.81504524 0.04034996 0.6382423
        0.8157763 0.04026778 0.63825476 0.81656694 0.040146593 0.6382702
        0.81733114 0.040030558 0.6382849 0.818093 0.03993002 0.63829863
        0.8188974 0.039846692 0.6383117 0.8197911 0.0397812 0.6383244
        0.82082015 0.039734367 0.6383371 0.82203114 0.039705902 0.63835037
        0.82347214 0.039692577 0.63836485 0.8251948 0.03968762 0.63838136
        0.82725775 0.03968262 0.63840103 0.8297239 0.039673496 0.63842475
        0.8326477 0.039662234 0.63845295 0.83607197 0.039650943 0.63848597
        0.84003866 0.039640054 0.63852423 0.844597 0.039629467 0.6385682
        0.84980386 0.039619096 0.6386184 0.85571945 0.03960893 0.63867533
        0.862403 0.039598975 0.63873947 0.8699078 0.039589223 0.63881093
        0.87827724 0.039579663 0.6388901 0.88753974 0.03957027 0.63897675
        0.8977042 0.039560992 0.6390706 0.9087554 0.039551765 0.639171
        0.92065 0.0395425 0.63927734 0.93331414 0.039533097 0.6393887
        0.9466426 0.03952344 0.6395041 0.9605006 0.039513405 0.6396227
        0.9747283 0.03950285 0.6397438 0.9891472 0.039491624 0.6398666
        0.8149374 0.04037165 0.63823986 0.815534 0.040336914 0.638248
        0.81629366 0.04024748 0.63826114 0.81708163 0.040146388 0.63827527
        0.81788075 0.040051598 0.638289 0.8187197 0.039970033 0.6383022
        0.81964254 0.039905 0.6383152 0.82069737 0.03985851 0.6383282
        0.82193285 0.039830748 0.63834167 0.8233982 0.039818592 0.6383563
        0.825145 0.039815214 0.63837296 0.8272303 0.039812185 0.6383927
        0.8297139 0.039805453 0.63841647 0.83264863 0.03979691 0.63844454
        0.8360784 0.03978853 0.63847744 0.8400472 0.039780695 0.6385156
        0.84460604 0.039773323 0.6385594 0.8498128 0.03976635 0.63860935
        0.8557282 0.039759774 0.63866603 0.8624114 0.039753627 0.63872993
        0.86991584 0.039747927 0.63880116 0.8782848 0.039742697 0.6388801
        0.88754684 0.039737925 0.63896644 0.89771074 0.039733615 0.63905996
        0.9087613 0.03972973 0.63916004 0.9206552 0.039726242 0.639266
        0.9333185 0.039723106 0.63937694 0.946646 0.039720286 0.6394919
        0.960503 0.03971774 0.6396101 0.97472954 0.039715454 0.63973063
        0.9891472 0.0397134 0.6398529 0.81479776 0.040399544 0.63823676
        0.8153189 0.040390227 0.6382425 0.8160182 0.040335 0.6382529
        0.8167966 0.04025991 0.6382653 0.81761676 0.04018217 0.63827825
        0.818488 0.04011105 0.6382911 0.8194447 0.040052295 0.63830405
        0.82053286 0.040009655 0.63831717 0.8218016 0.03998437 0.6383308
        0.8233005 0.039973926 0.63834566 0.82508016 0.03997197 0.6383625
        0.8271948 0.039970648 0.63838243 0.8297009 0.03996621 0.6384063
        0.8326495 0.039960325 0.63843435 0.836086 0.039954714 0.6384672
        0.8400573 0.0399497 0.63850516 0.84461683 0.039945196 0.63854873
        0.8498235 0.039941166 0.63859856 0.85573846 0.039937623 0.63865507
        0.8624212 0.03993459 0.6387187 0.86992514 0.039932095 0.6387898
        0.8782936 0.039930154 0.63886845 0.88755494 0.03992878 0.6389546
        0.89771813 0.03992796 0.63904786 0.9087679 0.039927673 0.63914776
        0.9206609 0.03992789 0.6392535 0.9333232 0.039928563 0.6393641
        0.9466496 0.03992966 0.63947886 0.9605055 0.03993114 0.6395968
        0.9747308 0.03993299 0.6397171 0.9891472 0.03993518 0.63983905
        0.81464565 0.040429685 0.6382333 0.81512326 0.04043235 0.6382379
        0.81576085 0.040404554 0.638246 0.81650627 0.040357888 0.6382563
        0.8173277 0.04030368 0.6382677 0.8182232 0.040249858 0.63827986
        0.8192149 0.040202767 0.6382924 0.82034177 0.040167462 0.6383054
        0.82165056 0.04014646 0.63831925 0.8231897 0.040138245 0.63833433
        0.8250078 0.0401375 0.6383515 0.827156 0.04013758 0.63837165
        0.829687 0.040135358 0.63839555 0.83265054 0.04013213 0.6384236
        0.8360942 0.040129248 0.6384563 0.84006816 0.040126953 0.63849413
        0.8446283 0.040125184 0.6385376 0.84983474 0.04012392 0.6385872
        0.8557493 0.040123183 0.6386435 0.8624315 0.04012299 0.638707
        0.8699349 0.04012338 0.6387779 0.8783027 0.040124368 0.63885635
        0.88756335 0.04012595 0.63894236 0.8977258 0.040128127 0.63903546
        0.9087747 0.040130872 0.63913506 0.92066675 0.040134143 0.6392406
        0.93332803 0.0401379 0.63935107 0.94665337 0.040142093 0.63946563
        0.960508 0.040146694 0.63958335 0.9747321 0.040151652 0.63970345
        0.9891472 0.04015695 0.6398252 0.81447417 0.040463384 0.6382294
        0.8149373 0.040468026 0.6382338 0.8155229 0.040458858 0.63824016
        0.8162206 0.04043857 0.6382483 0.8170198 0.04041192 0.6382579
        0.81792235 0.04038284 0.63826853 0.81894374 0.040355388 0.63828015
        0.82011354 0.04033371 0.63829273 0.82147115 0.040320616 0.63830656
        0.8230601 0.040315814 0.6383219 0.82492495 0.04031603 0.63833946
        0.82711256 0.04031701 0.6383599 0.8296717 0.04031679 0.6383839
        0.83265173 0.040316142 0.638412 0.8361031 0.040315844 0.63844466
        0.8400799 0.04031604 0.63848233 0.84464055 0.04031672 0.63852566
        0.84984684 0.04031786 0.6385751 0.8557609 0.04031951 0.6386313
        0.8624425 0.04032169 0.6386946 0.8699452 0.040324416 0.63876534
        0.87831235 0.04032771 0.63884366 0.8875722 0.040331576 0.6389294
        0.89773375 0.040335987 0.6390224 0.90878177 0.04034091 0.63912195
        0.9206728 0.040346317 0.63922733 0.933333 0.040352147 0.63933766
        0.9466571 0.04035835 0.63945204 0.9605106 0.040364876 0.63956964
        0.9747334 0.040371675 0.6396896 0.9891472 0.04037872 0.6398112
        0.81428224 0.040500723 0.6382252 0.814752 0.040501017 0.63822985
        0.81530297 0.040501364 0.63823533 0.815949 0.04050177 0.63824165
        0.81670606 0.04050224 0.6382491 0.8175925 0.040502787 0.63825774
        0.8186297 0.040503424 0.63826776 0.81984204 0.04050416 0.6382794
        0.8212576 0.040505014 0.63829285 0.8229083 0.040506005 0.6383084
        0.8248302 0.04050715 0.63832647 0.827064 0.040508475 0.6383473
        0.82965493 0.04051001 0.6383715 0.83265305 0.040511794 0.63839966
        0.83611274 0.04051386 0.6384322 0.8400924 0.040516246 0.63846976
        0.84465367 0.040518984 0.63851297 0.84985965 0.040522113 0.6385623
        0.85577315 0.04052567 0.63861835 0.8624541 0.040529683 0.63868153
        0.86995614 0.040534165 0.63875216 0.87832236 0.040539127 0.63883036
        0.8875814 0.040544566 0.6389161 0.89774203 0.040550455 0.6390089
        0.90878904 0.040556766 0.63910836 0.920679 0.040563446 0.6392136
        0.93333805 0.040570445 0.6393239 0.946661 0.0405777 0.6394382
        0.9605132 0.040585157 0.6395557 0.9747347 0.040592764 0.6396756
        0.9891472 0.04060048 0.6397972
        <InformationKey name="L2_NORM_RANGE" location="vtkDataArray" length="2">
          <Value index="0">
            1.0349012172
          </Value>
          <Value index="1">
            1.1787285856
          </Value>
        </InformationKey>
      </DataArray>
    </Points>
  </Piece>
  </StructuredGrid>
</VTKFile>
