<?xml version="1.0"?>
<VTKFile type="StructuredGrid" version="0.1" byte_order="LittleEndian" header_type="UInt32" compressor="vtkZLibDataCompressor">
  <StructuredGrid WholeExtent="0 240 0 4 0 0">
  <Piece Extent="0 240 0 4 0 0">
    <PointData>
      <DataArray type="Float32" Name="orthogonality" format="ascii" RangeMin="1.009813672681048e-06" RangeMax="0.4329289197921753">
        0.00040840602 0.05110387 0.07473987 0.08426631 0.086080745 0.083636485
        0.07907139 0.073960096 0.06961631 0.06760608 0.06892136 0.07774238
        0.08865202 0.13294259 0.16579702 0.13498314 0.12615016 0.11787473
        0.10841864 0.09805359 0.08683728 0.07502039 0.06292413 0.05095575
        0.039560128 0.029167693 0.020133715 0.012687993 0.006906704 0.0027136046
        9.10233e-05 0.0017826819 0.0026593562 0.0029955758 0.003012745 0.0028684135
        0.0026612005 0.0024446188 0.002242862 0.0020636634 0.0019070025 0.0017701007
        0.0016496002 0.0015423837 0.0014458229 0.0013578008 0.0012766912 0.0012013242
        0.0011309702 0.0010652299 0.0010041693 0.0009472687 0.00089194806 0.00083297584
        0.0007710037 0.0006909967 0.0006276773 0.0004697431 0.0005252929 1.3479541e-05
        0.00016405252 0.00018533572 0.00012681202 7.458739e-05 2.5031402e-06 5.755359e-06
        5.7714115e-06 1.9031369e-06 1.8720368e-05 3.8069193e-05 3.8481678e-05 1.934327e-06
        8.334357e-05 0.0001939775 0.0003129935 0.00041583186 0.0004854624 0.0005171726
        0.0005184692 0.0005073142 0.00050230307 0.0005169577 0.0005630646 0.0006521779
        0.00079677923 0.0010106574 0.0013082598 0.0017025423 0.0022010515 0.00280048
        0.0034806868 0.0041998215 0.004892394 0.00547162 0.0058363117 0.0058813104
        0.0055095847 0.0046436274 0.003235001 0.0012682742 0.0012303485 0.0042190696
        0.0075531476 0.011307781 0.01474463 0.01932088 0.02317724 0.028664842
        0.03344846 0.039686166 0.046196368 0.05302885 0.05945766 0.064714946
        0.06771671 0.067257 0.06225287 0.0520068 0.037084784 0.018628769
        0.00070479326 0.017280227 0.035907395 0.05105746 0.06152726 0.06670289
        0.06726151 0.06428802 0.059003502 0.05251226 0.045599274 0.039010555
        0.032695055 0.027875567 0.02232292 0.01846543 0.013844905 0.01040443
        0.00662831 0.0032820727 0.00028488832 0.0022142765 0.0041734357 0.0055660987
        0.0064083594 0.0067496398 0.0066684457 0.006262387 0.0056365025 0.004891076
        0.0041113724 0.003361092 0.0026804095 0.0020881954 0.0015870094 0.001169058
        0.00082158187 0.0005308173 0.00028440641 7.26149e-05 0.00011113247 0.00026982574
        0.0004023597 0.0005013969 0.0005576555 0.00056735653 0.00053405226 0.00047130682
        0.00040142058 0.0003471327 0.00032488594 0.00033990107 0.00037486106 0.00041059952
        0.00043805988 0.00046514216 0.00043207212 0.0004027352 0.00029321486 0.00044941905
        0.0004406932 0.00032436283 7.287805e-05 0.00010911065 4.912529e-05 4.1357947e-05
        3.1443058e-05 3.4477856e-05 4.2001317e-05 5.3072818e-05 6.398087e-05 7.304807e-05
        8.098044e-05 8.920731e-05 9.9070894e-05 0.00011185977 0.00012871294 0.00015059739
        0.00017828854 0.00021233263 0.000252882 0.0002991647 0.00034798804 0.00039019162
        0.00040378454 0.00034260185 0.00012141281 0.0003986446 0.0014181818 0.0031939654
        0.006014668 0.010158467 0.015839702 0.023157129 0.03205801 0.042329375
        0.053620633 0.06549277 0.077481285 0.08915726 0.10017254 0.110282265
        0.11935391 0.12731253 0.13439426 0.14089365 0.17217588 0.13660488
        0.08904841 0.075954534 0.065404505 0.06293358 0.06431451 0.06853144
        0.07397612 0.07926898 0.0827392 0.082116626 0.07377334 0.051075827
        0.0009730529 0.3668676 0.27347896 0.19337852 0.13117309 0.08193676
        0.042098068 0.0088913655 0.020021798 0.04674318 0.07340722 0.10177141
        0.13494778 0.17151265 0.22541875 0.2614347 0.23805776 0.2106106
        0.19247055 0.17071454 0.14892052 0.12694308 0.105540186 0.08528615
        0.06674512 0.05036471 0.036442634 0.02509852 0.016272556 0.009747613
        0.0051913927 0.0022100348 0.0004026338 0.00059350306 0.001073847 0.0012559836
        0.0012845289 0.0012457053 0.0011850453 0.0011231877 0.0010671567 0.0010178997
        0.00097455917 0.00093588023 0.0009006075 0.00086766295 0.00083620683 0.00080567173
        0.0007757723 0.0007465246 0.0007181571 0.0006912418 0.0006653594 0.0006374627
        0.0006019161 0.00055953173 0.0004953131 0.00044457373 0.0002952922 0.0003572157
        0.00014968385 0.0002897576 0.00035829082 4.7160334e-05 0.00024250298 0.00014923472
        0.00013022922 0.00011065144 7.750574e-05 2.5429534e-05 4.0038718e-05 9.096798e-05
        9.379018e-05 3.909615e-05 6.661499e-05 0.00020208658 0.00033535075 0.00043686407
        0.0004867662 0.00047828376 0.00042066572 0.00032749923 0.00020530351 5.521714e-05
        0.0001262437 0.00034683093 0.0006190258 0.0009612003 0.0013994512 0.0019698553
        0.0027206277 0.0037133922 0.0050226757 0.006732916 0.008932736 0.01170688
        0.015126836 0.019241478 0.02406937 0.029593198 0.03575945 0.042473845
        0.049627874 0.05702464 0.06466463 0.07185483 0.07979166 0.08743794
        0.095730625 0.103081465 0.1109792 0.11823734 0.124536656 0.12894736
        0.13048443 0.1279736 0.120265804 0.10650277 0.08640366 0.060841497
        0.03146728 0.001330707 0.028878337 0.05845347 0.08429727 0.10469931
        0.1187349 0.12665455 0.12930794 0.12785143 0.12347519 0.11718081
        0.10991693 0.102006525 0.094667345 0.086361594 0.078727834 0.07078962
        0.063636154 0.056032114 0.048689596 0.041604534 0.034976143 0.028911702
        0.023503479 0.018801581 0.014819156 0.011533189 0.008890703 0.0068170344
        0.005225555 0.0040271943 0.0031383566 0.0024862997 0.0020116735 0.0016685697
        0.0014228496 0.0012496272 0.0011306262 0.0010518188 0.0010014473 0.0009683415
        0.0009402417 0.00090230274 0.00083571405 0.0007289332 0.0005881386 0.0004317448
        0.00028610564 0.00017869755 0.00012699136 0.00013516626 0.0001933075 0.00026821738
        0.0003327071 0.0003788026 0.0004163524 0.00037715555 0.00033543608 0.00021770365
        0.0003711817 0.000327893 0.00023341912 2.689392e-05 5.5262944e-06 5.8922917e-05
        6.792906e-05 7.758368e-05 7.220676e-05 6.0541188e-05 4.367066e-05 2.6217853e-05
        1.09351795e-05 2.4641392e-06 1.5382948e-05 2.9167695e-05 4.5124478e-05 6.443015e-05
        8.812647e-05 0.000117122196 0.00015219292 0.00019388413 0.00024210077 0.00029478606
        0.00034508467 0.00037665764 0.0003549763 0.0002135458 0.00016273001 0.0009535088
        0.0024126272 0.004865189 0.008687818 0.014271783 0.021973565 0.03206144
        0.04466837 0.059760574 0.0771281 0.09639854 0.11707453 0.1385733
        0.16033006 0.18163022 0.20266137 0.21993542 0.24650125 0.26972404
        0.23162952 0.1750103 0.13611893 0.101076365 0.07138478 0.043972354
        0.017078448 0.011482053 0.04391274 0.08270044 0.13079563 0.19197674
        0.27138638 0.3648096 0.43292892 0.36531535 0.29587677 0.2319056
        0.17495225 0.12530003 0.082326524 0.04486235 0.011517649 0.019130416
        0.04816984 0.07684514 0.10432443 0.13408972 0.15365764 0.13966072
        0.10986272 0.09450056 0.07669733 0.061157126 0.047302913 0.035528667
        0.025845725 0.018191494 0.012388102 0.008185415 0.005290288 0.0033996715
        0.0022296056 0.0015376472 0.0011357011 0.00089234934 0.0007261633 0.0005935454
        0.00047531488 0.0003653718 0.00026302497 0.00016890404 8.348527e-05 7.2214784e-06
        5.9709244e-05 0.00011774428 0.00016749877 0.0002094986 0.00024420524 0.00027207716
        0.00029363958 0.00030952872 0.00032054118 0.0003275651 0.00033175029 0.00033320117
        0.00032941785 0.0003153085 0.00029228802 0.00024566523 0.00021143239 7.736511e-05
        0.00015361683 0.00033431465 0.00041735184 0.0005327737 0.00021814453 0.00041002338
        0.00031405772 0.00029427654 0.0002740722 0.00024082384 0.00018877127 0.00012251324
        6.880674e-05 6.0633065e-05 0.00010751184 0.00020382882 0.00032973802 0.00045465774
        0.00054988597 0.00059531786 0.00058264734 0.0005189261 0.00041543468 0.00027583045
        9.7912256e-05 0.00012578019 0.00040761495 0.00076500874 0.0012206532 0.0018025328
        0.0025433889 0.0034793883 0.0046479637 0.00608506 0.007822217 0.009883964
        0.012285842 0.015033157 0.01812034 0.02153086 0.025237046 0.029202051
        0.03337559 0.037714813 0.042118438 0.046660345 0.05086095 0.05576304
        0.060961008 0.065840684 0.0695782 0.07322141 0.07592827 0.07749733
        0.07742097 0.07529173 0.07076663 0.063697636 0.054199725 0.042622276
        0.029554198 0.015486882 0.00075232727 0.01400168 0.028123358 0.04127936
        0.05297399 0.062608816 0.06982087 0.07448197 0.07673106 0.07690774
        0.07541974 0.072779395 0.069187105 0.06550047 0.06064193 0.05544813
        0.050562374 0.04640478 0.041907687 0.037560202 0.033284612 0.029182341
        0.025294581 0.021670008 0.018343462 0.015340514 0.012675628 0.01035257
        0.008364656 0.006695583 0.0053207874 0.0042094607 0.0033270912 0.0026381994
        0.0021088023 0.0017082123 0.0014099507 0.001191807 0.0010352288 0.0009242644
        0.00084424415 0.00078014913 0.00071503693 0.00062826974 0.00050759513 0.0003597861
        0.00020356542 6.46685e-05 3.1309406e-05 6.989981e-05 4.977136e-05 1.7539332e-05
        9.8211516e-05 0.0001659063 0.00021380658 0.0002533446 0.00021551695 0.00017663991
        5.9244103e-05 0.00021535375 0.00014362941 8.757046e-05 0.00017150972 0.00013841715
        0.0002059139 0.00021854014 0.00023378326 0.00023530549 0.00023195542 0.00022459979
        0.00021784869 0.00021453857 0.00021451215 0.00021654402 0.00021951401 0.00022236565
        0.00022419727 0.00022426639 0.00022198258 0.00021687053 0.00020851969 0.00019652204
        0.00018058103 0.0001605675 0.00013543475 0.00010241757 5.804731e-05 1.0098137e-06
        6.16562e-05 0.00010427041 6.893682e-05 0.00014858478 0.00070939754 0.0018341682
        0.003795367 0.006898915 0.011457343 0.017758096 0.026029704 0.036413647
        0.04892438 0.06349706 0.07967486 0.09803547 0.11358137 0.14412157
        0.15812393 0.13818143 0.107874215 0.07974066 0.050492577 0.02100905
        0.009899048 0.04330286 0.080641516 0.1233522 0.17267495 0.22931436
        0.29306522 0.3624344 0.43022937 0.34453964 0.29944757 0.25134853
        0.20822683 0.17010249 0.1367642 0.107823424 0.08279417 0.061174773
        0.04245928 0.026199361 0.011643235 0.0014126713 0.015686588 0.026873125
        0.018854182 0.007184898 0.014664637 0.02185726 0.025162634 0.02602332
        0.024815878 0.02215309 0.018570116 0.0145663405 0.010566971 0.0069050463
        0.0038062162 0.0013853883 0.0003437736 0.0014472363 0.002041216 0.002261357
        0.0022367756 0.0020732048 0.0018463037 0.0016032862 0.0013693454 0.0011553698
        0.00096478104 0.00079743756 0.00065151183 0.00052485714 0.00041554344 0.000321884
        0.0002423686 0.00017557383 0.000120098994 7.449825e-05 3.7334426e-05 6.9731254e-06
        1.7246999e-05 3.3618388e-05 3.7872316e-05 3.2e-05 1.975397e-06 1.6474158e-05
        0.00013296297 4.4634315e-05 0.0005025246 0.0005359338 0.0006843076 0.000372555
        0.00055789127 0.00046721546 0.00045336713 0.0004386434 0.00041349416 0.00037294618
        0.00032085672 0.0002804227 0.0002800985 0.00032679611 0.00041449806 0.00052535604
        0.0006329182 0.00071341806 0.00075112993 0.0007403187 0.0006880306 0.0006043588
        0.00049195584 0.00034831912 0.0001663731 6.5045555e-05 0.00036096238 0.0007397713
        0.0012220936 0.0018286265 0.002576866 0.0034769827 0.0045275637 0.0057122367
        0.006998214 0.008337447 0.009670522 0.010932686 0.012061151 0.013001829
        0.013716784 0.014183269 0.014414211 0.014395953 0.014292344 0.013808246
        0.013951752 0.014580346 0.014450755 0.013201435 0.011729697 0.009618813
        0.0070140916 0.0039825295 0.0007669362 0.002283168 0.004726165 0.006120508
        0.006178054 0.004859552 0.0025429456 0.00010079525 0.002358141 0.0047216793
        0.006100555 0.0060958895 0.0047296784 0.0022821962 0.00080338214 0.004077464
        0.0071803806 0.009859484 0.0120409345 0.013571613 0.0148715675 0.015023428
        0.014380601 0.014246194 0.014754365 0.014880895 0.014925128 0.014719831
        0.014278166 0.013586155 0.012666105 0.011555754 0.010309269 0.00898966
        0.007661967 0.0063859057 0.0052098827 0.004167206 0.0032750624 0.002536066
        0.0019416308 0.0014760955 0.0011205926 0.0008559706 0.00066450756 0.00053051254
        0.00044007917 0.00038030237 0.0003379991 0.00029837427 0.00024265265 0.00015887845
        5.1661988e-05 6.4358996e-05 0.00016806209 0.00023769314 0.00026069087 0.00023529599
        0.00017031553 9.510051e-05 3.2335327e-05 1.2152948e-05 5.0573595e-05 1.7082493e-05
        1.4490692e-05 0.00012664289 2.8845501e-05 6.003339e-05 8.127986e-05 0.000331826
        0.0002993473 0.00036884958 0.00038659462 0.00040966558 0.0004216474 0.00043126073
        0.0004391488 0.0004496145 0.00046528882 0.00048611528 0.00051115936 0.00053965737
        0.0005709477 0.0006045663 0.0006402558 0.000677965 0.0007178044 0.0007599312
        0.00080423406 0.0008497646 0.00089336286 0.00092566933 0.00092523475 0.00085203024
        0.0006409185 0.00019844226 0.0005935245 0.0018648322 0.0037348212 0.00628381
        0.009523758 0.013374376 0.01764976 0.02205792 0.026212033 0.029651184
        0.03186093 0.032312904 0.030416902 0.025859313 0.017164102 0.008493036
        0.020356668 0.028827602 0.01789131 0.0038894736 0.008864268 0.02307439
        0.039007515 0.05746491 0.07893525 0.103946246 0.13299942 0.1665591
        0.20497462 0.24840918 0.29679957 0.34223923 0.00023956569 0.059241556
        0.10306048 0.1309547 0.14481142 0.14803243 0.14442971 0.13747858
        0.13003723 0.12437352 0.122298256 0.12526937 0.1345138 0.15050343
        0.15286887 0.1306878 0.12256813 0.10236005 0.08673471 0.07187333
        0.058432363 0.046166778 0.03515436 0.025462057 0.01717664 0.010350747
        0.0049785962 0.000981656 0.0017871914 0.0035253086 0.0044541587 0.0047929888
        0.0047378438 0.004448456 0.004043226 0.0036011378 0.0031685666 0.0027683536
        0.002408679 0.002090361 0.0018108988 0.0015664294 0.0013530768 0.0011674175
        0.0010064661 0.00086758623 0.0007483844 0.0006466319 0.0005601829 0.00048701264
        0.00042499247 0.0003729117 0.00033167045 0.00030457205 0.00028915433 0.0002980583
        0.0002976129 0.0003892246 0.000292893 0.00069782446 0.0006831887 0.0008581289
        0.00056531787 0.0007337372 0.00065033993 0.00064028206 0.00062959065 0.0006109831
        0.00057998457 0.0005395049 0.0005091487 0.0005132907 0.00055735995 0.0006359932
        0.00073401263 0.00082909275 0.00090155384 0.0009386049 0.000935513 0.0008980733
        0.00083446683 0.00074582704 0.00062874117 0.00047567362 0.00027540408 1.3261948e-05
        0.00032830215 0.00076842384 0.0013253734 0.0020126675 0.0028337466 0.0037756267
        0.0048024035 0.0058499468 0.006823406 0.007599087 0.008031543 0.007965892
        0.007253059 0.005768315 0.0034203816 0.00018235453 0.003968287 0.008847575
        0.014666565 0.020454908 0.026134187 0.032980584 0.041261096 0.05027463
        0.06003973 0.06996666 0.07921823 0.08658837 0.09062456 0.08982184
        0.08295131 0.069479525 0.049957924 0.026248163 0.0012997253 0.023733787
        0.0476812 0.06753662 0.08136532 0.08855223 0.0895921 0.08570208
        0.07839625 0.06914784 0.05918703 0.049372796 0.040312152 0.031996537
        0.025138456 0.019501405 0.013724139 0.00791312 0.0030438115 0.0010960482
        0.004321231 0.0066543045 0.008122121 0.008816249 0.0088617485 0.008408001
        0.0076100896 0.006613585 0.005542325 0.004491458 0.003525701 0.00268191
        0.0019744076 0.001401418 0.00095127476 0.00060752465 0.00035252463 0.00016953214
        4.3550375e-05 3.8725444e-05 8.950426e-05 0.00012099647 0.00014652018 0.00018317852
        0.00024194494 0.00031900572 0.0004023216 0.0004744718 0.00051764626 0.0005221718
        0.0004873169 0.0004206831 0.00034782293 0.00028785918 0.0002453756 0.00020807689
        0.000235979 0.00026069704 0.00036273 0.00021824504 0.00031856375 0.00030637856
        0.0005376435 0.0005109148 0.0005814882 0.0006064094 0.0006391116 0.00066414557
        0.0006897092 0.00071633566 0.0007480178 0.00078729406 0.0008343851 0.0008888217
        0.00095036696 0.0010189345 0.0010946846 0.0011780389 0.0012696902 0.0013705728
        0.0014817665 0.0016041942 0.0017380763 0.0018817154 0.0020277007 0.0021570881
        0.0022326887 0.002191274 0.0019370724 0.0013388636 0.00023250382 0.0015699156
        0.004263832 0.008029865 0.013008861 0.019280516 0.026852833 0.035666898
        0.045618575 0.05658578 0.068482935 0.081214756 0.09504814 0.10915593
        0.1280022 0.1310675 0.15319933 0.14989054 0.13233851 0.12147916
        0.1170462 0.11797422 0.122933015 0.13018973 0.13749933 0.14196543
        0.1400087 0.12764066 0.10121156 0.05854428 0.00047157492
      </DataArray>
      <DataArray type="Float32" Name="aspect_ratio" format="ascii" RangeMin="4.245242595672607" RangeMax="841.6356201171875">
        23.595428 20.535458 18.626223 17.286283 16.307587 15.575282
        15.023028 14.610289 14.315477 14.114865 14.032016 13.945102
        14.255661 13.49524 9.147707 4.9349136 4.5904117 5.5435
        6.2975283 7.246458 8.3098755 9.522589 10.889505 12.42123
        14.125667 16.011063 18.0867 20.364319 22.859104 25.590218
        28.580698 31.856808 35.446976 39.380615 43.68693 48.393948
        53.527668 59.11132 65.16458 71.70243 78.73373 86.25981
        94.27311 102.75542 111.67616 120.99078 130.6393 140.54524
        150.61519 160.73892 170.79059 180.6304 190.10486 199.047
        207.2825 214.63197 220.93074 225.99757 229.74153 231.95071
        226.18556 218.9651 216.86995 213.60904 209.1966 203.80658
        197.55016 190.57521 183.04332 175.12033 166.94206 158.5836
        150.07565 141.4385 132.70457 123.93608 115.22684 106.688675
        98.432915 90.54932 83.09537 76.10198 69.581726 63.534096
        57.94929 52.810974 48.09834 43.78771 39.85378 36.27058
        33.01225 30.053644 27.370787 24.94116 22.74385 20.759546
        18.970428 17.360027 15.912944 14.614989 13.451958 12.4133
        11.479619 10.661651 9.889863 9.263902 9.142874 9.499568
        9.923602 10.306875 10.723922 11.162114 11.642657 12.16936
        12.742747 13.348143 13.954911 14.506815 14.943647 15.187351
        15.25266 15.208257 14.983233 14.561334 14.020399 13.4213915
        12.821658 12.252774 11.730017 11.253083 10.8182535 10.403951
        10.02324 9.599832 9.244466 9.37131 10.008285 10.793937
        11.6258745 12.574955 13.62965 14.809181 16.1235 17.586086
        19.210106 21.009604 22.99926 25.194561 27.611784 30.267937
        33.180553 36.367313 39.845524 43.63145 47.739548 52.181614
        56.96596 62.096622 67.5728 73.38868 79.53409 85.996506
        92.76534 99.84045 107.23952 114.98876 123.100426 131.54951
        140.25311 149.06554 157.79312 166.21884 174.14462 181.42134
        187.9331 193.57034 198.25716 201.92226 204.54332 206.03632
        212.54771 217.86699 215.78535 212.4844 207.96837 202.34535
        195.71283 188.20522 179.9686 171.16095 161.94405 152.47754
        142.91017 133.3739 123.981926 114.828476 105.98935 97.52306
        89.47246 81.866486 74.72211 68.04608 61.83675 56.08575
        50.779346 45.899273 41.42351 37.327118 33.583076 30.163242
        27.039532 24.185173 21.575953 19.191183 17.014162 15.0320015
        13.234822 11.614537 10.163375 8.873266 7.7330813 6.7371435
        5.8501325 5.1525817 4.2452426 4.657289 9.012102 13.471463
        14.230774 13.886473 13.943535 13.995285 14.167699 14.439262
        14.836176 15.382387 16.120676 17.119436 18.4955 20.459244
        23.590565 17.98597 17.253662 16.655981 16.145351 15.71023
        15.335874 15.006434 14.705506 14.41791 14.124021 13.818765
        13.446224 13.114466 12.379743 10.017421 7.251802 7.065409
        8.295917 9.23505 10.37522 11.612556 12.985292 14.499691
        16.172445 18.021172 20.067081 22.334469 24.85052 27.644648
        30.747633 34.19071 38.004833 42.22026 46.866417 51.97195
        57.56469 63.67133 70.31667 77.52249 85.305824 93.6769
        102.6373 112.178024 122.27745 132.89926 143.99042 155.47949
        167.2754 179.26685 191.32243 203.29214 215.00928 226.29091
        236.9383 246.74368 255.49475 262.99268 269.0308 273.47983
        276.12708 269.2625 260.66888 258.19608 254.31079 249.06665
        242.65115 235.20114 226.8929 217.91827 208.47409 198.72267
        188.75435 178.60797 168.3101 157.90112 147.45596 137.08609
        126.923416 117.09872 107.71727 98.84639 90.52245 82.760315
        75.55943 68.908356 62.787964 57.173985 52.038944 47.35365
        43.08836 39.213593 35.70066 32.521965 29.651114 27.062887
        24.733206 22.639063 20.758535 19.07073 17.55608 16.195559
        14.973607 13.868798 12.882668 11.959696 11.164207 10.996603
        11.420487 11.878048 12.27834 12.6670685 13.026554 13.359199
        13.655071 13.904993 14.100186 14.239465 14.330786 14.3966055
        14.458934 14.493079 14.4690895 14.417297 14.362802 14.283456
        14.156203 13.9723625 13.732583 13.445385 13.1198845 12.766091
        12.381531 11.984231 11.527639 11.104356 11.278331 12.086956
        13.025093 14.026994 15.148868 16.388689 17.767666 19.300816
        21.006409 22.90292 25.009724 27.346685 29.93408 32.792408
        35.94228 39.404236 43.1985 47.344635 51.860947 56.76378
        62.066578 67.778885 73.90537 80.445045 87.391 94.73108
        102.45017 110.53518 118.98476 127.81833 137.06538 146.73927
        156.81006 167.17987 177.67697 188.07289 198.11136 207.55719
        216.2332 224.0003 230.72855 236.32152 240.70076 243.8255
        245.61688 253.38092 259.72058 257.24637 253.3053 247.92297
        241.21768 233.31055 224.36052 214.54251 204.04475 193.06
        181.77835 170.37683 159.01239 147.8198 136.91121 126.37685
        116.28641 106.69094 97.62498 89.108765 81.15053 73.74863
        66.89379 60.570984 54.76082 49.440746 44.586094 40.17063
        36.166763 32.545574 29.276953 26.329973 23.67366 21.277952
        19.114717 17.158575 15.387402 13.782271 12.327769 11.009044
        9.821617 8.726897 7.8360677 6.626721 6.91168 9.798832
        12.17567 12.906878 13.241713 13.619426 13.933452 14.239413
        14.5422 14.860907 15.209959 15.604952 16.061058 16.592638
        17.21098 17.964487 15.008437 15.594732 16.099358 16.49649
        16.784254 16.959848 17.020227 16.96207 16.782734 16.478611
        16.055521 15.500517 14.885032 14.02058 12.224575 10.29054
        10.545728 12.004119 13.17797 14.550027 16.030552 17.662937
        19.463629 21.46028 23.682901 26.16562 28.945517 32.061703
        35.55408 39.462143 43.82408 48.676445 54.054295 59.99174
        66.522484 73.679985 81.497025 90.004585 99.230125 109.19532
        119.91328 131.38602 143.60208 156.53383 170.13474 184.33691
        199.04892 214.15407 229.50978 244.94774 260.27567 275.28
        289.72644 303.36053 315.91592 327.12213 336.72137 344.45856
        350.14554 353.55325 344.75784 333.7521 330.6071 325.62543
        318.91785 310.70425 301.16412 290.5234 279.02747 266.92786
        254.43298 241.65875 228.65636 215.46123 202.12627 188.74808
        175.46945 162.45863 149.8821 137.87355 126.51847 115.86327
        105.927 96.70919 88.19548 80.36181 73.1776 66.6082
        60.61683 55.16595 50.218273 45.737373 41.68802 38.036255
        34.74936 31.795784 29.145092 26.768017 24.636515 22.72413
        21.005547 19.458895 18.059034 16.798391 15.6302395 14.591835
        14.370125 14.926386 15.492567 15.988059 16.442497 16.83954
        17.176477 17.443449 17.634436 17.749575 17.80122 17.814606
        17.826794 17.872736 17.910393 17.884558 17.851141 17.85282
        17.854582 17.818636 17.718723 17.54157 17.286459 16.959156
        16.569529 16.120314 15.628162 15.063044 14.506822 14.735997
        15.7904825 16.976585 18.256289 19.676674 21.244957 22.985985
        24.921028 27.074505 29.471544 32.138306 35.101475 38.388023
        42.024963 46.03915 50.45709 55.304653 60.606674 66.3863
        72.66408 79.45688 86.77661 94.629005 103.01261 111.91844
        121.33078 131.23004 141.59903 152.43503 163.76152 175.61496
        188.01166 200.9133 214.19539 227.6393 240.954 253.81255
        265.91394 277.0316 286.9865 295.6132 302.78226 308.40146
        312.40323 314.70984 324.65707 332.77655 329.61508 324.55942
        317.665 309.0719 298.94043 287.4727 274.8936 261.44412
        247.37129 232.91847 218.31232 203.75374 189.4152 175.44034
        161.94467 149.01743 136.72401 125.10865 114.19732 104.00057
        94.5164 85.733086 77.63163 70.18773 63.373516 57.15912
        51.513477 46.404552 41.79908 37.662113 33.956814 30.644665
        27.686237 25.042316 22.675179 20.549765 18.634405 16.901796
        15.326871 13.896232 12.5663395 11.439631 9.983714 9.822733
        11.880748 13.671314 14.528644 15.150514 15.72177 16.171074
        16.509295 16.728224 16.828579 16.809935 16.672735 16.417791
        16.04675 15.561649 14.990491 14.289405 15.417896 16.500189
        17.476313 18.296247 18.928947 19.360126 19.586872 19.612707
        19.443268 19.088915 18.552433 17.875633 16.98413 15.558812
        14.547961 15.402039 17.074156 18.645939 20.45695 22.464573
        24.714025 27.234438 30.063501 33.24154 36.81246 40.8228
        45.320984 50.356483 55.979153 62.238842 69.18535 76.86863
        85.33897 94.64698 104.843094 115.976326 128.09253 141.23192
        155.426 170.6939 187.03879 204.44458 222.87207 242.2551
        262.49695 283.46722 304.99942 326.88995 348.8984 370.74985
        392.13895 412.73102 432.1633 450.05634 466.0266 479.70465
        490.7384 498.8383 503.72592 491.20352 475.53958 471.10815
        464.02893 454.4968 442.79736 429.1966 414.01642 397.60455
        380.31732 362.4527 344.1815 325.58588 306.7256 287.68283
        268.59787 249.67232 231.14082 213.23402 196.13669 179.96695
        164.78935 150.63063 137.49031 125.34851 114.17168 103.91693
        94.5355 85.975296 78.18285 71.10475 64.688545 58.8834
        53.640396 48.9127 44.65559 40.82647 37.384857 34.292427
        31.513184 29.013205 26.762058 24.7288 22.894306 21.21831
        19.709759 19.303549 19.937117 20.535168 21.032915 21.449282
        21.778053 22.021423 22.179602 22.25765 22.267551 22.231438
        22.18098 22.15449 22.186878 22.224485 22.200012 22.18144
        22.22307 22.290031 22.343485 22.350904 22.28929 22.14597
        21.915445 21.597298 21.189209 20.697458 20.102886 19.47106
        19.887833 21.417398 23.11668 24.976404 27.03695 29.317125
        31.847456 34.657604 37.78032 41.24985 45.102062 49.37404
        54.103817 59.330097 65.09191 71.428185 78.37719 85.97571
        94.25802 103.254524 112.9902 123.48277 134.74109 146.76358
        159.53775 173.04109 187.24487 202.12268 217.66649 233.90347
        250.87865 268.61008 287.04156 305.99847 325.176 344.16812
        362.51746 379.79956 395.69156 409.9348 422.29184 432.56747
        440.6278 446.36227 449.68753 463.9116 475.5169 471.01172
        463.77917 453.9253 441.6403 427.16016 410.77338 392.80264
        373.5925 353.49542 332.85822 312.0033 291.21664 270.7438
        250.7893 231.51778 213.0565 195.4988 178.90787 163.32094
        148.7532 135.20186 122.64994 111.06971 100.42525 90.67497
        81.773926 73.67537 66.3318 59.69534 53.71773 48.35032
        43.54408 39.249924 35.41935 32.005234 28.962719 26.24986
        23.8285 21.663033 19.726892 17.974634 16.460375 14.7959175
        14.021678 15.140037 16.557941 17.447842 18.13762 18.699514
        19.090311 19.304588 19.328882 19.154068 18.773092 18.185696
        17.403769 16.457127 15.395906 14.282403 17.240974 19.670197
        22.039305 24.105686 25.777283 27.026855 27.878786 28.382017
        28.583698 28.511665 28.166668 27.522661 26.533865 25.156061
        23.372633 23.1589 24.69067 26.630556 28.977877 31.766577
        35.029076 38.80375 43.131233 48.054348 53.617992 59.869976
        66.86232 74.6528 83.30622 92.89497 103.49881 115.203804
        128.10068 142.2829 157.84456 174.878 193.47133 213.70515
        235.64912 259.35733 284.86252 312.17072 341.25552 372.0518
        404.44928 438.28647 473.34525 509.3469 545.9502 582.752
        619.291 655.0547 689.48175 721.96564 751.8725 778.5646
        801.4237 819.87573 833.4163 841.6356 820.7445 794.6177
        787.3034 775.5296 759.6525 740.1113 717.36755 691.9593
        664.46326 635.4708 605.48224 574.7962 543.5706 511.9256
        480.01297 448.07233 416.43588 385.48398 355.58774 327.04358
        300.04102 274.68423 251.01657 229.03738 208.7142 189.99196
        172.79999 157.0575 142.67773 129.57133 117.6487 106.821846
        97.00572 88.11905 80.084854 72.83066 66.288506 60.394787
        55.090027 50.3187 46.029034 42.172955 38.705956 35.587265
        32.77925 30.249037 29.439928 30.231745 30.915497 31.453707
        31.86426 32.16697 32.382053 32.529808 32.630013 32.70151
        32.761948 32.82781 32.91521 33.041565 33.120632 33.063137
        32.958076 32.891674 32.846478 32.806324 32.754616 32.673542
        32.543995 32.345863 32.058475 31.661211 31.133858 30.458162
        29.67173 30.4981 33.059986 35.903233 39.060738 42.570015
        46.471462 50.808853 55.629086 60.982117 66.92085 73.50107
        80.78133 88.82281 97.688995 107.44513 118.157364 129.89153
        142.71149 156.67714 171.84196 188.25015 205.93369 224.90935
        245.1762 266.71442 289.48648 313.44293 338.53525 364.7415
        392.09387 420.65277 450.43665 481.34705 513.09753 545.1932
        576.97473 607.69714 636.66205 663.3297 687.2611 708.0534
        725.36206 738.9469 748.6086 754.2415 778.12683 797.6063
        790.06665 777.9234 761.38684 740.7683 716.4733 688.987
        658.8531 626.6499 592.9677 558.3857 523.4418 488.613
        454.3092 420.87195 388.5764 357.6354 328.20532 300.39218
        274.25867 249.83054 227.10321 206.04791 186.61682 168.74702
        152.36432 137.3868 123.72786 111.298935 100.01185 89.78106
        80.52565 72.17094 64.64929 57.900173 51.869278 46.507114
        41.767525 37.60648 33.981533 30.852139 28.179815 25.9323
        24.074516 22.608435 22.840675 24.618149 26.01126 27.028234
        27.707819 28.092848 28.208406 28.05392 27.60194 26.805004
        25.612318 23.995756 21.977646 19.64578 17.240637
      </DataArray>
      <DataArray type="Float32" Name="jacobian" format="ascii" RangeMin="5.7986253523267806e-05" RangeMax="0.015354514122009277">
        0.001408918 0.0015951535 0.0017494528 0.0018659405 0.0019487583 0.002001791
        0.00202889 0.0020336602 0.002019885 0.001989273 0.0019488696 0.0018846033
        0.0018529894 0.001667172 0.0010605373 0.0005421259 0.0004849596 0.0005584726
        0.00060496945 0.0006632948 0.0007252685 0.00079391897 0.00086989265 0.0009546429
        0.0010496485 0.0011565441 0.0012770193 0.0014127687 0.001565439 0.0017365986
        0.0019277325 0.0021402615 0.002375576 0.0026350692 0.002920159 0.0032322798
        0.0035728498 0.003943208 0.0043445374 0.004777755 0.0052433894 0.0057414775
        0.0062714694 0.006832122 0.0074213864 0.008036306 0.0086729275 0.009326239
        0.009990145 0.010657484 0.011320105 0.011968973 0.012594121 0.01318455
        0.013728663 0.0142144235 0.01463067 0.014965059 0.0152111575 0.015354514
        0.014968532 0.014485431 0.01434059 0.014118503 0.01382218 0.013464894
        0.013052478 0.012594818 0.012103007 0.01158841 0.011059924 0.010521223
        0.009972422 0.009412982 0.008843666 0.008268103 0.007692961 0.00712674
        0.006578162 0.0060543334 0.0055597625 0.0050968383 0.004666521 0.0042687864
        0.0039029361 0.0035678216 0.003262002 0.0029838632 0.0027317007 0.00250378
        0.002298374 0.0021137875 0.0019483698 0.0018005241 0.0016687119 0.0015514587
        0.00144736 0.0013550884 0.0012733932 0.0012011275 0.0011371619 0.001080695
        0.0010301841 0.0009867676 0.00094429916 0.0009122415 0.000928445 0.0009973635
        0.0010806554 0.001167223 0.0012659511 0.0013758535 0.0014995962 0.0016371253
        0.0017869209 0.0019439975 0.0020996018 0.0022401458 0.0023513304 0.0024170065
        0.0024371608 0.002422014 0.0023608017 0.0022531312 0.002115014 0.0019608408
        0.0018044307 0.0016547873 0.0015171041 0.0013930344 0.0012827212 0.0011835007
        0.0010964558 0.001012496 0.0009430778 0.0009270782 0.0009600351 0.0010036565
        0.0010481746 0.0010998838 0.0011575669 0.0012227552 0.0012961972 0.0013789571
        0.0014720869 0.0015767086 0.0016939773 0.0018250713 0.001971173 0.0021334507
        0.0023130367 0.0025110082 0.0027283614 0.0029659842 0.0032246204 0.0035048304
        0.003806948 0.0041310405 0.004476886 0.004843985 0.0052316384 0.005639137
        0.0060661356 0.0065133413 0.0069830827 0.007478402 0.008001147 0.008550087
        0.009119277 0.0096978005 0.010271116 0.010823147 0.011339707 0.011811061
        0.012230144 0.012590361 0.012887711 0.013120297 0.013286157 0.013379121
        0.013798846 0.0141422795 0.014006719 0.013792981 0.013500842 0.01313686
        0.012706977 0.012219641 0.011684171 0.011110774 0.010510036 0.009892548
        0.009268238 0.008645898 0.008033058 0.007435967 0.0068596327 0.006307904
        0.005783582 0.005288541 0.004823858 0.0043899417 0.003986657 0.0036134538
        0.003269477 0.0029536404 0.0026647025 0.0024013433 0.0021622195 0.0019459876
        0.0017513048 0.0015768042 0.0014210644 0.0012825854 0.0011597844 0.0010510138
        0.0009546031 0.00086891575 0.0007924005 0.000723683 0.0006614358 0.00060512096
        0.00055187725 0.0005098735 0.0004405239 0.0005020565 0.0010262653 0.0016365692
        0.0018204465 0.0018484079 0.0019087876 0.0019454292 0.0019730702 0.001985399
        0.0019813513 0.0019575926 0.0019106179 0.001836235 0.0017297496 0.001585822
        0.0014086269 0.0007449804 0.0008003788 0.0008407501 0.00086603273 0.0008798438
        0.00088474585 0.0008825286 0.00087430817 0.0008607 0.00084156834 0.0008172739
        0.00078483974 0.0007510632 0.0006897133 0.0005411876 0.00038511332 0.00037056327
        0.0004280572 0.0004694386 0.00051986397 0.0005741226 0.00063417637 0.00070043385
        0.0007738394 0.00085539336 0.0009462627 0.0010477346 0.0011611902 0.0012880596
        0.0014297783 0.00158775 0.0017633266 0.001957805 0.0021724396 0.0024084595
        0.0026670743 0.0029494627 0.0032567345 0.0035898725 0.003949649 0.004336525
        0.00475056 0.005191326 0.0056578163 0.0061483444 0.0066604586 0.007190863
        0.0077353604 0.008288829 0.00884523 0.009397673 0.009938513 0.010459342
        0.010950989 0.011403839 0.011808043 0.012154349 0.012433122 0.012638285
        0.012759907 0.012441629 0.012043258 0.011927482 0.01174641 0.011503034
        0.0112064555 0.010862613 0.010479678 0.010066614 0.009632612 0.00918515
        0.008728088 0.008262746 0.0077898917 0.007311052 0.00682957 0.0063507077
        0.005880829 0.0054263095 0.004992299 0.004582079 0.0041974136 0.003839017
        0.003506865 0.0032004127 0.0029187566 0.0026607544 0.0024251181 0.0022104855
        0.0020154703 0.0018387005 0.0016788378 0.0015345903 0.0014047131 0.0012880088
        0.0011833232 0.0010895461 0.0010056135 0.0009305081 0.00086327654 0.00080299296
        0.00074890384 0.00069996674 0.0006562861 0.0006151022 0.00057967915 0.0005764474
        0.0006049707 0.00063659035 0.00066639844 0.00069689617 0.0007270442 0.00075684144
        0.0007854733 0.00081201753 0.0008354061 0.00085486367 0.0008700776 0.00088162784
        0.0008902508 0.0008940637 0.0008911503 0.00088342145 0.0008727613 0.0008584108
        0.00083974795 0.00081704673 0.0007910617 0.00076286023 0.0007333751 0.00070343824
        0.00067305606 0.00064329675 0.0006116138 0.00058301876 0.0005865321 0.00062263105
        0.00066458917 0.000709065 0.0007588559 0.00081383134 0.00087502267 0.00094315497
        0.0010191146 0.0011037973 0.0011981403 0.0013030987 0.001419639 0.0015487272
        0.001691321 0.0018483616 0.0020207625 0.0022093954 0.0024150666 0.002638486
        0.002880227 0.0031406833 0.0034200256 0.0037181699 0.004034771 0.004369262
        0.0047209747 0.005089393 0.005474633 0.005877884 0.006300837 0.006744368
        0.0072071967 0.0076846853 0.00816858 0.008647895 0.009110365 0.009544856
        0.009943219 0.010299178 0.010606888 0.010862145 0.011062032 0.011204539
        0.011285865 0.011641845 0.011932658 0.011818874 0.011637936 0.011390898
        0.01108308 0.010719954 0.010308752 0.009857471 0.009374746 0.008869456
        0.008350389 0.007825746 0.0073027955 0.0067877728 0.006285864 0.0058012363
        0.0053371047 0.0048958184 0.0044789636 0.0040874644 0.0037216912 0.0033815603
        0.003066642 0.00277625 0.0025095085 0.0022654124 0.002042879 0.0018407737
        0.0016579169 0.001493072 0.0013449359 0.0012121395 0.0010932654 0.0009868834
        0.0008915963 0.0008060858 0.0007291527 0.00065973436 0.0005969409 0.000539931
        0.00048839976 0.0004404001 0.0004014926 0.00034518313 0.0003644146 0.00052563695
        0.00067422865 0.00073538825 0.00076938234 0.00080208364 0.0008268505 0.00084668136
        0.000861265 0.00087076245 0.00087455846 0.0008715058 0.000859749 0.00083662075
        0.00079834735 0.0007447377 0.00038871347 0.00038738688 0.00038513017 0.00038066713
        0.00037471388 0.0003680222 0.0003611633 0.00035444376 0.00034792747 0.00034143703
        0.00033480863 0.00032734827 0.00032001652 0.00030825855 0.0002753636 0.00023620305
        0.0002455905 0.0002843254 0.00031784404 0.00035762446 0.00040152692 0.0004505725
        0.0005050598 0.00056552136 0.0006325206 0.000706724 0.000788901 0.00087992795
        0.0009807758 0.0010924881 0.001216154 0.0013528814 0.0015037784 0.0016699394
        0.0018524368 0.0020523118 0.002270556 0.0025080845 0.0027656944 0.0030440087
        0.0033434066 0.0036639564 0.004005348 0.0043668165 0.0047470694 0.005144211
        0.005555682 0.0059782127 0.0064077997 0.006839713 0.007268542 0.0076882713
        0.008092314 0.00847355 0.0088245515 0.009137793 0.009406131 0.009622512
        0.00978177 0.009877596 0.009632803 0.009326427 0.009239886 0.009102045
        0.008915557 0.00868619 0.00841928 0.00812112 0.0077984813 0.0074583096
        0.0071064513 0.006746427 0.0063800784 0.0060087987 0.0056343586 0.0052595576
        0.0048882845 0.004525004 0.0041740783 0.0038389966 0.0035219972 0.003224303
        0.0029464187 0.00268833 0.0024496461 0.0022297094 0.00202768 0.0018426001
        0.0016734488 0.0015191821 0.0013787629 0.0012511832 0.0011354762 0.0010307215
        0.0009360449 0.00085061544 0.0007736404 0.0007043636 0.00064206304 0.0005860569
        0.00053569005 0.0004903923 0.00044950686 0.00041281612 0.0003791239 0.0003493208
        0.00033946126 0.0003474989 0.0003548973 0.00035985708 0.0003631385 0.00036452923
        0.00036418726 0.0003621898 0.0003587582 0.00035426993 0.00034932714 0.00034471197
        0.0003413341 0.00033996848 0.00033987974 0.0003400528 0.00034152434 0.00034504864
        0.00034985784 0.00035503638 0.00035978758 0.00036349182 0.00036575578 0.0003663458
        0.0003651763 0.0003620818 0.00035727397 0.00034997956 0.0003420187 0.00035209436
        0.00038228955 0.0004164255 0.000453595 0.0004950017 0.00054085423 0.0005918021
        0.0006484008 0.0007112837 0.0007811012 0.0008585313 0.0009442699 0.0010390289
        0.0011435329 0.0012585175 0.0013847244 0.0015228937 0.0016737494 0.0018379778
        0.002016199 0.0022089318 0.002416556 0.0026392755 0.0028770866 0.0031297638
        0.0033968736 0.0036778427 0.003972113 0.0042794514 0.0046002623 0.0049352758
        0.005284718 0.0056474227 0.0060200104 0.0063966517 0.0067695905 0.007130069
        0.0074699116 0.007782762 0.008063488 0.008307321 0.008510419 0.008669601
        0.008783072 0.008848798 0.009129165 0.009357896 0.0092690885 0.009126803
        0.008932707 0.008690839 0.0084057925 0.008083313 0.007729757 0.0073519154
        0.0069567137 0.006550947 0.006140929 0.0057322597 0.00532975 0.004937409
        0.004558466 0.0041954196 0.0038501043 0.0035237647 0.0032171363 0.0029305227
        0.0026638724 0.0024168564 0.0021889298 0.0019793825 0.0017873822 0.00161201
        0.0014522857 0.0013071821 0.0011756365 0.0010565642 0.0009488788 0.0008515204
        0.0007634861 0.000683859 0.0006118267 0.000546688 0.00048784137 0.00043478108
        0.00038701692 0.00034429747 0.0003055601 0.00027324003 0.00023456005 0.00022757321
        0.00027010957 0.00030329704 0.00031510997 0.00032270123 0.00033055217 0.0003376768
        0.0003447268 0.00035182782 0.00035912223 0.0003665156 0.0003736772 0.00038002088
        0.00038479178 0.00038728572 0.00038880494 0.00019606532 0.0001858824 0.00017737265
        0.00017007082 0.0001640159 0.00015919293 0.00015552143 0.00015286572 0.000151061
        0.00014993006 0.00014932897 0.00014905748 0.00014920607 0.00014891007 0.00014454975
        0.00014232229 0.00015726796 0.00018189813 0.00020657656 0.00023493766 0.00026646294
        0.0003015995 0.0003405902 0.0003837746 0.00043153093 0.00048430235 0.00054259767
        0.0006069927 0.0006781254 0.00075668783 0.00084341556 0.00093907584 0.0010444556
        0.0011603482 0.0012875403 0.0014267968 0.0015788424 0.0017443404 0.001923863
        0.0021178562 0.0023265937 0.0025501323 0.002788263 0.0030404585 0.0033058212
        0.0035830298 0.0038702972 0.0041653346 0.004465336 0.0047669816 0.0050664684
        0.0053595672 0.0056416537 0.005907755 0.006152695 0.0063712695 0.0065584886
        0.0067096218 0.0068208096 0.0068883486 0.006718165 0.0065052104 0.0064461106
        0.0063508237 0.00622151 0.0060616382 0.0058752294 0.005666659 0.0054405853
        0.005201787 0.0049543614 0.0047009625 0.0044431817 0.004182293 0.0039197532
        0.0036575973 0.00339847 0.0031453143 0.0029009574 0.0026676431 0.0024468193
        0.0022392883 0.002045387 0.0018651102 0.0016982023 0.001544226 0.0014026171
        0.0012727283 0.0011538637 0.001045306 0.0009463374 0.0008562565 0.0007743882
        0.00070009107 0.00063276 0.0005718265 0.00051675685 0.0004670498 0.00042223412
        0.00038186822 0.00034553476 0.00031285646 0.00028344707 0.00025705638 0.0002331862
        0.00021190505 0.00020293711 0.00020440495 0.0002046951 0.00020323446 0.00020033291
        0.00019611498 0.00019083881 0.00018479447 0.00017834542 0.00017191403 0.00016596842
        0.00016098248 0.00015739581 0.00015554232 0.00015507433 0.00015551664 0.00015735633
        0.00016095082 0.00016597226 0.00017198277 0.00017850591 0.00018506797 0.00019123929
        0.0001966486 0.00020099853 0.00020402421 0.0002055962 0.00020539865 0.00020400669
        0.00021310714 0.00023460027 0.00025871125 0.0002853693 0.00031507364 0.0003480719
        0.00038474644 0.0004254674 0.0004706412 0.000520693 0.000576071 0.00063724373
        0.00070470065 0.00077895046 0.0008605189 0.00094994385 0.0010477664 0.0011545189
        0.0012707071 0.00139679 0.0015331547 0.0016800903 0.001837761 0.0020061834
        0.0021852124 0.0023745452 0.0025737586 0.0027824023 0.0030001858 0.0032271857
        0.003463685 0.003709668 0.0039642584 0.004225186 0.004488604 0.0047493903
        0.0050017172 0.005240047 0.0054599256 0.005657665 0.005829857 0.0059735803
        0.0060862936 0.006166605 0.0062135425 0.006410855 0.006571702 0.0065095485
        0.006409462 0.0062730303 0.006102997 0.0059027188 0.0056762514 0.005428095
        0.005163023 0.004885887 0.0046014218 0.004314017 0.0040275673 0.0037454225
        0.0034703754 0.0032046798 0.0029500816 0.0027078658 0.0024789071 0.0022637253
        0.0020625384 0.0018753156 0.0017018263 0.0015416829 0.001394373 0.001259291
        0.001135764 0.0010230737 0.00092047453 0.00082720973 0.00074252626 0.00066568976
        0.00059599895 0.00053279806 0.00047548785 0.00042353236 0.000376462 0.0003338698
        0.00029540827 0.00026075976 0.00022970297 0.00020177057 0.00017760225 0.00015297951
        0.00013894647 0.00014244296 0.00014695137 0.00014736179 0.0001474038 0.0001479248
        0.0001488144 0.00015024918 0.00015234775 0.00015526352 0.0001591419 0.00016410637
        0.00017023407 0.00017754601 0.00018601905 0.00019614483 9.2728194e-05 8.032689e-05
        7.171691e-05 6.576879e-05 6.1899045e-05 5.9585967e-05 5.839654e-05 5.7997542e-05
        5.8154565e-05 5.872584e-05 5.9656228e-05 6.0973496e-05 6.2786574e-05 6.5272354e-05
        6.8958376e-05 7.763173e-05 9.16142e-05 0.00010696036 0.00012362146 0.00014170796
        0.00016134692 0.00018271034 0.00020601641 0.00023153162 0.00025956865 0.0002904806
        0.0003246526 0.00036249237 0.00040442185 0.0004508718 0.0005022792 0.0005590871
        0.0006217447 0.00069070584 0.0007664248 0.000849348 0.000939903 0.0010384832
        0.0011454297 0.0012610089 0.0013853859 0.0015185961 0.0016605166 0.0018108346
        0.0019690157 0.0021342728 0.0023055398 0.0024814513 0.002660331 0.0028401962
        0.0030187734 0.0031935335 0.0033617143 0.0035203504 0.003666358 0.0037966473
        0.0039082365 0.003998369 0.0040646377 0.0041050995 0.0040037646 0.003876991
        0.003842112 0.0037854998 0.0037086185 0.0036133619 0.003502211 0.00337777
        0.003242799 0.0031001298 0.0029522048 0.00280065 0.0026464853 0.0024905424
        0.0023337435 0.0021773246 0.0020228492 0.0018720326 0.0017265084 0.0015875668
        0.0014560437 0.0013324062 0.0012168532 0.0011093845 0.0010098536 0.0009180073
        0.0008335177 0.0007560068 0.00068506633 0.00062027277 0.00056119903 0.00050742313
        0.00045853434 0.0004141382 0.00037385966 0.00033734567 0.00030426678 0.00027431807
        0.00024721934 0.00022271456 0.00020057076 0.00018057629 0.0001625389 0.00014628311
        0.0001316497 0.00011848961 0.00011230398 0.00011180974 0.00011030531 0.00010767809
        0.00010406903 9.9663586e-05 9.469176e-05 8.9421796e-05 8.414808e-05 7.9172736e-05
        7.478334e-05 7.123026e-05 6.870758e-05 6.733895e-05 6.694805e-05 6.730064e-05
        6.863683e-05 7.113734e-05 7.4682175e-05 7.907968e-05 8.4080246e-05 8.9395326e-05
        9.472018e-05 9.975663e-05 0.00010423207 0.00010791209 0.00011060722 0.000112173104
        0.000112720576 0.0001189797 0.00013224603 0.00014700074 0.0001633937 0.0001815844
        0.00020174793 0.00022407513 0.0002487748 0.00027607495 0.00030622372 0.00033948952
        0.0003761601 0.00041654098 0.00046095232 0.0005097252 0.00056319626 0.00062170136
        0.00068556744 0.00075510284 0.0008305853 0.00091224874 0.0010002679 0.0010947428
        0.0011956855 0.00130301 0.0014165348 0.0015360011 0.001661126 0.0017917053
        0.0019277325 0.002069322 0.002216426 0.0023685114 0.0025242495 0.0026814009
        0.0028369792 0.002987575 0.0031299219 0.0032613575 0.0033796567 0.0034827737
        0.0035689033 0.0036364717 0.0036845899 0.00371284 0.0038308261 0.0039269724
        0.003889908 0.0038300524 0.0037485051 0.003646859 0.0035271598 0.0033918319
        0.003243574 0.0030852389 0.0029197235 0.002749849 0.0025782285 0.0024071804
        0.0022386997 0.002074451 0.001915777 0.0017637196 0.0016190459 0.0014822785
        0.0013537288 0.0012335286 0.0011216613 0.0010179908 0.0009222869 0.0008342462
        0.0007535123 0.0006796934 0.00061237684 0.00055113935 0.00049555465 0.0004451965
        0.00039964044 0.0003584638 0.00032124732 0.00028757963 0.0002570644 0.00022933005
        0.00020403948 0.0001808981 0.00015965843 0.0001401208 0.00012212976 0.00010557335
        9.0345784e-05 7.653896e-05 6.79622e-05 6.434683e-05 6.196345e-05 6.028402e-05
        5.9128455e-05 5.8377e-05 5.7986254e-05 5.799392e-05 5.8525602e-05 5.9803366e-05
        6.215388e-05 6.60105e-05 7.1902214e-05 8.04258e-05 9.272637e-05
      </DataArray>
    </PointData>
    <CellData>
    </CellData>
    <Points>
      <DataArray type="Float32" Name="Points" NumberOfComponents="3" format="ascii" RangeMin="0.9124915984746446" RangeMax="1.0389055365563986">
        0.8187019 0.03567317 0.6385566 0.81871694 0.036155667 0.6385296
        0.8186776 0.036636543 0.6385018 0.818585 0.03710837 0.6384737
        0.8184413 0.037564144 0.6384457 0.8182499 0.037997574 0.63841814
        0.81801516 0.038403306 0.6383916 0.81774175 0.038777042 0.63836634
        0.81743485 0.03911547 0.63834274 0.8170995 0.03941639 0.6383209
        0.81674117 0.03967796 0.6383012 0.81636274 0.03990051 0.6382836
        0.81597584 0.040080372 0.63826853 0.8155592 0.04022719 0.6382552
        0.81520873 0.040316578 0.63824606 0.81504524 0.04034996 0.6382423
        0.8149374 0.04037165 0.63823986 0.81479776 0.040399544 0.63823676
        0.81464565 0.040429685 0.6382333 0.81447417 0.040463384 0.6382294
        0.81428224 0.040500723 0.6382252 0.8140673 0.040542103 0.63822037
        0.8138266 0.040587872 0.63821507 0.8135572 0.040638406 0.63820916
        0.81325585 0.040694084 0.63820255 0.81291884 0.040755294 0.6381952
        0.81254214 0.040822398 0.6381871 0.8121213 0.04089576 0.6381781
        0.81165147 0.040975697 0.6381682 0.8111273 0.04106247 0.6381572
        0.81054294 0.041156285 0.63814515 0.809892 0.041257232 0.6381318
        0.80916756 0.04136526 0.63811725 0.8083621 0.04148016 0.6381013
        0.80746764 0.041601513 0.6380838 0.80647546 0.041728612 0.63806486
        0.8053765 0.041860446 0.63804424 0.804161 0.041995626 0.63802195
        0.80281883 0.042132277 0.6379979 0.8013395 0.042268027 0.6379722
        0.7997123 0.0423999 0.63794464 0.7979263 0.042524222 0.6379153
        0.79597086 0.042636618 0.63788444 0.79383564 0.042731922 0.63785195
        0.7915108 0.04280414 0.63781816 0.78898776 0.042846497 0.6377832
        0.78625894 0.042851407 0.6377476 0.7833186 0.042810585 0.6377117
        0.780163 0.042715117 0.6376761 0.776791 0.042555586 0.6376416
        0.77320415 0.042322274 0.63760906 0.7694074 0.042005323 0.6375797
        0.765409 0.041594952 0.6375548 0.7612211 0.041081734 0.637536
        0.75685996 0.040456958 0.63752496 0.75234586 0.03971315 0.6375234
        0.7477033 0.038844623 0.6375331 0.74296 0.037847996 0.63755554
        0.73814815 0.036723208 0.6375917 0.7332989 0.035472956 0.6376421
        0.7284523 0.034105927 0.6377063 0.72390366 0.03271638 0.63777876
        0.7194175 0.031245947 0.6378611 0.7150152 0.029707987 0.6379513
        0.7107221 0.028119324 0.6380473 0.7065568 0.026494935 0.63814646
        0.7025366 0.024848543 0.63824683 0.6986758 0.023192748 0.6383462
        0.69498557 0.021538593 0.63844275 0.6914737 0.019895133 0.6385349
        0.6881449 0.018269192 0.63862175 0.6850022 0.01666599 0.6387022
        0.68204814 0.015090433 0.63877594 0.6792847 0.01354808 0.6388425
        0.67671305 0.012045642 0.63890165 0.67433274 0.010590818 0.63895357
        0.67214084 0.009191524 0.6389984 0.67013174 0.007854893 0.63903654
        0.6682972 0.0065864306 0.63906854 0.66662675 0.0053895307 0.639095
        0.66510934 0.004265572 0.6391167 0.6637333 0.00321427 0.63913417
        0.66248727 0.0022340394 0.63914806 0.66136026 0.0013223274 0.63915884
        0.66034186 0.00047590613 0.63916713 0.65942234 -0.00030888582 0.63917327
        0.65859264 -0.0010359546 0.6391777 0.6578443 -0.0017093032 0.6391806
        0.65716964 -0.0023329237 0.6391824 0.65656155 -0.0029107167 0.6391832
        0.6560135 -0.003446439 0.63918334 0.65551955 -0.003943666 0.6391828
        0.6550743 -0.004405773 0.63918185 0.6546728 -0.0048359195 0.6391805
        0.65431064 -0.0052370518 0.6391789 0.65398383 -0.005611899 0.639177
        0.65368867 -0.0059629804 0.639175 0.65342194 -0.0062926137 0.63917285
        0.6531808 -0.006602922 0.6391706 0.65296257 -0.0068958383 0.6391683
        0.6527649 -0.0071731284 0.63916594 0.6525859 -0.0074363537 0.63916355
        0.6524236 -0.007687042 0.6391611 0.65227664 -0.007926129 0.63915867
        0.65214294 -0.008155806 0.6391562 0.652023 -0.008374096 0.6391538
        0.6519125 -0.008587903 0.6391513 0.6518038 -0.008813224 0.63914853
        0.6516947 -0.009058512 0.63914543 0.6515889 -0.009321402 0.639142
        0.651488 -0.009605168 0.63913804 0.651395 -0.009911271 0.63913363
        0.6513135 -0.010242216 0.6391286 0.65124816 -0.010600184 0.63912296
        0.651205 -0.010986911 0.6391166 0.65119135 -0.011402782 0.6391093
        0.65121573 -0.011845746 0.6391012 0.6512868 -0.012310295 0.6390922
        0.65141183 -0.012786244 0.63908255 0.65159476 -0.013260265 0.63907236
        0.65183365 -0.013715417 0.639062 0.6521239 -0.014140234 0.63905185
        0.6524578 -0.014525 0.6390422 0.65282124 -0.014859723 0.63903326
        0.6532007 -0.015141335 0.6390253 0.6535835 -0.015371243 0.63901836
        0.65396065 -0.015554449 0.63901246 0.65432614 -0.015697448 0.63900745
        0.6546767 -0.015806938 0.6390033 0.655011 -0.01588906 0.6389998
        0.6553287 -0.015949031 0.6389969 0.6556304 -0.015991217 0.6389944
        0.6559158 -0.01601906 0.63899237 0.6561872 -0.016035544 0.6389906
        0.6564405 -0.016042825 0.63898915 0.6566845 -0.01604297 0.6389879
        0.656937 -0.016036531 0.6389867 0.65720624 -0.0160228 0.6389856
        0.6574903 -0.01600121 0.63898456 0.657792 -0.01597091 0.63898367
        0.65811276 -0.015931034 0.6389828 0.6584549 -0.015880544 0.638982
        0.6588206 -0.015818276 0.63898134 0.6592125 -0.015742896 0.63898075
        0.6596334 -0.015652899 0.63898027 0.66008645 -0.015546587 0.6389799
        0.660575 -0.015422063 0.6389797 0.6611027 -0.015277208 0.63897943
        0.6616736 -0.015109687 0.6389793 0.66229194 -0.014916933 0.6389793
        0.6629624 -0.0146961585 0.6389793 0.6636898 -0.014444351 0.6389794
        0.6644794 -0.014158303 0.6389794 0.66533667 -0.013834637 0.63897926
        0.6662674 -0.01346985 0.638979 0.66727763 -0.013060381 0.6389785
        0.6683735 -0.012602693 0.6389775 0.6695615 -0.012093385 0.638976
        0.67084813 -0.011529317 0.63897365 0.67224 -0.010907764 0.6389704
        0.67374384 -0.010226579 0.63896585 0.67536634 -0.009484332 0.6389597
        0.6771145 -0.008680409 0.6389518 0.6789954 -0.007814998 0.63894165
        0.68101686 -0.006888845 0.638929 0.68318766 -0.005902797 0.63891363
        0.6855171 -0.0048574386 0.63889515 0.6880144 -0.0037529054 0.6388735
        0.69068754 -0.0025889978 0.6388485 0.69354147 -0.0013656606 0.63882023
        0.6965772 -8.368778e-05 0.638789 0.69979095 0.001254502 0.6387551
        0.7031747 0.0026441503 0.63871914 0.70671695 0.004078049 0.638682
        0.7104045 0.00554694 0.6386445 0.71422225 0.0070397537 0.63860774
        0.7181533 0.008543844 0.63857275 0.72218 0.010046014 0.63854057
        0.72628284 0.011533816 0.63851225 0.73044205 0.012996058 0.6384885
        0.73463356 0.014421072 0.6384698 0.7390877 0.015880693 0.638456
        0.7435276 0.01727914 0.63844824 0.74792904 0.018610166 0.6384462
        0.7522642 0.019868212 0.63844925 0.75650823 0.021049926 0.63845646
        0.76063716 0.0221532 0.638467 0.7646298 0.02317723 0.6384798
        0.76846755 0.02412221 0.63849413 0.77213526 0.024989204 0.6385091
        0.7756212 0.025780024 0.6385242 0.77891713 0.026497148 0.63853896
        0.78201824 0.027143676 0.6385532 0.78492284 0.02772326 0.6385667
        0.78763187 0.028239997 0.6385793 0.7901485 0.028698297 0.6385911
        0.79247797 0.029102776 0.63860214 0.79462683 0.029458117 0.6386124
        0.7966029 0.02976897 0.6386219 0.7984148 0.030039856 0.63863075
        0.8000718 0.03027509 0.63863903 0.8015833 0.03047873 0.6386467
        0.80295897 0.030654538 0.6386539 0.80420846 0.030805947 0.63866055
        0.80534106 0.030936081 0.6386667 0.806366 0.031047734 0.6386725
        0.80729204 0.031143403 0.6386778 0.80812746 0.031225288 0.6386827
        0.80888015 0.031295333 0.63868725 0.80955744 0.03135523 0.6386914
        0.81016636 0.031406444 0.6386953 0.8107132 0.031450246 0.6386988
        0.81120384 0.031487733 0.63870203 0.8116437 0.03151984 0.63870496
        0.8120379 0.031547368 0.63870764 0.81239074 0.031570997 0.6387101
        0.81270653 0.031591315 0.6387123 0.812989 0.03160881 0.63871425
        0.8132415 0.031623896 0.6387161 0.8134671 0.031636935 0.6387177
        0.81366867 0.03164822 0.6387192 0.8138486 0.031657998 0.6387205
        0.8140095 0.031666506 0.6387217 0.81415206 0.031673864 0.6387228
        0.8142834 0.03168048 0.63872373 0.8143833 0.031685427 0.6387245
        0.81454206 0.031693377 0.6387257 0.8148979 0.03172813 0.6387275
        0.8153286 0.031809084 0.6387278 0.8157342 0.031926326 0.63872594
        0.8161376 0.032085925 0.6387219 0.8165269 0.032285713 0.6387157
        0.81689966 0.03252628 0.6387071 0.8172507 0.0328066 0.63869625
        0.8175754 0.033125445 0.6386829 0.81786865 0.03348078 0.6386672
        0.81812567 0.03386978 0.6386492 0.81834155 0.034288716 0.63862896
        0.81851196 0.034732856 0.6386066 0.818633 0.035196517 0.6385824
        0.8187019 0.03567317 0.6385566 0.8175552 0.035772722 0.6385399
        0.81745934 0.036076985 0.6385219 0.8173538 0.036377627 0.6385038
        0.8172343 0.036671482 0.6384858 0.8170985 0.036955707 0.6384681
        0.81694555 0.037227698 0.6384508 0.81677556 0.03748512 0.63843405
        0.8165894 0.03772592 0.6384181 0.8163887 0.03794842 0.63840294
        0.81617594 0.03815139 0.6383887 0.8159539 0.03833402 0.6383756
        0.8157256 0.038496453 0.63836354 0.81549627 0.038638208 0.6383527
        0.81526476 0.038763177 0.63834286 0.815052 0.038864452 0.6383346
        0.81490135 0.038928267 0.63832915 0.81478775 0.038972907 0.63832533
        0.8146439 0.039026845 0.6383206 0.81448656 0.039082397 0.6383156
        0.81430954 0.039141048 0.6383103 0.8141118 0.03920223 0.63830453
        0.813891 0.039265852 0.6382984 0.81364465 0.039331812 0.63829184
        0.81337017 0.039400127 0.63828486 0.81306446 0.039470926 0.6382774
        0.8127242 0.039544508 0.6382694 0.8123456 0.039621297 0.6382608
        0.8119244 0.039701845 0.6382515 0.8114558 0.039786775 0.6382414
        0.8109343 0.039876726 0.6382304 0.8103542 0.039972294 0.6382184
        0.8097088 0.040073946 0.6382053 0.80899096 0.04018196 0.638191
        0.8081932 0.0402964 0.6381753 0.8073073 0.040417016 0.6381582
        0.80632454 0.040543243 0.6381396 0.8052357 0.04067415 0.6381194
        0.8040311 0.04080838 0.6380975 0.8027006 0.0409441 0.638074
        0.80123377 0.041078962 0.6380486 0.7996198 0.041210007 0.6380215
        0.7978479 0.041333612 0.6379927 0.7959075 0.041445408 0.63796216
        0.79378814 0.041540258 0.6379301 0.79148006 0.04161222 0.63789666
        0.7889746 0.041654535 0.6378621 0.7862642 0.041659668 0.6378266
        0.783343 0.04161936 0.6377909 0.78020746 0.041524723 0.63775533
        0.77685624 0.04136639 0.6377207 0.77329093 0.041134667 0.6376879
        0.76951647 0.040819734 0.6376581 0.76554114 0.04041185 0.63763255
        0.76137704 0.039901625 0.6376128 0.75704044 0.039280422 0.63760054
        0.7525516 0.038540788 0.63759744 0.7479349 0.03767707 0.6376052
        0.7432179 0.036685944 0.63762534 0.73843235 0.035567243 0.6376587
        0.7336099 0.034323856 0.637706 0.72878855 0.032963898 0.6377668
        0.7242641 0.03158174 0.6378356 0.71980006 0.030118551 0.63791424
        0.7154191 0.028588066 0.6380006 0.7111459 0.027006695 0.63809264
        0.70699954 0.025389561 0.638188 0.7029977 0.023750462 0.63828444
        0.69915485 0.022102054 0.6383801 0.6954824 0.020455452 0.638473
        0.69198835 0.018819833 0.6385617 0.6886779 0.017202206 0.6386452
        0.6855544 0.015607999 0.63872254 0.6826203 0.014042264 0.6387932
        0.67987746 0.01251058 0.6388568 0.67732656 0.011019543 0.63891333
        0.6749667 0.009576608 0.6389627 0.6727944 0.008189386 0.6390052
        0.6708037 0.0068647126 0.63904124 0.6689863 0.0056078644 0.63907135
        0.66733193 0.0044221147 0.6390961 0.6658294 0.003308821 0.6391162
        0.66446745 0.0022677411 0.63913226 0.66323483 0.0012973652 0.63914484
        0.6621209 0.00039523662 0.63915455 0.66111535 -0.0004417699 0.6391618
        0.6602087 -0.0012172157 0.6391671 0.65939206 -0.001934912 0.6391706
        0.6586572 -0.0025987783 0.6391728 0.6579965 -0.0032127348 0.6391739
        0.65740293 -0.0037806274 0.6391742 0.65687025 -0.004306177 0.63917375
        0.6563926 -0.0047929417 0.63917273 0.6559645 -0.0052442956 0.63917136
        0.6555812 -0.0056634117 0.6391696 0.6552383 -0.006053251 0.63916767
        0.65493166 -0.0064165564 0.63916546 0.6546579 -0.0067558438 0.63916314
        0.6544135 -0.0070734033 0.63916075 0.65419567 -0.007371304 0.63915825
        0.65400165 -0.0076513896 0.6391558 0.6538291 -0.007915302 0.63915324
        0.653676 -0.008164461 0.6391507 0.65354025 -0.008400173 0.6391482
        0.6534204 -0.008623317 0.6391457 0.6533146 -0.0088354135 0.63914317
        0.6532222 -0.009035583 0.6391407 0.6531406 -0.009227752 0.6391383
        0.6530627 -0.009429398 0.6391356 0.65298855 -0.0096446285 0.6391326
        0.6529207 -0.0098715415 0.6391294 0.652861 -0.010110773 0.6391259
        0.6528118 -0.010361785 0.63912207 0.6527757 -0.010624091 0.63911784
        0.6527553 -0.0108966 0.6391133 0.65275335 -0.011177596 0.6391085
        0.6527724 -0.011464611 0.63910335 0.65281475 -0.011754479 0.6390979
        0.6528818 -0.01204365 0.6390923 0.6529745 -0.012328468 0.63908654
        0.6530932 -0.01260577 0.6390807 0.6532376 -0.01287257 0.6390749
        0.65340614 -0.0131250005 0.63906914 0.6535961 -0.013359745 0.63906354
        0.6538052 -0.013575128 0.6390582 0.65403044 -0.013769893 0.63905317
        0.6542682 -0.013943032 0.6390484 0.6545146 -0.014094201 0.63904405
        0.65476584 -0.014223778 0.6390401 0.65501845 -0.01433284 0.6390366
        0.65526956 -0.0144229755 0.6390334 0.65551686 -0.014496044 0.6390306
        0.6557588 -0.0145540405 0.63902813 0.65599364 -0.01459884 0.639026
        0.6562211 -0.014632392 0.6390241 0.6564382 -0.014656129 0.63902247
        0.65664864 -0.014672023 0.63902104 0.6568713 -0.014681793 0.6390196
        0.6571111 -0.0146848215 0.6390183 0.6573674 -0.014680146 0.639017
        0.6576424 -0.014666791 0.63901573 0.65793765 -0.014643689 0.6390146
        0.65825516 -0.014609655 0.6390135 0.6585972 -0.014563393 0.6390126
        0.65896606 -0.014503459 0.6390116 0.6593648 -0.014428267 0.63901085
        0.65979636 -0.014336056 0.63901013 0.66026413 -0.0142248925 0.63900954
        0.66077197 -0.014092648 0.63900894 0.6613238 -0.013936984 0.6390085
        0.66192394 -0.013755357 0.6390081 0.66257715 -0.013544996 0.6390077
        0.6632883 -0.013302927 0.63900733 0.66406274 -0.013025968 0.63900685
        0.66490597 -0.012710764 0.63900626 0.66582376 -0.0123538235 0.6390054
        0.6668222 -0.011951582 0.63900423 0.66790766 -0.011500482 0.6390026
        0.6690865 -0.01099709 0.63900036 0.67036545 -0.010438216 0.63899726
        0.6717512 -0.009821072 0.638993 0.67325056 -0.009143435 0.6389875
        0.67487043 -0.008403799 0.63898027 0.6766178 -0.0076014795 0.6389711
        0.6784998 -0.006736618 0.6389596 0.68052423 -0.0058099674 0.63894546
        0.68269944 -0.004822473 0.6389284 0.6850344 -0.0037749186 0.63890815
        0.68753785 -0.0026677167 0.6388845 0.69021726 -0.0015009643 0.63885736
        0.69307715 -0.00027485713 0.6388268 0.6961185 0.0010096628 0.638793
        0.6993376 0.002350157 0.63875645 0.7027267 0.0037419703 0.6387177
        0.7062748 0.005178065 0.63867754 0.7099689 0.006649332 0.6386369
        0.71379423 0.008144809 0.63859683 0.71773404 0.009651944 0.63855845
        0.7217706 0.01115753 0.63852286 0.7258842 0.012649023 0.6384911
        0.73005456 0.0141149955 0.638464 0.7342583 0.015544026 0.6384421
        0.7387251 0.0170077 0.638425 0.7431783 0.01841029 0.6384141
        0.74759257 0.019745195 0.6384092 0.7519404 0.021006936 0.63840955
        0.7561966 0.022192078 0.6384143 0.7603373 0.023298524 0.6384226
        0.7643412 0.02432547 0.63843346 0.76818985 0.02527313 0.6384459
        0.77186817 0.02614259 0.6384593 0.77536446 0.026935685 0.63847303
        0.77867055 0.027654918 0.63848656 0.78178173 0.028303409 0.6384997
        0.7846962 0.028884817 0.6385122 0.787415 0.029403245 0.638524
        0.7899413 0.029863114 0.6385351 0.79228026 0.03026903 0.63854545
        0.7944384 0.030625686 0.6385551 0.79642355 0.030937733 0.63856417
        0.79824424 0.031209694 0.6385727 0.7999097 0.03144589 0.63858056
        0.8014294 0.03165038 0.63858795 0.8028129 0.03182693 0.63859487
        0.8040698 0.031978987 0.63860136 0.8052095 0.032109696 0.6386073
        0.8062413 0.032221876 0.638613 0.8071738 0.032318085 0.6386182
        0.8080156 0.03240062 0.638623 0.80877465 0.032471552 0.6386274
        0.80945855 0.032532785 0.6386315 0.81007445 0.03258605 0.6386352
        0.81062895 0.032632943 0.63863856 0.81112814 0.03267492 0.6386416
        0.8115776 0.03271327 0.6386443 0.81198233 0.032749128 0.63864654
        0.8123468 0.032783426 0.6386485 0.81267506 0.03281689 0.6386502
        0.8129706 0.032850016 0.63865143 0.8132365 0.0328831 0.63865244
        0.8134756 0.032916237 0.63865316 0.8136904 0.03294937 0.6386536
        0.8138831 0.0329823 0.6386539 0.8140561 0.033014834 0.63865393
        0.8142101 0.033046428 0.6386538 0.81435156 0.033077914 0.6386536
        0.81446165 0.033103883 0.63865334 0.814615 0.033144135 0.6386528
        0.8148361 0.033212088 0.6386515 0.81507915 0.033299822 0.6386493
        0.81532305 0.033403575 0.6386463 0.81556946 0.033527046 0.6386423
        0.8158134 0.033670586 0.6386371 0.8160523 0.033834897 0.6386308
        0.81628317 0.034019783 0.6386233 0.8165036 0.0342246 0.6386145
        0.8167118 0.034448147 0.6386045 0.8169064 0.03468878 0.6385934
        0.817087 0.03494438 0.6385812 0.81725395 0.035212398 0.63856816
        0.81740886 0.035489764 0.6385543 0.8175552 0.035772722 0.6385399
        0.8165764 0.035857685 0.6385256 0.8164985 0.03605717 0.63851357
        0.8164159 0.036255155 0.6385016 0.81632686 0.03645003 0.6384896
        0.8162297 0.036640033 0.6384778 0.8161231 0.036823347 0.6384662
        0.81600636 0.036998168 0.6384549 0.8158793 0.03716282 0.6384441
        0.8157426 0.037315853 0.6384338 0.81559753 0.0374562 0.6384242
        0.8154459 0.037583176 0.6384152 0.8152898 0.037696715 0.638407
        0.8151319 0.037796885 0.6383995 0.8149731 0.037885275 0.6383927
        0.8148204 0.037960265 0.63838667 0.81469125 0.03801636 0.6383821
        0.81457675 0.03806161 0.6383782 0.81443715 0.038113203 0.63837373
        0.8142828 0.038165927 0.6383691 0.8141091 0.038220752 0.638364
        0.81391466 0.03827741 0.63835865 0.8136972 0.038336016 0.638353
        0.81345445 0.038396727 0.6383469 0.81318367 0.03845982 0.63834035
        0.8128818 0.03852567 0.6383333 0.81254566 0.038594753 0.63832575
        0.81217134 0.03866762 0.63831747 0.81175464 0.038744867 0.6383086
        0.8112908 0.03882709 0.6382988 0.8107744 0.03891487 0.63828814
        0.81019956 0.039008677 0.6382764 0.80955976 0.039108884 0.6382636
        0.8088481 0.03921566 0.6382496 0.80805683 0.039328985 0.6382342
        0.8071779 0.039448548 0.63821745 0.8062027 0.03957375 0.63819915
        0.80512196 0.039703645 0.63817924 0.8039261 0.039836876 0.6381577
        0.802605 0.039971624 0.6381345 0.8011482 0.040105555 0.6381095
        0.799545 0.040235724 0.6380828 0.7977846 0.040358517 0.6380544
        0.79585636 0.040469613 0.6380242 0.79374987 0.04056389 0.63799244
        0.79145545 0.04063543 0.6379593 0.78896433 0.040677514 0.63792497
        0.78626895 0.04068263 0.63788974 0.7833635 0.04064255 0.63785416
        0.78024435 0.040548425 0.63781863 0.77691007 0.040390912 0.63778394
        0.77336246 0.040160358 0.637751 0.76960623 0.039846968 0.6377208
        0.7656498 0.039441038 0.6376947 0.76150525 0.03893322 0.6376743
        0.7571888 0.0383149 0.637661 0.7527207 0.03757867 0.6376566
        0.74812514 0.03671889 0.63766277 0.7434298 0.035732243 0.637681
        0.7386658 0.034618504 0.6377122 0.7338654 0.033380676 0.6377569
        0.72906464 0.032026403 0.6378149 0.7245602 0.030650195 0.63788086
        0.72011435 0.029192785 0.63795644 0.715751 0.027668266 0.6380397
        0.7114941 0.026092762 0.6381285 0.7073634 0.024481555 0.63822067
        0.70337665 0.022848483 0.63831407 0.6995484 0.021206245 0.6384066
        0.6958904 0.019566039 0.6384965 0.69241095 0.017937163 0.6385824
        0.68911535 0.01632679 0.6386631 0.68600726 0.014740493 0.6387378
        0.68308926 0.013183387 0.638806 0.68036294 0.011661006 0.6388673
        0.6778287 0.010179791 0.6389216 0.6754853 0.008746967 0.63896894
        0.6733289 0.0073698913 0.63900954 0.6713532 0.0060551846 0.63904387
        0.6695497 0.004807983 0.6390724 0.6679082 0.0036315112 0.6390958
        0.6664177 0.0025271513 0.6391146 0.66506696 0.0014947233 0.6391295
        0.6638449 0.0005328063 0.63914114 0.662741 -0.0003609574 0.6391499
        0.66174525 -0.001189591 0.63915634 0.6608481 -0.0019565537 0.6391608
        0.66004086 -0.0026655584 0.63916373 0.6593153 -0.0033204292 0.6391654
        0.6586639 -0.0039249957 0.63916606 0.65807986 -0.004483017 0.6391658
        0.65755665 -0.004998129 0.639165 0.6570885 -0.0054738126 0.6391637
        0.6566701 -0.0059133675 0.63916194 0.65629655 -0.006319903 0.63916
        0.6559634 -0.006696327 0.6391578 0.6556667 -0.007045342 0.63915545
        0.6554028 -0.0073694405 0.63915306 0.65516824 -0.007670902 0.63915056
        0.65496016 -0.007951796 0.63914806 0.6547758 -0.008213983 0.63914555
        0.65461284 -0.008459123 0.6391431 0.6544691 -0.008688671 0.6391406
        0.65434253 -0.008903945 0.63913816 0.6542316 -0.009105958 0.6391358
        0.6541346 -0.009295986 0.63913345 0.6540504 -0.009474046 0.6391312
        0.6539771 -0.00964245 0.6391289 0.6539076 -0.009817922 0.63912654
        0.6538425 -0.010002092 0.639124 0.6537838 -0.010193461 0.6391212
        0.65373313 -0.010391566 0.6391182 0.65369225 -0.010595323 0.639115
        0.653663 -0.01080356 0.63911164 0.65364695 -0.011014757 0.63910806
        0.65364563 -0.011227136 0.63910437 0.6536601 -0.0114387 0.63910055
        0.65369123 -0.0116474265 0.6390967 0.6537392 -0.011851474 0.63909274
        0.6538043 -0.012049361 0.6390888 0.6538864 -0.012240083 0.6390849
        0.6539855 -0.012422892 0.6390809 0.65410084 -0.01259596 0.63907707
        0.6542313 -0.012757706 0.6390733 0.65437615 -0.012907771 0.63906974
        0.6545345 -0.013045661 0.6390662 0.6547052 -0.013170723 0.63906294
        0.65488636 -0.013282374 0.63905984 0.65507585 -0.013380283 0.639057
        0.65527135 -0.013464487 0.6390543 0.6554706 -0.013535414 0.6390519
        0.6556714 -0.01359381 0.6390497 0.6558719 -0.013640668 0.63904774
        0.6560703 -0.013677087 0.639046 0.6562653 -0.013704302 0.63904446
        0.6564547 -0.01372339 0.6390431 0.6566395 -0.013735711 0.63904184
        0.6568381 -0.013742611 0.6390407 0.65705353 -0.013743343 0.6390395
        0.6572862 -0.013736983 0.6390384 0.65753806 -0.013722536 0.6390373
        0.6578107 -0.013698931 0.63903624 0.65810627 -0.013664968 0.63903534
        0.65842694 -0.0136193335 0.6390344 0.6587753 -0.013560566 0.63903356
        0.65915424 -0.0134870475 0.6390327 0.6595668 -0.013396987 0.639032
        0.6600165 -0.013288401 0.63903135 0.66050696 -0.013159109 0.6390307
        0.6610423 -0.013006717 0.6390301 0.6616269 -0.012828612 0.63902956
        0.6622653 -0.012621964 0.63902897 0.6629626 -0.012383722 0.6390283
        0.66372406 -0.012110638 0.6390276 0.66455513 -0.011799288 0.63902664
        0.6654618 -0.011446106 0.63902545 0.66645 -0.011047456 0.63902384
        0.6675263 -0.010599709 0.6390217 0.6686971 -0.010099349 0.6390189
        0.66996914 -0.009543103 0.63901514 0.67134935 -0.008928105 0.63901025
        0.6728445 -0.008252048 0.6390039 0.6744617 -0.007513353 0.63899577
        0.676208 -0.0067112832 0.6389856 0.6780906 -0.00584596 0.638973
        0.68011713 -0.0049181813 0.6389576 0.68229586 -0.0039290073 0.6389392
        0.68463534 -0.002879402 0.6389175 0.68714386 -0.0017699796 0.6388922
        0.68982846 -0.0006010239 0.63886327 0.6926935 0.00062714797 0.6388308
        0.69573945 0.0019135585 0.63879496 0.69896305 0.0032558204 0.6387562
        0.7023566 0.0046493975 0.6387151 0.70590943 0.006087379 0.6386724
        0.7096089 0.007560757 0.63862914 0.7134404 0.009058631 0.63858634
        0.71738744 0.010568503 0.6385452 0.72143203 0.012077078 0.63850677
        0.72555447 0.013571749 0.6384722 0.729734 0.015040917 0.6384423
        0.7339479 0.016473366 0.6384177 0.73842514 0.017940428 0.6383978
        0.74288934 0.019346455 0.6383844 0.7473142 0.02068455 0.6383771
        0.75167257 0.021949312 0.63837516 0.7559389 0.02313725 0.6383779
        0.7600893 0.024246298 0.6383844 0.7641025 0.025275651 0.6383936
        0.7679602 0.026225548 0.63840455 0.7716472 0.027097106 0.6384166
        0.775152 0.027892176 0.6384291 0.7784666 0.02861328 0.6384416
        0.781586 0.02926355 0.63845384 0.7845087 0.029846653 0.63846546
        0.78723556 0.030366687 0.6384766 0.7897699 0.030828066 0.63848704
        0.79211664 0.031235414 0.6384968 0.7942825 0.03159341 0.63850605
        0.7962751 0.0319067 0.63851476 0.79810303 0.032179818 0.6385228
        0.7997755 0.032417078 0.6385305 0.8013019 0.032622546 0.6385376
        0.8026919 0.03279999 0.63854426 0.80395496 0.032952864 0.6385505
        0.80510056 0.033084303 0.6385564 0.80613786 0.033197135 0.6385619
        0.80707556 0.033293895 0.638567 0.8079222 0.033376858 0.63857174
        0.80868566 0.033448048 0.6385761 0.8093736 0.033509295 0.63858014
        0.80999315 0.033562254 0.63858384 0.81055075 0.033608407 0.6385872
        0.81105256 0.033649106 0.6385902 0.8115042 0.03368556 0.63859296
        0.81191057 0.033718858 0.63859534 0.81227624 0.033749934 0.6385974
        0.81260526 0.03377959 0.6385993 0.8129012 0.03380849 0.63860077
        0.8131672 0.033837125 0.6386019 0.81340617 0.03386585 0.6386028
        0.81362057 0.03389487 0.6386034 0.8138127 0.033924248 0.6386038
        0.8139848 0.03395395 0.6386039 0.81413805 0.033983674 0.6386039
        0.81427735 0.03401393 0.6386037 0.8143904 0.034040768 0.6386034
        0.81452274 0.034076706 0.6386028 0.81468153 0.034127593 0.63860166
        0.81484836 0.034190238 0.6386 0.81501645 0.034264047 0.63859767
        0.81518525 0.034350757 0.6385947 0.8153523 0.03445091 0.638591
        0.81551576 0.034564868 0.6385864 0.81567365 0.03469239 0.6385811
        0.8158246 0.034832753 0.63857496 0.81596786 0.034984767 0.63856804
        0.816103 0.03514686 0.6385604 0.8162303 0.035317186 0.6385523
        0.8163508 0.035493754 0.6385437 0.81646574 0.035674557 0.6385348
        0.8165764 0.035857685 0.6385256 0.81584775 0.03592093 0.6385149
        0.81580764 0.036060855 0.6385066 0.8157634 0.036200084 0.6384983
        0.815713 0.0363377 0.63848996 0.81565464 0.036472462 0.6384817
        0.81558704 0.036602955 0.6384736 0.81550974 0.03672769 0.63846564
        0.81542253 0.03684524 0.638458 0.81532604 0.036954332 0.63845074
        0.8152212 0.037053954 0.6384439 0.8151094 0.037143417 0.6384376
        0.8149922 0.037222467 0.63843185 0.8148715 0.037291195 0.6384266
        0.8147487 0.03735043 0.63842195 0.8146269 0.03740049 0.6384178
        0.81451285 0.037441026 0.63841426 0.8143971 0.0374777 0.6384109
        0.8142619 0.03751716 0.6384073 0.8141112 0.037557706 0.6384034
        0.8139418 0.03760008 0.6383992 0.8137521 0.03764458 0.63839465
        0.8135398 0.037691657 0.63838977 0.81330246 0.037741773 0.6383844
        0.8130372 0.03779543 0.63837856 0.81274104 0.037853144 0.6383721
        0.8124105 0.03791543 0.63836503 0.8120416 0.037982795 0.6383573
        0.81163 0.03805573 0.63834876 0.811171 0.038134657 0.63833934
        0.8106592 0.038219966 0.6383289 0.8100889 0.03831194 0.63831747
        0.80945355 0.03841075 0.6383049 0.80874634 0.03851642 0.63829106
        0.8079598 0.038628813 0.6382759 0.8070858 0.03874753 0.63825935
        0.8061159 0.038871933 0.63824135 0.8050409 0.03900104 0.63822174
        0.80385125 0.0391335 0.63820046 0.8025368 0.03926749 0.63817745
        0.80108714 0.039400686 0.6381527 0.79949164 0.039530158 0.63812625
        0.7977395 0.039652314 0.63809806 0.79581994 0.039762836 0.6380682
        0.79372275 0.03985663 0.63803667 0.79143816 0.03992781 0.63800377
        0.78895736 0.039969657 0.6379696 0.7862728 0.039974704 0.63793457
        0.7833788 0.039934736 0.63789904 0.7802714 0.03984093 0.6378636
        0.77694947 0.039683968 0.6378289 0.7734146 0.039454214 0.63779575
        0.7696716 0.039141905 0.63776535 0.76572883 0.038737368 0.6377389
        0.7615984 0.03823128 0.63771784 0.75729656 0.037615042 0.63770384
        0.75284344 0.03688127 0.63769853 0.74826324 0.036024336 0.63770366
        0.74358356 0.035040934 0.63772047 0.73883516 0.03393078 0.6377501
        0.7340507 0.03269696 0.637793 0.7292649 0.03134676 0.6378489
        0.724775 0.029974833 0.63791287 0.72034234 0.028521564 0.63798624
        0.7159918 0.027001316 0.6380672 0.71174675 0.02543003 0.63815373
        0.7076274 0.023823118 0.6382436 0.70365155 0.02219443 0.6383347
        0.699834 0.020556701 0.63842505 0.6961864 0.018921195 0.63851285
        0.6927174 0.017297307 0.63859665 0.6894325 0.015692335 0.63867533
        0.6863355 0.014111944 0.63874817 0.683429 0.012561276 0.63881457
        0.68071455 0.011045817 0.6388742 0.6781924 0.009571874 0.63892686
        0.67586076 0.008146495 0.63897276 0.6737158 0.0067768553 0.63901204
        0.67175084 0.0054694237 0.6390451 0.66995746 0.004229252 0.63907254
        0.66832525 0.0030595453 0.6390949 0.66684335 0.0019617134 0.63911283
        0.6655006 0.00093563355 0.6391269 0.6642861 -2.0046462e-05 0.63913774
        0.6631893 -0.00090760825 0.6391459 0.6622003 -0.001729997 0.63915175
        0.66130966 -0.0024905961 0.63915575 0.66050875 -0.0031930446 0.6391582
        0.6597894 -0.0038410958 0.63915944 0.65914404 -0.0044385097 0.6391597
        0.6585659 -0.004988976 0.6391592 0.6580485 -0.00549606 0.6391581
        0.6575861 -0.0059631686 0.6391565 0.6571732 -0.0063935253 0.6391547
        0.65680516 -0.006790164 0.6391525 0.6564774 -0.00715592 0.63915026
        0.65618587 -0.007493431 0.6391478 0.6559269 -0.007805138 0.6391454
        0.6556972 -0.00809329 0.63914293 0.65549374 -0.008359947 0.6391404
        0.65531385 -0.008606989 0.639138 0.65515506 -0.008836116 0.6391356
        0.65501523 -0.009048859 0.6391333 0.65489227 -0.009246608 0.63913095
        0.65478456 -0.009430551 0.63912874 0.65469044 -0.009601906 0.6391266
        0.6546086 -0.009761332 0.6391246 0.6545375 -0.009910306 0.63912255
        0.6544697 -0.010064416 0.6391204 0.6544062 -0.010223964 0.63911813
        0.6543485 -0.0103877615 0.63911575 0.654298 -0.010554966 0.63911325
        0.6542562 -0.010724481 0.63911057 0.6542244 -0.010895168 0.6391078
        0.65420383 -0.01106576 0.63910496 0.65419555 -0.011234917 0.63910204
        0.6542003 -0.011401294 0.63909906 0.6542187 -0.011563627 0.6390961
        0.65425074 -0.011720845 0.6390931 0.65429676 -0.011872136 0.6390901
        0.6543567 -0.012016958 0.63908714 0.6544306 -0.012154922 0.6390842
        0.654518 -0.0122848 0.63908136 0.654618 -0.012405538 0.6390786
        0.6547303 -0.012516987 0.639076 0.65485454 -0.012618906 0.63907343
        0.6549898 -0.012710965 0.639071 0.65513515 -0.012792859 0.6390687
        0.6552892 -0.012864409 0.6390666 0.6554504 -0.012925645 0.6390646
        0.65561706 -0.012976826 0.63906276 0.6557875 -0.013018427 0.63906115
        0.6559601 -0.013051106 0.6390596 0.65613306 -0.013075627 0.6390583
        0.656305 -0.0130928615 0.63905704 0.6564742 -0.013103669 0.63905597
        0.65664035 -0.013109001 0.639055 0.65682095 -0.013109447 0.63905406
        0.65701795 -0.01310424 0.6390531 0.6572325 -0.01309252 0.6390522
        0.6574666 -0.013073329 0.6390513 0.65772194 -0.013045609 0.6390504
        0.6580007 -0.013008177 0.6390496 0.6583053 -0.012959716 0.6390488
        0.65863824 -0.012898756 0.63904804 0.6590024 -0.012823655 0.6390473
        0.659401 -0.012732599 0.63904667 0.65983737 -0.012623564 0.639046
        0.6603153 -0.012494327 0.63904536 0.66083866 -0.012342436 0.6390447
        0.661412 -0.012165228 0.63904405 0.6620398 -0.011959804 0.6390434
        0.66272706 -0.011723051 0.6390426 0.6634791 -0.011451648 0.63904166
        0.66430134 -0.011142101 0.6390405 0.6651998 -0.010790776 0.6390391
        0.6661806 -0.010393969 0.6390372 0.6672501 -0.009947974 0.6390347
        0.6684149 -0.009449208 0.6390315 0.66968185 -0.00889433 0.6390273
        0.6710578 -0.008280398 0.63902193 0.67254984 -0.0076050432 0.639015
        0.67416495 -0.0068666316 0.63900626 0.67591035 -0.006064387 0.63899535
        0.67779326 -0.005198426 0.63898194 0.67982125 -0.0042695873 0.63896567
        0.6820025 -0.0032790338 0.6389463 0.6843452 -0.0022278596 0.63892347
        0.68685746 -0.0011168215 0.638897 0.68954587 5.368336e-05 0.6388668
        0.6924145 0.001283278 0.6388329 0.69546396 0.002570988 0.6387956
        0.6986908 0.0039144866 0.63875526 0.7020876 0.0053093345 0.6387124
        0.7056439 0.0067487103 0.6386679 0.70934725 0.008223668 0.63862276
        0.7131832 0.009723348 0.63857794 0.71713537 0.011235282 0.6385348
        0.72118586 0.012746079 0.63849425 0.72531474 0.014243103 0.63845766
        0.7295009 0.015714629 0.63842565 0.73372215 0.017149594 0.6383991
        0.73820704 0.018619128 0.63837725 0.74267924 0.020027654 0.63836193
        0.7471118 0.021368058 0.6383528 0.7514778 0.022635007 0.6383493
        0.75575143 0.023824971 0.6383506 0.759909 0.0249359 0.6383557
        0.763929 0.025967 0.63836366 0.76779324 0.026918532 0.63837355
        0.77148664 0.027791632 0.63838464 0.7749977 0.028588172 0.63839626
        0.7783183 0.02931068 0.638408 0.7814438 0.0299623 0.6384195
        0.78437245 0.03054669 0.6384306 0.7871052 0.031067956 0.63844115
        0.7896453 0.031530518 0.63845116 0.7919978 0.03193898 0.6384606
        0.79416925 0.03229803 0.63846946 0.79616725 0.032612313 0.6384778
        0.7980006 0.032886356 0.63848567 0.79967815 0.03312448 0.638493
        0.8012095 0.033330753 0.6385 0.8026042 0.03350894 0.6385065
        0.8038718 0.033662505 0.6385126 0.8050217 0.033794567 0.63851833
        0.806063 0.033907957 0.6385237 0.80700445 0.034005187 0.6385287
        0.80785453 0.03408849 0.6385334 0.808621 0.034159835 0.6385377
        0.80931145 0.034220964 0.63854176 0.8099328 0.0342734 0.6385454
        0.81049156 0.034318477 0.6385488 0.81099373 0.03435737 0.63855195
        0.8114449 0.034391105 0.63855475 0.8118499 0.03442059 0.6385573
        0.8122135 0.034446638 0.63855964 0.81253976 0.03446996 0.6385617
        0.8128324 0.034491196 0.6385635 0.8130948 0.034510918 0.6385651
        0.81332994 0.03452963 0.6385665 0.8135405 0.034547772 0.6385676
        0.8137289 0.034565724 0.6385686 0.8138975 0.03458381 0.63856924
        0.8140478 0.034602232 0.6385698 0.8141832 0.034621432 0.6385701
        0.8142985 0.03464019 0.63857025 0.81441474 0.034663077 0.63857013
        0.81454015 0.03469397 0.6385697 0.81466806 0.034733392 0.6385689
        0.8147956 0.034782104 0.63856745 0.8149217 0.034841172 0.63856554
        0.81504446 0.034911036 0.6385629 0.81516254 0.034991775 0.6385597
        0.8152744 0.03508302 0.63855577 0.815379 0.035184022 0.63855124
        0.8154756 0.035293695 0.63854617 0.8155638 0.03541067 0.63854057
        0.81564397 0.03553342 0.63853455 0.815717 0.035660345 0.63852817
        0.81578434 0.035789944 0.6385216 0.81584775 0.03592093 0.6385149
        0.81535864 0.035963383 0.63850766 0.815362 0.036069278 0.6385017
        0.8153533 0.036175 0.6384956 0.81533283 0.036279358 0.6384895
        0.8153007 0.036381163 0.6384834 0.8152574 0.036479264 0.6384774
        0.81520337 0.036572564 0.6384715 0.8151394 0.036660027 0.6384659
        0.8150662 0.0367407 0.6384605 0.81498486 0.03681373 0.63845545
        0.8148963 0.03687837 0.63845086 0.8148017 0.036934007 0.6384467
        0.81470233 0.03698017 0.63844305 0.81459945 0.037016537 0.6384399
        0.8144945 0.037042953 0.63843733 0.81438965 0.037064172 0.63843507
        0.8142721 0.037087824 0.6384325 0.81414026 0.037114166 0.63842964
        0.81399244 0.037143473 0.6384264 0.8138268 0.037176035 0.6384229
        0.8136412 0.037212178 0.6384189 0.81343323 0.037252232 0.6384145
        0.8132003 0.03729655 0.63840955 0.8129396 0.03734549 0.638404
        0.8126477 0.03739944 0.63839793 0.81232125 0.037458766 0.63839114
        0.81195617 0.037523836 0.63838357 0.8115482 0.037595008 0.6383752
        0.81109244 0.037672594 0.6383659 0.8105837 0.037756864 0.6383557
        0.8100163 0.03784802 0.6383444 0.80938375 0.03794616 0.63833195
        0.80867946 0.03805126 0.6383183 0.8078959 0.038163118 0.6383033
        0.8070252 0.03828133 0.6382868 0.80605876 0.03840523 0.63826895
        0.8049875 0.03853384 0.63824946 0.8038019 0.038665798 0.6382284
        0.80249184 0.038799297 0.6382056 0.8010469 0.038932018 0.63818103
        0.7994565 0.039061036 0.63815475 0.79770976 0.039182775 0.63812673
        0.79579604 0.039292928 0.638097 0.793705 0.039386414 0.6380657
        0.7914269 0.039457355 0.6380329 0.78895295 0.03949906 0.6379989
        0.7862756 0.039504062 0.6379639 0.78338903 0.039464176 0.6379284
        0.78028953 0.03937058 0.637893 0.7769758 0.039213993 0.6378583
        0.77344936 0.03898478 0.6378251 0.76971513 0.038673196 0.6377945
        0.76578146 0.038269587 0.6377678 0.76166046 0.037764646 0.6377464
        0.75736827 0.037149798 0.6377319 0.75292516 0.036417663 0.63772607
        0.7483551 0.03556262 0.63773036 0.74368584 0.03458138 0.6377463
        0.7389478 0.03347361 0.6377749 0.7341739 0.032242455 0.63781655
        0.7293981 0.03089497 0.63787115 0.7249178 0.029525897 0.63793373
        0.720494 0.028075386 0.6380057 0.71615195 0.026557986 0.6380851
        0.7119148 0.024989504 0.6381701 0.70780295 0.023385454 0.63825846
        0.70383435 0.021759678 0.63834804 0.70002383 0.020124946 0.6384369
        0.6963832 0.018492559 0.6385233 0.6929211 0.016871985 0.6386058
        0.6896434 0.0152705945 0.6386832 0.6865538 0.013694119 0.6387547
        0.6836549 0.012147722 0.63881993 0.6809484 0.010636853 0.6388784
        0.67843413 0.009167736 0.63893 0.67611045 0.007747302 0.63897496
        0.673973 0.0063826004 0.6390133 0.6720153 0.0050800038 0.6390456
        0.67022854 0.0038445035 0.6390723 0.6686025 0.0026792912 0.639094
        0.66712636 0.0015857937 0.6391113 0.66578895 0.00056392397 0.6391249
        0.6645794 -0.00038762472 0.63913524 0.6634874 -0.0012710853 0.63914293
        0.6625029 -0.0020893537 0.6391484 0.6616166 -0.0028457644 0.63915205
        0.66081995 -0.0035439108 0.6391542 0.6601047 -0.0041875024 0.63915515
        0.6594634 -0.004780258 0.6391552 0.65888923 -0.0053258264 0.6391545
        0.6583758 -0.0058277305 0.63915324 0.6579172 -0.006289334 0.6391516
        0.6575082 -0.0067138113 0.6391495 0.65714383 -0.007104143 0.63914734
        0.65681976 -0.0074631087 0.63914496 0.6565318 -0.0077932887 0.6391425
        0.65627646 -0.008097066 0.63914 0.6560502 -0.008376639 0.63913757
        0.6558502 -0.008634034 0.63913506 0.6556735 -0.008871104 0.6391327
        0.6555178 -0.009089551 0.63913035 0.65538085 -0.0092909355 0.63912815
        0.65526056 -0.009476679 0.63912594 0.6551552 -0.0096480865 0.63912386
        0.65506303 -0.009806346 0.63912183 0.6549827 -0.009952544 0.6391199
        0.6549128 -0.010087674 0.63911813 0.6548458 -0.01022656 0.6391162
        0.6547826 -0.010368696 0.63911426 0.6547244 -0.0105130775 0.6391121
        0.6546726 -0.010658704 0.6391099 0.6546282 -0.010804594 0.63910764
        0.6545924 -0.010949791 0.6391053 0.6545661 -0.01109338 0.639103
        0.6545503 -0.011234484 0.63910055 0.65454566 -0.011372282 0.63909817
        0.65455294 -0.011506014 0.6390957 0.6545726 -0.011634978 0.6390933
        0.654605 -0.011758551 0.6390909 0.65465033 -0.011876183 0.6390886
        0.6547087 -0.011987399 0.6390862 0.65477955 -0.0120911095 0.639084
        0.6548622 -0.012186318 0.63908184 0.6549562 -0.012272827 0.6390797
        0.65506107 -0.0123505425 0.6390778 0.65517604 -0.012419474 0.63907593
        0.65530026 -0.012479721 0.63907415 0.65543276 -0.012531482 0.63907254
        0.6555724 -0.012575041 0.63907105 0.6557181 -0.012610769 0.6390696
        0.65586853 -0.012639107 0.63906837 0.65602225 -0.01266057 0.6390672
        0.6561779 -0.012675725 0.6390661 0.656334 -0.01268519 0.63906515
        0.656489 -0.012689626 0.63906425 0.656642 -0.012689707 0.6390635
        0.65680987 -0.012685421 0.6390627 0.656994 -0.01267602 0.6390619
        0.65719604 -0.012660654 0.63906115 0.65741783 -0.012638365 0.6390603
        0.6576614 -0.012608082 0.6390596 0.6579288 -0.0125686005 0.6390588
        0.6582226 -0.01251857 0.6390581 0.6585454 -0.012456489 0.6390574
        0.65889984 -0.012380679 0.6390567 0.6592893 -0.012289283 0.639056
        0.659717 -0.012180245 0.6390554 0.66018677 -0.012051299 0.6390547
        0.6607025 -0.011899963 0.63905406 0.6612685 -0.011723531 0.63905334
        0.6618894 -0.011519066 0.63905257 0.6625701 -0.011283419 0.6390517
        0.66331595 -0.011013227 0.63905066 0.6641324 -0.010704955 0.6390494
        0.66502553 -0.010354927 0.63904774 0.6660014 -0.009959393 0.63904566
        0.66706645 -0.0095146075 0.63904303 0.6682273 -0.0090169385 0.6390395
        0.6694909 -0.008463001 0.63903505 0.6708641 -0.007849808 0.63902926
        0.67235404 -0.0071749496 0.639022 0.6739678 -0.0064367503 0.6390128
        0.6757126 -0.005634412 0.6390015 0.67759573 -0.0047680456 0.63898754
        0.67962474 -0.0038385203 0.6389707 0.6818076 -0.0028470613 0.63895065
        0.6841525 -0.0017948535 0.6389271 0.6866672 -0.0006827464 0.6388998
        0.6893582 0.0004887867 0.63886875 0.6922293 0.0017193276 0.638834
        0.69528097 0.0030079025 0.6387957 0.69850993 0.0043522227 0.63875425
        0.7019088 0.005747915 0.63871026 0.70546746 0.0071882126 0.63866454
        0.7091734 0.008664215 0.6386181 0.71301234 0.010165089 0.63857204
        0.716968 0.011678386 0.63852745 0.72102237 0.013190655 0.6384856
        0.7251555 0.014689233 0.6384476 0.7293461 0.016162325 0.63841426
        0.73357224 0.017598959 0.63838637 0.73806214 0.019070126 0.6383632
        0.74253964 0.02048031 0.6383466 0.7469774 0.021822251 0.6383363
        0.75134844 0.02309065 0.6383317 0.755627 0.02428196 0.638332
        0.7597892 0.025394136 0.6383362 0.7638138 0.026426395 0.63834333
        0.7676824 0.027379017 0.6383525 0.77138 0.02825314 0.63836294
        0.7748952 0.029050652 0.63837403 0.7782199 0.029774092 0.63838524
        0.78134936 0.030426601 0.63839626 0.78428197 0.031011844 0.638407
        0.7870187 0.031533927 0.6384172 0.78956264 0.031997267 0.63842684
        0.79191893 0.032406464 0.638436 0.7940941 0.032766208 0.63844466
        0.79609585 0.033081148 0.6384528 0.7979326 0.033355802 0.63846046
        0.79961365 0.033594493 0.6384677 0.8011483 0.033801295 0.6384745
        0.80254614 0.033979975 0.63848096 0.8038168 0.034133986 0.638487
        0.8049696 0.034266464 0.63849264 0.8060136 0.03438023 0.6384979
        0.8069576 0.03447779 0.6385029 0.80781 0.034561362 0.6385075
        0.80857855 0.03463291 0.6385118 0.80927074 0.03469414 0.6385158
        0.8098934 0.034746535 0.6385194 0.81045306 0.03479138 0.63852286
        0.8109555 0.034829788 0.6385259 0.8114064 0.03486271 0.63852876
        0.8118105 0.03489095 0.6385314 0.81217253 0.03491521 0.6385338
        0.8124967 0.034936078 0.6385359 0.81278676 0.034954056 0.6385379
        0.8130462 0.03496957 0.6385397 0.81327814 0.03498297 0.6385413
        0.8134854 0.034994584 0.6385428 0.8136705 0.035004657 0.638544
        0.81383586 0.035013404 0.6385452 0.81398344 0.035021026 0.6385463
        0.81411517 0.035027664 0.63854724 0.8142327 0.03503347 0.6385481
        0.81433755 0.035038542 0.6385489 0.81444335 0.035048515 0.6385494
        0.81454873 0.035068426 0.6385493 0.8146524 0.03509835 0.63854873
        0.81475306 0.03513818 0.63854754 0.81484956 0.035187665 0.63854575
        0.81494063 0.03524642 0.6385435 0.81502515 0.03531391 0.63854057
        0.81510216 0.035389483 0.63853717 0.81517065 0.03547238 0.63853323
        0.81522965 0.03556173 0.6385288 0.8152786 0.035656568 0.63852406
        0.8153167 0.035755865 0.63851887 0.8153435 0.03585852 0.6385134
        0.81535864 0.035963383 0.63850766
        <InformationKey name="L2_NORM_RANGE" location="vtkDataArray" length="2">
          <Value index="0">
            0.91249159847
          </Value>
          <Value index="1">
            1.0389055366
          </Value>
        </InformationKey>
      </DataArray>
    </Points>
  </Piece>
  </StructuredGrid>
</VTKFile>
