<?xml version="1.0"?>
<VTKFile type="StructuredGrid" version="0.1" byte_order="LittleEndian" header_type="UInt32" compressor="vtkZLibDataCompressor">
  <StructuredGrid WholeExtent="0 30 0 40 0 0">
  <Piece Extent="0 30 0 40 0 0">
    <PointData>
      <DataArray type="Float32" Name="orthogonality" format="ascii" RangeMin="0" RangeMax="0.7573472261428833">
        0 0.0621718 0.12350891 0.18322797 0.24066684 0.29532295
        0.34686974 0.39515245 0.44016722 0.48202744 0.5209214 0.55706275
        0.5906359 0.62174106 0.65034664 0.67626345 0.69915676 0.7186101
        0.7342355 0.74579734 0.7533002 0.75700164 0.7573472 0.7548606
        0.7500317 0.74324113 0.73472977 0.72460383 0.7128508 0.69934446
        0.6838344 6.2643085e-05 0.061534528 0.12230463 0.18147191 0.23837867
        0.29252282 0.3435744 0.39137167 0.4359012 0.47726592 0.5156451
        0.551248 0.58426446 0.614814 0.6429026 0.6683968 0.69102806
        0.71044075 0.72627974 0.7382968 0.746436 0.7508639 0.7519338
        0.7501032 0.7458369 0.73952955 0.7314635 0.7218012 0.7105962
        0.69779724 0.6832633 0.00012486722 0.06090121 0.121107556 0.1797258
        0.23610245 0.28973594 0.3402928 0.38760442 0.43164772 0.47251508
        0.5103763 0.54543585 0.5778875 0.6078688 0.63542217 0.6604691
        0.68280935 0.70215243 0.71818274 0.7306456 0.7394278 0.7446038
        0.74643064 0.7452946 0.74163085 0.7358446 0.7282573 0.71908677
        0.7084518 0.6963782 0.6828183 0.0001863651 0.060275547 0.11992495
        0.17800069 0.23385361 0.2869827 0.33705127 0.38388413 0.42744917
        0.46782857 0.505183 0.539712 0.57161266 0.60103863 0.62806517
        0.6526644 0.6747001 0.69394535 0.710128 0.7229964 0.7323919
        0.7383062 0.74090326 0.74049425 0.7374766 0.732257 0.72518885
        0.7165392 0.70648634 0.6951255 0.68247604 0.00024686038 0.059657786
        0.11875702 0.17629685 0.23163235 0.28426325 0.33384997 0.38021103
        0.42330572 0.4632064 0.500065 0.53407615 0.56543934 0.59432256
        0.6208308 0.6449826 0.6667012 0.68582183 0.7021189 0.7153524
        0.72533 0.73197037 0.7353475 0.7356946 0.7333629 0.72875196
        0.7222395 0.7141362 0.7046744 0.69401264 0.68221986 0.00030610134
        0.05904814 0.11760395 0.1746144 0.22943883 0.2815778 0.330689
        0.37658522 0.41921735 0.45864853 0.49502215 0.52852774 0.5593667
        0.5877197 0.61371815 0.6374232 0.6588135 0.6777841 0.6941583
        0.7077162 0.718243 0.72559434 0.72975856 0.7308876 0.729279
        0.7253159 0.719393 0.7118588 0.70299536 0.693019 0.6820373
        0.00036385615 0.058446784 0.116465874 0.17295344 0.22727309 0.27892634
        0.3275685 0.37300667 0.41518405 0.4541548 0.49005404 0.5230663
        0.5533941 0.581229 0.60672647 0.62998605 0.6510377 0.66983396
        0.68624914 0.70009017 0.71113133 0.7191756 0.72413063 0.7260648
        0.7252141 0.72193635 0.716635 0.70969105 0.7014321 0.6921284
        0.6819189 0.000419909 0.05785388 0.11534291 0.17131405 0.22513519
        0.27630892 0.32448834 0.36947536 0.4112057 0.44972497 0.48516035
        0.5176912 0.5475206 0.57484955 0.5998548 0.6226707 0.64337444
        0.6619735 0.67839396 0.6924765 0.703995 0.7127109 0.7184572
        0.721217 0.7211575 0.71860117 0.71395224 0.70761883 0.6999703
        0.6913279 0.6818573 0.00047405728 0.05726957 0.11423513 0.16969627
        0.22302514 0.27372554 0.32144856 0.3659912 0.40728214 0.44535878
        0.4803406 0.51240176 0.5417453 0.5685803 0.59310234 0.61547685
        0.63582444 0.65420455 0.6705955 0.6848774 0.69683397 0.7061967
        0.71273094 0.7163342 0.71709764 0.7152984 0.7113327 0.70562977
        0.6985978 0.6906068 0.6818464 0.000526109 0.056693982 0.11314262
        0.16810012 0.2209429 0.2711761 0.318449 0.36255404 0.40341318
        0.44105595 0.47559437 0.5071974 0.5360675 0.5624204 0.58646816
        0.6084041 0.62838835 0.6465291 0.6628567 0.677295 0.6896481
        0.699629 0.706944 0.7114058 0.7130226 0.712016 0.7087645
        0.7037126 0.6973039 0.6899561 0.68188125 0.0005758811 0.056127228
        0.11206541 0.16652559 0.21888845 0.26866055 0.31548956 0.35916373
        0.3995985 0.43681607 0.47092116 0.5020774 0.5304862 0.5563688
        0.57995147 0.6014522 0.6210668 0.638949 0.6551802 0.669732
        0.6824374 0.6930037 0.7010878 0.70641994 0.7089194 0.7087413
        0.7062361 0.7018566 0.69607925 0.6893682 0.6819578 0.0006231974
        0.05556942 0.11100357 0.16497268 0.21686171 0.26617873 0.31257012
        0.35582003 0.39583793 0.43263882 0.46632043 0.4970411 0.5250007
        0.55042464 0.57355136 0.5946207 0.6138605 0.63146627 0.6475692
        0.662191 0.67520237 0.68631685 0.69515336 0.701364 0.704774
        0.70546097 0.7037358 0.70005196 0.6949153 0.6888364 0.68207234
        0.0006678876 0.055020656 0.109957114 0.16344135 0.2148626 0.2637306
        0.30969048 0.35252273 0.39213112 0.42852378 0.4617916 0.49208775
        0.5196099 0.5445868 0.56726706 0.5879094 0.60677004 0.624083
        0.64002675 0.6546751 0.6679437 0.67956465 0.6891315 0.69622445
        0.70057124 0.70216066 0.7012513 0.69828856 0.6938041 0.6883548
        0.68222195 0.000709786 0.054481033 0.10892609 0.16193159 0.21289107
        0.26131597 0.3068505 0.34927163 0.38847777 0.4244705 0.4573342
        0.4872166 0.51431304 0.53885436 0.5610977 0.5813179 0.5997961
        0.61680114 0.6325564 0.6471881 0.66066295 0.6727439 0.68301284
        0.6909868 0.6962944 0.6988245 0.69876975 0.69655645 0.6927382
        0.6879181 0.68240374 0.00074873026 0.05395064 0.1079105 0.16044334
        0.21094699 0.2589347 0.30404994 0.34606645 0.38487753 0.42047858
        0.45294756 0.48242694 0.5091092 0.53322643 0.5550425 0.57484585
        0.59293944 0.60962296 0.6251616 0.63973385 0.6533623 0.6658519
        0.6767881 0.6856359 0.69192547 0.69543535 0.6962768 0.69484514
        0.6917101 0.68752146 0.68261546 0.00078456063 0.053429566 0.10691037
        0.15897655 0.20903027 0.25658667 0.3012886 0.3429069 0.38133004
        0.41654754 0.44863114 0.477718 0.50399745 0.527702 0.5491006
        0.568493 0.5862006 0.6025505 0.6178461 0.6323168 0.6460446
        0.65888697 0.67044836 0.6801558 0.68744457 0.69197387 0.6937568
        0.6931434 0.69071245 0.6871602 0.6828549 0.00081711897 0.05291789
        0.10592572 0.15753122 0.2071408 0.25427172 0.29856628 0.3397927
        0.37783498 0.4126769 0.44438428 0.473089 0.49897692 0.52228
        0.54327106 0.5622589 0.57958025 0.5955859 0.6106138 0.6249421
        0.6387139 0.6518485 0.66398543 0.67453027 0.6828304 0.68841857
        0.6911924 0.6914391 0.6897375 0.6868298 0.68312013 0.00084624806
        0.0524157 0.104956545 0.15610723 0.20527847 0.2519896 0.29588276
        0.3367236 0.3743919 0.40886617 0.44020638 0.46853915 0.49404666
        0.51695955 0.5375532 0.55614316 0.57307893 0.5887312 0.60346884
        0.6176151 0.631375 0.64473706 0.65739197 0.6687426 0.67806
        0.6847455 0.6885636 0.6897184 0.6887771 0.68652594 0.68340933
        0.00087179063 0.051923074 0.10400287 0.15470454 0.20344315 0.24974021
        0.29323775 0.33369923 0.37100047 0.4051148 0.43609673 0.46406767
        0.4892057 0.5117397 0.531946 0.5501454 0.5666972 0.5819887
        0.59641516 0.6103416 0.6240338 0.637555 0.6506621 0.66277647
        0.6731087 0.68092793 0.6858477 0.6879659 0.6878222 0.68624413
        0.68372107 0.0008935884 0.051440097 0.10306469 0.15332311 0.20163473
        0.24752334 0.29063103 0.33071926 0.3676602 0.4014223 0.43205473
        0.4596737 0.4844531 0.5066193 0.5264486 0.54426515 0.56043553
        0.57536024 0.589457 0.603128 0.61669713 0.63030607 0.64379156
        0.6566161 0.6679504 0.676936 0.68301857 0.68616354 0.6868629
        0.6859798 0.6840539 0.00091148133 0.050966848 0.10214202 0.15196285
        0.19985305 0.24533875 0.2880623 0.32778338 0.36437067 0.3977881
        0.42807963 0.45535642 0.4797879 0.50159734 0.5210601 0.5385018
        0.5542942 0.56884784 0.5825985 0.5959809 0.609373 0.62299603
        0.6367782 0.65024674 0.6625579 0.67273617 0.6800459 0.68429
        0.6858875 0.68572795 0.68440664 0.00092530623 0.05050341 0.10123486
        0.1506237 0.19809797 0.24318628 0.2855313 0.32489118 0.36113143
        0.39421162 0.42417073 0.45111492 0.47520897 0.49667272 0.51577944
        0.53285486 0.5482736 0.56245327 0.57584375 0.58890694 0.60207003
        0.61563236 0.62962246 0.64365536 0.6569032 0.6682917 0.6768945
        0.68232024 0.6848825 0.6854832 0.6847782 0.00093489565 0.050049867
        0.100343205 0.14930557 0.19636934 0.24106565 0.28303775 0.32204232
        0.357942 0.3906922 0.42032728 0.44694826 0.47071534 0.4918443
        0.5106056 0.52732354 0.5423739 0.55617815 0.5691967 0.58191323
        0.59479797 0.6082246 0.6223276 0.63683134 0.6509581 0.66356194
        0.67352337 0.6802238 0.68383145 0.68523943 0.6851679 0.0009400761
        0.0496063 0.09946706 0.14800836 0.194667 0.23897666 0.28058127
        0.31923634 0.3548018 0.38722923 0.4165484 0.44285548 0.46630585
        0.48711085 0.50553733 0.52190715 0.5365949 0.55002403 0.5626612
        0.57500666 0.5875669 0.60078406 0.6149003 0.62976754 0.64469516
        0.6585025 0.66988486 0.67796403 0.6827142 0.6849895 0.68557525
        0.0009406656 0.0491728 0.09860641 0.146732 0.19299074 0.236919
        0.2781615 0.31647277 0.35171026 0.38382196 0.41283324 0.4388355
        0.46197924 0.48247108 0.50057346 0.5166046 0.5309366 0.543992
        0.5562406 0.5681941 0.58038765 0.593324 0.60735035 0.62246054
        0.63808864 0.65306604 0.6659235 0.6754958 0.6815056 0.6847246
        0.68599993 0.00093647104 0.04874945 0.09776123 0.14547636 0.19134034
        0.23489235 0.275778 0.3137511 0.34866676 0.3804696 0.40918082
        0.43488717 0.4577342 0.47792348 0.4957125 0.51141477 0.5253984
        0.53808296 0.54993814 0.561482 0.573271 0.5858588 0.5996912
        0.6149123 0.6311161 0.64720225 0.661575 0.6727636 0.68017346
        0.68443406 0.6864423 0.00092728355 0.048336342 0.0969315 0.14424126
        0.18971556 0.23289636 0.27343035 0.31107068 0.3456705 0.3771712
        0.40559 0.43100917 0.45356923 0.47346643 0.49095276 0.5063363
        0.5199795 0.5322974 0.54375637 0.5548764 0.5662277 0.57840425
        0.5919399 0.60713005 0.62375987 0.64085984 0.65676564 0.6696988
        0.6786761 0.68410355 0.6869031 0.00091287284 0.047933564 0.09611717
        0.14302656 0.18811607 0.23093057 0.2711179 0.30843082 0.34272057
        0.37392566 0.40205953 0.4272 0.44948253 0.469098 0.48629233
        0.5013672 0.51467866 0.52663505 0.53769726 0.5483825 0.559268
        0.5709766 0.58411634 0.5991277 0.6160091 0.6339879 0.6514116
        0.6662161 0.6769586 0.6837142 0.6873837 0.00089297874 0.04754121
        0.09531816 0.14183201 0.18654148 0.22899441 0.26883996 0.3058306
        0.3398159 0.3707317 0.39858782 0.42345777 0.4454721 0.46481588
        0.4817288 0.49650538 0.509494 0.52109516 0.53176177 0.54200476
        0.5524013 0.5635921 0.5762429 0.59092546 0.6078618 0.6265392
        0.6454191 0.66221 0.6749477 0.6832397 0.6878861 0.0008672992
        0.04715937 0.09453437 0.14065728 0.18499126 0.22708715 0.26659557
        0.30326885 0.33695513 0.36758772 0.39517298 0.4197803 0.44153532
        0.4606173 0.47725916 0.49174774 0.50442296 0.51567596 0.5259498
        0.5357459 0.54563546 0.55626607 0.5683436 0.5825497 0.5993266
        0.61847353 0.63868606 0.65754986 0.6725446 0.6826421 0.6884129
        0.0008354739 0.04678815 0.093765624 0.13950194 0.18346474 0.2252079
        0.26438355 0.30074412 0.3341365 0.36449158 0.3918126 0.41616485
        0.4376691 0.4564987 0.4728796 0.48709038 0.49946174 0.51037437
        0.52025974 0.52960706 0.5389764 0.5490122 0.5604423 0.5740321
        0.5904244 0.60976297 0.63110536 0.6520758 0.6696149 0.68186593
        0.688967 0.0007970603 0.04642764 0.09301169 0.13836545 0.181961
        0.22335538 0.26220238 0.29825455 0.3313577 0.36144063 0.38850352
        0.41260782 0.43386936 0.4524556 0.4685852 0.48252815 0.49460512
        0.50518554 0.51468796 0.523587 0.5324272 0.54184115 0.5525617
        0.565408 0.5811889 0.60039717 0.62257123 0.6455948 0.66597474
        0.6808273 0.6895505 0.00075150235 0.046077974 0.09227227 0.13724706
        0.1804789 0.22152805 0.26004997 0.29579762 0.32861584 0.3584315
        0.38524187 0.40910465 0.430131 0.44848228 0.46436965 0.47805429
        0.4898462 0.5001027 0.5092284 0.5176814 0.5259874 0.53475976
        0.54472095 0.5567136 0.5716658 0.5903894 0.6129899 0.63787985
        0.6613721 0.6793975 0.69016325 0.00069808814 0.0457393 0.09154694
        0.1361458 0.17901695 0.21972384 0.2579238 0.29337022 0.32590717
        0.35545978 0.38202256 0.40564963 0.42644745 0.44457138 0.46022496
        0.47366002 0.48517564 0.49511635 0.5038719 0.51188254 0.5196523
        0.5277698 0.536934 0.5479831 0.56191057 0.5797818 0.6022954
        0.6286761 0.6554627 0.6773745 0.6907986 0.0006358984 0.045411848
        0.09083526 0.13506056 0.17757332 0.21794027 0.2558207 0.29096848
        0.32322717 0.35252014 0.3788395 0.40223578 0.42281082 0.44071403
        0.4561412 0.4693346 0.4805819 0.4902144 0.4986063 0.50617886
        0.5134127 0.52086735 0.5292084 0.53924567 0.55198395 0.56864834
        0.5904715 0.6177204 0.6477817 0.67443573 0.6914361 0.00056374964
        0.045096006 0.09013684 0.13399018 0.17614609 0.21617466 0.25373712
        0.28858814 0.32057068 0.34960666 0.37568578 0.39885518 0.4192122
        0.4369002 0.45210722 0.46506572 0.4760517 0.4853827 0.4934169
        0.50055605 0.507256 0.51404405 0.52154577 0.53052425 0.5419484
        0.5570948 0.57757825 0.6047855 0.6377193 0.6700562 0.692028
        0.0004801496 0.044792507 0.08945165 0.13293387 0.17473373 0.21442471
        0.25167015 0.28622544 0.31793317 0.34671393 0.3725551 0.39550063
        0.41564336 0.43312064 0.44811267 0.460842 0.47157264 0.48060814
        0.48829022 0.4950007 0.5011698 0.50729144 0.51394624 0.52183884
        0.53186685 0.5452568 0.5637806 0.58976525 0.62452394 0.6633609
        0.69247276 0.00038331148 0.044502787 0.08878079 0.13189238 0.17333667
        0.21269055 0.24961948 0.28387973 0.31531367 0.34384063 0.36944577
        0.39216995 0.41210163 0.42937225 0.4441541 0.45665973 0.4671409
        0.47588703 0.4832231 0.48951086 0.49515483 0.5006145 0.50642383
        0.5132223 0.5218149 0.53330266 0.5493738 0.5728161 0.6074061
        0.6528484 0.6925657 0.00027135012 0.04422978 0.08812825 0.13087076
        0.17196098 0.21097927 0.24759328 0.28156027 0.31272247 0.3409981
        0.36637032 0.388877 0.40860236 0.42567202 0.44025043 0.45254007
        0.46278057 0.47124687 0.47824737 0.48412377 0.48925504 0.49406657
        0.4990451 0.5047629 0.51192385 0.521465 0.5348101 0.55455476
        0.585925 0.63584954 0.6918958 0.00014300349 0.04397977 0.08750529
        0.12988523 0.1706278 0.20931691 0.24562253 0.279303 0.3102007
        0.33823285 0.3633809 0.38568002 0.40521047 0.4220923 0.43648237
        0.44857344 0.45859298 0.46680188 0.47349212 0.4789858 0.48363715
        0.48783842 0.49203017 0.49671856 0.5025068 0.5101623 0.5207784
        0.5362628 0.56110674 0.60742545 0.68961406 0 0.043749556
        0.086907044 0.12892902 0.16932826 0.20769222 0.24369328 0.27709106
        0.3077281 0.33552098 0.36044958 0.38254654 0.40188846 0.41859007
        0.4328009 0.444704 0.45451492 0.46248037 0.46887586 0.47400397
        0.47819412 0.48180535 0.48523203 0.48891336 0.49335054 0.49913883
        0.5070279 0.51806754 0.5345888 0.56878704 0.6838344
      </DataArray>
      <DataArray type="Float32" Name="aspect_ratio" format="ascii" RangeMin="1.2035681009292603" RangeMax="11.161623001098633">
        11.161623 11.072446 10.913971 10.664226 10.333247 9.933354
        9.478 8.980733 8.4544 7.9106445 7.3597083 6.81049
        6.2707934 5.747647 5.247572 4.77667 4.340422 3.9431837
        3.5874736 3.2733583 2.9982872 2.7576046 2.5455847 2.3565729
        2.1858017 2.029708 1.8858353 1.7525504 1.6287534 1.5136682
        1.4011298 11.115071 11.0266 10.869843 10.622772 10.295264
        9.899454 9.448613 8.956131 8.43473 7.895966 7.350031
        6.8057947 6.271037 5.7527447 5.2573533 4.790818 4.358422
        3.9643013 3.610816 3.2979991 3.0234258 2.782676 2.5702813
        2.3807821 2.2095168 2.0529544 1.9086361 1.7749194 1.6507117
        1.5352774 1.4225109 11.068949 10.981205 10.826172 10.58177
        10.257718 9.865974 9.41963 8.93192 8.415443 7.8816757
        7.3407526 6.801513 6.2717047 5.758255 5.2674937 4.8052077
        4.3764615 3.98518 3.633592 3.3217573 3.04744 2.8064969
        2.5937133 2.403786 2.2321043 2.0751255 1.9303608 1.7961483
        1.6714007 1.5554243 1.4422057 11.023249 10.936274 10.782981
        10.541245 10.2206335 9.832924 9.391034 8.908045 8.396436
        7.867594 7.3316007 6.797257 6.2722697 5.7635016 5.277173
        4.8189087 4.393575 4.0049095 3.6550398 3.3440707 3.069958
        2.8288255 2.615696 2.4254017 2.2533631 2.096007 1.9508054
        1.816073 1.6907319 1.5741395 1.4603988 10.977966 10.891796
        10.740255 10.501182 10.183988 9.800279 9.362801 8.884481
        8.37768 7.853697 7.322555 6.793011 6.272725 5.76849
        5.2864146 4.831968 4.40983 4.023576 3.6752532 3.3650265
        3.0910478 2.8497045 2.6362476 2.4456322 2.2732925 2.1156077
        1.9699955 1.8347423 1.7087829 1.5915351 1.4772387 10.933097
        10.847762 10.697983 10.461563 10.147764 9.768021 9.334909
        8.861209 8.359158 7.839968 7.3136005 6.7887645 6.2730675
        5.773228 5.2952423 4.8444266 4.425291 4.0412607 3.6943226
        3.3847117 3.1107812 2.8691828 2.6553938 2.4644866 2.2918956
        2.1339355 1.9879534 1.8521987 1.7256199 1.6077048 1.4928464
        10.888636 10.804164 10.656153 10.422375 10.111947 9.736134
        9.307345 8.838212 8.340853 7.8263917 7.304725 6.784509
        6.273296 5.7777243 5.3036785 4.856327 4.440017 4.0580406
        3.7123346 3.403213 3.1292338 2.8873158 2.6731675 2.4819794
        2.309179 2.150999 2.0046988 1.8684787 1.7412997 1.6227273
        1.5073224 10.844578 10.760994 10.614754 10.383607 10.076524
        9.704604 9.280093 8.815476 8.322753 7.8129573 7.295919
        6.780239 6.2734094 5.7819886 5.311746 4.8677073 4.4540653
        4.0739884 3.7293727 3.4206157 3.1464825 2.9041636 2.6896079
        2.498131 2.325152 2.166807 2.0202487 1.8836137 1.7558713
        1.6366699 1.5207512 10.800919 10.718245 10.573778 10.345248
        10.041484 9.673421 9.253143 8.792991 8.304847 7.7996545
        7.2871747 6.7759504 6.273411 5.78603 5.319465 4.878602
        4.467487 4.089171 3.7455158 3.4370034 3.1626058 2.9197907
        2.7047596 2.5129666 2.339826 2.181368 2.0346177 1.8976306
        1.7693765 1.6495899 1.5332048 10.757652 10.675909 10.533216
        10.30729 10.006817 9.642573 9.226484 8.770747 8.287127
        7.7864757 7.2784863 6.771641 6.2733016 5.789859 5.326857
        4.8890457 4.48033 4.103652 3.7608395 3.4524574 3.1776829
        2.9342654 2.7186725 2.5265164 2.3532164 2.1946912 2.0478187
        1.910552 1.7818512 1.6615363 1.5447444 10.714775 10.633981
        10.493063 10.269724 9.972515 9.612054 9.200109 8.748735
        8.269585 7.7734156 7.2698503 6.7673087 6.273085 5.793484
        5.33394 4.8990693 4.4926405 4.117491 3.7754154 3.4670572
        3.1917942 2.947659 2.7314014 2.5388145 2.365341 2.2067854
        2.0598614 1.922397 1.7933258 1.6725514 1.5554233 10.672282
        10.592454 10.453309 10.232543 9.93857 9.581854 9.174008
        8.726951 8.252214 7.7604685 7.2612624 6.762953 6.2727647
        5.7969165 5.3407326 4.908701 4.50446 4.1307425 3.789311
        3.4808798 3.205019 2.9600453 2.7430058 2.549901 2.37622
        2.2176607 2.070755 1.9331807 1.803826 1.6826713 1.5652872
        10.630168 10.551323 10.413949 10.19574 9.904975 9.551968
        9.148178 8.705386 8.235011 7.7476306 7.252721 6.7585735
        6.2723436 5.800164 5.347252 4.9179683 4.5158257 4.1434584
        3.8025901 3.4939992 3.2174373 2.9715018 2.75355 2.5598202
        2.3858778 2.2273266 2.0805056 1.9429145 1.8133729 1.6919268
        1.5743765 10.5884285 10.510581 10.374976 10.1593075 9.871724
        9.522388 9.122612 8.684038 8.217971 7.7348986 7.244224
        6.7541714 6.2718267 5.803237 5.3535132 4.9268966 4.5267754
        4.155686 3.815313 3.5064874 3.2291276 2.9821067 2.763103
        2.5686216 2.3943424 2.2357945 2.0891178 1.9516066 1.8219832
        1.7003442 1.5827259 10.54706 10.470223 10.336385 10.123241
        9.838812 9.493113 9.097305 8.662901 8.201091 7.722271
        7.23577 6.7497478 6.271218 5.8061433 5.3595324 4.935508
        4.53734 4.1674695 3.8275363 3.518412 3.2401683 2.991941
        2.7717378 2.576361 2.4016454 2.2430768 2.0965946 1.9592617
        1.8296695 1.7079448 1.5903659 10.506056 10.430245 10.29817
        10.087536 9.806233 9.464134 9.072254 8.641973 8.184367
        7.709745 7.22736 6.7453036 6.2705216 5.8088923 5.365323
        4.9438243 4.5475516 4.17885 3.8393126 3.5298393 3.2506356
        3.001087 2.7795324 2.5830994 2.407824 2.2491875 2.1029377
        1.9658803 1.8364396 1.7147455 1.5973227 10.465414 10.390641
        10.260327 10.052185 9.773984 9.435449 9.047456 8.621249
        8.167799 7.6973205 7.2189927 6.740842 6.2697425 5.8114915
        5.3708997 4.951866 4.5574374 4.1898656 3.8506908 3.5408306
        3.2606046 3.009628 2.7865689 2.5889044 2.4129212 2.2541435
        2.108147 1.9714597 1.8422973 1.7207593 1.6036191 10.425128
        10.351407 10.22285 10.017186 9.742059 9.407055 9.022906
        8.60073 8.151385 7.684996 7.21067 6.7363644 6.268885
        5.8139496 5.376274 4.959652 4.5670238 4.2005506 3.8617172
        3.5514452 3.2701478 3.0176485 2.7929335 2.5938509 2.4169862
        2.2579653 2.112222 1.9759929 1.847241 1.7259945 1.609274
        10.385194 10.312536 10.185735 9.982533 9.710455 9.378947
        8.998604 8.580413 8.135124 7.672773 7.2023926 6.7318745
        6.2679553 5.8162756 5.381459 4.9672 4.576335 4.2109375
        3.8724341 3.5617383 3.279336 3.025232 2.7987168 2.5980203
        2.4200766 2.260678 2.115162 1.9794691 1.8512644 1.7304544
        1.6143034 10.345608 10.274026 10.148976 9.948224 9.67917
        9.351125 8.974546 8.560297 8.119016 7.6606517 7.194163
        6.727375 6.266958 5.8184767 5.386467 4.9745255 4.5853934
        4.2210565 3.8828807 3.571762 3.2882369 3.0324636 2.804013
        2.6015027 2.4222586 2.2623131 2.1169665 1.9818732 1.8543549
        1.7341379 1.6187195 10.306365 10.235871 10.112573 9.914254
        9.6482 9.323586 8.950734 8.540381 8.103062 7.648634
        7.185983 6.7228703 6.2659 5.820562 5.3913093 4.981646
        4.59422 4.2309346 3.8930933 3.5815644 3.2969148 3.0394254
        2.8089192 2.604395 2.4236093 2.2629101 2.1176383 1.9831864
        1.8564937 1.7370374 1.6225315 10.267462 10.198069 10.076518
        9.880621 9.617543 9.2963295 8.927167 8.520669 8.087263
        7.6367226 7.177858 6.718366 6.264787 5.8225403 5.395998
        4.9885764 4.6028357 4.2405987 3.9031062 3.5911913 3.3054314
        3.0461996 2.8135355 2.6068027 2.4242165 2.262519 2.117183
        1.9833862 1.8576547 1.7391392 1.6257452 10.228893 10.160614
        10.040812 9.847322 9.5872 9.269356 8.903845 8.50116
        8.071624 7.624921 7.1697917 6.713868 6.263628 5.824422
        5.4005456 4.995333 4.6112595 4.250073 3.9129505 3.6006842
        3.3138447 3.0528653 2.8179634 2.6088395 2.4241824 2.2612026
        2.1156123 1.9824473 1.8578038 1.740422 1.628362 10.190656
        10.123504 10.005449 9.814358 9.557169 9.242664 8.880771
        8.481858 8.056148 7.6132355 7.161791 6.709384 6.2624316
        5.8262177 5.4049664 5.0019317 4.6195116 4.259381 3.9226563
        3.6100829 3.3222096 3.0595 2.8223062 2.610627 2.423623
        2.2590399 2.112948 1.9803427 1.8568982 1.7408551 1.6303798
        10.152744 10.086735 9.970429 9.781727 9.5274515 9.21626
        8.857948 8.46277 8.040841 7.601673 7.1538644 6.704924
        6.261209 5.827941 5.409274 5.00839 4.627612 4.2685475
        3.932253 3.6194246 3.3305774 3.0661778 2.826667 2.6122932
        2.4226701 2.256129 2.1092253 1.9770465 1.8548851 1.7403973
        1.631791 10.115157 10.050303 9.935752 9.74943 9.498051
        9.1901455 8.835385 8.443903 8.025714 7.590245 7.1460247
        6.7005014 6.259975 5.8296075 5.4134874 5.0147276 4.635583
        4.2775965 3.9417691 3.6287456 3.3389974 3.0729694 2.8311486
        2.6139736 2.421472 2.2525918 2.1044981 1.9725367 1.8517021
        1.7389942 1.6325818 10.077888 10.014211 9.901417 9.717469
        9.468972 9.1643305 8.81309 8.425269 8.010779 7.5789657
        7.1382875 6.6961336 6.2587485 5.8312373 5.417628 5.020968
        4.64345 4.2865567 3.9512362 3.6380825 3.3475175 3.0799441
        2.8358526 2.6158087 2.4201946 2.2485776 2.0988462 1.9668007
        1.8472769 1.7365751 1.6327302 10.040934 9.978453 9.867428
        9.685853 9.440225 9.138826 8.791079 8.406884 7.9960566
        7.5678563 7.1306753 6.6918445 6.2575545 5.832857 5.421723
        5.0271406 4.651243 4.2954597 3.9606884 3.6474743 3.3561857
        3.087169 2.8408794 2.617944 2.4190214 2.2442663 2.0923839
        1.9598434 1.8415295 1.7330498 1.6322023 10.004291 9.943032
        9.833788 9.654589 9.411822 9.113651 8.769372 8.388775
        7.981573 7.5569468 7.1232195 6.6876664 6.256427 5.834502
        5.4258094 5.0332828 4.659002 4.3043456 3.970167 3.6569653
        3.3650537 3.0947113 2.8463287 2.6205285 2.4181523 2.239875
        2.085269 1.9516977 1.8343751 1.7283038 1.6309456 9.967955
        9.907951 9.800508 9.623692 9.383786 9.088831 8.748001
        8.370975 7.9673676 7.5462775 7.1159635 6.6836452 6.255413
        5.8362207 5.429937 5.039445 4.6667757 4.3132653 3.9797237
        3.6666083 3.3741794 3.1026433 2.8523014 2.6237147 2.417805
        2.2356594 2.0777156 1.9424404 1.8257326 1.7221944 1.6288794
        9.931924 9.873214 9.767599 9.593185 9.356146 9.064403
        8.72701 8.353535 7.953494 7.5359073 7.1089687 6.6798444
        6.254578 5.8380795 5.434172 5.045695 4.6746345 4.3222866
        3.9894261 3.6764717 3.3836336 3.1110446 2.8589032 2.6276596
        2.418212 2.231917 2.0700064 1.9322124 1.8155372 1.7145454
        1.6258749 9.8961935 9.83883 9.7350855 9.563102 9.328946
        9.040421 8.706461 8.336523 7.9400287 7.525917 7.1023197
        6.6763515 6.254012 5.84017 5.438608 5.052125 4.682669
        4.3315015 3.9993649 3.6866448 3.3935058 3.1200109 2.8662496
        2.6325262 2.41962 2.2289886 2.0625055 1.9212455 1.8037626
        1.7051432 1.6217229 9.860762 9.804812 9.702994 9.533486
        9.302247 9.01696 8.686441 8.320038 7.927076 7.5164185
        7.0961337 6.6732874 6.2538385 5.842617 5.4433703 5.0588617
        4.691006 4.3410344 4.009662 3.6972468 3.4039137 3.1296616
        2.8744729 2.638488 2.4222891 2.227256 2.05567 1.9098953
        1.7904553 1.6937379 1.6160761 9.825625 9.771181 9.67137
        9.504402 9.276132 8.99412 8.667067 8.304208 7.9147773
        7.507561 7.090567 6.670814 6.2542224 5.845588 5.448628
        5.066074 4.699813 4.351051 4.020481 3.7084374 3.4150124
        3.1401486 2.8837316 2.645734 2.4264903 2.2271354 2.050056
        1.8986781 1.7757877 1.6800512 1.6083473 9.790782 9.737962
        9.640264 9.475932 9.250707 8.972033 8.648488 8.289202
        7.903316 7.49954 7.0858235 6.6691413 6.2553782 5.849301
        5.454599 5.0739794 4.7093067 4.3617654 4.032032 3.7204216
        3.4270005 3.1516657 2.8942175 2.6544747 2.4325035 2.2290645
        2.0463119 1.8883055 1.760131 1.6638048 1.5975326 9.75623
        9.705188 9.609745 9.448174 9.226104 8.950855 8.630888
        8.275224 7.892912 7.4925885 7.0821476 6.668522 6.2575645
        5.854017 5.461547 5.0828424 4.719749 4.3734374 4.04457
        3.733448 3.440119 3.1644437 2.9061544 2.6649377 2.4406056
        2.2334747 2.0451498 1.8797053 1.7441522 1.6447843 1.5818992
        9.72197 9.672893 9.579882 9.421232 9.202456 8.930752
        8.614456 8.262485 7.883795 7.486952 7.0797954 6.6692204
        6.261051 5.86001 5.4697475 5.0929375 4.7314143 4.3863373
        4.0583606 3.747777 3.4546192 3.1787229 2.9197693 2.6773422
        2.4510398 2.2407377 2.0472713 1.873996 1.7289183 1.6229743
        1.5584369 9.688 9.641098 9.550716 9.39517 9.179849
        8.911822 8.59931 8.251115 7.8761067 7.482781 7.0789266
        6.671402 6.266009 5.867453 5.479375 5.10444 4.744476
        4.400637 4.0735726 3.7635705 3.4706557 3.194647 2.9351914
        2.691801 2.4639163 2.251047 2.053205 1.8723568 1.7159599
        1.5988193 1.5218947 9.654319 9.609767 9.522178 9.369882
        9.158142 8.893904 8.585259 8.240907 7.869625 7.479842
        7.0792975 6.674818 6.2721844 5.876092 5.4901743 5.117095
        4.7586803 4.4160833 4.0899534 3.780577 3.4879754 3.211959
        2.952155 2.7080338 2.4789371 2.2641287 2.0629487 1.8756493
        1.7071424 1.5736773 1.4630982 9.620927 9.578672 9.493815
        9.344703 9.136478 8.8759575 8.571115 8.230539 7.862923
        7.476625 7.079336 6.6778507 6.277931 5.884262 5.500475
        5.129233 4.7723646 4.4310265 4.1058693 3.7971814 3.5049837
        3.2290847 2.9691052 2.7244968 2.4945564 2.2784288 2.0750835
        1.8834078 1.7038968 1.5503912 1.3660856 9.587815 9.547737
        9.4654875 9.319434 9.114604 8.857689 8.556546 8.219659
        7.8556304 7.472752 7.078665 6.680129 6.282889 5.891619
        5.5099497 5.1405463 4.7852416 4.4451976 4.12107 3.8131511
        3.5214672 3.2458324 2.9858744 2.741052 2.5106668 2.2938657
        2.089621 1.896668 1.7122977 1.5191964 1.2035681
      </DataArray>
      <DataArray type="Float32" Name="jacobian" format="ascii" RangeMin="0.003161405213177204" RangeMax="0.021391626447439194">
        0.021391626 0.02130193 0.02115846 0.020909015 0.020558279 0.020112889
        0.019581227 0.018973103 0.01829935 0.017571364 0.016800603 0.015998129
        0.015174201 0.014338054 0.0134978965 0.012661162 0.011834872 0.011025902
        0.010240928 0.009486019 0.008766094 0.008084573 0.0074433326 0.006842942
        0.0062830024 0.0057624704 0.005279905 0.00483364 0.004421893 0.004042859
        0.0036803393 0.021302411 0.021212405 0.021068664 0.020819094 0.020468365
        0.020023089 0.019491585 0.018883582 0.018209806 0.017481554 0.016710233
        0.015906954 0.015082206 0.014245693 0.0134063745 0.01257266 0.011752578
        0.010953722 0.010182789 0.009444947 0.008743432 0.0080796955 0.007454023
        0.0068661845 0.00631579 0.0058023236 0.0053250445 0.0048829266 0.00447469
        0.004098877 0.0037392396 0.021214014 0.02112368 0.020979661 0.020729978
        0.020379301 0.01993421 0.019402979 0.018795254 0.01812167 0.017393433
        0.016621908 0.01581825 0.014993144 0.014156703 0.013318517 0.0124878
        0.011673422 0.010883594 0.010125138 0.009402634 0.008718033 0.008071142
        0.0074607227 0.0068855807 0.006345064 0.005838952 0.00536707 0.0049289763
        0.0045238803 0.004150652 0.0037931707 0.021126429 0.021035705 0.020891367
        0.020641556 0.020290943 0.019846085 0.019315213 0.018707901 0.018034702
        0.017306741 0.016535344 0.015731698 0.01490666 0.014070679 0.0132338675
        0.012406096 0.011596922 0.010815108 0.010067677 0.009358879 0.008689753
        0.008058754 0.007463221 0.0069008716 0.0063705537 0.005872115 0.0054058027
        0.0049717054 0.0045695133 0.0041984515 0.0038427017 0.021039644 0.020948483
        0.02080379 0.020553842 0.020203311 0.019758739 0.019228311 0.018621542
        0.01794891 0.01722147 0.0164505 0.015647227 0.014822641 0.013987473
        0.013152256 0.012327388 0.011522986 0.010748286 0.010010563 0.00931395
        0.008658888 0.008042774 0.007461658 0.006912099 0.0063922433 0.0059017884
        0.005441254 0.0050111916 0.004611768 0.0042425925 0.0038882836 0.02095365
        0.020862013 0.02071694 0.02046685 0.02011642 0.019672181 0.019142283
        0.018536184 0.01786429 0.017137595 0.016367337 0.015564762 0.014740979
        0.013906942 0.013073518 0.012251525 0.01145152 0.010683138 0.009953933
        0.009268086 0.008625715 0.008023439 0.0074561783 0.006919315 0.006410126
        0.005927955 0.0054734354 0.005047505 0.0046507954 0.004283336 0.0039302805
        0.020868437 0.020776289 0.020630814 0.020380583 0.02003028 0.019586427
        0.01905714 0.018451827 0.017780835 0.01705509 0.016285803 0.015484231
        0.014661568 0.013828948 0.012997503 0.012178366 0.011382433 0.0106196655
        0.009897906 0.009221507 0.008590493 0.0080009755 0.0074469275 0.0069225766
        0.0064242026 0.005950601 0.0055023567 0.0050807055 0.004686727 0.0043208986
        0.003968991 0.020784 0.02069131 0.020545416 0.020295048 0.019944897
        0.019501477 0.01897288 0.018368468 0.017698526 0.016973931 0.016205853
        0.015405556 0.014584304 0.013753364 0.012924066 0.012107776 0.0113156345
        0.010557866 0.009842588 0.009174412 0.008553468 0.007975604 0.007434054
        0.0069219484 0.0064344783 0.0059697144 0.005528026 0.005110846 0.0047196755
        0.0043554627 0.0040046657 0.020700324 0.02060707 0.020460743 0.020210242
        0.019860271 0.019417334 0.018889502 0.018286094 0.017617347 0.016894082
        0.016127434 0.015328665 0.0145090865 0.013680066 0.01285307 0.012039626
        0.011251043 0.010497732 0.009788069 0.009126985 0.008514872 0.0079475455
        0.007417708 0.006917498 0.0064409613 0.005985283 0.0055504455 0.0051379693
        0.0047497367 0.004387184 0.004037516 0.020617403 0.020523561 0.020376794
        0.020126168 0.0197764 0.019333996 0.018807 0.018204696 0.017537275
        0.016815508 0.016050493 0.015253485 0.014435822 0.013608938 0.012784389
        0.011973799 0.011188573 0.010439251 0.009734431 0.009079399 0.008474928
        0.007917013 0.007398044 0.0069092987 0.006443661 0.0059972918 0.005569615
        0.0051621096 0.004776992 0.0044161947 0.0040677236 0.020535225 0.020440781
        0.020293562 0.02004282 0.019693283 0.019251455 0.018725364 0.01812426
        0.017458288 0.016738174 0.015974982 0.015179947 0.014364419 0.013539869
        0.012717902 0.0119101815 0.011128147 0.010382408 0.009681748 0.009031812
        0.008433853 0.007884222 0.007375221 0.0068974276 0.006442589 0.0060057235
        0.0055855243 0.005183291 0.0048015104 0.004442609 0.004095444 0.020453786
        0.02035872 0.020211045 0.019960195 0.019610915 0.019169707 0.018644586
        0.018044772 0.017380364 0.016662048 0.01590085 0.015107981 0.014294789
        0.013472755 0.012653495 0.011848666 0.011069688 0.0103271855 0.009630082
        0.008984374 0.008391856 0.007849388 0.007349403 0.0068819695 0.006437757
        0.006010556 0.005598157 0.0052015297 0.004823347 0.0044665243 0.004120814
        0.020373072 0.020277373 0.020129234 0.019878287 0.019529289 0.019088743
        0.018564653 0.017966209 0.017303476 0.016587092 0.015828045 0.015037521
        0.014226848 0.013407497 0.01259106 0.011789151 0.011013121 0.010273564
        0.009579491 0.008937226 0.008349139 0.007812726 0.0073207626 0.0068630143
        0.006429179 0.0060117617 0.0056074876 0.0052168276 0.0048425463 0.0044880235
        0.004143952 0.020293077 0.02019673 0.020048125 0.01979709 0.019448396
        0.019008555 0.018485554 0.017888557 0.017227596 0.016513268 0.01575652
        0.014968503 0.014160518 0.013344001 0.012530497 0.011731539 0.010958376
        0.010221518 0.009530022 0.008890498 0.0083059 0.0077744583 0.007289481
        0.006840663 0.006416871 0.0060093077 0.005613479 0.005229177 0.004859139
        0.0045071756 0.0041649616 0.020213792 0.020116786 0.01996771 0.019716596
        0.019368231 0.01892913 0.01840727 0.017811796 0.0171527 0.016440542
        0.015686227 0.014900865 0.014095719 0.013282176 0.0124717085 0.011675739
        0.010905381 0.010171023 0.009481717 0.008844314 0.008262332 0.007734805
        0.00725575 0.0068150265 0.006400855 0.006003156 0.005616083 0.0052385554
        0.004873145 0.004524038 0.004183934 0.020135205 0.020037532 0.019887982
        0.019636799 0.019288784 0.018850459 0.018329792 0.017735906 0.017078761
        0.016368877 0.015617116 0.014834547 0.01403238 0.013221938 0.012414603
        0.011621663 0.010854069 0.010122052 0.009434612 0.0087987855 0.008218622
        0.0076939925 0.0072197737 0.006786231 0.006381157 0.0059932633 0.005615238
        0.005244927 0.0048845676 0.0045386557 0.00420095 0.020057313 0.01995896
        0.019808933 0.019557687 0.019210044 0.018772528 0.018253101 0.017660864
        0.017005749 0.016298236 0.015549143 0.014769491 0.013970429 0.013163206
        0.012359091 0.011569227 0.010804373 0.010074574 0.009388735 0.008754018
        0.008174951 0.00765225 0.0071817697 0.006754418 0.0063578147 0.005979584
        0.00561087 0.0052482374 0.0048933974 0.0045510605 0.0042160777 0.019980103
        0.01988106 0.019730553 0.019479254 0.019132001 0.018695323 0.01817718
        0.017586652 0.016933639 0.016228585 0.015482262 0.014705638 0.013909798
        0.0131059 0.012305092 0.011518349 0.010756225 0.010028555 0.009344105
        0.008710105 0.008131495 0.0076098093 0.007141969 0.0067197494 0.006330877
        0.0059620696 0.0056028897 0.0052484153 0.004899609 0.0045612715 0.004229377
        0.019903567 0.019803828 0.019652836 0.01940149 0.019054644 0.018618833
        0.018102013 0.017513245 0.016862402 0.016159886 0.0154164275 0.014642935
        0.013850422 0.013049947 0.0122525245 0.011468952 0.010709563 0.009983961
        0.009300739 0.008667134 0.00808842 0.0075669033 0.00710062 0.0066824104
        0.006300412 0.0059406725 0.0055911927 0.0052453666 0.004903156 0.0045692944
        0.004240898 0.0198277 0.019727252 0.019575773 0.019324385 0.01897796
        0.018543044 0.018027583 0.017440623 0.016792009 0.016092107 0.015351595
        0.014581326 0.0137922345 0.012995273 0.012201311 0.011420959 0.01066432
        0.009940752 0.009258643 0.008625179 0.008045886 0.0075237663 0.0070579825
        0.0066426108 0.0062665083 0.0059153503 0.0055756606 0.0052389754 0.004903972
        0.004575119 0.0042506815 0.01975249 0.019651324 0.019499352 0.019247927
        0.018901937 0.018467937 0.017953869 0.017368762 0.016722431 0.016025208
        0.0152877215 0.01452076 0.013735175 0.0129418075 0.012151376 0.011374295
        0.010620433 0.009898887 0.009217818 0.008584304 0.00800404 0.00748063
        0.0070143333 0.0066005886 0.0062292833 0.0058860695 0.0055561597 0.005229097
        0.004901966 0.004578718 0.004258759 0.01967793 0.019576034 0.019423565
        0.019172106 0.018826563 0.018393498 0.017880851 0.017297635 0.016653638
        0.015959153 0.01522476 0.014461182 0.013679182 0.012889482 0.012102647
        0.011328889 0.010577837 0.009858322 0.009178256 0.008544561 0.0079630185
        0.007437722 0.00696996 0.006556614 0.0061888876 0.005852813 0.005532546
        0.005215558 0.004897016 0.004580044 0.0042651515 0.01960401 0.019501375
        0.019348402 0.019096907 0.01875182 0.01831971 0.01780851 0.01722722
        0.0165856 0.015893906 0.015162669 0.01440254 0.013624193 0.01283823
        0.0120550515 0.011284668 0.010536466 0.009819009 0.009139941 0.0085059935
        0.007922944 0.007395262 0.0069251605 0.006510986 0.0061455136 0.005815587
        0.005504665 0.0051981527 0.0048889657 0.0045790253 0.004269869 0.019530727
        0.019427337 0.01927385 0.01902232 0.018677695 0.01824655 0.01773682
        0.017157486 0.016518284 0.015829427 0.015101398 0.014344779 0.0135701485
        0.012787982 0.012008516 0.011241559 0.010496254 0.009780895 0.00910285
        0.008468625 0.007883921 0.0073534586 0.006880239 0.006464038 0.0060993996
        0.0057744333 0.0054723597 0.0051766373 0.004877616 0.0045755613 0.00427291
        0.01945807 0.01935391 0.019199895 0.018948326 0.018604165 0.018173998
        0.017665755 0.017088404 0.01645165 0.015765674 0.015040901 0.014287843
        0.013516984 0.012738668 0.011962968 0.011199487 0.010457131 0.009743922
        0.009066952 0.008432472 0.00784604 0.0073125055 0.0068355016 0.0064161313
        0.006050838 0.0057294373 0.0054354765 0.0051507317 0.0048627183 0.0045695147
        0.0042742575 0.01938603 0.019281082 0.019126527 0.018874912 0.018531214
        0.018102031 0.017595287 0.017019937 0.016385661 0.015702598 0.014981123
        0.0142316725 0.013464632 0.012690216 0.0119183315 0.011158377 0.010419022
        0.009708028 0.009032205 0.008397531 0.0078093675 0.007272576 0.0067912466
        0.006367655 0.00600018 0.005680745 0.0053938795 0.0051201144 0.0048439605
        0.0045607034 0.004273876 0.019314604 0.019208843 0.019053727 0.018802052
        0.018458813 0.018030616 0.017525379 0.016952045 0.01632027 0.015640149
        0.014922004 0.0141762 0.013413021 0.012642549 0.011874524 0.011118144
        0.010381848 0.00967314 0.008998552 0.008363782 0.007773948 0.0072338185
        0.006747761 0.0063190158 0.005947837 0.005628578 0.005347463 0.005084426
        0.004820956 0.0045488863 0.004271706 0.01924378 0.019137178 0.01898148
        0.018729724 0.018386932 0.017959712 0.017455988 0.016884679 0.016255418
        0.015578262 0.014863476 0.014121351 0.013362068 0.012595578 0.011831454
        0.011078696 0.010345518 0.009639175 0.008965928 0.008331187 0.007739799
        0.00719635 0.0067053074 0.0062706317 0.0058942833 0.005573247 0.005296175
        0.005043273 0.0047932286 0.0045337463 0.004267654 0.019173553 0.019066073
        0.018909756 0.018657897 0.01831553 0.017889278 0.017387057 0.016817776
        0.016191037 0.015516861 0.014805455 0.014067034 0.013311678 0.012549204
        0.011789018 0.0110399285 0.010309928 0.009606034 0.008934243 0.008299684
        0.0077069085 0.00716025 0.0066641155 0.006222915 0.0058400473 0.005515171
        0.005240046 0.00499624 0.0047601927 0.0045148632 0.0042615742 0.019103916
        0.018995509 0.01883853 0.018586528 0.018244557 0.017819248 0.017318517
        0.016751256 0.01612704 0.01545585 0.014747838 0.0140131395 0.013261733
        0.012503303 0.011747092 0.0110017145 0.010274953 0.009573595 0.008903388
        0.008269182 0.0076752272 0.007125553 0.0066243666 0.006176256 0.0057857013
        0.0054548876 0.0051792245 0.004942913 0.0047211354 0.0044916812 0.004253246
        0.01903486 0.018925462 0.018767761 0.018515563 0.018173942 0.017749542
        0.017250272 0.016685013 0.01606331 0.015395103 0.014690489 0.013959526
        0.013212088 0.012457726 0.01170552 0.010963899 0.01024044 0.009541709
        0.00887322 0.008239556 0.007644664 0.0070922403 0.006586182 0.0061310017
        0.005731841 0.0053930595 0.00511402 0.0048829126 0.004675198 0.0044634594
        0.0042423205 0.018966384 0.018855907 0.018697402 0.018444931 0.018103598
        0.017680049 0.017182197 0.016618906 0.015999693 0.015334457 0.014633236
        0.013906012 0.013162552 0.012412278 0.011664107 0.010926286 0.010206193
        0.009510185 0.008843553 0.008210632 0.0076150745 0.0070602284 0.0065496066
        0.0060874275 0.0056790547 0.0053304695 0.0050449497 0.0048159594 0.0046213665
        0.004429203 0.004228246 0.018898478 0.018786805 0.018627383 0.01837454
        0.0180334 0.017610626 0.017114125 0.016552748 0.015935987 0.015273696
        0.014575853 0.013852362 0.013112886 0.012366713 0.011622604 0.010888625
        0.010171962 0.009478777 0.008814149 0.008182183 0.007586252 0.00702936
        0.0065145935 0.0060457117 0.00562788 0.0052680005 0.004972793 0.0047419625
        0.0045584776 0.004387571 0.004210126 0.018831138 0.01871811 0.018557621
        0.018304264 0.017963193 0.017541083 0.017045839 0.0164863 0.015871929
        0.015212538 0.014518043 0.013798268 0.013062772 0.012320711 0.011580689
        0.010850594 0.010137431 0.00944717 0.0087847 0.008153909 0.007557915
        0.0069993925 0.0064809895 0.0060059065 0.0055787587 0.00520659 0.00489863
        0.0046611554 0.00448527 0.004336751 0.00418648 0.01876436 0.018649768
        0.018488007 0.01823395 0.017892774 0.017471174 0.016977059 0.016419252
        0.015807185 0.015150627 0.014459434 0.013743347 0.013011819 0.012273874
        0.01153796 0.010811795 0.010102201 0.009414975 0.008754821 0.008125435
        0.007529701 0.0069699897 0.0064485297 0.0059679192 0.005531982 0.005147163
        0.004823862 0.004574285 0.0044005103 0.004274302 0.0041548237 0.018698143
        0.01858171 0.018418416 0.01816341 0.017821906 0.017400617 0.016907457
        0.016351236 0.015741358 0.015087543 0.014399585 0.013687142 0.012959559
        0.012225729 0.011493945 0.010771753 0.010065806 0.009381726 0.008724055
        0.008096312 0.0075011724 0.0069407346 0.0064168423 0.00593151 0.0054876553
        0.0050905407 0.004750189 0.0044828523 0.004303272 0.004196962 0.004110936
        0.01863248 0.018513875 0.018348722 0.018092459 0.017750347 0.017329121
        0.016836701 0.016281882 0.015674043 0.015022855 0.014338047 0.013629189
        0.012905519 0.012175796 0.011448159 0.010729988 0.010027766 0.009346953
        0.008691938 0.00806608 0.0074718744 0.0069111814 0.006385508 0.0058963406
        0.0054457053 0.005037365 0.004679526 0.0043894015 0.0041934843 0.004100467
        0.00404757 0.018567378 0.018446222 0.018278847 0.01802099 0.017677955
        0.017256513 0.01676459 0.016210973 0.015605004 0.01495631 0.014274551
        0.013569208 0.01284941 0.012123781 0.011400306 0.010686201 0.009987783
        0.009310356 0.008658169 0.008034439 0.0074415044 0.006881024 0.00635422
        0.0058621336 0.005406008 0.0049881 0.004613874 0.0042977924 0.004072969
        0.0039794827 0.003952174 0.018502828 0.018378822 0.018208934 0.017949207
        0.017605001 0.017183116 0.016691493 0.016138906 0.015534668 0.0148883555
        0.014209558 0.013507669 0.012791703 0.012070152 0.011350848 0.010640844
        0.009946296 0.009272362 0.008623156 0.008001774 0.0074104182 0.0068505835
        0.0063232575 0.0058291275 0.0053688176 0.0049433256 0.004555273 0.0042133904
        0.00394734 0.003827945 0.003802871 0.018438833 0.0183121 0.018139824
        0.017878344 0.017533075 0.017110843 0.016619598 0.016068105 0.015465645
        0.014821745 0.014145928 0.013447497 0.012735361 0.0120178815 0.011302744
        0.010596846 0.009906188 0.009235788 0.00858964 0.0079707345 0.007381163
        0.0068222866 0.0062949117 0.005799456 0.0053360933 0.004904937 0.0045064534
        0.004143196 0.003829563 0.0036407122 0.0035614367 0.018375373 0.018246166
        0.018071748 0.01780875 0.017462626 0.017040234 0.01654953 0.01599926
        0.015398679 0.014757265 0.014084473 0.013389524 0.012681222 0.011967805
        0.0112568205 0.010555015 0.009868246 0.009201401 0.008558364 0.007942034
        0.007354413 0.006796759 0.0062697404 0.0057735797 0.005308145 0.004873007
        0.0044674384 0.0040902807 0.0037399845 0.0034201297 0.0031614052
      </DataArray>
    </PointData>
    <CellData>
    </CellData>
    <Points>
      <DataArray type="Float32" Name="Points" NumberOfComponents="3" format="ascii" RangeMin="0.7910543190374973" RangeMax="0.9167505137630747">
        0.4716323 -0.0023179445 0.6350784 0.4819449 -0.0023194642 0.63549477
        0.49221176 -0.002320912 0.6358914 0.5023803 -0.002322281 0.6362665
        0.5124002 -0.0023235665 0.6366187 0.52222395 -0.0023247637 0.6369467
        0.5318079 -0.0023258696 0.63724977 0.5411129 -0.0023268831 0.6375274
        0.5501049 -0.0023278038 0.63777965 0.5587553 -0.0023286324 0.6380067
        0.56704086 -0.0023293712 0.6382091 0.5749441 -0.0023300233 0.63838774
        0.5824526 -0.002330593 0.63854384 0.58955926 -0.0023310853 0.6386787
        0.5962617 -0.0023315053 0.6387938 0.60256153 -0.0023318594 0.6388908
        0.60846436 -0.0023321535 0.6389714 0.6139787 -0.0023323935 0.63903713
        0.619116 -0.0023325859 0.6390898 0.6238896 -0.0023327363 0.63913107
        0.6283148 -0.0023328504 0.63916236 0.6324078 -0.0023329335 0.6391851
        0.6361858 -0.00233299 0.6392006 0.6396665 -0.0023330247 0.6392101
        0.64286774 -0.002333041 0.6392146 0.64580715 -0.0023330431 0.6392151
        0.64850223 -0.0023330336 0.6392125 0.65097 -0.0023330147 0.63920736
        0.6532268 -0.002332989 0.63920027 0.6552884 -0.002332958 0.6391918
        0.65716964 -0.0023329237 0.6391824 0.4716323 -0.0016228781 0.6350806
        0.48190176 -0.0016232879 0.6354952 0.49212542 -0.0016236383 0.6358903
        0.50225085 -0.0016239362 0.636264 0.5122278 -0.0016241915 0.6366149
        0.5220087 -0.0016244134 0.63694185 0.53155005 -0.0016246076 0.637244
        0.5408127 -0.0016247758 0.6375209 0.54976255 -0.0016249162 0.63777256
        0.5583708 -0.0016250259 0.6379991 0.56661415 -0.0016251054 0.63820124
        0.57447493 -0.0016251658 0.63837975 0.58194065 -0.0016252351 0.63853586
        0.5890042 -0.0016253635 0.63867086 0.59566337 -0.0016256208 0.63878626
        0.6019206 -0.0016260835 0.63888365 0.6077825 -0.0016268109 0.6389648
        0.61325926 -0.0016278191 0.6390313 0.61836416 -0.001629067 0.6390848
        0.62311244 -0.0016304618 0.6391271 0.6275205 -0.0016318843 0.6391594
        0.63160497 -0.0016332187 0.6391833 0.63538253 -0.0016343732 0.6391999
        0.63886946 -0.001635287 0.6392105 0.64208233 -0.0016359262 0.63921607
        0.6450374 -0.0016362753 0.6392175 0.6477513 -0.0016363282 0.6392157
        0.65024006 -0.0016360799 0.63921136 0.65251994 -0.0016355213 0.6392049
        0.6546063 -0.0016346347 0.639197 0.65651405 -0.0016333743 0.639188
        0.4716323 -0.00092780974 0.63508195 0.48185903 -0.0009271239 0.63549495
        0.49203992 -0.0009263933 0.63588846 0.5021227 -0.0009256372 0.6362608
        0.512057 -0.00092488027 0.63661045 0.52179563 -0.00092414423 0.6369363
        0.531295 -0.0009234433 0.63723755 0.5405159 -0.0009227825 0.6375137
        0.5494243 -0.0009221586 0.6377647 0.55799127 -0.0009215651 0.63799083
        0.56619346 -0.00092100113 0.6381927 0.57401294 -0.0009204832 0.63837105
        0.58143723 -0.0009200596 0.63852715 0.5884593 -0.00091981894 0.6386623
        0.59507704 -0.0009198865 0.638778 0.6012935 -0.0009204006 0.6388758
        0.60711616 -0.00092146936 0.6389575 0.6125567 -0.0009231232 0.6390247
        0.61762995 -0.0009252862 0.63907903 0.6223527 -0.00092778594 0.6391222
        0.6267427 -0.00093039696 0.63915557 0.6308171 -0.0009328953 0.63918054
        0.6345923 -0.0009350975 0.6391983 0.6380837 -0.00093687547 0.63921
        0.6413064 -0.0009381524 0.6392165 0.64427567 -0.0009388878 0.63921887
        0.6470068 -0.0009390618 0.6392179 0.64951533 -0.00093866116 0.6392143
        0.6518167 -0.0009376701 0.63920856 0.65392613 -0.0009360686 0.6392012
        0.6558584 -0.0009338152 0.6391927 0.4716323 -0.00023274012 0.6350826
        0.4818167 -0.00023097606 0.6354939 0.49195525 -0.00022918325 0.6358859
        0.5019957 -0.00022739285 0.6362569 0.51188797 -0.00022564357 0.6366053
        0.5215848 -0.00022396914 0.6369301 0.53104264 -0.00022239174 0.6372304
        0.54022247 -0.00022091957 0.63750577 0.54909015 -0.00021954847 0.6377562
        0.55761665 -0.00021826866 0.6379819 0.5657786 -0.00021707712 0.6381834
        0.5735579 -0.00021599501 0.6383617 0.58094215 -0.00021508688 0.6385178
        0.58792424 -0.00021447375 0.63865304 0.5945023 -0.00021432842 0.638769
        0.6006797 -0.00021484312 0.63886726 0.6064648 -0.00021617049 0.63894945
        0.6118704 -0.00021835751 0.63901734 0.61691266 -0.0002213047 0.63907254
        0.62160987 -0.00022477645 0.6391166 0.625981 -0.00022845835 0.6391509
        0.63004386 -0.00023203088 0.6391769 0.6338149 -0.00023522528 0.63919574
        0.63730884 -0.00023784663 0.63920844 0.64053977 -0.00023977083 0.63921595
        0.6435216 -0.0002409273 0.6392192 0.6462686 -0.0002412784 0.6392191
        0.6487954 -0.00024080116 0.63921624 0.6511169 -0.00023947596 0.6392112
        0.65324783 -0.00023729271 0.63920444 0.65520275 -0.00023424771 0.6391964
        0.4716323 0.00046232977 0.6350825 0.48177478 0.00046515226 0.63549215
        0.49187136 0.0004679862 0.63588256 0.50187 0.00047078897 0.63625216
        0.5117206 0.00047350873 0.6365994 0.5213761 0.00047610042 0.63692313
        0.530793 0.00047853417 0.6372225 0.53993237 0.00048079863 0.6374972
        0.54875994 0.00048289873 0.63774705 0.5572468 0.00048484735 0.6379723
        0.5653694 0.00048664966 0.6381735 0.5731097 0.0004882814 0.6383516
        0.5804551 0.0004896649 0.6385077 0.58739865 0.0004906521 0.63864315
        0.5939385 0.00049103005 0.6387594 0.6000786 0.0004905599 0.638858
        0.60582775 0.00048904866 0.63894075 0.6111996 0.00048643115 0.63900924
        0.61621165 0.00048282134 0.63906515 0.62088335 0.00047850393 0.6391101
        0.62523484 0.00047386656 0.6391454 0.62928486 0.00046931132 0.6391724
        0.63305 0.00046518486 0.6391922 0.63654476 0.00046174717 0.63920593
        0.63978213 0.00045917192 0.63921446 0.642775 0.00045756422 0.6392186
        0.6455364 0.0004569834 0.63921934 0.6480801 0.00045746422 0.6392172
        0.65042025 0.00045902847 0.63921285 0.65257114 0.00046166775 0.6392067
        0.6545471 0.00046532668 0.6391992 0.4716323 0.001157399 0.6350816
        0.4817332 0.001161258 0.6354896 0.49178824 0.0011651099 0.63587856
        0.5017454 0.0011689012 0.6362468 0.5115549 0.001172568 0.6365928
        0.52116954 0.0011760541 0.63691545 0.53054607 0.0011793228 0.63721395
        0.5396455 0.0011823593 0.6374879 0.54843366 0.0011851693 0.63773715
        0.5568816 0.0011877684 0.637962 0.56496584 0.0011901642 0.638163
        0.57266814 0.0011923306 0.63834095 0.5799759 0.0011941794 0.63849705
        0.5868822 0.0011955407 0.6386326 0.59338546 0.0011961678 0.63874906
        0.5994897 0.001195782 0.63884807 0.60520434 0.0011941543 0.63893133
        0.6105438 0.0011912 0.6390004 0.6155263 0.0011870406 0.6390571
        0.6201726 0.0011819975 0.6391028 0.6245039 0.0011765172 0.639139
        0.62853986 0.0011710718 0.63916695 0.6322975 0.0011660776 0.63918775
        0.6357912 0.0011618562 0.6392025 0.6390333 0.001158632 0.63921195
        0.64203554 0.0011565478 0.6392171 0.6448099 0.0011556888 0.63921857
        0.64736915 0.0011561037 0.6392172 0.64972657 0.0011578159 0.6392135
        0.651896 0.0011607932 0.63920796 0.65389144 0.0011649064 0.6392009
        0.4716323 0.001852467 0.63508 0.48169205 0.0018573384 0.63548625
        0.49170592 0.0018621832 0.6358738 0.5016221 0.0018669378 0.63624066
        0.5113908 0.0018715264 0.6365855 0.5209651 0.0018758829 0.6369071
        0.53030175 0.0018799637 0.6372047 0.53936183 0.001883751 0.63747793
        0.54811126 0.0018872507 0.6377266 0.55652106 0.0018904816 0.63795096
        0.5645677 0.001893453 0.6381517 0.57223296 0.0018961384 0.6383295
        0.57950425 0.0018984418 0.6384856 0.58637464 0.0019001755 0.63862133
        0.59284264 0.0019010657 0.63873804 0.5989125 0.0019007992 0.63883746
        0.6045941 0.0018991155 0.63892114 0.60990226 0.0018959099 0.6389909
        0.61485606 0.0018913058 0.6390482 0.61947715 0.0018856504 0.6390947
        0.62378776 0.0018794367 0.6391318 0.6278086 0.0018731944 0.63916063
        0.63155717 0.0018674001 0.6391824 0.6350481 0.0018624333 0.63919806
        0.6382931 0.0018585677 0.6392085 0.6413031 0.0018559872 0.63921446
        0.6440889 0.0018548059 0.6392168 0.6466623 0.0018550893 0.6392162
        0.6490357 0.0018568631 0.6392132 0.6512223 0.0018600676 0.63920826
        0.6532358 0.00186449 0.6392018 0.4716323 0.0025475326 0.63507754
        0.48165128 0.0025533908 0.63548225 0.49162436 0.002559202 0.63586825
        0.50149995 0.0025648929 0.63623387 0.5112283 0.0025703763 0.6365774
        0.52076274 0.002575578 0.63689804 0.53006 0.0025804474 0.63719475
        0.53908134 0.002584963 0.63746727 0.5477926 0.0025891322 0.63771534
        0.556165 0.0025929748 0.63793933 0.56417483 0.0025965036 0.6381397
        0.57180405 0.0025996922 0.63831747 0.57904 0.0026024387 0.6384736
        0.58587563 0.002604542 0.63860935 0.5923097 0.002605706 0.63872635
        0.5983466 0.0026055896 0.6388261 0.60399646 0.0026039039 0.6389103
        0.6092745 0.002600525 0.63898057 0.61420035 0.0025955734 0.6390386
        0.61879647 0.0025894127 0.6390858 0.62308604 0.0025825715 0.63912374
        0.62709063 0.0025756257 0.6391535 0.6308288 0.0025691027 0.63917613
        0.6343152 0.002563433 0.6391927 0.63756144 0.0025589399 0.6392041
        0.6405775 0.0025558486 0.63921094 0.6433733 0.0025543054 0.6392141
        0.64595944 0.0025543964 0.6392142 0.64834744 0.00255615 0.6392119
        0.6505499 0.0025594775 0.6392076 0.6525801 0.002564076 0.6392017
        0.4716323 0.0032425951 0.6350744 0.48161086 0.0032494126 0.6354775
        0.49154353 0.003256162 0.63586205 0.5013789 0.003262761 0.63622624
        0.51106745 0.0032691124 0.6365687 0.5205624 0.0032751325 0.63688827
        0.5298208 0.0032807647 0.63718414 0.5388039 0.0032859861 0.6374559
        0.5474777 0.003290803 0.6377034 0.5558133 0.003295237 0.63792694
        0.5637872 0.003299305 0.63812715 0.5713813 0.0033029797 0.6383047
        0.5785828 0.003306157 0.6384608 0.5853849 0.0033086254 0.6385968
        0.5917863 0.003310072 0.63871396 0.5977916 0.003310132 0.6388141
        0.60341096 0.0033084932 0.63889873 0.60866 0.0033050117 0.6389696
        0.6135587 0.0032998025 0.6390282 0.61813015 0.003293238 0.6390762
        0.6223983 0.0032858714 0.6391148 0.6263859 0.0032783144 0.6391454
        0.6301122 0.0032711362 0.639169 0.6335924 0.0032648118 0.63918644
        0.6368381 0.0032597103 0.6391987 0.6398586 0.003256099 0.63920647
        0.6426629 0.0032541598 0.63921046 0.64526033 0.0032540017 0.6392113
        0.6476616 0.0032556588 0.6392096 0.64987874 0.003259011 0.63920593
        0.65192443 0.003263663 0.63920057 0.4716323 0.003937654 0.63507044
        0.4815708 0.0039454014 0.63547194 0.4914635 0.0039530597 0.6358551
        0.5012591 0.0039605373 0.63621795 0.5109081 0.003967727 0.63655925
        0.5203641 0.0039745383 0.6368778 0.5295841 0.003980908 0.63717276
        0.5385295 0.003986811 0.6374438 0.5471664 0.0039922525 0.6376908
        0.555466 0.0039972584 0.63791394 0.5634047 0.004001846 0.6381138
        0.5709644 0.0040059905 0.6382913 0.57813257 0.0040095854 0.6384474
        0.5849022 0.004012414 0.6385834 0.5912722 0.004014149 0.6387009
        0.597247 0.0040144087 0.6388014 0.6028371 0.004012859 0.63888645
        0.60805815 0.00400934 0.63895786 0.61293054 0.004003955 0.6390171
        0.6174777 0.003997082 0.63906574 0.62172437 0.0039892886 0.63910514
        0.6256941 0.003981212 0.63913655 0.6294072 0.0039734547 0.63916093
        0.6328797 0.003966528 0.6391793 0.63612306 0.0039608423 0.6391924
        0.6391463 0.0039567077 0.63920105 0.64195746 0.0039543435 0.63920575
        0.64456487 0.0039538844 0.63920736 0.64697826 0.003955372 0.6392064
        0.6492087 0.003958658 0.6392033 0.6512688 0.0039632497 0.63919854
        0.4716323 0.004632708 0.63506573 0.4815311 0.004641356 0.6354657
        0.49138418 0.0046498915 0.63584733 0.50114036 0.004658216 0.6362089
        0.51075035 0.0046662153 0.63654906 0.52016777 0.004673789 0.63686657
        0.52934986 0.0046808696 0.6371607 0.53825814 0.0046874294 0.637431
        0.5468587 0.0046934737 0.6376775 0.55512285 0.004699029 0.63790023
        0.56302714 0.0047041164 0.63809985 0.57055336 0.004708713 0.6382771
        0.57768905 0.004712713 0.6384333 0.5844273 0.004715894 0.6385695
        0.5907669 0.004717922 0.63868713 0.5967125 0.0047184 0.638788
        0.6022745 0.0047169784 0.6388735 0.60746866 0.004713479 0.6389454
        0.6123155 0.0047079963 0.63900524 0.6168387 0.0047009033 0.63905454
        0.6210637 0.0046927775 0.63909465 0.62501496 0.0046842718 0.6391268
        0.6287137 0.0046760123 0.639152 0.6321768 0.0046685394 0.6391712
        0.6354162 0.0046623 0.6391852 0.6384406 0.004657645 0.6391946
        0.64125705 0.0046548317 0.63920015 0.64387304 0.0046540247 0.6392025
        0.6462972 0.0046552764 0.6392022 0.6485399 0.004658409 0.63919973
        0.6506131 0.0046628346 0.63919556 0.4716323 0.0053277565 0.6350603
        0.4814918 0.005337272 0.63545865 0.49130562 0.0053466544 0.63583887
        0.50102276 0.0053557944 0.6361992 0.51059407 0.005364571 0.63653815
        0.5199734 0.005372878 0.63685465 0.5291181 0.005380642 0.63714796
        0.53798974 0.0053878333 0.63741755 0.54655457 0.0053944564 0.6376634
        0.55478394 0.00540054 0.6378858 0.5626544 0.005406107 0.6380852
        0.570148 0.0054111383 0.63826233 0.57725215 0.0054155285 0.6384185
        0.58395994 0.005419055 0.6385548 0.5902702 0.0054213777 0.63867277
        0.5961877 0.005422091 0.63877386 0.60172266 0.00542083 0.6388598
        0.606891 0.0054174038 0.6389322 0.611713 0.0054118917 0.6389926
        0.6162128 0.005404663 0.6390425 0.62041616 0.005396294 0.6390833
        0.62434834 0.0053874487 0.63911617 0.6280317 0.005378765 0.63914216
        0.63148385 0.0053708064 0.6391622 0.6347175 0.0053640488 0.63917696
        0.63774127 0.0053588813 0.6391872 0.6405615 0.0053556007 0.6391936
        0.64318466 0.0053544035 0.63919663 0.6456184 0.0053553567 0.639197
        0.64787215 0.0053582564 0.6391952 0.6499574 0.0053624157 0.63919157
        0.4716323 0.006022799 0.6350541 0.48145285 0.00603315 0.6354509
        0.49122775 0.006043344 0.6358297 0.5009062 0.006053268 0.6361887
        0.51043934 0.00606279 0.6365265 0.519781 0.0060717994 0.6368421
        0.5288887 0.0060802186 0.6371345 0.5377242 0.0060880147 0.6374034
        0.5462538 0.0060951933 0.63764876 0.554449 0.0061017824 0.63787067
        0.56228644 0.006107809 0.6380698 0.5697481 0.006113257 0.6382469
        0.5768215 0.006118023 0.638403 0.58349985 0.0061218846 0.63853943
        0.5897819 0.0061245025 0.6386576 0.59567225 0.0061254636 0.6387591
        0.6011813 0.0061243935 0.63884544 0.6063247 0.0061210874 0.6389183
        0.6111227 0.006115611 0.63897926 0.6155996 0.0061083236 0.6390298
        0.6197814 0.0060997983 0.6390712 0.623694 0.0060906997 0.6391048
        0.6273608 0.0060816715 0.63913155 0.6308007 0.00607329 0.6391523
        0.634027 0.0060660546 0.63916785 0.63704836 0.0060603875 0.63917893
        0.63987076 0.006056627 0.6391861 0.6424997 0.006055003 0.63918984
        0.6449417 0.0060556005 0.6391909 0.6472054 0.006058191 0.63918966
        0.64930177 0.0060619917 0.6391867 0.4716323 0.0067178337 0.6350471
        0.48141423 0.006728986 0.6354424 0.49115062 0.0067399587 0.63581973
        0.50079083 0.006750631 0.6361775 0.5102861 0.006760867 0.6365142
        0.5195905 0.006770547 0.6368287 0.52866167 0.0067795925 0.6371203
        0.5374615 0.0067879674 0.6373886 0.54595643 0.0067956755 0.6376333
        0.5541181 0.0068027484 0.6378549 0.5619231 0.0068092137 0.6380538
        0.5693536 0.0068150586 0.63823074 0.5763971 0.006820185 0.63838685
        0.58304685 0.006824374 0.6385234 0.5893016 0.006827285 0.6386418
        0.5951659 0.0068285046 0.6387436 0.60064995 0.0068276506 0.63883036
        0.60576934 0.006824506 0.6389037 0.61054426 0.006819124 0.6389652
        0.6149987 0.00681185 0.6390163 0.61915904 0.0068032495 0.6390583
        0.62305176 0.0067939805 0.63909256 0.62670124 0.0067846878 0.63912
        0.6301274 0.00677595 0.6391415 0.6333446 0.0067682825 0.63915783
        0.6363619 0.006762137 0.6391697 0.63918483 0.006757889 0.6391776
        0.6418181 0.0067558056 0.63918215 0.64426714 0.006755995 0.6391838
        0.6465396 0.0067582056 0.6391832 0.6486461 0.0067615616 0.6391808
        0.4716323 0.0074128606 0.6350394 0.48137596 0.0074247792 0.63543314
        0.4910742 0.0074364943 0.6358091 0.5006765 0.007447881 0.63616556
        0.5101343 0.0074587953 0.63650113 0.51940185 0.007469116 0.63681465
        0.52843696 0.007478758 0.63710546 0.53720164 0.007487683 0.637373
        0.54566246 0.0074958964 0.6376173 0.55379105 0.00750343 0.6378384
        0.56156427 0.0075103124 0.638037 0.5689643 0.0075165364 0.6382139
        0.5759787 0.0075220065 0.63837 0.58260065 0.007526511 0.6385067
        0.58882904 0.007529713 0.6386253 0.5946682 0.007531198 0.6387274
        0.60012835 0.007530582 0.63881457 0.60522467 0.0075276364 0.63888836
        0.6099772 0.007522402 0.6389503 0.6144098 0.007515209 0.63900197
        0.6185489 0.0075066094 0.63904464 0.62242144 0.007497252 0.6390795
        0.62605274 0.007487773 0.63910764 0.6294639 0.0074787484 0.6391299
        0.6326704 0.0074706995 0.6391469 0.6356818 0.007464101 0.63915956
        0.6385037 0.007459364 0.6391682 0.6411398 0.0074567953 0.63917345
        0.6435946 0.007456528 0.63917583 0.64587486 0.0074582943 0.63917583
        0.6479904 0.0074611236 0.6391739 0.4716323 0.008107879 0.63503087
        0.48133805 0.008120527 0.6354231 0.49099845 0.008132949 0.6357977
        0.5005632 0.008145014 0.6361529 0.50998396 0.0081565725 0.63648736
        0.5192151 0.0081675 0.63679993 0.5282146 0.008177709 0.6370899
        0.5369445 0.008187156 0.63735676 0.54537165 0.008195849 0.6376005
        0.55346787 0.0082038175 0.63782126 0.5612099 0.008211097 0.6380196
        0.5685801 0.008217679 0.63819635 0.5755662 0.008223479 0.6383525
        0.5821612 0.008228286 0.6384893 0.588364 0.008231774 0.6386081
        0.59417903 0.008233531 0.63871056 0.59961605 0.008233171 0.63879806
        0.6046902 0.008230458 0.63887227 0.6094212 0.008225418 0.6389348
        0.6138326 0.008218367 0.63898695 0.61795074 0.008209841 0.6390302
        0.6218029 0.008200474 0.6390656 0.6254153 0.008190887 0.6390944
        0.6288103 0.0081816465 0.6391173 0.63200444 0.008173271 0.6391351
        0.6350083 0.008166251 0.6391485 0.63782734 0.008161031 0.6391579
        0.6404648 0.0081579555 0.63916385 0.6429241 0.008157189 0.6391669
        0.64521104 0.00815845 0.6391675 0.64733475 0.008160677 0.6391662
        0.4716323 0.008802887 0.6350216 0.48130047 0.008816226 0.63541234
        0.4909234 0.008829319 0.6357855 0.50045097 0.008842025 0.6361395
        0.50983506 0.008854194 0.6364729 0.51903015 0.0088656945 0.6367845
        0.5279944 0.008876437 0.63707364 0.5366901 0.008886379 0.63733983
        0.5450841 0.008895525 0.637583 0.5531484 0.008903906 0.6378034
        0.56085986 0.008911558 0.63800156 0.56820095 0.008918481 0.63817817
        0.5751593 0.008924591 0.63833433 0.58172816 0.008929691 0.6384712
        0.5879063 0.008933458 0.6385903 0.59369797 0.00893549 0.638693
        0.5991128 0.0089354 0.6387809 0.6041657 0.008932948 0.6388555
        0.6088759 0.008928146 0.63891846 0.61326665 0.008921294 0.63897115
        0.61736417 0.008912909 0.63901496 0.62119603 0.008903605 0.639051
        0.62478894 0.008893988 0.63908035 0.62816656 0.008884604 0.6391039
        0.6313468 0.008875964 0.63912237 0.63434124 0.00886856 0.63913643
        0.6371558 0.008862867 0.63914657 0.6397931 0.008859271 0.63915324
        0.6422556 0.0088579655 0.63915694 0.6445481 0.008858665 0.6391582
        0.64667904 0.008860219 0.6391575 0.4716323 0.009497885 0.6350116
        0.48126325 0.009511879 0.63540083 0.49084905 0.009525601 0.63577265
        0.5003398 0.009538911 0.6361254 0.50968754 0.009551654 0.6364577
        0.518847 0.009563694 0.63676834 0.5277764 0.009574939 0.63705665
        0.53643835 0.009585345 0.6373222 0.54479975 0.009594916 0.63756484
        0.5528326 0.009603686 0.63778484 0.5605141 0.00961169 0.6379827
        0.5678266 0.009618932 0.6381592 0.574758 0.009625337 0.63831544
        0.5813014 0.009630714 0.6384525 0.58745563 0.009634753 0.63857174
        0.59322476 0.009637061 0.6386747 0.59861827 0.009637253 0.63876295
        0.6036507 0.009635087 0.63883805 0.60834086 0.009630562 0.6389015
        0.61271167 0.00962396 0.63895464 0.6167891 0.009615777 0.638999
        0.6206006 0.009606609 0.6390356 0.6241736 0.009597037 0.6390655
        0.6275328 0.009587584 0.63908964 0.6306976 0.009578741 0.63910884
        0.63368094 0.009571 0.6391235 0.63648915 0.009564852 0.63913435
        0.6391247 0.009560725 0.6391417 0.6415891 0.00955885 0.6391461
        0.64388615 0.009558934 0.63914794 0.6460234 0.00955975 0.6391478
        0.4716323 0.010192871 0.6350008 0.48122633 0.010207479 0.63538855
        0.49077535 0.010221793 0.63575906 0.50022966 0.01023567 0.63611054
        0.50954145 0.010248948 0.6364417 0.5186656 0.010261492 0.6367515
        0.5275607 0.010273207 0.63703895 0.5361892 0.0102840485 0.6373038
        0.5445184 0.010294018 0.637546 0.5525204 0.010303151 0.63776565
        0.56017244 0.010311483 0.6379633 0.567457 0.010319025 0.63813967
        0.57436204 0.010325706 0.6382958 0.58088076 0.010331347 0.638433
        0.5870118 0.010335649 0.6385525 0.5927592 0.01033823 0.6386557
        0.5981322 0.010338714 0.6387444 0.6031449 0.010336856 0.6388199
        0.60781586 0.010332643 0.6388837 0.6121674 0.010326335 0.6389374
        0.6162251 0.010318412 0.6389822 0.62001646 0.010309447 0.6390193
        0.6235692 0.010299992 0.6390498 0.6269091 0.010290546 0.63907456
        0.6300571 0.010281569 0.6390943 0.6330275 0.010273539 0.63910973
        0.63582754 0.010266963 0.6391212 0.6384597 0.010262304 0.6391292
        0.64092463 0.010259828 0.6391343 0.643225 0.010259252 0.6391368
        0.6453677 0.010259267 0.6391372 0.4716323 0.010887845 0.63498926
        0.48118973 0.010903027 0.63537556 0.4907023 0.010917894 0.6357447
        0.5001205 0.010932296 0.636095 0.5093967 0.010946073 0.6364251
        0.518486 0.010959084 0.6367339 0.5273471 0.010971236 0.6370206
        0.5359427 0.010982482 0.6372848 0.5442401 0.010992822 0.63752645
        0.55221176 0.011002292 0.63774574 0.55983484 0.011010931 0.63794315
        0.5670921 0.01101875 0.6381194 0.5739714 0.011025688 0.63827556
        0.58046603 0.011031577 0.63841283 0.5865746 0.011036133 0.6385325
        0.592301 0.011038986 0.6386361 0.5976543 0.011039769 0.6387251
        0.6026481 0.0110382335 0.638801 0.6073006 0.01103436 0.6388653
        0.61163354 0.011028393 0.6389194 0.6156721 0.011020784 0.6389647
        0.61944354 0.011012083 0.6390023 0.62297577 0.011002815 0.6390333
        0.62629557 0.010993449 0.63905865 0.62942535 0.010984408 0.639079
        0.632381 0.010976151 0.63909495 0.63517106 0.01096918 0.6391071
        0.63779813 0.0109639885 0.6391158 0.6402621 0.010960892 0.63912153
        0.64256483 0.010959612 0.63912463 0.64471203 0.010958769 0.63912565
        0.4716323 0.011582807 0.634977 0.48115346 0.011598521 0.6353618
        0.4906299 0.011613897 0.6357296 0.50001234 0.011628785 0.6360787
        0.5092533 0.011643021 0.63640773 0.5183081 0.011656466 0.6367156
        0.52713555 0.01166902 0.6370015 0.53569865 0.011680639 0.6372651
        0.54396486 0.011691322 0.63750625 0.5519065 0.011701102 0.6377252
        0.55950123 0.011710024 0.6379223 0.5667317 0.011718099 0.6380985
        0.57358587 0.011725276 0.63825464 0.5800571 0.011731399 0.63839203
        0.58614385 0.011736197 0.63851196 0.59185 0.011739317 0.6386158
        0.59718424 0.0117404 0.6387051 0.6021599 0.011739206 0.63878137
        0.60679466 0.011735695 0.6388461 0.6111098 0.011730104 0.6389007
        0.61512977 0.011722857 0.6389464 0.6188816 0.011714477 0.6389845
        0.6223933 0.011705467 0.63901603 0.62569237 0.011696253 0.6390419
        0.62880266 0.011687223 0.63906276 0.6317419 0.011678799 0.63907933
        0.63451993 0.011671475 0.63909215 0.63714004 0.011665768 0.6391015
        0.63960177 0.011662033 0.6391079 0.64190555 0.011660009 0.6391116
        0.6440563 0.011658256 0.6391131 0.4716323 0.012277753 0.6349639
        0.48111752 0.012293958 0.6353473 0.49055815 0.012309804 0.6357138
        0.49990514 0.012325135 0.63606167 0.5091112 0.012339791 0.6363897
        0.5181319 0.01235363 0.6366966 0.52692616 0.012366553 0.6369817
        0.53545713 0.012378513 0.6372447 0.54369247 0.012389508 0.63748527
        0.55160475 0.012399574 0.63770384 0.5591715 0.012408754 0.63790077
        0.5663757 0.012417064 0.63807684 0.5732053 0.012424461 0.638233
        0.5796537 0.012430801 0.6383705 0.58571935 0.012435829 0.6384906
        0.59140587 0.012439208 0.63859475 0.59672177 0.012440595 0.6386844
        0.60168004 0.012439747 0.63876104 0.6062978 0.012436627 0.63882625
        0.61059576 0.012431441 0.63888127 0.61459786 0.012424598 0.63892746
        0.6183305 0.012416596 0.63896596 0.62182176 0.012407904 0.638998
        0.62509954 0.012398914 0.6390243 0.6281892 0.012389973 0.6390457
        0.63111025 0.012381455 0.6390629 0.6338744 0.012373827 0.63907623
        0.6364857 0.012367623 0.63908625 0.63894343 0.012363238 0.6390932
        0.64124715 0.012360438 0.6390976 0.64340067 0.012357724 0.6390997
        0.4716323 0.012972686 0.6349501 0.48108187 0.012989337 0.6353321
        0.49048707 0.013005607 0.63569725 0.49979895 0.013021343 0.63604397
        0.5089705 0.013036378 0.63637084 0.5179574 0.013050573 0.6366769
        0.52671885 0.0130638275 0.6369612 0.5352181 0.013076096 0.63722354
        0.543423 0.013087376 0.6374637 0.55130625 0.013097699 0.63768184
        0.5588456 0.013107112 0.63787854 0.566024 0.013115635 0.63805455
        0.5728296 0.013123232 0.6382107 0.57925576 0.013129772 0.6383483
        0.58530086 0.013135016 0.6384686 0.59096843 0.013138648 0.638573
        0.5962667 0.013140337 0.638663 0.60120827 0.013139845 0.63874006
        0.6058098 0.01313713 0.63880557 0.6100913 0.013132379 0.63886106
        0.61407614 0.01312598 0.6389077 0.6177901 0.013118401 0.63894665
        0.6212611 0.013110085 0.63897914 0.6245173 0.013101391 0.6390059
        0.62758535 0.013092615 0.63902783 0.63048655 0.013084076 0.63904554
        0.63323474 0.0130762085 0.6390594 0.63583523 0.0130695375 0.63907003
        0.6382873 0.013064501 0.63907766 0.6405897 0.013060894 0.6390826
        0.64274496 0.013057174 0.63908535 0.4716323 0.013667603 0.63493556
        0.48104656 0.013684654 0.6353161 0.4904166 0.013701306 0.6356799
        0.4996937 0.013717402 0.6360255 0.508831 0.013732775 0.63635135
        0.51778454 0.013747288 0.63665646 0.5265135 0.01376084 0.63694006
        0.5349814 0.013773383 0.6372017 0.5431563 0.013784915 0.6374414
        0.551011 0.013795468 0.6376592 0.5585234 0.0138050895 0.63785565
        0.56567657 0.013813802 0.63803154 0.5724587 0.0138215795 0.63818777
        0.5788631 0.013828301 0.63832545 0.5848883 0.013833748 0.6384459
        0.5905375 0.0138376225 0.6385506 0.59581876 0.013839609 0.63864094
        0.6007443 0.013839479 0.6387183 0.6053302 0.013837182 0.6387843
        0.6095961 0.013832891 0.63884014 0.6135643 0.013826968 0.63888717
        0.6172603 0.013819857 0.6389266 0.6207113 0.013811973 0.63895947
        0.62394583 0.013803638 0.6389867 0.6269913 0.013795104 0.63900906
        0.6298711 0.01378663 0.6390273 0.63260126 0.01377859 0.6390418
        0.6351888 0.013771495 0.6390529 0.6376335 0.013765811 0.63906115
        0.63993317 0.01376137 0.63906676 0.6420893 0.013756603 0.6390701
        0.4716323 0.014362505 0.6349202 0.48101154 0.014379911 0.6352993
        0.49034673 0.014396898 0.6356619 0.49958938 0.014413308 0.63600624
        0.50869286 0.014428978 0.63633114 0.5176133 0.014443769 0.6366353
        0.52631015 0.014457579 0.6369181 0.5347472 0.014470364 0.6371792
        0.54289246 0.014482117 0.6374184 0.550719 0.014492874 0.6376358
        0.5582049 0.014502677 0.6378321 0.56533325 0.014511558 0.6380079
        0.57209235 0.014519493 0.63816404 0.5784756 0.014526378 0.63830185
        0.58448136 0.014532013 0.63842255 0.59011286 0.014536118 0.63852745
        0.59537774 0.014538397 0.6386181 0.6002879 0.01453863 0.6386959
        0.60485893 0.014536761 0.63876224 0.60910976 0.014532949 0.6388185
        0.6130622 0.0145275295 0.638866 0.61674076 0.0145209255 0.6389058
        0.6201723 0.014513521 0.6389391 0.62338513 0.014505611 0.6389667
        0.62640744 0.014497395 0.63898957 0.62926435 0.014489068 0.63900816
        0.6319744 0.014480936 0.6390232 0.6345468 0.014473473 0.6390349
        0.63698214 0.014467158 0.63904375 0.6392777 0.0144618675 0.63904995
        0.64143366 0.014456011 0.6390539 0.4716323 0.015057387 0.63490415
        0.48097682 0.015075102 0.6352818 0.49027747 0.015092379 0.6356431
        0.499486 0.015109059 0.6359864 0.50855595 0.015124982 0.63631016
        0.51744366 0.015140008 0.6366135 0.5261088 0.01515404 0.6368956
        0.53451526 0.015167031 0.637156 0.5426313 0.015178974 0.6373947
        0.5504301 0.015189904 0.6376118 0.55788994 0.015199864 0.63780785
        0.5649939 0.015208888 0.6379835 0.5717305 0.01521696 0.6381397
        0.5780931 0.015223992 0.63827765 0.58408004 0.015229797 0.63839847
        0.5896943 0.015234119 0.63850373 0.5949434 0.015236682 0.6385947
        0.5998388 0.015237276 0.63867277 0.6043956 0.015235842 0.6387395
        0.6086322 0.015232525 0.63879615 0.6125696 0.015227637 0.6388441
        0.6162315 0.015221571 0.63888425 0.6196441 0.015214688 0.6389179
        0.6228354 0.015207257 0.63894594 0.6258341 0.015199435 0.6389691
        0.6286669 0.0151913455 0.63898826 0.63135475 0.015183215 0.6390037
        0.6339095 0.01517545 0.639016 0.6363334 0.015168534 0.6390254
        0.63862324 0.015162377 0.6390322 0.64077795 0.0151553955 0.6390367
        0.4716323 0.015752252 0.6348872 0.4809424 0.015770227 0.6352636
        0.49020883 0.015787747 0.63562363 0.49938354 0.015804652 0.6359657
        0.5084203 0.01582078 0.63628846 0.51727563 0.015836002 0.6365909
        0.52590936 0.015850216 0.6368723 0.5342856 0.015863376 0.6371321
        0.5423728 0.015875477 0.6373703 0.5501444 0.015886549 0.6375871
        0.55757844 0.015896639 0.6377829 0.5646586 0.01590578 0.63795847
        0.5713731 0.01591397 0.63811463 0.5777155 0.015921125 0.6382527
        0.5836841 0.015927084 0.63837373 0.5892817 0.01593161 0.6384792
        0.5945155 0.015934449 0.6385705 0.59939677 0.015935399 0.638649
        0.60394007 0.015934404 0.6387161 0.60816306 0.015931591 0.6387731
        0.61208606 0.015927251 0.63882136 0.61573213 0.015921753 0.63886195
        0.6191265 0.015915431 0.638896 0.62229675 0.015908532 0.6389244
        0.6252716 0.01590117 0.638948 0.62807906 0.01589341 0.63896745
        0.6307427 0.01588538 0.6389834 0.63327754 0.0158774 0.6389962
        0.63568753 0.015869923 0.6390061 0.6379699 0.015862897 0.63901347
        0.6401223 0.015854755 0.6390186 0.4716323 0.016447099 0.63486964
        0.4809083 0.016465284 0.6352446 0.4901408 0.016482994 0.63560337
        0.499282 0.016500074 0.63594437 0.5082859 0.016516367 0.6362661
        0.5171091 0.016531738 0.63656765 0.52571183 0.016546095 0.6368483
        0.5340583 0.016559388 0.6371075 0.542117 0.016571611 0.63734525
        0.5498616 0.016582796 0.6375617 0.55727047 0.016592989 0.63775724
        0.56432706 0.016602226 0.6379327 0.57102 0.016610507 0.63808894
        0.5773427 0.016617766 0.63822705 0.5832933 0.016623858 0.63834834
        0.58887476 0.016628573 0.6384541 0.5940939 0.016631674 0.63854563
        0.5989616 0.016632974 0.6386245 0.60349196 0.016632417 0.6386919
        0.6077021 0.016630117 0.63874936 0.61161155 0.01662634 0.638798
        0.61524254 0.01662143 0.63883895 0.61861956 0.016615702 0.6388734
        0.62176925 0.016609376 0.6389021 0.6247203 0.016602542 0.6389261
        0.6275016 0.0165952 0.6389459 0.63013923 0.01658738 0.6389622
        0.6326513 0.016579289 0.63897544 0.6350449 0.016571315 0.63898593
        0.63731784 0.016563427 0.63899386 0.6394666 0.01655409 0.6389996
        0.4716323 0.017141927 0.6348512 0.48087445 0.017160269 0.6352248
        0.49007335 0.01717812 0.6355824 0.49918133 0.017195325 0.63592225
        0.50815266 0.017211733 0.636243 0.51694417 0.017227212 0.6365437
        0.5255162 0.017241668 0.6368236 0.53383315 0.017255053 0.6370822
        0.5418638 0.017267367 0.6373195 0.5495818 0.017278632 0.6375356
        0.55696577 0.017288899 0.63773096 0.56399935 0.017298203 0.6379063
        0.5706711 0.017306551 0.63806254 0.57697445 0.017313894 0.63820076
        0.5829077 0.017320102 0.6383222 0.58847344 0.017324986 0.63842815
        0.5936784 0.017328335 0.63852006 0.59853303 0.017329976 0.6385993
        0.6030511 0.017329853 0.63866705 0.607249 0.017328067 0.63872486
        0.61114573 0.017324865 0.6387739 0.61476254 0.01732056 0.6388152
        0.618123 0.017315451 0.63885 0.62125295 0.017309738 0.63887906
        0.6241805 0.017303485 0.6389033 0.6269351 0.017296646 0.6389235
        0.62954485 0.017289152 0.6389402 0.63203156 0.017281072 0.63895386
        0.63440585 0.017272688 0.63896483 0.63666713 0.017263956 0.6389733
        0.63881093 0.017253397 0.63897955 0.4716323 0.01783673 0.63483214
        0.48084092 0.017855179 0.6352044 0.49000648 0.017873118 0.6355607
        0.49908158 0.017890397 0.6358994 0.50802064 0.01790687 0.6362192
        0.51678073 0.017922407 0.636519 0.52532244 0.017936919 0.6367982
        0.5336102 0.017950362 0.63705623 0.54161316 0.017962724 0.63729304
        0.54930496 0.017974038 0.6375088 0.55666447 0.01798435 0.63770396
        0.56367534 0.017993692 0.6378792 0.57032627 0.018002085 0.6380355
        0.5766108 0.018009488 0.63817376 0.58252704 0.01801579 0.6382954
        0.58807755 0.018020825 0.6384016 0.5932688 0.018024405 0.63849384
        0.598111 0.018026372 0.6385733 0.60261726 0.018026676 0.63864154
        0.6068036 0.018025404 0.6386997 0.6106883 0.018022781 0.63874906
        0.61429185 0.018019093 0.6387908 0.61763674 0.018014621 0.63882583
        0.62074786 0.01800955 0.6388553 0.6236526 0.018003928 0.63887984
        0.6263802 0.017997673 0.63890034 0.62896067 0.017990623 0.6389174
        0.63141924 0.017982697 0.6389314 0.633771 0.017974019 0.63894284
        0.63601804 0.017964484 0.63895184 0.6381553 0.017952675 0.6389587
        0.4716323 0.018531518 0.63481224 0.48080766 0.018550009 0.63518316
        0.4899402 0.018567981 0.6355382 0.4989827 0.018585281 0.6358758
        0.5078898 0.018601766 0.6361947 0.51661885 0.018617315 0.6364937
        0.5251305 0.018631838 0.6367721 0.5333895 0.01864529 0.6370295
        0.541365 0.018657668 0.6372659 0.549031 0.018668996 0.63748133
        0.5563664 0.018679315 0.6376763 0.5633549 0.018688673 0.6378514
        0.56998545 0.018697085 0.63800764 0.5762515 0.01870452 0.6381461
        0.5821512 0.018710893 0.63826793 0.5876869 0.01871606 0.6383744
        0.59286493 0.018719852 0.63846684 0.5976951 0.018722132 0.6385467
        0.6021902 0.018722847 0.63861525 0.6063657 0.018722083 0.6386738
        0.6102392 0.018720036 0.63872355 0.61383027 0.018716976 0.6387656
        0.6171606 0.018713154 0.63880104 0.620254 0.018708745 0.6388307
        0.62313664 0.018703792 0.6388556 0.62583756 0.018698188 0.6388764
        0.6283875 0.0186917 0.6388937 0.6308153 0.018684087 0.6389081
        0.633141 0.018675266 0.63891995 0.63537073 0.018665003 0.6389294
        0.6374996 0.018651923 0.6389368 0.4716323 0.01922628 0.63479155
        0.4807747 0.01924476 0.63516116 0.48987448 0.019262701 0.6355151
        0.49888468 0.019279966 0.63585156 0.50776017 0.01929641 0.63616943
        0.51645845 0.019311916 0.6364676 0.5249404 0.019326402 0.63674533
        0.5331709 0.01933982 0.63700217 0.5411194 0.019352172 0.6372381
        0.5487599 0.019363474 0.6374532 0.5560715 0.019373775 0.6376479
        0.5630381 0.019383112 0.637823 0.5696486 0.019391512 0.6379792
        0.5758966 0.019398957 0.6381178 0.58178014 0.019405374 0.6382398
        0.58730143 0.01941065 0.6383465 0.59246665 0.019414632 0.63843924
        0.59728533 0.019417202 0.6385194 0.6017698 0.019418318 0.63858837
        0.60593504 0.01941805 0.6386472 0.609798 0.019416576 0.6386973
        0.61337763 0.01941414 0.63873976 0.6166945 0.019410975 0.63877547
        0.6197713 0.01940724 0.6388055 0.6226331 0.01940298 0.63883066
        0.62530786 0.019398086 0.63885164 0.62782663 0.01939227 0.6388692
        0.6302211 0.019385144 0.6388839 0.6325169 0.01937637 0.6388961
        0.63472563 0.019365499 0.6389061 0.6368439 0.01935114 0.63891405
        0.4716323 0.01992102 0.6347701 0.480742 0.01993942 0.63513845
        0.48980933 0.019957274 0.63549113 0.49878752 0.019974437 0.6358266
        0.50763166 0.019990781 0.6361435 0.5162995 0.020006191 0.6364408
        0.524752 0.020020586 0.63671786 0.53295445 0.020033928 0.63697416
        0.5408762 0.0200462 0.6372096 0.5484916 0.020057444 0.63742435
        0.55577976 0.020067684 0.6376189 0.5627248 0.02007697 0.63779384
        0.5693157 0.02008533 0.6379501 0.57554597 0.020092754 0.63808876
        0.5814136 0.020099191 0.6382109 0.586921 0.020104544 0.6383179
        0.59207386 0.02010869 0.638411 0.59688145 0.02011153 0.63849145
        0.60135585 0.020113023 0.6385607 0.6055114 0.020113237 0.63861996
        0.6093646 0.020112323 0.6386704 0.61293364 0.020110507 0.6387131
        0.6162381 0.020107996 0.63874924 0.61929965 0.020104945 0.6387795
        0.6221419 0.02010139 0.638805 0.62479156 0.02009724 0.6388262
        0.62727916 0.020092193 0.638844 0.62963825 0.020085733 0.6388589
        0.63189995 0.020077245 0.6388715 0.6340833 0.020065939 0.63888186
        0.63618827 0.020050326 0.6388903 0.4716323 0.020615736 0.6347479
        0.48070958 0.020633988 0.63511497 0.48974475 0.02065168 0.63546646
        0.49869126 0.02066868 0.63580084 0.50750434 0.020684857 0.6361168
        0.516142 0.020700108 0.63641334 0.5245655 0.020714356 0.63668966
        0.53274006 0.020727566 0.6369454 0.54063547 0.020739723 0.6371804
        0.54822606 0.020750852 0.63739485 0.5554912 0.020760993 0.6375892
        0.562415 0.020770192 0.63776404 0.56898654 0.020778477 0.6379203
        0.5751995 0.02078585 0.6380591 0.58105177 0.020792274 0.63818145
        0.58654547 0.020797675 0.6382886 0.59168637 0.02080196 0.63838196
        0.59648335 0.020805039 0.63846284 0.60094815 0.020806884 0.6385324
        0.60509473 0.020807555 0.638592 0.6089389 0.020807186 0.6386428
        0.61249816 0.020805975 0.6386859 0.6157914 0.02080411 0.6387223
        0.618839 0.020801734 0.6387528 0.62166333 0.020798892 0.63877857
        0.62428933 0.020795507 0.6388 0.6267463 0.020791294 0.638818
        0.6290685 0.020785678 0.63883317 0.6312919 0.020777758 0.638846
        0.6334444 0.020766275 0.63885677 0.6355326 0.020749476 0.6388657
        0.4716323 0.021310426 0.634725 0.48067746 0.021328453 0.63509077
        0.4896807 0.02134591 0.63544106 0.4985958 0.02136267 0.63577443
        0.50737816 0.021378608 0.63608944 0.515986 0.021393634 0.63638514
        0.52438074 0.021407675 0.6366608 0.53252786 0.02142069 0.636916
        0.54039717 0.021432674 0.6371505 0.5479633 0.021443646 0.6373647
        0.5552057 0.021453643 0.6375588 0.56210864 0.021462714 0.6377336
        0.5686612 0.021470884 0.63788986 0.5748571 0.021478169 0.63802874
        0.5806943 0.021484546 0.6381512 0.58617485 0.021489963 0.63825864
        0.5913042 0.021494344 0.63835233 0.596091 0.02149763 0.63843346
        0.60054666 0.021499794 0.63850343 0.60468477 0.021500893 0.6385634
        0.6085206 0.021501044 0.6386145 0.612071 0.021500418 0.6386579
        0.61535406 0.021499183 0.6386946 0.6183892 0.021497466 0.6387255
        0.6211973 0.021495325 0.63875145 0.6238016 0.021492705 0.63877314
        0.6262293 0.021489367 0.6387914 0.6285139 0.021484736 0.63880664
        0.630695 0.0214777 0.63881963 0.6328104 0.02146642 0.6388307
        0.63487697 0.02144859 0.63884014 0.4716323 0.022005092 0.6347013
        0.48064557 0.022022806 0.6350658 0.48961726 0.022039937 0.63541496
        0.4985012 0.022056375 0.63574725 0.50725317 0.022072 0.6360614
        0.5158315 0.022086725 0.6363563 0.52419776 0.022100482 0.63663125
        0.5323177 0.02211324 0.6368858 0.5401613 0.022124987 0.63712
        0.5477033 0.022135746 0.63733387 0.5549233 0.022145549 0.63752776
        0.5618057 0.02215444 0.63770247 0.5683397 0.022162452 0.63785875
        0.5745189 0.022169607 0.6379977 0.5803414 0.022175897 0.6381204
        0.58580905 0.022181286 0.63822806 0.5909272 0.022185728 0.638322
        0.59570426 0.022189176 0.6384035 0.6001513 0.022191621 0.63847375
        0.6042815 0.022193106 0.63853407 0.60810965 0.022193741 0.63858557
        0.6116521 0.02219367 0.63862926 0.61492604 0.022193037 0.6386663
        0.6179501 0.022191959 0.6386975 0.6207438 0.022190489 0.6387237
        0.6233286 0.022188613 0.6387456 0.6257292 0.022186154 0.63876396
        0.6279768 0.022182612 0.6387794 0.6301122 0.022176774 0.6387925
        0.63218296 0.022166207 0.6388038 0.6342213 0.022147667 0.6388137
        0.4716323 0.022699732 0.6346769 0.480614 0.022717033 0.6350401
        0.48955432 0.022733744 0.63538814 0.49840745 0.02274976 0.6357194
        0.5071293 0.022764977 0.6360326 0.51567835 0.022779314 0.6363267
        0.52401656 0.022792708 0.63660103 0.5321096 0.022805132 0.63685507
        0.53992784 0.022816576 0.63708884 0.54744613 0.022827053 0.63730234
        0.55464405 0.022836601 0.6374961 0.5615063 0.022845259 0.6376707
        0.56802195 0.02285306 0.637827 0.57418483 0.022860033 0.63796604
        0.57999295 0.022866188 0.63808894 0.585448 0.022871502 0.6381968
        0.59055537 0.022875953 0.63829106 0.5953231 0.022879513 0.63837284
        0.59976196 0.022882188 0.6384434 0.6038848 0.022884015 0.6385041
        0.607706 0.022885086 0.6385559 0.6112412 0.022885527 0.6386
        0.61450726 0.022885455 0.6386373 0.61752164 0.022884976 0.6386688
        0.62030286 0.022884151 0.63869524 0.62287056 0.022882974 0.6387174
        0.62524694 0.022881351 0.63873595 0.6274595 0.02287892 0.63875145
        0.62954724 0.022874568 0.6387647 0.631565 0.02286537 0.63877606
        0.63356566 0.022846708 0.63878626 0.4716323 0.023394343 0.6346516
        0.48058268 0.023411112 0.63501364 0.48949197 0.023427293 0.63536054
        0.4983146 0.023442779 0.6356908 0.5070066 0.023457488 0.6360031
        0.5155268 0.023471333 0.63629645 0.52383715 0.023484271 0.6365701
        0.53190374 0.02349627 0.63682365 0.5396969 0.023507327 0.63705695
        0.5471917 0.023517452 0.6372702 0.5543679 0.023526672 0.63746375
        0.5612102 0.023535032 0.6376383 0.56770796 0.023542562 0.6377946
        0.5738549 0.023549298 0.63793373 0.579649 0.023555253 0.63805676
        0.5850919 0.023560436 0.63816494 0.59018874 0.02356484 0.6382594
        0.5949475 0.02356845 0.6383415 0.59937876 0.02357129 0.6384125
        0.60349476 0.023573397 0.63847345 0.6073096 0.023574851 0.63852566
        0.61083853 0.023575746 0.6385701 0.6140976 0.023576187 0.6386077
        0.6171037 0.023576258 0.63863945 0.61987424 0.023576021 0.63866615
        0.62242746 0.023575487 0.63868856 0.624783 0.023574624 0.6387073
        0.6269643 0.02357324 0.6387229 0.62900484 0.023570515 0.6387361
        0.630961 0.023563443 0.6387475 0.63291 0.023545709 0.6387579
        0.4716323 0.024088927 0.6346256 0.48055163 0.024105038 0.6349864
        0.4894302 0.024120556 0.6353322 0.49822253 0.02413539 0.6356615
        0.50688505 0.02414946 0.6359729 0.5153766 0.024162706 0.63626546
        0.5236595 0.024175083 0.6365385 0.53169996 0.024186559 0.6367915
        0.5394684 0.024197133 0.63702446 0.5469401 0.024206813 0.63723737
        0.5540949 0.024215631 0.6374308 0.56091774 0.024223613 0.6376052
        0.56739783 0.0242308 0.6377616 0.5735291 0.024237229 0.6379008
        0.57930946 0.024242923 0.63802403 0.5847406 0.024247903 0.6381324
        0.58982736 0.024252186 0.63822716 0.5945776 0.024255782 0.6383096
        0.5990015 0.024258718 0.6383809 0.60311127 0.024261031 0.6384422
        0.6069204 0.024262791 0.63849473 0.61044383 0.024264073 0.63853943
        0.613697 0.024264956 0.63857746 0.6166962 0.024265515 0.6386095
        0.6194579 0.024265802 0.63863647 0.62199914 0.024265837 0.6386591
        0.62433755 0.024265628 0.638678 0.6264925 0.024265133 0.63869375
        0.6284899 0.024263956 0.638707 0.6303781 0.024259696 0.6387183
        0.63225436 0.024244668 0.6387286 0.4716323 0.02478348 0.63459885
        0.48052087 0.024798796 0.6349585 0.48936895 0.024813514 0.6353032
        0.49813136 0.02482756 0.63563144 0.50676465 0.02484087 0.63594204
        0.515228 0.024853388 0.63623387 0.52348375 0.024865083 0.63650626
        0.5314983 0.024875928 0.63675874 0.5392424 0.024885917 0.63699126
        0.5466913 0.024895066 0.63720393 0.5538251 0.024903389 0.6373971
        0.5606287 0.024910916 0.6375716 0.5670915 0.024917683 0.6377279
        0.5732075 0.024923725 0.6378672 0.5789744 0.024929084 0.63799065
        0.58439404 0.02493379 0.63809925 0.5894711 0.02493788 0.6381943
        0.5942132 0.02494138 0.63827705 0.5986303 0.024944326 0.6383487
        0.60273427 0.024946764 0.6384104 0.60653836 0.024948748 0.6384632
        0.61005694 0.024950339 0.6385083 0.61330515 0.024951592 0.6385466
        0.6162987 0.02495256 0.63857895 0.6190533 0.024953289 0.6386062
        0.6215851 0.024953812 0.638629 0.62390995 0.024954148 0.63864815
        0.6260444 0.024954325 0.63866407 0.6280069 0.024954302 0.63867736
        0.6298276 0.024953028 0.63868845 0.6315987 0.024943585 0.63869846
        0.4716323 0.025478007 0.6345714 0.48049036 0.025492398 0.63492984
        0.48930827 0.025506195 0.63527346 0.498041 0.025519338 0.6356008
        0.5066454 0.025531773 0.63591045 0.51508075 0.025543459 0.63620156
        0.52330965 0.02555437 0.6364733 0.5312987 0.025564488 0.63672537
        0.5390187 0.025573809 0.63695747 0.54644513 0.025582336 0.63716984
        0.55355823 0.025590086 0.6373629 0.5603429 0.025597086 0.63753724
        0.5667888 0.025603365 0.63769364 0.5728897 0.025608964 0.63783306
        0.57864356 0.025613926 0.6379567 0.58405197 0.025618296 0.6380655
        0.58911955 0.025622124 0.6381609 0.59385383 0.025625458 0.6382439
        0.5982645 0.025628347 0.63831586 0.6023631 0.025630837 0.6383779
        0.60616267 0.025632974 0.6384311 0.60967714 0.025634797 0.6384765
        0.6129213 0.025636347 0.6385151 0.6159103 0.025637658 0.6385478
        0.6186594 0.025638765 0.6385753 0.6211838 0.025639692 0.6385984
        0.62349844 0.025640467 0.63861775 0.625618 0.025641114 0.63863385
        0.6275563 0.02564165 0.6386472 0.6293271 0.025642095 0.6386582
        0.6309431 0.02564246 0.63866735
        <InformationKey name="L2_NORM_RANGE" location="vtkDataArray" length="2">
          <Value index="0">
            0.79105431904
          </Value>
          <Value index="1">
            0.91675051376
          </Value>
        </InformationKey>
      </DataArray>
    </Points>
  </Piece>
  </StructuredGrid>
</VTKFile>
