<?xml version="1.0"?>
<VTKFile type="StructuredGrid" version="0.1" byte_order="LittleEndian" header_type="UInt32" compressor="vtkZLibDataCompressor">
  <StructuredGrid WholeExtent="0 30 0 40 0 0">
  <Piece Extent="0 30 0 40 0 0">
    <PointData>
      <DataArray type="Float32" Name="orthogonality" format="ascii" RangeMin="2.3289998944166224e-13" RangeMax="0.9999701976776123">
        0.9987994 0.99945486 0.9992378 0.9974477 0.9933698 0.98586166
        0.97233844 0.9477441 0.9039926 0.83099514 0.71876025 0.5626056
        0.3813723 0.22549522 0.12843595 0.081313305 0.062103864 0.05495091
        0.05184331 0.049565103 0.047076385 0.044118866 0.040660314 0.03672352
        0.03234604 0.027573895 0.022461658 0.017072866 0.011479578 0.0057609435
        2.331e-13 0.99788964 0.99919546 0.99837905 0.9956714 0.9903438
        0.98075676 0.96362734 0.93351376 0.88317436 0.80483866 0.69122994
        0.53975636 0.36811543 0.22062305 0.12749313 0.081577025 0.06261896
        0.055449143 0.05226329 0.04990538 0.04735064 0.044342175 0.040845536
        0.036880687 0.03248247 0.027694436 0.022568956 0.017167646 0.011560945
        0.0058266036 4.6159523e-05 0.9969092 0.999046 0.9977287 0.99419487
        0.98713845 0.9740272 0.9508633 0.9127847 0.8551047 0.7729582
        0.6606059 0.5159894 0.35485885 0.21591428 0.12677261 0.08210278
        0.06340208 0.05620146 0.05291725 0.050459653 0.04782093 0.0447458
        0.041197397 0.037192598 0.032763306 0.02795042 0.022803964 0.017383523
        0.011757814 0.006003102 0.00019895086 0.9970387 0.9988381 0.9969448
        0.9922252 0.9825357 0.96453875 0.93435764 0.88902617 0.8264124
        0.74293596 0.6331682 0.49528563 0.34350872 0.21212569 0.12662075
        0.08311765 0.064634964 0.05736078 0.053934786 0.051337767 0.048580337
        0.045408703 0.04178307 0.03771671 0.033238154 0.028385267 0.023205424
        0.017755883 0.0121033825 0.0063224444 0.0004895564 0.9986384 0.9986267
        0.9960305 0.98957783 0.9762703 0.9525069 0.9156653 0.8650302
        0.7997566 0.7163058 0.6092762 0.47714195 0.3330743 0.20805913
        0.12582141 0.08350458 0.06534208 0.05809381 0.054610223 0.051943738
        0.049125828 0.045906514 0.04224504 0.038152803 0.033656463 0.02879222
        0.023606014 0.01815393 0.012501817 0.0067235297 0.00089244574 0.9999702
        0.99833536 0.9943453 0.9843359 0.96469223 0.93310547 0.8897313
        0.83561647 0.7698073 0.68825233 0.5856008 0.46056935 0.3250883
        0.20681074 0.12782356 0.08644884 0.06827839 0.060729094 0.056897637
        0.05391653 0.050835487 0.04740263 0.043570567 0.039344035 0.034744084
        0.02980255 0.02456229 0.019077739 0.013414834 0.0076497355 0.0018418465
        0.9999457 0.99782705 0.9915945 0.9771164 0.9514724 0.91405386
        0.8664571 0.81018 0.7442641 0.664788 0.5667526 0.4489989
        0.32201305 0.21015383 0.13393874 0.092917 0.07413289 0.06573
        0.061076082 0.057382453 0.05370627 0.0497814 0.045542523 0.040977865
        0.036094256 0.030911347 0.025461478 0.019789815 0.013953901 0.008021823
        0.0020447324 0.99995524 0.9966918 0.9870444 0.96766514 0.9365875
        0.8940102 0.8417749 0.7816022 0.7132694 0.6338732 0.5392767
        0.4285708 0.31078473 0.20675886 0.13481893 0.09530267 0.07670336
        0.068019584 0.062982656 0.05892972 0.05494851 0.05077194 0.046326086
        0.041590024 0.036562428 0.031255927 0.025696745 0.019924728 0.013992667
        0.0079642115 0.0018880557 0.9998917 0.99362844 0.979865 0.95502025
        0.9174512 0.8677134 0.8083256 0.74220693 0.67042637 0.5910355
        0.5004818 0.39787838 0.290703 0.19620238 0.13015997 0.09339259
        0.075853534 0.06752529 0.06259816 0.05858462 0.05462766 0.05047372
        0.046050634 0.041336697 0.036329437 0.031040404 0.02549491 0.019732002
        0.013803801 0.0077733025 0.0016905874 0.9987655 0.9885394 0.9700422
        0.93879944 0.8933975 0.8352016 0.76821804 0.6968774 0.62305367
        0.5450791 0.45958182 0.36554715 0.26904786 0.18418767 0.124364235
        0.09067059 0.07441398 0.06658177 0.061860397 0.057958316 0.054082714
        0.049997617 0.045635045 0.040974256 0.036013067 0.030763153 0.02524989
        0.019512374 0.013602782 0.0075840987 0.0015082683 0.99641657 0.9816707
        0.9574834 0.918682 0.86437553 0.7974208 0.7237798 0.64900285
        0.5749568 0.4997155 0.41989678 0.33435154 0.2479947 0.17232199
        0.1185929 0.08799984 0.07305323 0.06572069 0.061196852 0.0573952
        0.05359043 0.049564913 0.045254845 0.040640317 0.035719283 0.030503424
        0.02501807 0.019302277 0.013408179 0.0073986812 0.0013275098 0.99249506
        0.9723959 0.94135 0.8935351 0.82916945 0.7534511 0.674429
        0.5980416 0.525418 0.45406225 0.3805103 0.3035007 0.22698556
        0.16024922 0.112598225 0.085188195 0.07161645 0.06481667 0.060506243
        0.05681379 0.05308556 0.049123675 0.04486907 0.04030298 0.03542375
        0.030243244 0.024786923 0.019093925 0.01321645 0.007217424 0.0011523967
        0.98671645 0.96019053 0.92072177 0.8621901 0.786906 0.7031474
        0.6205999 0.54458696 0.4749321 0.4084563 0.34163517 0.2731513
        0.20617536 0.14811505 0.10648908 0.08230881 0.07015445 0.0639076
        0.05981822 0.056237705 0.052586988 0.04868895 0.04448962 0.03997156
        0.03513362 0.029987963 0.024560254 0.018889789 0.013028876 0.0070405146
        0.0009820829 0.97854924 0.9441264 0.8941548 0.82302994 0.7364857
        0.6462031 0.5624323 0.4888251 0.42357188 0.36285383 0.30316535
        0.2432061 0.18552428 0.13592294 0.10027329 0.07936059 0.068660766
        0.062985964 0.059125982 0.055661313 0.052090183 0.048257153 0.0441137
        0.039643917 0.034847315 0.029736476 0.024337377 0.018689545 0.0128454715
        0.006868286 0.0008172049 0.96713024 0.9227649 0.8595667 0.774051
        0.6768454 0.5825068 0.50021154 0.43104416 0.3715076 0.31731337
        0.26509506 0.21365322 0.16505322 0.123715885 0.09398627 0.07636308
        0.067144915 0.062056873 0.058432918 0.055087183 0.051597223 0.047829997
        0.04374274 0.039321255 0.03456585 0.029489653 0.024119038 0.01849385
        0.012666817 0.006701258 0.0006582292 0.9509085 0.89370996 0.8138648
        0.71277446 0.60698175 0.51209414 0.43427503 0.37152743 0.31889454
        0.27188513 0.22741842 0.18448344 0.1447822 0.11153369 0.087660976
        0.073334396 0.0656155 0.06112481 0.057741936 0.05451757 0.05110999
        0.0474091 0.043378156 0.03900483 0.034290362 0.029248528 0.023906203
        0.018303614 0.01249379 0.0065402887 0.00050600216 0.9269913 0.8528659
        0.7525254 0.6363718 0.52619433 0.4352986 0.36511803 0.3106418
        0.2659455 0.2266688 0.19017443 0.15572406 0.12475607 0.09943143
        0.081340946 0.070300795 0.06408758 0.06019949 0.057060257 0.05395828
        0.050633293 0.046998512 0.043023374 0.03869756 0.03402336 0.02901528
        0.023700772 0.018120516 0.012327881 0.006386714 0.0003617216 0.8896698
        0.793033 0.6691944 0.54210716 0.43445063 0.35290742 0.2934691
        0.24888432 0.21296208 0.18183452 0.15346023 0.12744802 0.10505131
        0.08748504 0.07508452 0.0673 0.062585406 0.059298113 0.056401238
        0.05342019 0.050176173 0.04660578 0.04268473 0.038404793 0.033769358
        0.028793741 0.02350601 0.017947339 0.012171467 0.0062425584 0.00022708753
        0.8268413 0.7014619 0.5559768 0.42845732 0.332953 0.26638764
        0.22041394 0.18697032 0.16040136 0.13767287 0.11746877 0.09980203
        0.085797586 0.07580759 0.068977326 0.06439094 0.061150298 0.058451813
        0.05578971 0.05292363 0.049755428 0.046244852 0.042373832 0.038136195
        0.03353643 0.028590634 0.023327503 0.017788695 0.012028318 0.006110841
        0.0001044206 0.7107314 0.55694085 0.4062369 0.29718807 0.2248598
        0.17817144 0.14757484 0.1259691 0.108980075 0.09467481 0.08254974
        0.07305368 0.06721484 0.064578995 0.06315626 0.06167352 0.059856933
        0.05771908 0.055272963 0.052507386 0.04940303 0.04594212 0.042112466
        0.03790973 0.033339333 0.028418029 0.023175027 0.01765238 0.011904476
        0.00599602 3.3168362e-06 0.47761875 0.33378336 0.2223303 0.15567401
        0.115704566 0.091774926 0.0771935 0.067367665 0.059720278 0.05356357
        0.04923382 0.04761288 0.049635287 0.054069515 0.057833333 0.05931082
        0.0588328 0.0572021 0.05493421 0.052239668 0.049174983 0.045743544
        0.041938264 0.037756104 0.033202965 0.028295903 0.023064336 0.017550455
        0.01180871 0.0059038396 9.326225e-05 0.05139669 0.03284655 0.020569274
        0.013706755 0.010277342 0.009534515 0.010464153 0.011797765 0.012956503
        0.014516125 0.017626753 0.023570446 0.033162456 0.04439296 0.053115297
        0.057392508 0.05815042 0.05695944 0.05482093 0.052159008 0.04910251
        0.045674313 0.04187143 0.037691344 0.03313984 0.02823377 0.023002347
        0.017487543 0.011743552 0.0058348747 0.00016672963 0.4017507 0.2754102
        0.18193832 0.12774189 0.094521284 0.072211534 0.055916984 0.04351831
        0.033590026 0.024306986 0.013722204 0.00017659464 0.016992973 0.034975097
        0.048579182 0.055590134 0.05754491 0.05677362 0.05475335 0.052116394
        0.04906192 0.045631662 0.041826535 0.037644457 0.033091042 0.028182905
        0.022949023 0.017431116 0.011683107 0.0057692206 0.00023797477 0.6653423
        0.5118156 0.36895442 0.2691583 0.20292464 0.15795644 0.12586965
        0.10182126 0.08254956 0.065013066 0.046467576 0.024885464 0.00020673848
        0.025151685 0.04373055 0.053517368 0.05670399 0.05638818 0.0545195
        0.05193619 0.04890749 0.04549459 0.041703068 0.03753199 0.032987405
        0.028086195 0.02285753 0.017343255 0.011597317 0.005683931 0.00032322927
        0.79699033 0.6673654 0.5236206 0.40181032 0.31119797 0.2462001
        0.19884731 0.16298598 0.13398583 0.10773482 0.08073767 0.050635345
        0.017212776 0.014949336 0.03860891 0.0512101 0.05565651 0.055825844
        0.0541373 0.051632494 0.04865022 0.04527157 0.041507415 0.037358593
        0.032832105 0.027945561 0.022728704 0.017223813 0.011485131 0.0055770907
        0.00042525728 0.86791176 0.76645035 0.64164025 0.51762754 0.41361564
        0.3333749 0.27260178 0.22554198 0.18690462 0.15177529 0.116015926
        0.07701387 0.034919526 0.004652357 0.03343553 0.04883749 0.05453454
        0.055192474 0.05369293 0.05127588 0.04834799 0.045010015 0.041278336
        0.037155807 0.032650646 0.027781399 0.02257855 0.01708497 0.011355317
        0.0054543307 0.00054141524 0.91011924 0.83136576 0.7289185 0.6142032
        0.5066986 0.41688925 0.34542885 0.28838596 0.24058402 0.19664788
        0.15195061 0.10373776 0.05267022 0.0055412 0.028357085 0.046505056
        0.053417005 0.054550122 0.053236645 0.05090758 0.048034765 0.04473794
        0.041038916 0.036942642 0.032458633 0.027606433 0.022417352 0.016934892
        0.011214176 0.005320265 0.0006686837 0.9374415 0.8758414 0.7933473
        0.6927309 0.5889986 0.49514484 0.41618854 0.35080025 0.29459503
        0.24209721 0.18837158 0.13066176 0.07032404 0.0155113 0.0234587
        0.044269152 0.052343175 0.053928543 0.05279229 0.050547164 0.047726754
        0.044468824 0.040800393 0.03672848 0.03226389 0.027427206 0.02225056
        0.016778108 0.011065432 0.005177906 0.00080471305 0.9563329 0.90768534
        0.8414724 0.7558161 0.66036415 0.56723547 0.48411253 0.41231087
        0.34869614 0.2880205 0.22523071 0.15773165 0.087804236 0.025184538
        0.018789772 0.042158328 0.051330358 0.053339798 0.05236925 0.050202347
        0.047430426 0.04420813 0.040567417 0.036517296 0.032069862 0.027246706
        0.022080796 0.016616931 0.010911148 0.005029107 0.0009478365 0.9700278
        0.93135226 0.8780054 0.8062307 0.72130907 0.6326487 0.54860544
        0.47253528 0.40271553 0.33437765 0.26253346 0.18493189 0.105058506
        0.034505002 0.014385461 0.040189873 0.05038703 0.05278886 0.0519711
        0.049876 0.04714821 0.043957952 0.04034181 0.0363107 0.03187797
        0.02706622 0.021909239 0.016452465 0.01075237 0.004874877 0.001097073
        0.9802346 0.9494799 0.9062644 0.8465366 0.77277875 0.6912491
        0.60929555 0.53125566 0.45663336 0.38127157 0.300409 0.21233937
        0.12209545 0.043458216 0.010250495 0.03835821 0.049504086 0.05226679
        0.051590208 0.04956193 0.046875156 0.043714408 0.040120564 0.036106415
        0.031686567 0.026884632 0.021735242 0.016284479 0.010589256 0.0047157425
        0.0012515406 0.98780113 0.96355116 0.928389 0.8786685 0.81553805
        0.742662 0.6653874 0.5877809 0.5100047 0.42845613 0.33871114
        0.23981698 0.13876316 0.051917575 0.006467274 0.03671513 0.048717137
        0.051800292 0.051247526 0.04927683 0.046624616 0.043488104 0.039912064
        0.035910983 0.031500652 0.026705652 0.021561407 0.01611461 0.010422583
        0.0045516863 0.0014120083 0.9934403 0.97478735 0.9462601 0.90478957
        0.85129726 0.78784406 0.7174888 0.6428309 0.56376505 0.47695565
        0.37837434 0.26806232 0.15549943 0.060162555 0.0028289666 0.035096023
        0.047893416 0.05128218 0.05085663 0.048951216 0.046340935 0.04323474
        0.03968132 0.035697144 0.031299427 0.026513943 0.021377094 0.015936345
        0.01024955 0.004383352 0.0015745545 0.9967492 0.98289394 0.9600775
        0.9251534 0.87925005 0.82418996 0.76149803 0.6917471 0.6134662
        0.52288437 0.41617545 0.2945108 0.17037015 0.06681358 0.0003196307
        0.03423752 0.047608767 0.05117261 0.050788093 0.048883736 0.04626418
        0.04314634 0.039580777 0.035584487 0.031174984 0.026378304 0.021231057
        0.015780829 0.01008545 0.004211326 0.0017526158 0.99693304 0.98618484
        0.9694718 0.9403925 0.8996821 0.84968996 0.79194564 0.72590166
        0.64862216 0.5553474 0.44197118 0.3105639 0.17665634 0.06681753
        0.0028131495 0.037222907 0.050380174 0.053551093 0.052768126 0.05050942
        0.047587242 0.044213433 0.04043103 0.036250003 0.031681888 0.02674766
        0.021479614 0.015921509 0.0101276515 0.004161008 0.0018915241 0.99298674
        0.9864052 0.9758475 0.95381606 0.9194324 0.8738582 0.8185743
        0.75310504 0.6743434 0.5771931 0.45720965 0.3170211 0.1749515
        0.06066467 0.009953302 0.043819964 0.056065943 0.058342006 0.056773145
        0.053848 0.050366957 0.04652516 0.042349804 0.037837215 0.032987475
        0.027811926 0.022334618 0.016592111 0.010632145 0.0045113442 0.0016901304
        0.9808297 0.98561305 0.98016465 0.9653536 0.9393813 0.900704
        0.84928846 0.7848471 0.70477307 0.6039777 0.47760934 0.3286062
        0.17806002 0.058861144 0.013321982 0.047263548 0.059176303 0.061061274
        0.059131343 0.055893313 0.052147117 0.048082676 0.043721568 0.039055336
        0.034080345 0.028805248 0.02325239 0.0174576 0.011468978 0.005344789
        0.00084570586 0.9710159 0.98432297 0.9815708 0.9710112 0.9513471
        0.9198321 0.8743194 0.81328595 0.7339714 0.63121665 0.4997253
        0.34263298 0.18388376 0.059789486 0.014137099 0.048445337 0.06034021
        0.062125925 0.060087416 0.05674824 0.052911844 0.048768118 0.044337824
        0.03961174 0.034585666 0.029267924 0.02368072 0.017859884 0.011853612
        0.0057202997 0.00047285727 0.96878785 0.9833938 0.9825507 0.9750579
        0.9606221 0.936407 0.8985672 0.8432617 0.7663436 0.6621412
        0.5248435 0.357973 0.18937898 0.059761234 0.015855988 0.050340693
        0.062062908 0.06363689 0.06140341 0.057892602 0.05390659 0.049632695
        0.04508921 0.040264826 0.03515366 0.029762695 0.024113042 0.018239615
        0.012189765 0.006020998 0.00020170333 0.97387433 0.98316413 0.98325074
        0.97774595 0.96708214 0.949079 0.9193924 0.8720548 0.8002103
        0.696326 0.5534932 0.37567368 0.1957968 0.060072947 0.017267557
        0.05188788 0.06343754 0.06482667 0.062431842 0.05878088 0.05467215
        0.050290413 0.04565209 0.04074443 0.03556046 0.030106291 0.024402354
        0.018482963 0.012394879 0.006194935 5.3180447e-05 0.980463 0.9845755
        0.98529965 0.9810042 0.9724636 0.95816165 0.9340094 0.89338833
        0.8276195 0.7266224 0.58081865 0.39332685 0.20232259 0.060518336
        0.018461658 0.053175785 0.06455362 0.06577656 0.06324302 0.05947326
        0.055260528 0.050786942 0.046067324 0.04108781 0.035840586 0.030331166
        0.024579516 0.01861956 0.012497661 0.006270162 2.329e-13
      </DataArray>
      <DataArray type="Float32" Name="aspect_ratio" format="ascii" RangeMin="1.0102169513702393" RangeMax="41.2269401550293">
        1.5120565 1.9917325 2.0552785 1.86595 1.7235311 1.7045195
        1.832463 2.1470413 2.7141411 3.6163583 4.9261174 6.628908
        8.499494 10.230393 11.807579 13.392356 15.082289 16.907337
        18.869373 20.957054 23.148607 25.411825 27.703733 29.970802
        32.1501 34.171673 35.96225 37.450058 38.5704 39.27129
        39.765446 1.5521778 2.0244124 1.9798261 1.8214682 1.7446073
        1.7866845 1.9701049 2.3398561 2.965308 3.928266 5.2954545
        7.049897 8.9876995 10.8233385 12.518042 14.206204 15.981629
        17.87808 19.899612 22.034113 24.25699 26.532217 28.812782
        31.041447 33.15237 35.073956 36.732906 38.05937 38.99259
        39.48646 39.7611 1.6988931 2.0814714 1.9335454 1.7875934
        1.7563969 1.8556128 2.1082485 2.5595627 3.2725375 4.3187966
        5.7561893 7.5684958 9.578146 11.525273 13.347933 15.1515255
        17.024021 19.00223 21.092031 23.280111 25.538513 27.826796
        30.093338 32.276707 34.307835 36.113327 37.620007 38.76032
        39.478123 39.73406 39.756756 2.0433922 2.0944347 1.876098
        1.7637402 1.784514 1.9442015 2.2668018 2.7949195 3.585223
        4.702847 6.200104 8.063017 10.138513 12.190807 14.1377325
        16.055977 18.026196 20.08766 22.248077 24.492996 26.791092
        29.09743 31.355585 33.499657 35.45694 37.15179 38.510582
        39.467506 39.970493 39.986515 39.7524 2.9495316 2.0361536
        1.8320946 1.7863013 1.8881313 2.1422603 2.5743601 3.2272406
        4.1587553 5.4354763 7.1088185 9.164808 11.458851 13.757743
        15.954485 18.102638 20.279211 22.526632 24.852758 27.23836
        29.643568 32.012688 34.277542 36.360477 38.178043 39.64587
        40.684685 41.22694 41.223263 40.647728 39.748024 3.8379183
        1.9202918 1.7427964 1.7239068 1.8397053 2.091981 2.5004342
        3.101341 3.9467933 5.0963163 6.5965576 8.444765 10.539647
        12.696725 14.8045025 16.88536 19.002007 21.197075 23.482834
        25.844763 28.24728 30.63844 32.953136 35.11581 37.043785
        38.65183 39.85792 40.589855 40.79183 40.43009 39.74373
        2.6464128 1.7823989 1.6274856 1.5867518 1.626139 1.7504627
        1.9797614 2.3441436 2.8828835 3.6412058 4.659877 5.955311
        7.487478 9.147913 10.8438635 12.569505 14.366268 16.273504
        18.310991 20.4775 22.753988 25.106644 27.4887 29.841703
        32.097267 34.18 36.01179 37.517284 38.63004 39.298695
        39.73925 1.823602 1.6363527 1.5401977 1.500288 1.515113
        1.5970688 1.7648718 2.0434356 2.4647844 3.06675 3.8867857
        4.9503946 6.2476974 7.7080135 9.246304 10.838768 12.514322
        14.311274 16.253914 18.347445 20.579962 22.92501 25.342936
        27.781576 30.177355 32.457485 34.543594 36.35675 37.82341
        38.881798 39.73461 1.6145582 1.5508081 1.4839587 1.4551592
        1.4809389 1.5751791 1.754453 2.0397398 2.4577808 3.041291
        3.8257737 4.8424244 6.0977893 7.5387044 9.078152 10.676652
        12.354356 14.1496105 16.089287 18.18063 20.4129 22.760317
        25.183645 27.631014 30.039001 32.334824 34.439938 36.275032
        37.766033 38.850426 39.729958 1.5870566 1.499144 1.4314842
        1.4130086 1.4546165 1.5684284 1.7690122 2.073905 2.5050924
        3.090798 3.8648984 4.8632393 6.1050076 7.549972 9.108915
        10.728923 12.422357 14.2275505 16.17354 18.268995 20.503641
        22.85161 25.27342 27.716927 30.118517 32.405334 34.498928
        36.32025 37.79566 38.863235 39.725315 1.5037193 1.4309784
        1.3725711 1.3659737 1.4226766 1.5539415 1.7724674 2.0926206
        2.5324757 3.116837 3.878537 4.8574743 6.083355 7.527077
        9.098709 10.734339 12.439155 14.251135 16.20117 18.299286
        20.535734 22.884712 25.306623 27.74918 30.148651 32.43212
        34.52116 36.33683 37.80569 38.86612 39.720676 1.4271847
        1.3601793 1.3099647 1.3161013 1.3890249 1.5388135 1.7760143
        2.1118875 2.561247 3.146345 3.899476 4.8641315 6.0786715
        7.52311 9.107284 10.758142 12.474437 14.293643 16.248224
        18.349367 20.587732 22.93751 25.35893 27.799526 30.195423
        32.47364 34.55579 36.363087 37.822365 38.872383 39.71604
        1.3398523 1.2823409 1.2423471 1.2624542 1.3526313 1.5215307
        1.7772365 2.1281564 2.5865812 3.1729608 3.9194336 4.8726625
        6.07814 7.523378 9.118397 10.782691 12.509344 14.33522
        16.29409 18.398127 20.63834 22.988884 25.409828 27.848516
        30.24094 32.514053 34.5895 36.38864 37.838577 38.87842
        39.71142 1.2459446 1.1984885 1.1701847 1.2059623 1.3150566
        1.5040632 1.7783614 2.143969 2.611414 3.1999943 3.9419932
        4.8868732 6.0859737 7.5328517 9.137854 10.814442 12.55081
        14.383172 16.34636 18.453358 20.69543 23.046665 25.466938
        27.903399 30.291885 32.55929 34.62729 36.417408 37.857014
        38.8856 39.706802 1.1441268 1.1084782 1.094037 1.1478043
        1.2777369 1.4876878 1.7804079 2.1602125 2.6366045 3.2282588
        3.9678147 4.907187 6.1024556 7.5519314 9.166295 10.854193
        12.599718 14.438443 16.406027 18.516094 20.76007 23.111925
        25.53132 27.965193 30.34922 32.61022 34.669907 36.44997
        37.878082 38.894142 39.702194 1.0349016 1.0130779 1.0153654
        1.0900321 1.2427683 1.4742002 1.7849419 2.1784346 2.6638162
        3.2595534 3.9987812 4.9355392 6.1296816 7.5831013 9.206679
        10.90529 12.659693 14.50487 16.4771 18.590462 20.836445
        23.188843 25.607065 28.037804 30.41656 32.670063 34.72008
        36.48848 37.903263 38.904793 39.697594 1.0882764 1.0944766
        1.0677757 1.0353769 1.2125473 1.4654967 1.7935967 2.2002695
        2.6948297 3.2958412 4.0370116 4.974193 6.17016 7.6293015
        9.262462 10.971618 12.734945 14.586921 16.564243 18.681273
        20.92944 23.282291 25.698935 28.125778 30.498114 32.74258
        34.78099 36.53543 37.93428 38.91844 39.693005 1.2539656
        1.2302881 1.1613529 1.0128583 1.1898007 1.4636912 1.8082693
        2.2276943 2.7318523 3.3396077 4.0852695 5.0262074 6.2273455
        7.6945496 9.338287 11.058368 12.831094 14.69055 16.673676
        18.794924 21.045542 23.398743 25.813253 28.235146 30.599464
        32.83274 34.856842 36.594116 37.973404 38.93624 39.688427
        1.4856158 1.3990382 1.2595085 1.0527388 1.1774113 1.470978
        1.830994 2.2628944 2.7773626 3.3936794 4.146746 5.09517
        6.305319 7.783557 9.43955 11.171535 12.954614 14.82261
        16.81254 18.938759 21.19219 23.545595 25.957235 28.372774
        30.726955 32.94618 34.952396 36.66827 38.023197 38.9595
        39.68386 1.815397 1.5957422 1.3483849 1.0784652 1.1776544
        1.4887949 1.862979 2.3071294 2.832781 3.45967 4.2232475
        5.183075 6.406293 7.8988147 9.569058 11.314208 13.108811
        14.986569 16.984417 19.116419 21.373026 23.726433 26.134335
        28.541906 30.883541 33.08549 35.06981 36.759552 38.08479
        38.988785 39.679302 2.2517986 1.7861879 1.4081498 1.0864257
        1.1887271 1.5136969 1.8996648 2.3548608 2.8915668 3.5299344
        4.3058476 5.2794394 6.5178833 8.025804 9.710196 11.467934
        13.273698 15.161161 17.167002 19.304836 21.56454 23.9177
        26.321423 28.720379 31.048607 33.23222 35.19339 36.855587
        38.14961 39.01969 39.67475 2.5644386 1.8848627 1.4290899
        1.0853833 1.1974626 1.5286486 1.9202765 2.3813453 2.9246469
        3.5706058 4.355217 5.3384614 6.586527 8.102268 9.792159
        11.554423 13.364776 15.2568245 17.266727 19.407583 21.66884
        24.021708 26.422958 28.816992 31.137665 33.311024 35.25932
        36.906277 38.18309 39.034554 39.670208 2.3351684 1.8153381
        1.4149615 1.0864477 1.1910158 1.5177902 1.9057478 2.3639708
        2.9054852 3.5507839 4.3355002 5.318454 6.5636234 8.071969
        9.751281 11.50353 13.306533 15.193669 17.200266 19.338942
        21.599047 23.951899 26.35444 28.751238 31.076271 33.255646
        35.211594 36.86772 38.155014 39.017952 39.66566 1.8990642
        1.6375703 1.3627535 1.0810196 1.179359 1.4934599 1.8709062
        2.3202672 2.8545618 3.4942179 4.2741656 5.2512856 6.48632
        7.9779963 9.636559 11.369443 13.157408 15.033534 17.032087
        19.165192 21.422302 23.775137 26.181126 28.585274 30.921888
        33.11722 35.093437 36.773796 38.088696 38.98178 39.661118
        1.555788 1.4434618 1.2793232 1.0585189 1.1772547 1.4746095
        1.8388323 2.2777352 2.8042269 3.438657 4.215118 5.188099
        6.4143066 7.889499 9.526459 11.238862 13.010956 14.87557
        16.86576 18.99304 21.246908 23.59947 26.008648 28.419899
        30.767868 32.97897 34.9753 36.679802 38.022274 38.945534
        39.656578 1.3143162 1.2736748 1.1841867 1.0213413 1.1876435
        1.4661084 1.8158334 2.2440512 2.7636318 3.3949196 4.171101
        5.14387 6.3650827 7.826656 9.443793 11.137 12.894459
        14.748797 16.731714 18.853945 21.104906 23.456982 25.868486
        28.285255 30.642221 32.865944 34.87847 36.6025 37.96735
        38.915154 39.65205 1.1419891 1.135779 1.0922225 1.0240802
        1.2082993 1.4666288 1.8008686 2.2182117 2.7317495 3.3619757
        4.141113 5.117582 6.3374476 7.7879086 9.386657 11.061731
        12.805674 14.650901 16.627594 18.74555 20.99397 23.345411
        25.758493 28.179352 30.543158 32.776592 34.801685 36.54093
        37.92328 38.890327 39.647533 1.0147905 1.0258642 1.010217
        1.075322 1.2361054 1.4737409 1.7916558 2.1977909 2.7059088
        3.3369005 4.121975 5.105702 6.3272476 7.7682366 9.349192
        11.006554 12.737613 14.574511 16.545729 18.659975 20.906124
        23.256824 25.670929 28.094824 30.463877 32.704872 34.73983
        36.49109 37.88731 38.869648 39.643024 1.0895163 1.066123
        1.0639796 1.12914 1.2679753 1.4849048 1.7858182 2.1802979
        2.683398 3.3167622 4.1105485 5.104778 6.330419 7.7626967
        9.325622 10.965068 12.683401 14.512364 16.478548 18.589426
        20.833464 23.18334 25.598095 28.02433 30.397577 32.644726
        34.68778 36.44896 37.856674 38.85171 39.638523 1.1894133
        1.1541578 1.1360928 1.1830024 1.3015103 1.4981691 1.781666
        2.1640778 2.662515 3.299851 4.105178 5.113137 6.344962
        7.768686 9.312798 10.93376 12.639268 14.460479 16.421886
        18.529608 20.771618 23.120583 25.535704 27.963762 30.340452
        32.592743 34.642643 36.412266 37.829792 38.835697 39.634033
        1.2822483 1.2377888 1.2050027 1.2346859 1.3338863 1.5105407
        1.7760551 2.1456928 2.6394718 3.2820752 4.101514 5.126033
        6.3653183 7.779512 9.303021 10.904198 12.596209 14.409372
        16.36588 18.470377 20.710316 23.05833 25.473778 27.903625
        30.28372 32.54112 34.597824 36.37584 37.80312 38.8198
        39.62955 1.383703 1.3215668 1.2725443 1.285232 1.3661356
        1.5237797 1.7718213 2.1291068 2.61945 3.2700782 4.107964
        5.1537533 6.4033613 7.8082833 9.3105955 10.891869 12.5707655
        14.376457 16.328602 18.43025 20.668238 23.015104 25.430313
        27.860981 30.24308 32.50375 34.56501 36.34878 37.782875
        38.807182 39.625076 1.438937 1.3909541 1.334603 1.3303348
        1.3909 1.5265541 1.7532519 2.0939844 2.5774279 3.234135
        4.0898876 5.1561213 6.4124675 7.801692 9.276325 10.832671
        12.494694 14.290013 16.235605 18.332943 20.568365 22.914478
        25.330994 27.765305 30.15359 32.423084 34.495754 36.293316
        37.74318 38.7847 39.62061 1.6594298 1.4971372 1.4072913
        1.3860989 1.4319718 1.5544214 1.7713274 2.1096175 2.6030376
        3.28601 4.1832223 5.295013 6.58054 7.971817 9.433903
        10.979368 12.637392 14.433553 16.3816 18.480806 20.716312
        23.06007 25.471376 27.897354 30.274042 32.528687 34.583447
        36.36041 37.787548 38.80493 39.616158 2.427501 1.6801143
        1.545258 1.5318257 1.6090331 1.7803726 2.065138 2.4947937
        3.1092184 3.9484074 5.0363665 6.3565593 7.8330874 9.374372
        10.957263 12.614164 14.380526 16.278412 18.31501 20.482569
        22.759163 25.109722 27.486832 29.831682 32.075798 34.143993
        35.95869 37.445385 38.53879 39.188858 39.611687 3.489183
        1.8770736 1.7544798 1.7941319 1.9720557 2.286534 2.7573206
        3.4228337 4.333358 5.5381465 7.0590434 8.847867 10.764603
        12.67508 14.573333 16.521002 18.562288 20.713434 22.97003
        25.310205 27.696394 30.077038 32.388313 34.556282 36.500008
        38.13604 39.384117 40.173656 40.45033 40.18174 39.607086
        2.7502515 2.0100977 1.8709717 1.8856888 2.0521412 2.375805
        2.8781307 3.5988533 4.5930786 5.9172473 7.59379 9.550259
        11.596712 13.580025 15.524272 17.51603 19.603413 21.797905
        24.089418 26.451344 28.842234 31.207243 33.47986 35.58421
        37.438522 38.95983 40.069912 40.70185 40.806507 40.3579
        39.60238 1.9513526 2.0203514 1.8665036 1.811297 1.8921679
        2.1210628 2.520073 3.1275003 3.9974575 5.1882963 6.7246485
        8.525427 10.381364 12.146702 13.87666 15.672901 17.583403
        19.61744 21.765974 24.007305 26.307743 28.621918 30.893532
        33.056847 35.039234 36.764996 38.16034 39.159195 39.709175
        39.776924 39.5977 1.6310195 1.9846748 1.8984782 1.8107234
        1.836042 2.001087 2.3322995 2.8722985 3.6804388 4.8220053
        6.325545 8.0933 9.877677 11.530906 13.144763 14.840444
        16.666344 18.628237 20.71563 22.908037 25.174826 27.4746
        29.75527 31.955023 34.004417 35.829735 37.35758 38.520325
        39.26199 39.543583 39.592995 1.4814672 1.9101654 1.9177924
        1.8187679 1.7956969 1.8987213 2.1588292 2.6231916 3.3591855
        4.442515 5.908103 7.6403728 9.348911 10.886119 12.383437
        13.979892 15.7229 17.614626 19.643341 21.789911 24.026764
        26.316383 28.610706 30.851574 32.97238 34.900986 36.56391
        37.891556 38.823902 39.316032 39.588284 1.4287233 1.858072
        1.9567615 1.8291104 1.7440406 1.7891906 1.997437 2.4117672
        3.09826 4.137474 5.5713363 7.2711926 8.907613 10.336137
        11.727359 13.235391 14.905378 16.735586 18.71287 20.819128
        23.029406 25.309555 27.615053 29.890976 32.073254 34.091187
        35.87132 37.342365 38.44084 39.116665 39.583565
      </DataArray>
      <DataArray type="Float32" Name="jacobian" format="ascii" RangeMin="-1.3320945981831755e-05" RangeMax="0.009488099254667759">
        1.3364043e-05 9.584995e-06 1.4986289e-05 4.1149957e-05 9.7631346e-05 0.00019553064
        0.00034389208 0.0005425858 0.00077657215 0.0010207902 0.0012565213 0.00148374
        0.0017212995 0.0019944622 0.0023138663 0.0026784425 0.003086915 0.00353885
        0.004032844 0.004565481 0.0051307767 0.0057198224 0.006320594 0.0069180042
        0.0074942736 0.008029673 0.00850365 0.008896263 0.009189805 0.009370394
        0.009488099 1.4689491e-05 1.2097304e-05 2.6731159e-05 6.549945e-05 0.00013273158
        0.0002315453 0.00036359718 0.00052771426 0.0007178182 0.0009228497 0.0011330803
        0.0013487167 0.0015826678 0.0018521873 0.0021637524 0.0025162122 0.0029096617
        0.0033453275 0.0038233516 0.004341676 0.0048955693 0.0054773437 0.0060761734
        0.0066780834 0.007266218 0.007821464 0.008323461 0.008751943 0.009088321
        0.009317298 0.009487063 1.5404885e-05 1.47627225e-05 3.9375274e-05 8.990565e-05
        0.00016449299 0.00026040123 0.0003758303 0.0005106192 0.0006647648 0.0008361355
        0.001021921 0.0012237132 0.0014503548 0.0017126082 0.0020134798 0.002351704
        0.002728421 0.0031462088 0.0036065665 0.0041087233 0.0046492177 0.0052216686
        0.0058165863 0.006421302 0.007020121 0.0075948173 0.008125501 0.008591852
        0.008974621 0.009257232 0.009486025 1.4754262e-05 2.0224892e-05 5.7113633e-05
        0.00011693354 0.0001920978 0.00027807217 0.0003747111 0.00048561709 0.00061480515
        0.0007637305 0.00093231275 0.0011229127 0.0013422677 0.001597028 0.0018876862
        0.002212738 0.0025740087 0.0029750867 0.0034185504 0.0039047028 0.0044311946
        0.0049928487 0.0055814786 0.006185766 0.0067913276 0.007381085 0.007935997
        0.00843616 0.008862198 0.009196807 0.009484985 1.029939e-05 2.971557e-05
        7.830733e-05 0.00013933859 0.00020405668 0.00027087066 0.00034382037 0.00042928354
        0.0005323233 0.000655334 0.0007995576 0.000967967 0.0011660869 0.0013978604
        0.0016621329 0.0019573388 0.0022858407 0.0026520866 0.003059797 0.0035107124
        0.004004276 0.0045375163 0.0051048878 0.0056981132 0.006306159 0.0069154566
        0.0075104535 0.008074504 0.00859109 0.009045265 0.009483939 2.4669619e-06
        4.764576e-05 0.00010623129 0.00016908848 0.00023187239 0.00029704568 0.0003709896
        0.00046028112 0.000569307 0.000700213 0.00085465395 0.0010362223 0.0012504382
        0.0014999298 0.0017818722 0.0020936378 0.0024373038 0.0028174112 0.0032376552
        0.003699436 0.0042015812 0.0047403253 0.005309238 0.0058991476 0.006498189
        0.00709211 0.007664894 0.008199731 0.008680274 0.00909209 0.009482902
        -9.010677e-06 7.470672e-05 0.00014009081 0.00020966514 0.00028498826 0.00037285287
        0.00048067857 0.0006138625 0.0007748133 0.00096382125 0.0011816166 0.0014322422
        0.0017218726 0.0020513805 0.0024137194 0.0028026148 0.0032189658 0.0036672289
        0.004150297 0.004667468 0.005214341 0.0057831444 0.006362974 0.006940001
        0.0074978243 0.008018114 0.008481586 0.0088692745 0.009163985 0.0093517555
        0.009481829 -1.3320946e-05 0.000102406884 0.00017592858 0.00025023235 0.0003330889
        0.00043351497 0.0005591019 0.0007147642 0.0009025873 0.0011230096 0.0013774199
        0.0016708387 0.0020095601 0.0023914024 0.002803737 0.0032361052 0.0036885878
        0.0041664755 0.004673098 0.0052071973 0.005763085 0.006331385 0.006899581
        0.007452452 0.007972624 0.008441386 0.0088398075 0.009150114 0.0093571525
        0.009449788 0.009480726 2.1434746e-05 0.00013942289 0.00021373738 0.00028695006
        0.00036834684 0.00046599834 0.0005861707 0.0007335893 0.0009117742 0.001123703
        0.0013733541 0.001667623 0.0020134512 0.0024068183 0.002831054 0.003272439
        0.0037303753 0.004211086 0.0047189337 0.005253235 0.005808499 0.0063753696
        0.0069412985 0.0074910447 0.008007243 0.008471234 0.008864186 0.009168466
        0.009369101 0.00945517 0.009479619 7.041295e-05 0.00018216226 0.00025171644
        0.0003208151 0.0003977029 0.0004889913 0.0006000764 0.0007358343 0.0009009584
        0.0011003097 0.0013399128 0.001628386 0.001973636 0.002370751 0.0028001107
        0.0032452217 0.0037046808 0.004185381 0.0046925987 0.005226258 0.005781188
        0.0063481936 0.006914824 0.0074658967 0.007984073 0.008450682 0.008846842
        0.00915482 0.009359509 0.009449814 0.009478513 0.00011773322 0.0002228597
        0.00028722113 0.0003513257 0.0004229481 0.00050799974 0.00061154464 0.0007385803
        0.00089438533 0.0010848787 0.001317466 0.0016021859 0.0019479254 0.0023492295
        0.0027840189 0.0032332737 0.0036947597 0.0041759275 0.004682869 0.005216045
        0.005770549 0.006337309 0.006903938 0.007455296 0.007974069 0.008441593
        0.008838966 0.009148419 0.009354781 0.009446878 0.009477409 0.00016524525
        0.00026224746 0.0003197662 0.00037767505 0.0004433349 0.00052214385 0.0006188462
        0.00073836837 0.0008862647 0.0010691355 0.0012954032 0.0015762824 0.0019216017
        0.002325679 0.002764523 0.0032169323 0.003679852 0.0041611623 0.004667662
        0.0052002966 0.00575441 0.0063210535 0.006887914 0.007439898 0.007959717
        0.008428708 0.008827945 0.009139601 0.009348422 0.009443128 0.009476306
        0.00021156674 0.00029892547 0.0003485255 0.00039971995 0.00045953933 0.00053281104
        0.000623788 0.000737166 0.0008786223 0.0010552284 0.0012761746 0.0015536401
        0.0018983026 0.002304427 0.0027465208 0.0032015126 0.0036655734 0.0041469163
        0.004652948 0.005185041 0.0057387645 0.0063052853 0.0068723587 0.0074249357
        0.0079457555 0.008416158 0.008817193 0.009130982 0.009342191 0.009439438
        0.009475204 0.00025580672 0.0003320674 0.00037298468 0.00041743417 0.0004719438
        0.0005404842 0.00062665326 0.0007348845 0.00087093876 0.0010422339 0.0012585402
        0.0015328135 0.0018764655 0.0022838206 0.0027282462 0.0031851209 0.0036499158
        0.004131093 0.0046365713 0.005168094 0.005721433 0.0062878653 0.0068552154
        0.0074084825 0.007930432 0.008402409 0.008805437 0.009121581 0.009335425
        0.009435477 0.009474103 0.00029717915 0.00036087574 0.0003928638 0.00043106775
        0.0004810904 0.00054571836 0.0006278555 0.0007317401 0.0008632199 0.0010299714
        0.0012421978 0.0015134659 0.0018557954 0.0022636305 0.0027095058 0.0031675624
        0.0036326682 0.004113464 0.0046182885 0.005149201 0.005702154 0.00626853
        0.0068362243 0.0073902872 0.007913513 0.00838725 0.008792495 0.009111256
        0.009328025 0.0094311945 0.009473005 0.00033490392 0.00038474106 0.00040808148
        0.00044091605 0.00048734582 0.00054875674 0.0006274634 0.0007276171 0.0008551583
        0.00101795 0.0012265072 0.0014948599 0.0018355077 0.002243043 0.0026894421
        0.0031479183 0.0036128496 0.0040929983 0.0045970306 0.0051272684 0.005679826
        0.006246189 0.006814329 0.0073693497 0.007894079 0.00836987 0.008777688
        0.009099479 0.00931963 0.009426409 0.009471909 0.0003682587 0.00040322635
        0.00041867697 0.00044723495 0.0004909041 0.0005496441 0.000625382 0.00072228233
        0.0008463717 0.0010056365 0.001210802 0.0014762279 0.0018147661 0.0022211673
        0.0026670997 0.00312516 0.0035893617 0.0040685367 0.0045715934 0.005101062
        0.0056532025 0.006219606 0.006788326 0.007344529 0.007871081 0.008349337
        0.008760234 0.0090856375 0.009309825 0.009420909 0.009470815 0.00039648116
        0.00041600325 0.0004246871 0.0004501342 0.0004917388 0.0005482127 0.0006213325
        0.0007153439 0.0008363388 0.0009923697 0.0011942836 0.0014566478 0.0017925424
        0.0021968782 0.002641255 0.0030979635 0.0035607885 0.0040385867 0.004540423
        0.005068986 0.00562067 0.006187177 0.006756653 0.00731434 0.007843148
        0.008324439 0.008739108 0.009068935 0.009298059 0.009414415 0.009469722
        0.00041861995 0.00042273386 0.0004260911 0.00044958654 0.00048966194 0.00054416055
        0.0006149324 0.00070633076 0.0008244792 0.0009774436 0.0011761138 0.0014351513
        0.0017677465 0.002168971 0.0026105917 0.0030649046 0.0035256061 0.004001538
        0.0045018382 0.0050293105 0.0055804728 0.0061471495 0.0067176 0.0072771525
        0.007808772 0.00829383 0.0087131765 0.009048482 0.009283721 0.009406616
        0.009468633 0.00043326893 0.00042312412 0.00042308323 0.00044570756 0.00048462267
        0.0005373747 0.0006060436 0.0006950709 0.00081057026 0.0009605739 0.0011559457
        0.0014113395 0.0017399471 0.0021370028 0.0025746587 0.0030255152 0.003483318
        0.0039568585 0.004455273 0.0049814386 0.005531992 0.006098895 0.0066705365
        0.0072323526 0.007767375 0.008256987 0.008681986 0.009023917 0.009266561
        0.009397383 0.009467545 0.0004389757 0.0004183184 0.0004174263 0.0004399667
        0.00047799645 0.00052933133 0.0005962974 0.0006833678 0.0007966127 0.0009440036
        0.0011363347 0.0013881802 0.0017126452 0.0021050945 0.0025381914 0.0029850523
        0.003439589 0.0039105234 0.0044069295 0.0049317144 0.0054816194 0.0060487418
        0.0066216053 0.0071857567 0.0077242996 0.008218632 0.008649501 0.008998325
        0.009248684 0.009387779 0.00946646 0.0004385579 0.00041471026 0.0004146391
        0.00043736532 0.00047502146 0.0005257496 0.0005919782 0.00067816954 0.0007903649
        0.0009365016 0.0011273243 0.0013773325 0.0016994958 0.0020891502 0.002519298
        0.0029635325 0.0034159815 0.003885322 0.004380534 0.004904497 0.005453988
        0.0060211723 0.0065946463 0.0071600196 0.0077004354 0.008197302 0.008631339
        0.008983898 0.00923845 0.0093820505 0.009465375 0.00043961746 0.00041915433
        0.00041900095 0.0004419427 0.0004801612 0.0005315855 0.000598559 0.000685542
        0.0007986112 0.000945742 0.001137702 0.0013889829 0.0017123913 0.002102959
        0.0025336146 0.0029781968 0.003431055 0.0039008735 0.0043965266 0.0049207867
        0.005470352 0.0060373284 0.006610266 0.0071747396 0.0077138697 0.00820906
        0.008641047 0.008991222 0.009243121 0.009383887 0.00946429 0.0004363501
        0.00042627333 0.00042728 0.00045069944 0.0004901195 0.00054319407 0.0006120288
        0.0007010483 0.000816385 0.0009660857 0.0011609698 0.0014155352 0.0017423691
        0.0021360104 0.00256911 0.003015704 0.0034704132 0.0039419485 0.0044390415
        0.004964287 0.005514223 0.006080815 0.0066524916 0.0072147306 0.007750592
        0.008241469 0.00866814 0.009012108 0.009257082 0.009390435 0.009463206
        0.00042459214 0.0004286197 0.000433441 0.00045815267 0.00049913954 0.0005543095
        0.0006255275 0.0007171214 0.0008352407 0.0009879717 0.0011861437 0.0014441924
        0.0017743967 0.0021707737 0.0026058278 0.0030540093 0.0035103185 0.003983463
        0.004481961 0.005008182 0.005558481 0.0061246734 0.006695065 0.007255037
        0.007787589 0.008274103 0.008695406 0.009033114 0.009271114 0.009397016
        0.009462123 0.00040551726 0.00042436869 0.0004350684 0.00046227645 0.0005053062
        0.000562907 0.0006368547 0.000731352 0.0008525092 0.0010083917 0.0012097646
        0.0014709029 0.0018036847 0.0022016447 0.0026373933 0.0030860917 0.0035432365
        0.0040174797 0.004517044 0.005044032 0.0055946107 0.006160462 0.0067297854
        0.007287883 0.007817707 0.00830063 0.008717524 0.009050096 0.009282385
        0.009402192 0.009461042 0.0003806335 0.00041372128 0.00043168102 0.00046271452
        0.000508496 0.00056897145 0.0006460519 0.00074383395 0.0008683359 0.0010275303
        0.0012320318 0.001495853 0.0018303876 0.0022287534 0.0026639383 0.003112108
        0.0035693548 0.0040442143 0.0045445315 0.0050720996 0.005622895 0.006188476
        0.0067569553 0.007313571 0.007841237 0.0083213225 0.008734729 0.009063247
        0.009291029 0.009406037 0.009459963 0.00035093736 0.00039707057 0.0004231412
        0.00045930684 0.00050878414 0.000572775 0.0006535401 0.00075512694 0.0008834172
        0.0010462091 0.001253874 0.0015200616 0.0018556169 0.0022533268 0.0026868307
        0.0031335703 0.0035903126 0.0040654084 0.0045662434 0.0050942604 0.005645234
        0.00621061 0.006778424 0.0073338626 0.007859808 0.008337626 0.008748247
        0.009073523 0.009297705 0.009408884 0.009458886 0.00031716484 0.00037484698
        0.00040932753 0.00045175286 0.0005060595 0.00057446474 0.00065969146 0.0007658057
        0.00089851255 0.001065344 0.0012763265 0.0015446565 0.001880589 0.0022766953
        0.0027075445 0.003152101 0.0036078605 0.004082915 0.004584108 0.005112491
        0.005663626 0.006228846 0.00679612 0.007350588 0.007875106 0.008351036
        0.008759334 0.009081904 0.009303085 0.009411073 0.009457812 0.0002797176
        0.0003475668 0.00039015303 0.0004395256 0.0004998039 0.00057376357 0.00066450465
        0.0007761217 0.0009140847 0.0010855473 0.0013000809 0.0015703504 0.0019060161
        0.0022995935 0.0027268762 0.0031685808 0.003622958 0.004097754 0.0045991926
        0.0051278905 0.005679183 0.006244293 0.0068111247 0.007364776 0.007888081
        0.008362396 0.008768701 0.009088947 0.009307549 0.009412801 0.009456739
        0.00023932922 0.00031595293 0.00036584164 0.0004222738 0.00048951304 0.0005704397
        0.00066820503 0.0007867697 0.00093123026 0.0011082144 0.0013267301 0.0015988665
        0.001933738 0.0023240098 0.0027469993 0.0031853693 0.0036381215 0.004112564
        0.0046142195 0.0051432275 0.00569468 0.006259681 0.0068260715 0.0073789065
        0.007900996 0.008373696 0.008778009 0.009095937 0.00931197 0.009414503
        0.009455667 0.00019561812 0.00028092266 0.0003367759 0.00039934026 0.00047363737
        0.0005625324 0.0006688106 0.0007958912 0.00094815553 0.0011314442 0.0013540644
        0.0016275129 0.001960484 0.0023461173 0.0027636422 0.00319787 0.0036485146
        0.0041223285 0.0046240515 0.00515331 0.0057049473 0.006269955 0.006836115
        0.0073884474 0.007909742 0.00838135 0.008784287 0.009100593 0.009314812
        0.009415415 0.009454598 0.00015039112 0.00024270477 0.0003038674 0.00037173548
        0.00045319163 0.0005517826 0.0006697209 0.00080907455 0.0009726122 0.0011648369
        0.0013932665 0.0016689898 0.0020005582 0.00238188 0.002794322 0.003224914
        0.0036740089 0.0041476996 0.0046498636 0.0051795566 0.0057313233 0.006296004
        0.0068612914 0.007412149 0.0079313405 0.008400223 0.008799862 0.009112383
        0.00932246 0.009418724 0.0094535295 0.00010457236 0.00020581628 0.0002685124
        0.00033772076 0.00042217106 0.0005267149 0.0006534103 0.00080267864 0.0009749271
        0.0011726663 0.0014023101 0.0016744775 0.00199789 0.0023681084 0.0027695796
        0.003191903 0.0036359215 0.004106865 0.004607688 0.005136942 0.0056890054
        0.0062547144 0.006821803 0.0073752687 0.007897878 0.008370954 0.008775475
        0.009093445 0.009309365 0.0094116675 0.009452464 6.4080945e-05 0.00016580045
        0.00022685497 0.00028862906 0.000360626 0.00044909338 0.00055718084 0.0006858953
        0.0008355951 0.0010079492 0.001207768 0.0014437153 0.0017239624 0.0020472535
        0.0024036574 0.0027866466 0.0031977028 0.003641334 0.004120211 0.004633491
        0.005176796 0.0057424894 0.006319845 0.0068952097 0.0074523264 0.007972952
        0.008437814 0.0088278735 0.009125777 0.009317333 0.009451395 3.760803e-05
        0.00011912377 0.00018097741 0.00023333327 0.0002852873 0.00034465487 0.00041678004
        0.0005049159 0.0006111667 0.00073756406 0.00088743964 0.0010666964 0.0012818158
        0.0015338733 0.0018182297 0.0021322146 0.0024783204 0.0028611233 0.0032841018
        0.0037483957 0.004252588 0.004792671 0.00536195 0.0059509394 0.0065474026
        0.007136648 0.0077021443 0.008226469 0.008692541 0.009085021 0.0094503015
        4.032481e-05 8.775623e-05 0.00014872765 0.00020606657 0.00026112725 0.00032042223
        0.00039025547 0.0004748604 0.00057657796 0.00069695956 0.0008385082 0.0010065895
        0.0012081129 0.0014452382 0.0017145522 0.0020143825 0.002347537 0.0027185169
        0.0031308145 0.0035858527 0.0040827347 0.0046181288 0.0051860907 0.0057778996
        0.006382032 0.0069843843 0.0075688194 0.008118052 0.008614833 0.009043337
        0.009449188 4.8824284e-05 7.202984e-05 0.00012734541 0.00019500469 0.0002681265
        0.00034787582 0.00043889304 0.00054525235 0.0006687366 0.00080970826 0.00096985634
        0.0011553789 0.0013757532 0.0016348123 0.0019289298 0.002256067 0.0026186977
        0.0030206523 0.0034644057 0.003950064 0.0044751004 0.005034199 0.0056190738
        0.0062183444 0.0068176007 0.0073997714 0.007945854 0.008436004 0.008850907
        0.0091733085 0.009448073 5.1998293e-05 6.218878e-05 0.00010416972 0.000169657
        0.00025179033 0.00034798475 0.000459293 0.00058716815 0.0007308182 0.0008879217
        0.001058731 0.0012507306 0.001477097 0.0017441905 0.0020485334 0.002387867
        0.002764285 0.0031808869 0.003639256 0.00413857 0.0046753287 0.0052431673
        0.0058326703 0.006431289 0.0070234886 0.0075912196 0.00811477 0.008573969
        0.008949662 0.0092252875 0.0094469525 5.4514807e-05 5.7463334e-05 8.56644e-05
        0.0001422947 0.00022600815 0.0003358114 0.00047120135 0.0006295269 0.0008035465
        0.000984179 0.0011686053 0.0013669638 0.0015986231 0.0018736554 0.0021886374
        0.00254087 0.002931859 0.0033637453 0.0038370192 0.0043497775 0.004897442
        0.0054725385 0.006064515 0.0066597136 0.00724161 0.0077914023 0.008288973
        0.0087142065 0.009048524 0.00927649 0.009445828 5.627382e-05 5.3950982e-05
        6.825694e-05 0.00011301005 0.00019380751 0.0003152942 0.00047812768 0.000674031
        0.0008849454 0.001091887 0.0012889301 0.0014905788 0.0017240918 0.0020040723
        0.0023273134 0.0026905823 0.0030945635 0.0035402155 0.0040268074 0.004551316
        0.0051081195 0.0056887157 0.006281544 0.0068720034 0.00744278 0.007974536
        0.0084469775 0.008840247 0.009136511 0.009321547 0.009444702
      </DataArray>
    </PointData>
    <CellData>
    </CellData>
    <Points>
      <DataArray type="Float32" Name="Points" NumberOfComponents="3" format="ascii" RangeMin="0.934173675540316" RangeMax="1.0481646214352212">
        0.7759443 0.02798163 0.5194304 0.7763285 0.027982507 0.5194467
        0.77677745 0.027983531 0.5194657 0.7773018 0.02798472 0.51948774
        0.7779138 0.027986102 0.5195134 0.77862763 0.027987706 0.5195432
        0.7794594 0.02798956 0.5195776 0.7804279 0.027991707 0.51961744
        0.78155404 0.027994182 0.5196634 0.7828618 0.027997032 0.5197163
        0.78437835 0.028000304 0.51977706 0.7861336 0.028004052 0.5198466
        0.788161 0.028008332 0.5199261 0.7904972 0.028013201 0.5200165
        0.7931817 0.028018717 0.52011883 0.7962567 0.028024934 0.5202343
        0.79976636 0.028031897 0.5203635 0.8037553 0.02803965 0.5205074
        0.8082678 0.028048217 0.5206665 0.8133453 0.028057612 0.5208409
        0.81902444 0.028067823 0.5210304 0.8253339 0.028078813 0.52123445
        0.8322916 0.028090514 0.52145165 0.8399013 0.02810283 0.5216803
        0.84814954 0.028115628 0.5219178 0.85700315 0.028128747 0.52216136
        0.86640763 0.028142001 0.5224074 0.8762868 0.028155189 0.5226522
        0.8865443 0.028168106 0.522892 0.8970662 0.02818056 0.5231232
        0.90772605 0.028192388 0.5233427 0.77610976 0.02799006 0.51943696
        0.7764861 0.027988888 0.51945305 0.776966 0.027994743 0.5194731
        0.7775426 0.028008508 0.5194966 0.7782071 0.02802901 0.5195234
        0.7789583 0.028054846 0.51955336 0.77980167 0.028083868 0.51958674
        0.78075194 0.028112851 0.51962423 0.78183526 0.028138008 0.5196671
        0.78308696 0.028156571 0.51971674 0.7845449 0.028168267 0.5197747
        0.7862466 0.028175216 0.51984185 0.7882306 0.028180582 0.5199195
        0.7905369 0.02818686 0.5200086 0.7932043 0.028194534 0.52011025
        0.79627126 0.02820318 0.52022517 0.79977757 0.028212568 0.5203542
        0.8037654 0.028222663 0.5204979 0.80827737 0.02823347 0.5206568
        0.8133546 0.028244996 0.5208311 0.8190334 0.028257221 0.5210205
        0.82534236 0.0282701 0.5212244 0.8322995 0.028283555 0.52144146
        0.8399085 0.028297493 0.52167 0.8481559 0.028311776 0.52190745
        0.8570086 0.028326238 0.5221509 0.8664121 0.028340692 0.5223968
        0.87629026 0.028354941 0.5226415 0.8865466 0.028368777 0.5228812
        0.89706737 0.028382013 0.52311236 0.90772605 0.028394483 0.5233318
        0.77625763 0.027997466 0.51944286 0.7766454 0.027996957 0.51945937
        0.7771767 0.028013716 0.51948094 0.77780944 0.028046237 0.5195058
        0.77851397 0.028090151 0.5195329 0.7792799 0.028140882 0.519562
        0.7801119 0.028193198 0.5195936 0.78103065 0.028241457 0.5196287
        0.782071 0.02828077 0.51966894 0.7832754 0.028308501 0.51971614
        0.78468645 0.02832529 0.51977175 0.7863448 0.028334612 0.5198371
        0.7882926 0.028341325 0.5199132 0.79057294 0.028349325 0.5200012
        0.7932252 0.028359346 0.5201021 0.7962848 0.028370611 0.5202166
        0.7997881 0.028382668 0.52034533 0.8037749 0.028395422 0.52048886
        0.8082865 0.02840886 0.5206476 0.81336343 0.028422976 0.5208217
        0.81904185 0.028437743 0.521011 0.82535046 0.02845311 0.52121466
        0.83230704 0.028469002 0.5214316 0.8399154 0.028485304 0.52166
        0.84816206 0.028501881 0.52189726 0.85701394 0.028518558 0.5221405
        0.86641645 0.028535148 0.5223863 0.8762936 0.028551443 0.5226309
        0.8865489 0.028567236 0.5228705 0.8970685 0.028582338 0.52310145
        0.90772605 0.028596576 0.5233208 0.77638865 0.028003924 0.5194481
        0.7768167 0.02800919 0.519466 0.7774153 0.02804421 0.51948935
        0.7780971 0.028100714 0.5195149 0.7788207 0.028169211 0.51954144
        0.77957827 0.02824155 0.5195689 0.7803832 0.028310582 0.51959836
        0.7812659 0.028370565 0.51963127 0.7822678 0.02841768 0.5196695
        0.78343374 0.028450508 0.5197147 0.78480715 0.028470533 0.51976866
        0.7864303 0.028481917 0.51983243 0.78834766 0.028490292 0.5199072
        0.79060566 0.028500292 0.5199942 0.7932445 0.028512787 0.5200944
        0.79629743 0.028526781 0.5202085 0.7997981 0.028541677 0.520337
        0.80378383 0.028557323 0.52048033 0.80829513 0.028573694 0.5206389
        0.8133718 0.028590778 0.5208128 0.8190499 0.028608548 0.5210019
        0.82535815 0.02862695 0.52120537 0.83231425 0.028645901 0.52142215
        0.839922 0.028665291 0.5216503 0.848168 0.028684977 0.52188736
        0.85701907 0.028704785 0.5221305 0.86642075 0.028724523 0.52237606
        0.8762969 0.02874398 0.5226204 0.88655114 0.02876295 0.5228598
        0.8970697 0.028781233 0.5230906 0.90772605 0.028798664 0.52330977
        0.77650917 0.028009778 0.5194529 0.77701193 0.028029071 0.51947314
        0.77768415 0.028090145 0.51949817 0.77839595 0.0281733 0.5195235
        0.77911484 0.028264046 0.5195485 0.7798472 0.02835245 0.51957405
        0.7806189 0.028431894 0.5196014 0.7814676 0.02849837 0.5196325
        0.7824369 0.02854974 0.51966906 0.78357124 0.028585635 0.51971287
        0.7849136 0.028608054 0.5197653 0.78650695 0.02862141 0.5198278
        0.788398 0.028631654 0.5199014 0.7906361 0.028643794 0.51998746
        0.7932627 0.028658796 0.52008706 0.79630953 0.028675538 0.5202008
        0.7998076 0.028693315 0.520329 0.80379254 0.028711936 0.5204721
        0.8083034 0.028731372 0.5206305 0.8133799 0.02875161 0.5208042
        0.81905776 0.028772615 0.52099305 0.8253656 0.028794348 0.5211964
        0.8323212 0.028816724 0.5214129 0.83992845 0.028839637 0.52164084
        0.8481738 0.028862946 0.52187777 0.85702413 0.02888648 0.5221206
        0.8664249 0.028910056 0.5223659 0.87630016 0.028933465 0.52261
        0.8865534 0.028956506 0.52284914 0.8970708 0.02897899 0.5230797
        0.90772605 0.029000748 0.52329856 0.776601 0.028014198 0.51945657
        0.7772474 0.028061412 0.51948136 0.7779744 0.028153408 0.51950693
        0.7786812 0.02825939 0.5195307 0.77936834 0.028363409 0.5195536
        0.78006226 0.02845773 0.51957715 0.78079885 0.02853909 0.51960295
        0.7816181 0.028606065 0.5196327 0.78256226 0.028657842 0.51966816
        0.7836734 0.02869455 0.51971096 0.7849934 0.028718248 0.5197624
        0.7865652 0.028733242 0.5198239 0.78843683 0.028745413 0.5198966
        0.79065996 0.028759787 0.519982 0.7932771 0.028777335 0.5200811
        0.7963192 0.028796885 0.5201945 0.79981536 0.028817682 0.52032244
        0.80379957 0.028839521 0.5204653 0.8083103 0.028862383 0.5206235
        0.8133866 0.028886268 0.520797 0.8190643 0.028911177 0.52098566
        0.8253719 0.028937088 0.52118874 0.83232725 0.028963955 0.521405
        0.83993405 0.028991714 0.5216326 0.8481789 0.029020274 0.5218692
        0.8570286 0.029049525 0.52211165 0.86642873 0.029079357 0.5223566
        0.8763032 0.029109657 0.5226003 0.8865555 0.029140342 0.52283895
        0.89707196 0.029171385 0.523069 0.90772605 0.029202826 0.52328736
        0.776746 0.028021308 0.51946235 0.7775444 0.028114265 0.519491
        0.7782888 0.028240327 0.5195154 0.77897704 0.028370047 0.519537
        0.77963704 0.028490199 0.5195578 0.78030354 0.028595474 0.51957947
        0.78101426 0.028684326 0.5196037 0.7818087 0.02875643 0.51963216
        0.7827274 0.02881177 0.5196663 0.7838116 0.02885111 0.5197078
        0.78510314 0.028876932 0.519758 0.78664625 0.028893767 0.5198182
        0.78849155 0.028907608 0.5198898 0.790694 0.028923692 0.51997423
        0.79329807 0.028943148 0.52007264 0.79633343 0.028964767 0.52018565
        0.7998267 0.028987726 0.5203134 0.80380976 0.029011771 0.52045614
        0.8083199 0.029036863 0.52061415 0.81339586 0.029063 0.5207875
        0.81907314 0.029090175 0.52097595 0.82538027 0.029118367 0.52117884
        0.832335 0.02914753 0.52139497 0.83994114 0.029177599 0.5216225
        0.8481852 0.029208476 0.5218588 0.857034 0.029240055 0.52210116
        0.8664332 0.029272214 0.52234596 0.87630665 0.029304842 0.5225895
        0.8865579 0.029337848 0.522828 0.89707315 0.029371193 0.5230579
        0.90772605 0.029404901 0.52327603 0.7770693 0.028052632 0.51947427
        0.77788925 0.028196106 0.51950103 0.77861404 0.028355626 0.51952267
        0.77927905 0.028510198 0.51954186 0.77991885 0.02865041 0.51956064
        0.7805684 0.028772857 0.51958054 0.78126305 0.028876336 0.51960325
        0.782039 0.028960114 0.51963025 0.7829344 0.029023906 0.5196629
        0.7839895 0.029068742 0.51970285 0.78524715 0.029097725 0.5197514
        0.78675413 0.029115971 0.51981 0.7885654 0.029129922 0.51988024
        0.7907407 0.029145341 0.5199636 0.79332733 0.029163912 0.52006143
        0.7963536 0.029184658 0.5201741 0.79984266 0.029206742 0.5203017
        0.8038238 0.029229885 0.5204444 0.8083329 0.029254034 0.5206024
        0.81340796 0.029279178 0.5207758 0.8190844 0.029305315 0.52096426
        0.82539064 0.029332422 0.5211672 0.8323444 0.029360453 0.52138335
        0.8399495 0.029389342 0.5216108 0.8481925 0.029418996 0.5218472
        0.85704017 0.029449299 0.52208954 0.8664382 0.02948014 0.5223344
        0.8763104 0.029511392 0.52257794 0.8865604 0.029542971 0.5228165
        0.8970744 0.029574824 0.52304643 0.90772605 0.029606972 0.52326465
        0.7774606 0.028125968 0.51948684 0.7782389 0.028310163 0.5195095
        0.7789325 0.028499758 0.51952803 0.7795714 0.028676985 0.5195448
        0.7801897 0.028835392 0.5195615 0.7808209 0.028972857 0.5195798
        0.7814981 0.029088335 0.51960105 0.7822552 0.029181054 0.5196266
        0.7831285 0.029250968 0.519658 0.78415716 0.029299641 0.5196966
        0.7853842 0.029330729 0.5197438 0.7868583 0.029349701 0.519801
        0.78863794 0.029363194 0.51987 0.7907876 0.02937732 0.51995236
        0.79335725 0.029394297 0.52004963 0.7963744 0.029413424 0.520162
        0.7998592 0.029433902 0.52028954 0.80383843 0.029455425 0.52043223
        0.8083464 0.02947793 0.52059025 0.81342053 0.029501405 0.52076364
        0.819096 0.029525844 0.5209522 0.82540125 0.02955123 0.5211552
        0.832354 0.029577516 0.52137136 0.8399581 0.029604632 0.5215989
        0.8481999 0.029632494 0.5218354 0.8570464 0.029660976 0.52207774
        0.8664432 0.029689968 0.52232265 0.87631416 0.02971934 0.52256626
        0.8865629 0.029749002 0.52280486 0.89707565 0.029778901 0.5230349
        0.90772605 0.029809037 0.52325314 0.77782923 0.028232442 0.51949656
        0.7785764 0.028455859 0.51951563 0.7792372 0.028671583 0.51953125
        0.77984697 0.028867317 0.5195456 0.78044033 0.02903933 0.5195605
        0.7810498 0.029186655 0.5195772 0.78170705 0.02930886 0.5195972
        0.7824448 0.029405866 0.5196217 0.7832976 0.02947841 0.519652
        0.7843034 0.029528687 0.5196895 0.7855047 0.029560685 0.5197355
        0.78695107 0.029579919 0.5197916 0.7887036 0.029592922 0.5198595
        0.79083085 0.029605925 0.5199411 0.79338545 0.029621525 0.5200378
        0.7963944 0.029639244 0.52014995 0.7998754 0.029658321 0.5202774
        0.8038528 0.029678438 0.5204201 0.8083596 0.029699506 0.5205781
        0.8134329 0.029721519 0.5207516 0.8191075 0.02974447 0.5209402
        0.82541174 0.029768342 0.52114314 0.83236355 0.029793087 0.5213594
        0.8399665 0.029818635 0.52158695 0.84820724 0.029844897 0.52182347
        0.8570526 0.029871756 0.5220659 0.8664482 0.029899087 0.52231085
        0.8763179 0.029926766 0.5225545 0.8865654 0.029954692 0.5227932
        0.8970769 0.029982805 0.52302325 0.90772605 0.030011099 0.52324164
        0.778196 0.028377557 0.519504 0.7789023 0.028633535 0.51951945
        0.77952623 0.02887038 0.5195322 0.78010416 0.029079907 0.51954436
        0.7806704 0.029260742 0.51955754 0.7812567 0.029413207 0.5195729
        0.78189373 0.029537931 0.5195918 0.782613 0.029635891 0.51961535
        0.7834474 0.02970872 0.51964486 0.7844333 0.029759122 0.5196815
        0.78561246 0.02979121 0.51972663 0.78703505 0.029810317 0.51978177
        0.7887641 0.029822702 0.5198487 0.79087144 0.029834554 0.5199296
        0.79341245 0.029848749 0.5200258 0.7964139 0.029865034 0.5201377
        0.79989135 0.02988269 0.5202651 0.803867 0.02990137 0.5204078
        0.80837274 0.029920988 0.52056587 0.8134451 0.029941529 0.5207394
        0.8191188 0.029962987 0.520928 0.8254222 0.02998534 0.52113104
        0.832373 0.030008545 0.52134734 0.83997494 0.030032532 0.5215749
        0.84821457 0.030057205 0.5218115 0.8570588 0.03008245 0.52205396
        0.86645323 0.030108135 0.52229893 0.8763217 0.030134136 0.5225427
        0.8865679 0.030160343 0.52278143 0.89707816 0.030186687 0.52301157
        0.90772605 0.030213157 0.52322996 0.7785499 0.02855936 0.51950884
        0.7792118 0.028842103 0.51952076 0.779796 0.029094286 0.5195309
        0.78033996 0.029311989 0.5195411 0.78087777 0.029496295 0.5195527
        0.7814406 0.02964917 0.519567 0.78205824 0.029772613 0.5195851
        0.7827605 0.029868769 0.519608 0.7835787 0.029940046 0.51963687
        0.78454757 0.029989457 0.5196728 0.78570795 0.030021025 0.5197172
        0.7871102 0.030039739 0.5197715 0.7888191 0.030051451 0.5198377
        0.7909091 0.030062186 0.5199179 0.7934381 0.030075029 0.52001375
        0.7964328 0.030089928 0.5201255 0.79990697 0.030106204 0.5202528
        0.803881 0.0301235 0.5203955 0.8083858 0.030141717 0.5205536
        0.81345725 0.030160839 0.52072716 0.8191301 0.030180858 0.5209158
        0.8254326 0.030201754 0.5211189 0.8323824 0.030223485 0.5213352
        0.8399833 0.030245971 0.5215628 0.8482219 0.03026912 0.52179945
        0.85706496 0.030292816 0.522042 0.8664582 0.030316925 0.522287
        0.8763254 0.030341312 0.5225308 0.8865704 0.030365864 0.5227696
        0.8970794 0.030390507 0.52299976 0.90772605 0.03041521 0.5232183
        0.7788888 0.028778357 0.51951087 0.7795019 0.029080411 0.5195195
        0.7800439 0.029341204 0.5195272 0.7805527 0.029560952 0.5195357
        0.78106207 0.029743426 0.51954615 0.78160244 0.029892467 0.5195597
        0.78220206 0.030011512 0.51957715 0.7828892 0.030103734 0.5195996
        0.78369325 0.030172084 0.51962805 0.78464764 0.030219672 0.5196635
        0.7857921 0.03025027 0.51970726 0.78717715 0.030268393 0.51976085
        0.7888688 0.030279385 0.51982635 0.79094386 0.03028903 0.5199061
        0.7934624 0.030300561 0.5200016 0.79645115 0.030314106 0.52011317
        0.79992235 0.030329032 0.5202404 0.8038949 0.030344974 0.5203831
        0.80839866 0.030361831 0.52054125 0.8134693 0.030379575 0.5207148
        0.8191413 0.0303982 0.5209035 0.8254429 0.030417688 0.52110666
        0.8323918 0.030437987 0.52132297 0.8399916 0.030459028 0.52155066
        0.84822917 0.030480709 0.52178735 0.8570711 0.03050291 0.52202994
        0.8664631 0.030525493 0.522275 0.8763292 0.030548321 0.5225188
        0.8865729 0.030571273 0.52275765 0.89708066 0.030594265 0.5229879
        0.90772605 0.030617258 0.5232065 0.77920794 0.029033558 0.5195099
        0.77976894 0.029346557 0.5195156 0.78026736 0.029608477 0.51952124
        0.78074104 0.029823923 0.5195284 0.7812231 0.02999956 0.519538
        0.78174263 0.030141093 0.519551 0.7823263 0.030253218 0.5195682
        0.78300023 0.030339854 0.5195904 0.78379226 0.030404247 0.5196185
        0.78473437 0.030449398 0.51965356 0.7858656 0.030478694 0.51969683
        0.7872363 0.030496085 0.5197499 0.7889134 0.03050634 0.51981485
        0.7909758 0.030514935 0.5198941 0.7934853 0.0305252 0.5199893
        0.7964688 0.030537436 0.5201008 0.79993737 0.030551055 0.52022797
        0.8039085 0.030565696 0.52037066 0.8084114 0.030581234 0.5205289
        0.8134813 0.030597653 0.5207025 0.8191524 0.030614937 0.5208912
        0.82545316 0.03063307 0.5210944 0.83240104 0.030652 0.52131075
        0.84 0.03067165 0.52153844 0.8482364 0.030691924 0.5217751
        0.85707724 0.030712692 0.5220178 0.8664681 0.030733814 0.5222629
        0.87633294 0.030755144 0.5225068 0.8865754 0.03077656 0.52274567
        0.8970819 0.03079796 0.522976 0.90772605 0.030819302 0.5231947
        0.77950287 0.02932377 0.51950586 0.7800097 0.029638162 0.51950896
        0.7804646 0.029893221 0.5195131 0.7809044 0.030098144 0.51951927
        0.7813612 0.030262453 0.5195284 0.78186226 0.030393431 0.51954114
        0.782432 0.030496644 0.51955825 0.78309476 0.030576436 0.5195803
        0.7838768 0.030636102 0.51960826 0.7848087 0.030678365 0.51964307
        0.785929 0.030706124 0.5196859 0.78728783 0.030722694 0.51973855
        0.78895307 0.030732209 0.51980305 0.7910049 0.0307398 0.51988196
        0.79350674 0.030748853 0.5199769 0.79648584 0.030759832 0.52008826
        0.7999521 0.030772198 0.5202155 0.80392206 0.030785583 0.5203582
        0.80842406 0.030799864 0.52051646 0.81349313 0.030815013 0.5206901
        0.8191635 0.030831017 0.5208788 0.8254633 0.030847857 0.521082
        0.8324103 0.03086548 0.5212984 0.8400082 0.030883808 0.52152616
        0.84824353 0.030902738 0.5217629 0.8570833 0.030922139 0.52200556
        0.866473 0.030941866 0.5222507 0.87633663 0.03096177 0.5224947
        0.8865779 0.030981712 0.5227336 0.89708316 0.03100159 0.52296394
        0.90772605 0.03102134 0.5231827 0.7797691 0.029647026 0.5194985
        0.78022134 0.0299523 0.51949966 0.78063405 0.030192342 0.51950276
        0.7810426 0.030380953 0.5195085 0.781477 0.030530086 0.5195175
        0.7819621 0.03064804 0.51953024 0.78252023 0.030740798 0.5195474
        0.7831738 0.030812807 0.5195696 0.7839475 0.030867178 0.5195974
        0.7848713 0.030906238 0.51963204 0.7859828 0.030932304 0.51967466
        0.7873322 0.030948002 0.51972693 0.78898776 0.030956797 0.5197911
        0.7910312 0.030963441 0.5198697 0.79352677 0.030971356 0.5199645
        0.7965022 0.030981142 0.52007574 0.7999665 0.030992314 0.52020293
        0.80393535 0.031004513 0.5203457 0.8084366 0.0310176 0.52050394
        0.8135048 0.031031547 0.52067757 0.8191744 0.031046342 0.5208664
        0.82547337 0.03106196 0.52106965 0.83241946 0.03107835 0.5212861
        0.84001637 0.031095432 0.5215138 0.8482507 0.031113092 0.5217506
        0.85708934 0.031131206 0.52199334 0.8664779 0.031149616 0.5222385
        0.8763403 0.031168167 0.5224825 0.88658035 0.031186711 0.52272147
        0.8970844 0.031205138 0.5229519 0.90772605 0.031223373 0.5231707
        0.7800022 0.030000653 0.51948786 0.7804014 0.030285582 0.51948774
        0.78077495 0.030502643 0.51949036 0.78115565 0.030669812 0.5194961
        0.7815709 0.030800598 0.5195053 0.782043 0.030903595 0.51951844
        0.7825918 0.030984744 0.51953584 0.783238 0.03104829 0.51955813
        0.7840053 0.031096976 0.5195861 0.78492266 0.031132622 0.5196206
        0.7860274 0.031156903 0.519663 0.7873695 0.03117172 0.519715
        0.78901774 0.03117984 0.51977897 0.79105455 0.031185616 0.51985735
        0.79354537 0.031192472 0.519952 0.79651785 0.031201145 0.52006316
        0.7999806 0.03121121 0.52019036 0.80394846 0.0312223 0.5203331
        0.8084489 0.031234274 0.5204914 0.81351644 0.031247105 0.5206651
        0.81918526 0.031260777 0.52085394 0.8254834 0.03127526 0.5210572
        0.8324286 0.031290505 0.5212736 0.84002453 0.031306427 0.5215015
        0.84825784 0.031322915 0.5217383 0.85709536 0.031339824 0.521981
        0.8664828 0.03135701 0.5222262 0.876344 0.031374294 0.52247024
        0.88658285 0.03139153 0.5227093 0.8970856 0.031408597 0.52293974
        0.90772605 0.031425405 0.5231586 0.7801978 0.03038113 0.5194738
        0.7805478 0.030634146 0.5194733 0.78088677 0.030820847 0.5194762
        0.7812439 0.03096225 0.5194824 0.7816438 0.031072184 0.51949215
        0.78210574 0.031158779 0.51950574 0.78264743 0.031227505 0.51952356
        0.7832881 0.03128213 0.5195461 0.78405064 0.031324897 0.51957417
        0.78496337 0.031357016 0.51960874 0.78606313 0.031379487 0.51965106
        0.7874 0.03139345 0.51970285 0.789043 0.03140097 0.5197666
        0.79107517 0.031405974 0.51984483 0.79356253 0.03141188 0.5199394
        0.7965328 0.03141955 0.5200506 0.7999943 0.031428605 0.5201778
        0.8039613 0.03143869 0.5203206 0.80846107 0.031449657 0.52047884
        0.8135279 0.031461477 0.5206526 0.819196 0.03147413 0.5208414
        0.8254933 0.031487588 0.52104473 0.8324376 0.031501796 0.52126116
        0.8400326 0.031516667 0.521489 0.8482649 0.031532086 0.52172583
        0.8571014 0.031547908 0.5219686 0.8664876 0.03156397 0.5222139
        0.8763477 0.0315801 0.52245796 0.8865853 0.03159614 0.52269703
        0.89708686 0.03161195 0.5229275 0.90772605 0.031627428 0.5231464
        0.78035194 0.030784082 0.51945645 0.7806591 0.030993665 0.51945657
        0.78096926 0.031143509 0.5194603 0.781308 0.03125574 0.5194674
        0.78169644 0.031342994 0.51947796 0.7821511 0.031412207 0.5194923
        0.7826879 0.031468 0.5195107 0.7833249 0.03151347 0.51953363
        0.7840842 0.031550214 0.5195619 0.7849938 0.031578794 0.5195965
        0.7860905 0.031599488 0.5196388 0.787424 0.031612676 0.5196905
        0.78906375 0.031619698 0.5197542 0.79109305 0.03162406 0.5198323
        0.7935782 0.031629153 0.51992685 0.79654706 0.031635948 0.520038
        0.8000076 0.03164413 0.5201652 0.8039739 0.03165334 0.520308
        0.80847305 0.031663433 0.5204663 0.8135392 0.031674374 0.5206401
        0.81920654 0.031686142 0.52082896 0.82550305 0.03169871 0.5210322
        0.8324465 0.031712018 0.5212487 0.8400406 0.031725973 0.5214766
        0.8482719 0.03174046 0.52171344 0.8571073 0.031755324 0.52195615
        0.86649245 0.031770404 0.5222015 0.87635136 0.03178551 0.52244556
        0.88658774 0.03180048 0.5226847 0.8970881 0.031815164 0.52291524
        0.90772605 0.03182945 0.5231342 0.78046143 0.03120429 0.5194358
        0.78073424 0.031359237 0.5194377 0.7810228 0.03146699 0.51944304
        0.7813487 0.031547662 0.51945144 0.7817298 0.03161107 0.5194631
        0.7821801 0.031662375 0.51947826 0.78271407 0.031705048 0.51949733
        0.783349 0.031741314 0.51952076 0.7841066 0.031772066 0.51954925
        0.7850147 0.031797186 0.519584 0.78610975 0.031816214 0.5196263
        0.78744173 0.031828746 0.51967806 0.78908014 0.03183542 0.5197416
        0.79110825 0.0318393 0.51981974 0.79359245 0.03184375 0.51991427
        0.7965606 0.031849846 0.52002543 0.8000205 0.031857323 0.5201527
        0.8039863 0.031865828 0.52029544 0.8084848 0.03187521 0.5204538
        0.81355035 0.03188544 0.52062756 0.819217 0.03189649 0.52081645
        0.82551277 0.031908337 0.52101976 0.8324554 0.03192091 0.52123624
        0.84004855 0.03193412 0.5214641 0.8482788 0.03194784 0.5217009
        0.8571132 0.031961918 0.52194375 0.8664972 0.03197618 0.522189
        0.876355 0.031990428 0.52243316 0.8865902 0.032004494 0.5226723
        0.8970893 0.03201821 0.52290285 0.90772605 0.03203146 0.52312183
        0.78052366 0.031635843 0.5194123 0.7807733 0.031725623 0.51941705
        0.78104883 0.031787768 0.51942456 0.7813679 0.031835556 0.51943463
        0.7817455 0.031874623 0.5194477 0.782194 0.031907924 0.51946384
        0.782727 0.03193755 0.5194836 0.7833614 0.031964768 0.5195075
        0.7841186 0.03198969 0.5195364 0.7850265 0.03201151 0.5195713
        0.7861215 0.032029025 0.5196137 0.78745365 0.03204107 0.5196655
        0.7890924 0.032047573 0.519729 0.79112095 0.032051172 0.5198072
        0.7936053 0.032055188 0.51990175 0.7965734 0.032060787 0.520013
        0.80003303 0.032067757 0.5201402 0.8039984 0.032075748 0.520283
        0.8084964 0.03208463 0.52044135 0.8135614 0.03209434 0.5206151
        0.81922734 0.032104876 0.5208039 0.82552236 0.032116193 0.5210073
        0.83246416 0.032128233 0.5212238 0.8400564 0.032140892 0.52145165
        0.84828573 0.032154046 0.52168846 0.8571191 0.032167535 0.5219313
        0.866502 0.03218117 0.52217656 0.8763586 0.032194763 0.52242064
        0.8865926 0.03220812 0.52265984 0.8970905 0.032221068 0.52289045
        0.90772605 0.032233477 0.52310944 0.78053725 0.032072302 0.51938605
        0.78077865 0.032089185 0.51939493 0.7810506 0.03210415 0.5194052
        0.7813685 0.03211868 0.5194172 0.781746 0.03213343 0.5194317
        0.78219485 0.032148916 0.519449 0.7827284 0.032165736 0.51946956
        0.78336334 0.032184113 0.51949406 0.78412133 0.032203402 0.5195233
        0.7850301 0.032222085 0.5195584 0.78612643 0.032238245 0.5196009
        0.78746027 0.032249957 0.5196528 0.78910094 0.032256454 0.51971644
        0.7911314 0.032259956 0.5197947 0.79361707 0.032263726 0.51988935
        0.7965856 0.032269016 0.5200005 0.8000453 0.032275658 0.5201278
        0.80401033 0.032283325 0.5202706 0.80850786 0.03229187 0.52042896
        0.8135722 0.032301255 0.52060264 0.81923753 0.03231145 0.52079153
        0.82553184 0.032322425 0.52099484 0.83247286 0.03233411 0.5212113
        0.8400642 0.032346405 0.5214392 0.8482926 0.03235917 0.521676
        0.8571249 0.03237225 0.5219188 0.86650676 0.032385446 0.5221641
        0.8763622 0.032398555 0.5224082 0.8865951 0.03241138 0.5226473
        0.89709175 0.032423742 0.52287793 0.90772605 0.03243548 0.5230969
        0.7805019 0.032506995 0.5193576 0.7807539 0.03245158 0.5193714
        0.7810318 0.03241974 0.5193848 0.78135324 0.032401204 0.51939905
        0.78173316 0.03239174 0.51941514 0.78218395 0.032389473 0.5194336
        0.7827192 0.032393515 0.5194551 0.7833558 0.03240307 0.51948017
        0.7841155 0.032416716 0.5195098 0.7850263 0.032432243 0.51954526
        0.78612506 0.032447033 0.5195879 0.78746194 0.03245841 0.5196399
        0.78910613 0.03246491 0.5197037 0.79113984 0.03246833 0.51978207
        0.7936278 0.032471877 0.5198768 0.79659754 0.032476883 0.51998806
        0.8000574 0.032483224 0.5201153 0.80402225 0.03249059 0.5202581
        0.8085193 0.032498825 0.52041644 0.8135831 0.0325079 0.5205902
        0.8192478 0.03251778 0.520779 0.8255413 0.032528434 0.5209823
        0.8324815 0.03253979 0.52119875 0.84007204 0.03255174 0.5214266
        0.84829944 0.03256415 0.5216634 0.85713077 0.03257684 0.5219062
        0.8665115 0.032589618 0.52215147 0.87636584 0.032602273 0.52239555
        0.8865975 0.032614592 0.5226347 0.897093 0.032626383 0.52286536
        0.90772605 0.03263748 0.52308434 0.78041863 0.032933336 0.51932734
        0.7806961 0.0328149 0.51934624 0.78098917 0.03273869 0.51936305
        0.7813196 0.032687873 0.51937973 0.7817052 0.032654367 0.51939756
        0.78216004 0.03263427 0.51941735 0.7826984 0.03262534 0.5194397
        0.78333783 0.032625847 0.51946545 0.7841004 0.032633614 0.5194956
        0.78501445 0.032645773 0.51953137 0.78611714 0.032658983 0.5195743
        0.78745866 0.03266984 0.5196265 0.789108 0.032676157 0.5196905
        0.7911464 0.032679334 0.51976913 0.79363775 0.032682505 0.51986396
        0.79660916 0.032687068 0.5199753 0.8000696 0.032692946 0.5201026
        0.8040342 0.032699842 0.52024543 0.8085308 0.032707617 0.52040374
        0.81359404 0.03271622 0.5205775 0.81925803 0.032725636 0.5207663
        0.82555085 0.03273581 0.5209696 0.83249027 0.032746676 0.5211861
        0.84007984 0.03275813 0.5214139 0.84830636 0.032770023 0.52165073
        0.8571366 0.03278218 0.5218935 0.8665163 0.03279439 0.5221388
        0.8763695 0.032806434 0.5223829 0.88659996 0.0328181 0.52262205
        0.8970942 0.032829173 0.52285266 0.90772605 0.032839477 0.5230717
        0.78028935 0.0333451 0.51929575 0.78060246 0.033175766 0.5193194
        0.78091896 0.033059582 0.51933986 0.7812643 0.032978274 0.5193591
        0.7816595 0.03292147 0.51937884 0.7821208 0.03288375 0.5194
        0.7826643 0.032861803 0.5194234 0.7833081 0.032853086 0.51944995
        0.78407496 0.032854773 0.51948065 0.78499377 0.03286333 0.5195168
        0.786102 0.032874744 0.5195601 0.78744996 0.032884844 0.5196126
        0.78910613 0.032890785 0.5196769 0.7911509 0.032893524 0.5197558
        0.7936468 0.032896116 0.51985085 0.79662055 0.032900043 0.5199623
        0.8000817 0.032905266 0.5200896 0.8040462 0.032911506 0.5202325
        0.80854243 0.03291862 0.52039087 0.81360507 0.032926567 0.52056456
        0.8192684 0.03293532 0.52075344 0.8255605 0.032944832 0.52095675
        0.832499 0.032955028 0.52117324 0.8400878 0.032965798 0.52140105
        0.8483133 0.03297699 0.52163786 0.85714245 0.03298842 0.5218807
        0.86652106 0.03299988 0.52212596 0.87637305 0.03301114 0.5223701
        0.88660234 0.033021964 0.52260923 0.8970954 0.033032134 0.5228399
        0.90772605 0.03304147 0.523059 0.7801172 0.03373672 0.5192633
        0.780473 0.033528797 0.51929146 0.78081965 0.03337873 0.51931536
        0.7811853 0.03326987 0.5193373 0.78159404 0.033191238 0.519359
        0.7820649 0.03313657 0.5193817 0.7826156 0.03310187 0.5194062
        0.7832656 0.033083975 0.5194336 0.78403836 0.033079483 0.5194649
        0.7849636 0.033084296 0.5195016 0.7860791 0.033093728 0.5195453
        0.7874354 0.033102904 0.5195982 0.7891005 0.03310828 0.51966286
        0.7911534 0.033110395 0.5197421 0.7936549 0.033112254 0.51983744
        0.7966316 0.03311538 0.519949 0.8000937 0.033119787 0.52007645
        0.8040583 0.033125207 0.5202194 0.8085541 0.033131503 0.52037776
        0.81361616 0.033138625 0.5205515 0.81927884 0.03314656 0.5207404
        0.8255701 0.03315525 0.5209437 0.83250785 0.033164617 0.5211602
        0.84009564 0.03317454 0.52138805 0.8483202 0.03318488 0.5216249
        0.85714835 0.03319543 0.5218677 0.8665258 0.03320598 0.522113
        0.8763767 0.03321629 0.52235717 0.8866048 0.033226125 0.52259636
        0.89709663 0.033235244 0.5228271 0.90772605 0.033243455 0.5230462
        0.7799059 0.03410344 0.51923066 0.7803092 0.03386892 0.5192627
        0.78069097 0.033692233 0.5192898 0.7810816 0.03355985 0.5193144
        0.7815078 0.033461608 0.51933813 0.78199106 0.03339119 0.51936233
        0.7825513 0.033344332 0.5193881 0.7832093 0.033317506 0.5194164
        0.7839899 0.033306897 0.51944846 0.7849234 0.03330791 0.5194857
        0.78604823 0.033315253 0.51952994 0.78741497 0.033323348 0.5195833
        0.78909105 0.033328015 0.51964843 0.79115367 0.03332938 0.5197281
        0.793662 0.03333037 0.51982373 0.7966422 0.033332575 0.51993555
        0.80010563 0.033336036 0.5200631 0.80407035 0.033340506 0.52020603
        0.8085658 0.033345856 0.52036446 0.8136273 0.033352032 0.5205383
        0.81928927 0.03335902 0.52072716 0.8255798 0.033366762 0.5209305
        0.8325167 0.033375174 0.521147 0.84010357 0.033384133 0.52137494
        0.8483271 0.033393487 0.52161175 0.85715425 0.033403035 0.5218546
        0.8665306 0.033412557 0.5221 0.8763803 0.0334218 0.5223441
        0.8866072 0.03343052 0.52258337 0.8970978 0.03343847 0.52281415
        0.90772605 0.03344544 0.5230333 0.77965975 0.03444141 0.5191982
        0.780113 0.034191675 0.5192334 0.78053313 0.033996366 0.5192635
        0.7809526 0.03384546 0.51929057 0.78139967 0.03373059 0.5193163
        0.78189826 0.033646155 0.5193421 0.7824704 0.0335881 0.5193691
        0.78313863 0.033552833 0.5193984 0.7839289 0.033536315 0.51943123
        0.78487265 0.033533566 0.51946914 0.78600895 0.033538744 0.51951396
        0.78738844 0.033545665 0.5195679 0.78907764 0.0335495 0.5196337
        0.7911518 0.033549998 0.5197138 0.79366815 0.03355003 0.51980984
        0.7966525 0.033551216 0.5199219 0.8001175 0.033553638 0.5200495
        0.8040824 0.033557057 0.52019256 0.8085775 0.033561364 0.520351
        0.8136384 0.033566497 0.52052486 0.8192997 0.033572443 0.5207138
        0.8255895 0.033579133 0.5209172 0.8325255 0.03358649 0.5211337
        0.8401115 0.03359439 0.52136165 0.8483341 0.033602666 0.5215985
        0.8571601 0.033611115 0.5218414 0.86653537 0.03361951 0.5220868
        0.87638396 0.03362759 0.522331 0.8866097 0.0336351 0.5225703
        0.8970991 0.033641778 0.5228011 0.90772605 0.033647414 0.5230204
        0.7793832 0.034747656 0.5191663 0.77988696 0.034493156 0.51920414
        0.78034717 0.034287527 0.51923674 0.78079796 0.034123927 0.519266
        0.7812689 0.033996213 0.51929367 0.78178555 0.03390008 0.519321
        0.782372 0.033832192 0.5193493 0.7830525 0.033789244 0.5193796
        0.7838546 0.033767186 0.5194133 0.78481084 0.033760794 0.519452
        0.785961 0.033763804 0.5194975 0.78735566 0.033769462 0.5195522
        0.7890603 0.033772368 0.5196186 0.7911478 0.033771925 0.51969934
        0.79367334 0.033770915 0.5197957 0.79666245 0.033771005 0.519908
        0.80012923 0.03377231 0.5200358 0.80409443 0.033774614 0.5201789
        0.8085892 0.033777796 0.5203374 0.81364954 0.033781815 0.5205113
        0.8193102 0.033786636 0.5207003 0.8255992 0.0337922 0.5209037
        0.8325344 0.033798426 0.5211203 0.8401194 0.03380518 0.52134824
        0.848341 0.033812303 0.52158517 0.857166 0.03381957 0.5218281
        0.86654013 0.03382676 0.5220735 0.87638754 0.0338336 0.52231777
        0.88661206 0.03383982 0.52255714 0.89710027 0.033845164 0.52278805
        0.90772605 0.033849385 0.52300733 0.77908075 0.035020165 0.5191355
        0.77963424 0.034770068 0.51917523 0.78013456 0.03456226 0.51920974
        0.78061783 0.034392383 0.5192409 0.78111464 0.034256395 0.5192703
        0.7816518 0.03415158 0.5192991 0.7822548 0.034075715 0.5193286
        0.7829499 0.034026153 0.51936 0.7837662 0.033999104 0.51939464
        0.78473735 0.0339893 0.51943415 0.785904 0.033990175 0.51948047
        0.7873165 0.03399451 0.51953596 0.789039 0.03399641 0.51960313
        0.7911418 0.033994943 0.51968455 0.7936776 0.033992834 0.5197814
        0.7966721 0.033991773 0.519894 0.80014086 0.033991896 0.5200219
        0.8041065 0.03399302 0.52016515 0.8086009 0.033995017 0.5203237
        0.8136607 0.03399785 0.5204976 0.8193206 0.03400148 0.5206867
        0.8256089 0.034005858 0.5208901 0.83254325 0.03401089 0.5211068
        0.8401274 0.034016438 0.52133477 0.84834796 0.03402233 0.5215717
        0.8571719 0.03402836 0.52181464 0.86654496 0.034034275 0.52206016
        0.8763912 0.034039803 0.5223045 0.8866145 0.034044676 0.5225439
        0.8971015 0.03404861 0.5227748 0.90772605 0.03405135 0.5229942
        0.7787573 0.035257213 0.519106 0.7793584 0.03501959 0.51914704
        0.77989745 0.03481715 0.5191829 0.7804129 0.034647677 0.5192155
        0.7809365 0.034508683 0.5192463 0.7814958 0.03439895 0.5192764
        0.7821176 0.034317568 0.5193071 0.78282964 0.03426287 0.51933956
        0.7836626 0.034231633 0.5193752 0.78465146 0.03421877 0.5194157
        0.78583753 0.034217604 0.51946294 0.78727084 0.034220587 0.51951927
        0.78901386 0.034221407 0.5195874 0.7911338 0.03421886 0.51966953
        0.7936811 0.03421561 0.5197669 0.7966814 0.03421334 0.5198798
        0.8001524 0.034212247 0.5200079 0.80411845 0.03421214 0.5201512
        0.80861264 0.0342129 0.5203098 0.8136719 0.034214497 0.5204838
        0.8193311 0.034216892 0.52067286 0.8256186 0.03422002 0.5208764
        0.83255213 0.0342238 0.5210931 0.84013534 0.03422808 0.5213211
        0.84835494 0.034232695 0.52155817 0.8571778 0.034237422 0.5218012
        0.86654973 0.034242008 0.5220467 0.8763948 0.034246173 0.5222911
        0.88661695 0.034249634 0.52253056 0.8971027 0.0342521 0.5227616
        0.90772605 0.03425331 0.52298105 0.7784155 0.035459056 0.5190779
        0.7790627 0.035239976 0.5191198 0.77963847 0.035049368 0.51915663
        0.7801843 0.034886796 0.5191901 0.780734 0.034750625 0.51922184
        0.7813162 0.034640566 0.519253 0.78195846 0.034556888 0.5192848
        0.78268975 0.034499075 0.5193183 0.7835422 0.034464773 0.51935494
        0.78455204 0.034449358 0.5193964 0.78576094 0.034446295 0.51944476
        0.78721845 0.034447897 0.5195022 0.7889848 0.03444755 0.5195713
        0.791124 0.034443855 0.5196543 0.79368377 0.0344394 0.51975226
        0.79669046 0.034435876 0.51986545 0.8001639 0.034433495 0.5199937
        0.8041305 0.034432095 0.52013713 0.8086244 0.034431566 0.5202958
        0.8136831 0.03443186 0.52046984 0.81934166 0.034432948 0.52065897
        0.8256284 0.034434773 0.5208625 0.832561 0.03443723 0.5210793
        0.8401433 0.034440182 0.5213074 0.8483619 0.034443453 0.52154446
        0.8571837 0.034446806 0.5217875 0.8665545 0.03445 0.52203315
        0.87639844 0.034452733 0.5222776 0.8866193 0.03445472 0.52251714
        0.8971039 0.03445565 0.5227482 0.90772605 0.03445527 0.52296776
        0.77806574 0.03562229 0.51905215 0.77875245 0.035429213 0.51909405
        0.77936184 0.035255928 0.5191312 0.77993536 0.03510589 0.5191651
        0.780509 0.034978237 0.51919734 0.78111327 0.03487296 0.5192292
        0.78177667 0.034790963 0.5192618 0.78252923 0.034732733 0.5192962
        0.7834041 0.03469694 0.5193339 0.7844385 0.034679756 0.5193766
        0.7856741 0.034675084 0.5194261 0.7871593 0.034675352 0.51948476
        0.78895205 0.034673832 0.519555 0.79111236 0.03466898 0.5196389
        0.7936858 0.034663334 0.5197375 0.7966993 0.03465857 0.51985097
        0.80017537 0.034654915 0.5199794 0.8041425 0.034652222 0.5201229
        0.8086361 0.034650393 0.5202817 0.8136943 0.034649387 0.5204558
        0.81935215 0.034649167 0.52064496 0.8256381 0.034649674 0.52084863
        0.8325699 0.034650806 0.5210654 0.84015125 0.03465242 0.5212936
        0.8483688 0.03465432 0.5215307 0.8571896 0.03465629 0.5217738
        0.86655927 0.034658067 0.5220195 0.876402 0.034659352 0.522264
        0.8866218 0.034659836 0.5225036 0.8971051 0.034659225 0.52273476
        0.90772605 0.034657218 0.5229544 0.77768886 0.03575565 0.5190271
        0.77842605 0.035588376 0.51906955 0.7790689 0.035436153 0.51910675
        0.7796667 0.035303652 0.51914054 0.7802602 0.035190515 0.5191727
        0.7808833 0.03509624 0.5192047 0.78156686 0.03502137 0.5192377
        0.7823421 0.03496667 0.5192729 0.783243 0.034931708 0.51931167
        0.78430665 0.034913797 0.5193556 0.78557414 0.03490779 0.51940656
        0.78709203 0.034906626 0.51946664 0.7889148 0.03490371 0.51953816
        0.7910988 0.034897484 0.51962304 0.79368705 0.034890424 0.5197223
        0.7967079 0.034884203 0.5198362 0.80018675 0.03487905 0.5199649
        0.8041545 0.034874853 0.52010846 0.808648 0.034871515 0.5202673
        0.81370556 0.034869 0.52044153 0.81936276 0.034867268 0.5206308
        0.82564795 0.03486625 0.52083445 0.83257884 0.034865852 0.52105135
        0.8401593 0.034865923 0.5212796 0.84837586 0.03486627 0.5215168
        0.85719556 0.03486666 0.52176 0.8665641 0.034866832 0.52200574
        0.87640566 0.034866482 0.5222503 0.88662416 0.034865294 0.52249
        0.89710635 0.034862954 0.5227213 0.90772605 0.034859166 0.522941
        0.777372 0.035836846 0.51900816 0.7781028 0.035713755 0.5190474
        0.7787701 0.035586424 0.519084 0.7793902 0.035473328 0.51911753
        0.7800014 0.035377007 0.5191494 0.78064096 0.035296865 0.51918113
        0.78134304 0.035232607 0.5192143 0.78214127 0.035184547 0.51925004
        0.78307015 0.035152685 0.5192898 0.78416616 0.035135496 0.51933503
        0.78546864 0.035129033 0.5193874 0.78702176 0.035127047 0.519449
        0.7888764 0.03512332 0.51952183 0.79108477 0.03511636 0.5196078
        0.7936881 0.035108585 0.5197077 0.7967164 0.03510159 0.5198219
        0.800198 0.03509563 0.5199507 0.8041664 0.035090577 0.5200944
        0.8086597 0.03508637 0.5202533 0.8137167 0.035082966 0.5204275
        0.8193732 0.035080317 0.5206168 0.8256576 0.03507836 0.52082056
        0.8325877 0.035077 0.52103746 0.8401672 0.03507607 0.5212657
        0.8483828 0.03507539 0.521503 0.8572014 0.035074722 0.52174616
        0.86656886 0.035073783 0.52199197 0.87640923 0.035072275 0.5222366
        0.8866266 0.03506987 0.5224764 0.89710754 0.035066254 0.5227077
        0.90772605 0.035061106 0.5229275 0.7772251 0.03586701 0.51899993
        0.7778294 0.035801906 0.51902986 0.7784922 0.03570235 0.5190645
        0.7791353 0.03560491 0.5190979 0.7797724 0.035518758 0.51913023
        0.78043604 0.035445582 0.5191626 0.7811612 0.03538595 0.51919645
        0.7819827 0.035340752 0.519233 0.7829362 0.03531062 0.5192737
        0.7840584 0.035294626 0.51931995 0.78538835 0.03528924 0.51937336
        0.7869688 0.03528846 0.51943594 0.7888481 0.035286214 0.51950973
        0.7910752 0.035281073 0.5195962 0.79369015 0.03527529 0.5196965
        0.7967241 0.03527035 0.51981074 0.80020785 0.035266448 0.5199395
        0.80417675 0.035263486 0.52008307 0.80866987 0.03526139 0.5202418
        0.81372654 0.03526012 0.5204159 0.8193825 0.03525963 0.52060497
        0.8256663 0.035259865 0.5208086 0.83259577 0.03526072 0.5210253
        0.8401745 0.035262033 0.52125335 0.84838927 0.03526362 0.5214904
        0.85720694 0.035265233 0.52173346 0.8665734 0.03526659 0.5219791
        0.8764128 0.035267383 0.52222353 0.886629 0.03526728 0.52246314
        0.89710873 0.03526594 0.5226943 0.90772605 0.035263043 0.52291393
        0.77712905 0.03588648 0.5189945 0.7776145 0.03586176 0.5190167
        0.77824414 0.035790425 0.51904804 0.7789033 0.03570712 0.5190813
        0.779571 0.035627037 0.5191145 0.7802647 0.035556134 0.519148
        0.78101575 0.03549728 0.51918286 0.78185993 0.035452507 0.5192204
        0.78283453 0.035422966 0.51926196 0.78397757 0.035407946 0.519309
        0.78532857 0.035403922 0.5193632 0.7869297 0.03540485 0.5194265
        0.7888276 0.035404667 0.51950085 0.79106873 0.035401933 0.51958776
        0.7936923 0.035398815 0.5196881 0.7967305 0.0353967 0.5198024
        0.8002159 0.03539576 0.519931 0.8041852 0.03539593 0.52007437
        0.8086782 0.03539715 0.5202329 0.8137346 0.035399392 0.5204067
        0.81939024 0.03540266 0.52059555 0.82567364 0.035406906 0.5207988
        0.83260256 0.035412043 0.5210152 0.8401808 0.03541797 0.521243
        0.84839493 0.035424527 0.52147967 0.85721195 0.035431515 0.5217224
        0.86657757 0.035438724 0.52196753 0.8764161 0.0354459 0.52221155
        0.8866313 0.03545281 0.5224506 0.8971099 0.035459228 0.52268124
        0.90772605 0.035464972 0.5229003 0.77700424 0.03591163 0.5189875
        0.77742565 0.035907462 0.5190056 0.77799845 0.035865385 0.51903254
        0.7786432 0.035805196 0.51906365 0.7793244 0.03574099 0.51909643
        0.78004366 0.035680372 0.51913035 0.78082305 0.035628058 0.519166
        0.7816955 0.035587467 0.51920444 0.78269833 0.035560705 0.519247
        0.7838701 0.035547648 0.5192951 0.78525007 0.035545155 0.5193504
        0.7868791 0.035547562 0.5194148 0.7888013 0.035549242 0.51948994
        0.79106045 0.03554887 0.51957744 0.79369473 0.03554835 0.519678
        0.79673815 0.035548903 0.51979226 0.8002255 0.035550684 0.51992077
        0.80419517 0.03555362 0.520064 0.80868804 0.035557676 0.52022225
        0.813744 0.03556285 0.5203959 0.8193992 0.035569124 0.5205845
        0.82568204 0.035576466 0.52078754 0.83261037 0.0355848 0.5210037
        0.8401879 0.035594016 0.52123123 0.84840125 0.03560396 0.5214676
        0.8572174 0.03561444 0.52171004 0.8665821 0.035625238 0.52195495
        0.87641954 0.03563611 0.5221987 0.8866337 0.035646822 0.5224375
        0.8971112 0.03565715 0.52266777 0.90772605 0.035666898 0.5228865
        0.7768685 0.035938848 0.51897985 0.7772544 0.035943657 0.5189958
        0.777772 0.035924133 0.519019 0.77838284 0.035888217 0.5190471
        0.77905864 0.035844933 0.51907825 0.77979356 0.035800483 0.51911175
        0.7806 0.03575974 0.5191478 0.78150433 0.035726942 0.5191871
        0.7825409 0.03570514 0.5192307 0.7837473 0.035695024 0.5192801
        0.7851617 0.035694167 0.5193367 0.78682315 0.03569777 0.51940227
        0.78877276 0.0357011 0.51947844 0.79105157 0.03570305 0.51956654
        0.7936974 0.035705153 0.5196674 0.7967463 0.035708338 0.51978165
        0.8002357 0.035712738 0.51991004 0.80420583 0.035718307 0.5200531
        0.8086984 0.035725035 0.52021116 0.81375396 0.03573291 0.52038455
        0.8194086 0.03574193 0.52057296 0.82569087 0.035752058 0.52077574
        0.8326185 0.035763215 0.5209917 0.8401953 0.03577529 0.521219
        0.8484078 0.035788126 0.5214552 0.85722303 0.035801522 0.5216974
        0.86658674 0.035815265 0.5219421 0.8764232 0.035829104 0.52218556
        0.88663614 0.035842787 0.5224241 0.8971124 0.035856094 0.5226542
        0.90772605 0.035868816 0.52287275 0.77671546 0.03596935 0.51897126
        0.777091 0.035974804 0.51898676 0.7775647 0.035969708 0.51900715
        0.7781312 0.03595531 0.5190319 0.7787813 0.03593532 0.51906043
        0.7795145 0.035912722 0.51909244 0.7803398 0.03589039 0.5191281
        0.7812766 0.03587149 0.51916784 0.78235304 0.03585889 0.5192125
        0.7836023 0.035853777 0.5192633 0.7850592 0.035854924 0.51932156
        0.7867596 0.035859294 0.5193886 0.788741 0.035863902 0.519466
        0.79104185 0.035868067 0.51955473 0.7937004 0.03587271 0.51965594
        0.79675525 0.03587838 0.51977026 0.8002467 0.035885178 0.5198986
        0.8042172 0.03589309 0.5200414 0.80870956 0.035902135 0.52019936
        0.8137646 0.03591231 0.52037257 0.8194186 0.035923608 0.5205608
        0.82570016 0.035935983 0.5207634 0.83262706 0.035949353 0.52097917
        0.840203 0.03596361 0.52120626 0.8484146 0.035978578 0.5214423
        0.8572289 0.035994057 0.5216843 0.8665915 0.036009822 0.5219288
        0.8764268 0.036025625 0.52217215 0.88663864 0.036041193 0.5224105
        0.8971137 0.0360563 0.52264047 0.90772605 0.03607073 0.5228588
        0.7765443 0.03600324 0.5189616 0.77692676 0.03600436 0.51897776
        0.7773737 0.036005665 0.51899654 0.7778956 0.03600718 0.5190184
        0.7785049 0.03600894 0.5190438 0.77921546 0.036010984 0.51907325
        0.78004354 0.03601335 0.51910734 0.7810076 0.036016084 0.5191468
        0.78212863 0.036019243 0.5191923 0.7834306 0.036022875 0.5192447
        0.7849402 0.03602705 0.5193049 0.7866875 0.03603184 0.51937383
        0.7887057 0.0360373 0.51945263 0.7910313 0.036043517 0.5195422
        0.7937037 0.03605056 0.5196437 0.7967648 0.0360585 0.51975816
        0.80025846 0.036067393 0.5198864 0.8042293 0.036077294 0.5200291
        0.8087213 0.036088243 0.5201869 0.8137758 0.036100246 0.52035993
        0.8194291 0.036113296 0.520548 0.8257099 0.03612734 0.52075046
        0.83263594 0.0361423 0.5209661 0.840211 0.036158048 0.5211931
        0.84842163 0.036174413 0.52142894 0.85723484 0.03619119 0.5216708
        0.8665964 0.036208145 0.5219152 0.8764305 0.036225017 0.52215844
        0.88664114 0.03624155 0.52239674 0.89711493 0.036257494 0.5226266
        0.90772605 0.03627264 0.52284485
        <InformationKey name="L2_NORM_RANGE" location="vtkDataArray" length="2">
          <Value index="0">
            0.93417367554
          </Value>
          <Value index="1">
            1.0481646214
          </Value>
        </InformationKey>
      </DataArray>
    </Points>
  </Piece>
  </StructuredGrid>
</VTKFile>
