<?xml version="1.0"?>
<VTKFile type="StructuredGrid" version="0.1" byte_order="LittleEndian" header_type="UInt32" compressor="vtkZLibDataCompressor">
  <StructuredGrid WholeExtent="0 30 0 40 0 0">
  <Piece Extent="0 30 0 40 0 0">
    <PointData>
      <DataArray type="Float32" Name="orthogonality" format="ascii" RangeMin="0" RangeMax="0.9991517066955566">
        0 0.001649549 0.0032600623 0.004804663 0.006258659 0.007597901
        0.008798434 0.009836298 0.010687269 0.01132649 0.011727893 0.011863195
        0.011699787 0.011195826 0.010288399 0.008866049 0.0067092786 0.0033725086
        0.0020285319 0.01116364 0.02700158 0.05450159 0.10142214 0.17878084
        0.2986753 0.4634722 0.64824593 0.8090721 0.9189754 0.97843355
        0.9991517 5.6240322e-05 0.0017058669 0.0033173498 0.004864129 0.0063217855
        0.0076661143 0.008873065 0.009918571 0.010778293 0.011427252 0.011839249
        0.011985856 0.011834277 0.011342363 0.010446604 0.009034263 0.006883188
        0.0035429073 0.0018779901 0.011053258 0.02692676 0.054317396 0.1004931
        0.17516641 0.28809685 0.44078568 0.6149504 0.77681124 0.89771646
        0.9682119 0.9975815 0.00019359848 0.0018485731 0.0034665058 0.005021361
        0.0064890767 0.007845481 0.00906653 0.010128158 0.011006032 0.011675185
        0.012109439 0.012280391 0.012155254 0.01169181 0.010826228 0.0094448645
        0.0073234653 0.00400754 0.0013999706 0.010574327 0.026431143 0.05364788
        0.09902031 0.17105213 0.27738947 0.41850346 0.5810979 0.7412793
        0.87287235 0.9567512 0.99600995 0.0004019941 0.0020732142 0.0037089041
        0.005283869 0.00677458 0.008157105 0.0094076255 0.010502321 0.011417129
        0.012127393 0.012607291 0.012828823 0.012759652 0.012358012 0.011560437
        0.010253346 0.008211949 0.0049805087 0.00033860208 0.0094129 0.025113804
        0.051953934 0.096241504 0.165343 0.26511312 0.39533028 0.54669464
        0.70351315 0.8440938 0.942423 0.993621 0.0006695078 0.002370125
        0.0040372424 0.0056468607 0.0071762023 0.008601824 0.009900412 0.011048694
        0.012023224 0.012800032 0.013354085 0.013658277 0.013681289 0.013382492
        0.012699647 0.0115204565 0.009621503 0.0065490766 0.0014108277 0.0074427756
        0.022822354 0.04905415 0.09195208 0.15782934 0.2510434 0.37094113
        0.51141906 0.6634273 0.8109262 0.9244019 0.98977745 0.0009827642
        0.002727495 0.004441356 0.006101914 0.0076873903 0.009175121 0.010542615
        0.011767511 0.01282737 0.013699369 0.014359766 0.014782936 0.014939258
        0.014790052 0.014275341 0.013285542 0.011600833 0.008773289 0.003922397
        0.004572245 0.019443436 0.044811822 0.08599891 0.1483575 0.23501009
        0.34505835 0.4749279 0.6208269 0.77285117 0.901613 0.9835028
        0.0013265075 0.0031299756 0.0049058 0.006633466 0.008292433 0.009861111
        0.011318161 0.012642492 0.013813089 0.014808731 0.015607501 0.016185861
        0.01651659 0.016563812 0.016270904 0.0155325215 0.014134835 0.01163977
        0.007185735 0.00080673496 0.014975447 0.039218616 0.078374386 0.13693143
        0.2170018 0.3175554 0.43696773 0.57548594 0.72929233 0.87271124
        0.97336507 0.001685926 0.003561524 0.0054132217 0.007222719 0.008970925
        0.0106375925 0.012202835 0.013647162 0.01495136 0.016096234 0.017062172
        0.017828282 0.018370394 0.01865623 0.018633544 0.018202715 0.017158274
        0.015076101 0.011120728 0.0037654745 0.009516043 0.032386 0.069215015
        0.12372416 0.19720203 0.28853735 0.3975343 0.52737945 0.67982864
        0.83613145 0.95745164 0.0020438083 0.004000395 0.005937128 0.00783809
        0.009685763 0.01146142 0.013146817 0.014724288 0.01617666 0.01748704
        0.018638443 0.01961298 0.020389972 0.020941282 0.021219788 0.021132769
        0.020485157 0.018870575 0.015486544 0.008870564 0.003376962 0.024671212
        0.05893457 0.109210715 0.17611292 0.25844866 0.3569771 0.47680953
        0.624277 0.79034585 0.933297 0.002390247 0.0044310074 0.0064560035
        0.00845174 0.010402288 0.012290492 0.014099816 0.015814489 0.01741945
        0.018900206 0.020242488 0.021431532 0.022450306 0.023275023 0.023864066
        0.024132317 0.023896618 0.02277138 0.019992936 0.014172657 0.0030500789
        0.016537001 0.048087273 0.09405262 0.15448971 0.22809525 0.31616253
        0.42480323 0.5633855 0.73394156 0.8974985 0.0027156833 0.0048409477
        0.00695441 0.009044957 0.011098196 0.013098535 0.015031135 0.016882101
        0.018638475 0.020288127 0.021819483 0.023220878 0.0244789 0.025574133
        0.026470587 0.027091173 0.027265722 0.0266319 0.024469689 0.019472297
        0.009527773 0.008271608 0.03702917 0.07868561 0.13283928 0.19804056
        0.27577302 0.37238407 0.498519 0.6659061 0.84553534 0.0030042802
        0.0052100914 0.0074077314 0.009588312 0.011738846 0.013845207 0.015894145
        0.017873516 0.01977232 0.021580629 0.023289382 0.0248898 0.026371863
        0.027720302 0.028904596 0.02985576 0.030417249 0.030251794 0.028686866
        0.024503835 0.015746031 0.00024158387 0.02619681 0.06362364 0.111746386
        0.168942 0.23662335 0.3207868 0.4317346 0.5874116 0.77393895
        0.003243694 0.0055211796 0.007793594 0.01005401 0.012290627 0.014490591
        0.01664203 0.018734312 0.020758122 0.022705436 0.024569346 0.026343571
        0.028021045 0.029590175 0.031025458 0.032265708 0.033168115 0.033421464
        0.032403145 0.028986637 0.02137358 0.007155153 0.016073635 0.049450632
        0.09190228 0.1416203 0.19976808 0.2715908 0.36580363 0.5019627
        0.68201506 0.0034220838 0.005759636 0.008094606 0.010421702 0.012730051
        0.015007836 0.017244298 0.019430034 0.021557085 0.023618959 0.025610497
        0.02752744 0.02936515 0.031115146 0.03275637 0.034234945 0.0354216
        0.036031615 0.035493694 0.032775518 0.026237283 0.013706915 0.0069209747
        0.036483325 0.07367913 0.11652297 0.16583143 0.22588599 0.30308053
        0.41442814 0.57335603 0.003530072 0.0059154965 0.008300229 0.01068027
        0.013045421 0.015384658 0.01768808 0.019947216 0.022155147 0.02430655
        0.026397604 0.028425619 0.030387875 0.03227844 0.03408013 0.03574584
        0.03715953 0.038063027 0.03793697 0.035843883 0.03030065 0.019360647
        0.001185953 0.024818365 0.057188574 0.09378632 0.13504836 0.18423213
        0.2451473 0.3295664 0.45552233 0.0035599417 0.0059825387 0.008405812
        0.010826734 0.013235552 0.015621837 0.017976318 0.020291213 0.022560373
        0.024779338 0.026945284 0.029056707 0.031112382 0.03310846 0.035031132
        0.03683964 0.03843082 0.039572977 0.0397988 0.038265396 0.033643294
        0.024199678 0.008334764 0.014355745 0.04230346 0.07325166 0.10726817
        0.14662921 0.19263944 0.2507934 0.3376703 0.0035056653 0.0059574107
        0.008410767 0.010863385 0.013305792 0.015727991 0.01812118 0.020478081
        0.022793109 0.025062438 0.02728399 0.02945716 0.031581894 0.033656083
        0.035668936 0.037585683 0.039315775 0.040653817 0.041184396 0.040158372
        0.036396347 0.028368197 0.014686629 0.0049055177 0.028785987 0.054619078
        0.08214008 0.11274375 0.1455072 0.17986517 0.22756921 0.0033625276
        0.0058384384 0.008316527 0.010794858 0.013264113 0.01571463 0.01813796
        0.020527208 0.02287721 0.025184628 0.027447943 0.029667258 0.031843472
        0.033975974 0.03605674 0.03805674 0.03989782 0.04140068 0.042201422
        0.041643493 0.038693763 0.0320147 0.020409709 0.0037327136 0.01638378
        0.037565596 0.059264414 0.0821172 0.10333847 0.11722297 0.12993485
        0.0031259253 0.005623875 0.008124231 0.010625202 0.0131175555 0.0155919045
        0.018040089 0.020455524 0.022833385 0.025170712 0.02746645 0.029721275
        0.031936895 0.03411404 0.036247276 0.038313147 0.040245697 0.041891463
        0.04293756 0.042818565 0.040643867 0.035259534 0.025641507 0.011725404
        0.004883271 0.021811813 0.038282473 0.054303 0.06560939 0.06254517
        0.046502918 0.0027924108 0.0053127203 0.007835312 0.01035824 0.012872338
        0.015368476 0.017838752 0.020276858 0.02267826 0.02504033 0.027362406
        0.029645653 0.031892505 0.034104913 0.036279928 0.03839951 0.040409707
        0.042182557 0.04345541 0.043752257 0.042321052 0.03818322 0.030472044
        0.019180896 0.0058567594 0.007167114 0.018938238 0.028957646 0.031846102
        0.015181492 0.023049371 0.0023521676 0.0048976806 0.0074449326 0.009991457
        0.012528178 0.015046241 0.01753802 0.019997481 0.022420375 0.024804387
        0.027149212 0.029456474 0.031729266 0.033970714 0.036180243 0.038345125
        0.040423226 0.042311706 0.04379733 0.044491738 0.04377779 0.040845305
        0.03497272 0.026192104 0.01596461 0.0065463823 0.0009913683 0.0057578683
        0.0015874668 0.025641335 0.080053404 0.0018082034 0.0043828553 0.006958213
        0.009530846 0.012091839 0.014632657 0.017145984 0.01962608 0.022068987
        0.0244727 0.026837254 0.029164694 0.031458735 0.033723596 0.03596099
        0.038163338 0.0403 0.042292595 0.043975957 0.04504668 0.04501773
        0.04323948 0.039124068 0.03272651 0.025400134 0.019291516 0.015540897
        0.015332741 0.025343584 0.060515687 0.12623803 0.001115116 0.003729147
        0.0063420148 0.008948564 0.011540248 0.014109025 0.01664802 0.019151898
        0.021617083 0.024041941 0.026426896 0.028774453 0.031088958 0.033375725
        0.035638735 0.037875466 0.040066615 0.042157855 0.044031214 0.04546657
        0.04610404 0.0454499 0.043043036 0.03895012 0.03439556 0.031377975
        0.031047378 0.034784425 0.04954044 0.09033634 0.16322005 0.00033173183
        0.0029965986 0.0056577567 0.0083078155 0.010938857 0.013543531 0.016115585
        0.018650243 0.02114445 0.023597071 0.02600904 0.028383436 0.030725347
        0.0330413 0.035337657 0.037617102 0.03987181 0.042071693 0.04414624
        0.04595892 0.047277447 0.047764376 0.047084454 0.045310266 0.04352
        0.043530814 0.04645788 0.05381753 0.0726815 0.11760781 0.19421777
        0.00036519006 0.00234699 0.0050534355 0.007745119 0.0104146525 0.0130552985
        0.015661376 0.018228637 0.020754546 0.023238484 0.02568193 0.02808858
        0.030464346 0.032817055 0.03515561 0.03748811 0.03981862 0.042142037
        0.04443666 0.046651985 0.048687197 0.05036629 0.051484045 0.052116662
        0.053181455 0.05629011 0.06250549 0.073463485 0.09625076 0.14461297
        0.22269839 0.0009204393 0.0018286471 0.0045707906 0.0072960295 0.009997321
        0.012668373 0.015303939 0.0179002 0.020455051 0.02296832 0.025441986
        0.027880339 0.030290097 0.032680422 0.03506282 0.03745105 0.039861552
        0.042315338 0.044841744 0.047480453 0.05026894 0.05320178 0.0562117
        0.05937708 0.06343605 0.0697669 0.079364516 0.09397131 0.12057994
        0.17187685 0.2503467 0.0013685429 0.0014102241 0.0041814037 0.0069344887
        0.009662685 0.012360055 0.015021709 0.017644193 0.020225782 0.02276672
        0.025269452 0.027738849 0.030182434 0.032610737 0.035037965 0.037483774
        0.03997759 0.042567845 0.04533766 0.04842207 0.052005563 0.05626558
        0.06128467 0.06714419 0.07438158 0.084103055 0.09720221 0.11549239
        0.14575134 0.19934341 0.27713072 0.0017090846 0.0010941116 0.003889502
        0.006666346 0.009418054 0.012138987 0.014824574 0.017471693 0.020078974
        0.02264706 0.02517886 0.027679821 0.0301583 0.032626223 0.03510062
        0.037607286 0.0401892 0.04292347 0.045949616 0.04950309 0.05392429
        0.059586745 0.0667369 0.07546267 0.08607972 0.09937978 0.116113946
        0.1381182 0.17182599 0.22709046 0.3031594 0.0019524313 0.0008713887
        0.0036875126 0.006485181 0.009257991 0.0120005775 0.014708661 0.017379435
        0.020011874 0.022607014 0.025168227 0.02770155 0.030216185 0.032725513
        0.035249475 0.037820257 0.04049495 0.0433806 0.046675812 0.050721776
        0.056024503 0.063168935 0.07258319 0.08436901 0.09859859 0.11569828
        0.13622041 0.16195725 0.19886558 0.2551514 0.32857662 0.002106275
        0.00073568715 0.00357032 0.006387007 0.009179534 0.011942796 0.014672799
        0.017367044 0.020024855 0.02264766 0.025239306 0.027806433 0.030359115
        0.032912236 0.035488747 0.038127452 0.040900093 0.043944858 0.04752205
        0.05208399 0.0583126 0.06702147 0.0788423 0.09390284 0.11201041
        0.13316593 0.15764965 0.18712558 0.22694412 0.28360716 0.35358277
        0.0021789786 0.0006795899 0.0035314055 0.0063661197 0.009177722 0.011961364
        0.014713332 0.017431444 0.02011537 0.02276695 0.02539051 0.027993314
        0.030586336 0.033186 0.035818364 0.03852906 0.04140496 0.044616517
        0.04848824 0.053588945 0.060787283 0.07114494 0.0855241 0.10409707
        0.12638593 0.15189472 0.1805367 0.21374339 0.25613952 0.3125483
        0.37840787 0.0021785635 0.0006957691 0.0035641014 0.0064164605 0.009247059
        0.012051306 0.014825775 0.017568603 0.020279823 0.022961685 0.025619023
        0.028259736 0.030895725 0.033544995 0.036236793 0.03902374 0.042008262
        0.045394074 0.049572177 0.05523308 0.06344339 0.075534545 0.09263192
        0.114979245 0.14179529 0.17200229 0.2050253 0.24193834 0.28654012
        0.34208745 0.40330556 0.0021127707 0.0007769193 0.0036615136 0.0065315133
        0.009381377 0.012206775 0.015004575 0.01777324 0.020513175 0.023227062
        0.025920248 0.028601289 0.031283036 0.033985104 0.03673999 0.039607443
        0.042705767 0.046272732 0.05076783 0.05700813 0.06626957 0.08017725
        0.10015917 0.12656789 0.15830511 0.19361024 0.23126683 0.27184466
        0.31824347 0.37234902 0.42852935 0.0019889025 0.0009159613 0.0038167653
        0.0067045805 0.009574132 0.012421359 0.015243429 0.01803914 0.020809282
        0.023556978 0.026288103 0.02901189 0.031742148 0.03450014 0.03732164
        0.040273607 0.04349043 0.047244504 0.0520654 0.05890103 0.069247946
        0.08505095 0.10808768 0.13887033 0.17597668 0.21684372 0.25942084
        0.3036039 0.35135576 0.40346026 0.45430806 0.0018137513 0.0011061421
        0.004023124 0.006928928 0.009818568 0.012688254 0.01553546 0.01835933
        0.02116104 0.023944173 0.026715143 0.029483866 0.03226513 0.03508185
        0.03797308 0.04101302 0.044352207 0.048297945 0.053450897 0.06089338
        0.07235332 0.090123095 0.11638552 0.1518798 0.1948637 0.24183093
        0.28965545 0.3373644 0.38598704 0.43553442 0.48081338 0.001593556
        0.0013411077 0.0042741005 0.007197909 0.010107852 0.013000411 0.01587337
        0.018726224 0.021560548 0.024380382 0.027192686 0.030008074 0.03284231
        0.03571994 0.038683306 0.04181378 0.045277942 0.04941794 0.054905906
        0.06296105 0.0755525 0.09534956 0.12500486 0.16557266 0.21501054
        0.26870346 0.32214853 0.37328002 0.42224225 0.468648 0.5081235
        0.0013340006 0.0016149211 0.004563483 0.007505008 0.010435129 0.0133506
        0.016249513 0.01913171 0.021999164 0.024856376 0.027710853 0.030573897
        0.033462238 0.036402043 0.039438862 0.04266109 0.046251096 0.050585378
        0.056407135 0.06507364 0.07880358 0.1006733 0.1338797 0.17990546
        0.23645067 0.2975982 0.3570898 0.41150665 0.46020585 0.50281173
        0.5361848 0.0010402544 0.0019220272 0.0048853047 0.007843812 0.010793499
        0.013731381 0.016655847 0.019567082 0.022467444 0.025361888 0.028258454
        0.031169113 0.034111533 0.037113454 0.040223513 0.043536905 0.04725128
        0.05177658 0.057925742 0.06719369 0.08205498 0.10602304 0.14292361
        0.19481201 0.25920644 0.3286616 0.39468443 0.45219588 0.49991956
        0.5379375 0.56477517 0.000717058 0.0022571592 0.0052337428 0.0082079
        0.011175887 0.014134959 0.017083788 0.020022871 0.02295494 0.025885373
        0.028822714 0.031779565 0.034774486 0.03783669 0.04101774 0.0444193
        0.048253555 0.05296248 0.05942642 0.06927568 0.08524428 0.111311615
        0.152027 0.21020071 0.2832907 0.3620578 0.43515775 0.4954832
        0.5413517 0.5738032 0.5934741 0.00036885843 0.002615189 0.005602952
        0.008590658 0.011574839 0.014552965 0.017523946 0.020488568 0.023449885
        0.026413653 0.029388873 0.032388717 0.03543254 0.038550902 0.04179807
        0.045281682 0.049227513 0.054107595 0.060866274 0.07126484 0.08829699
        0.11643443 0.1610549 0.22595245 0.3087122 0.39798364 0.47876117
        0.54146796 0.58435804 0.6100173 0.6216401 0 0.0029932035
        0.0059914873 0.008992155 0.011992013 0.014988728 0.017981447 0.020971227
        0.023961442 0.026958214 0.029970981 0.033013463 0.036105793 0.039279826
        0.042592436 0.04615707 0.05021268 0.055260643 0.06230807 0.073246084
        0.09133035 0.12154218 0.17014328 0.24200022 0.33477446 0.4345768
        0.52235734 0.5864041 0.625522 0.6439624 0.6471993
      </DataArray>
      <DataArray type="Float32" Name="aspect_ratio" format="ascii" RangeMin="1.2449668645858765" RangeMax="19.631275177001953">
        19.03047 18.928719 18.784307 18.551838 18.235533 17.841105
        17.375544 16.84686 16.263796 15.635521 14.971352 14.280494
        13.571809 12.8536415 12.133697 11.418993 10.715892 10.030212
        9.367379 8.732495 8.1299715 7.56191 7.0235195 6.4928737
        5.916288 5.2189884 4.4044237 3.6435003 3.1461759 3.0288439
        3.327047 19.031725 18.89083 18.707552 18.437094 18.084253
        17.65527 17.157595 16.599619 15.990378 15.339251 14.655672
        13.948878 13.227685 12.5003195 11.7743 11.056383 10.352583
        9.66824 9.008119 8.376403 7.776261 7.208263 6.666294
        6.129632 5.555343 4.8958583 4.172451 3.5200093 3.093229
        2.9838521 3.2725334 19.032988 18.855423 18.635849 18.33001
        17.943245 17.482279 16.954979 16.370085 15.73689 15.064952
        14.363801 13.64269 12.9103775 12.174967 11.443789 10.723348
        10.019317 9.336577 8.679266 8.050696 7.452905 6.8851724
        6.3405275 5.8 5.2303114 4.6044087 3.9535275 3.3831813
        3.0074072 2.9039993 3.1741984 19.034262 18.82527 18.574484
        18.23812 17.821981 17.333214 16.780058 16.171558 15.517251
        14.826858 14.110004 13.375973 12.633487 11.890553 11.154353
        10.431174 9.726396 9.04449 8.38902 7.7625213 7.1660447
        6.597854 6.0506144 5.5075912 4.943995 4.347336 3.752502
        3.2422895 2.9043896 2.806637 3.0295942 19.035559 18.80119
        18.525127 18.163956 17.723856 17.212322 16.637903 16.009903
        15.338059 14.632242 13.902168 13.15715 12.405896 11.656344
        10.915557 10.18965 9.483749 8.801972 8.1473675 7.5217705
        6.925377 6.3556705 5.8053303 5.2601047 4.702444 4.129867
        3.576932 3.1078603 2.7925742 2.6948314 2.8489366 19.036884
        18.78402 18.48947 18.110073 17.652292 17.123884 16.53363
        15.891029 15.205978 14.488466 13.748282 12.994776 12.236647
        11.481793 10.737192 10.008823 9.301612 8.619363 7.9646688
        7.338734 6.741001 6.168355 5.6137533 5.0654855 4.512042
        3.9575984 3.4341474 2.990214 2.6820178 2.5740972 2.6482275
        19.038252 18.774134 18.468266 18.07763 17.608862 17.06989
        16.469643 15.817752 15.124222 14.399121 13.652298 12.893131
        12.130326 11.371757 10.624348 9.893986 9.185432 8.502231
        7.846562 7.219052 6.6184654 6.0412145 5.4807014 4.9277015
        4.375698 3.8331926 3.3285947 2.8970299 2.5822332 2.4516666
        2.4438746 19.039667 18.772026 18.462513 18.068129 17.595581
        17.052858 16.448956 15.79356 15.096729 14.368573 13.618973
        12.857329 12.0923605 11.331937 10.582963 9.851265 9.141486
        8.456947 7.79946 7.169103 6.564007 5.9801774 5.411541
        4.851233 4.296902 3.7598867 3.264825 2.8355062 2.503188
        2.3361266 2.2527893 19.041143 18.776531 18.469881 18.078115
        17.60791 17.06724 16.465084 15.811131 15.115434 14.388113
        13.639061 12.877694 12.112748 11.352108 10.602677 9.870257
        9.159405 8.473253 7.81327 7.1790137 6.5680037 5.975883
        5.397145 4.827169 4.2671647 3.730413 3.2380147 2.8042853
        2.447977 2.234063 2.081287 19.042679 18.785803 18.486696
        18.102125 17.638676 17.104235 16.507725 15.858778 15.167418
        14.443745 13.697649 12.93856 12.175229 11.415568 10.6665
        9.93382 9.222024 8.534081 7.871137 7.2322454 6.6143327
        6.012715 5.4224863 4.841186 4.2731733 3.7331722 3.2391768
        2.797757 2.4157069 2.148754 1.9230691 19.044277 18.801281
        18.515827 18.144432 17.693499 17.170753 16.584984 15.945711
        15.262878 14.546536 13.806552 13.052355 12.292723 11.5356045
        10.787964 10.055618 9.343034 8.653041 7.986481 7.3419075
        6.715644 6.102661 5.4986396 4.9031897 4.323591 3.7758865
        3.2755828 2.8230636 2.414442 2.0910354 1.7924294 19.045938
        18.82364 18.558622 18.207047 17.775034 17.270063 16.7007
        16.076294 15.4066515 14.701736 13.971367 13.224968 12.471345
        11.718499 10.973459 10.242097 9.528878 8.836523 8.165584
        7.514106 6.877778 6.251181 5.6305285 5.01744 4.4220443
        3.8618317 3.3505278 2.8836672 2.448385 2.069706 1.7034796
        19.047655 18.851904 18.613127 18.287046 17.879416 17.397385
        16.849232 16.244074 15.591542 14.901479 14.183637 13.447428
        12.701692 11.954497 11.212962 10.483036 9.769216 9.074138
        8.398077 7.738566 7.0906296 6.448412 5.8086205 5.1748567
        4.5601163 3.9835768 3.457842 2.974726 2.5141902 2.0852728
        1.6566929 19.04942 18.885336 18.67786 18.382202 18.003668
        17.549011 17.02617 16.44398 15.811855 15.139496 14.436579
        13.7125 12.976137 12.235647 11.498256 10.770022 10.0555
        9.357267 8.675338 8.006727 7.3457756 6.6861525 6.025023
        5.3679614 4.7309003 4.134984 3.5922916 3.091851 2.6081517
        2.1364572 1.653654 19.051224 18.922915 18.750763 18.489397
        18.14363 17.719759 17.225344 16.668901 16.059612 15.407015
        14.720704 14.010066 13.284033 12.55086 11.81791 11.091373
        10.375891 9.674005 8.985488 8.30685 7.6317368 6.9533195
        6.2691956 5.586908 4.925395 4.3080225 3.7468429 3.2288625
        2.724607 2.2187333 1.6920906 19.053059 18.963806 18.830137
        18.606062 18.295847 17.90531 17.441593 16.912882 16.328106
        15.696644 15.028009 14.331589 13.616382 12.890768 12.162264
        11.437221 10.72039 10.014308 9.318531 8.629079 7.9389067
        7.240684 6.532417 5.823598 5.1362224 4.496086 3.9156241
        3.3804424 2.8583949 2.3269982 1.7683213 19.054918 19.007263
        18.914467 18.729889 18.457228 18.101795 17.670303 17.170597
        16.611359 16.001806 15.351388 14.669505 13.965241 13.247122
        12.5228405 11.798934 11.080291 10.369466 9.665828 8.964932
        8.2590685 7.540401 6.8073196 6.071232 5.3572025 4.693618
        4.0936246 3.5419362 3.004811 2.4558797 1.8768669 19.056795
        19.052925 19.003004 18.859722 18.626192 18.30721 17.909056
        17.439234 16.906183 16.318975 15.687011 15.01972 14.326298
        13.615432 12.895021 12.171807 11.450844 10.734733 10.022682
        9.309819 8.587791 7.848262 7.089975 6.326195 5.5850425
        4.897619 4.278065 3.7106266 3.1608353 2.6011646 2.0122106
        19.058687 19.100477 19.095095 18.994564 18.801394 18.519867
        18.15583 17.71646 17.209963 16.645287 16.031797 15.378978
        14.696154 13.992202 13.275245 12.552253 11.828467 11.1065645
        10.385625 9.660381 8.921868 8.161257 7.3775973 6.585934
        5.817407 5.105931 4.46689 3.884423 3.324021 2.7590647
        2.1687357 19.060593 19.151152 19.193136 19.137875 18.987268
        18.745071 18.416702 18.00901 17.529995 16.988485 16.39384
        15.75563 15.083331 14.386039 13.67213 12.948836 12.221615
        11.493248 10.762727 10.024421 9.268779 8.486466 7.6767898
        6.856493 6.0597177 5.323336 4.6642528 4.06683 3.4970236
        2.9305065 2.3450556 19.062511 19.203417 19.294102 19.285217
        19.178055 18.975853 18.683617 18.307888 17.856468 17.338102
        16.762161 16.138315 15.476221 14.785212 14.073937 13.349908
        12.618819 11.883583 11.143131 10.391509 9.618605 8.814578
        7.9789248 7.129975 6.304805 5.5433183 4.864169 4.2522316
        3.6743078 3.109198 2.533657 19.064445 19.265703 19.414375
        19.460356 19.404268 19.248795 18.998499 18.659618 18.239773
        17.747652 17.19268 16.58469 15.933581 15.248994 14.539924
        13.814234 13.077929 12.334113 11.58171 10.814466 10.0217085
        9.193035 8.328056 7.4466696 6.589033 5.7984567 5.0958066
        4.4667926 3.8792346 3.315317 2.7512805 19.066393 19.324823
        19.528345 19.626156 19.618263 19.50683 19.29602 18.99179
        18.601599 18.13409 17.598753 17.005573 16.364689 15.68603
        14.978929 14.251582 13.510291 12.758357 11.994707 11.212829
        10.401516 9.549821 8.657377 7.7454596 6.8571024 6.0389485
        5.3142114 4.6696744 4.074395 3.5141459 2.965601 19.068363
        19.327785 19.532358 19.631275 19.624523 19.514244 19.304583
        19.001476 18.612362 18.145872 17.611483 17.019167 16.379053
        15.70107 14.994536 14.26764 13.526661 12.774852 12.011047
        11.228581 10.416021 9.56218 8.666653 7.75118 6.859826
        6.040362 5.316782 4.676704 4.0911436 3.5499742 3.0302432
        19.07036 19.275436 19.42806 19.478106 19.426126 19.274734
        19.02843 18.69339 18.277178 17.788435 17.236553 16.631332
        15.982652 15.300135 14.592764 13.868371 13.132896 12.389306
        11.636248 10.866998 10.0701885 9.234703 8.360023 7.467444
        6.600225 5.8050585 5.1051416 4.4887176 3.9294965 3.4213865
        2.9404001 19.072386 19.218142 19.313913 19.31033 19.20859
        19.011843 18.725004 18.354532 17.908148 17.394531 16.82299
        16.20315 15.544632 14.856736 14.148082 13.42612 12.696431
        11.961683 11.220345 10.465671 9.6864 8.871497 8.02024
        7.15325 6.312685 5.5439277 4.8693466 4.278053 3.7466412
        3.2721179 2.8294067 19.074434 19.168867 19.215122 19.16453
        19.018908 18.781914 18.458878 18.056551 17.58284 17.046492
        16.456783 15.823214 15.155206 14.461799 13.751307 13.030865
        12.305746 11.578372 10.847068 10.105084 9.34125 8.544552
        7.7139606 6.869361 6.0518885 5.305877 4.653214 4.0841765
        3.5781927 3.1343825 2.7268167 19.076502 19.121893 19.12061
        19.024687 18.836552 18.560392 18.201963 17.768332 17.267609
        16.70864 16.100697 15.453181 14.775345 14.07599 13.363154
        12.643678 11.922551 11.201973 10.480154 9.750361 9.00153
        8.22263 7.412226 6.589316 5.7939277 5.069421 4.4374137
        3.8895702 3.408048 2.9931712 2.6179745 19.078587 19.079163
        19.03423 18.896484 18.668947 18.356314 17.964758 17.501669
        16.975374 16.394835 15.769347 15.10825 14.4206505 13.715156
        12.999562 12.280449 11.562566 10.847921 10.134641 9.416038
        8.681149 7.918887 7.127303 6.324368 5.5489783 4.8436956
        4.230168 3.7016613 3.242854 2.8543978 2.5083113 19.08069
        19.040216 18.95513 18.778753 18.514664 18.168047 17.745481
        17.25468 16.704193 16.103111 15.460776 14.786486 14.089239
        13.377475 12.658782 11.939516 11.224214 10.51473 9.809141
        9.100827 8.378938 7.6322865 6.858288 6.0737333 5.3163395
        4.628052 4.030872 3.5198534 3.081929 2.7172804 2.3969111
        19.08281 19.00515 18.883547 18.671904 18.374315 17.996424
        17.5452 17.028662 16.455587 15.835208 15.176919 14.490004
        13.783377 13.06534 12.343308 11.623445 10.9101095 10.205041
        9.506295 8.807353 8.097481 7.365355 6.607627 5.8397326
        5.098145 4.424404 3.8412287 3.3456454 2.9265265 2.5828984
        2.2848608 19.084942 18.973831 18.819267 18.57568 18.247637
        17.841211 17.363735 16.823519 16.229557 15.5912285 14.917994
        14.219137 13.503511 12.779308 12.053796 11.332979 10.621078
        9.919742 9.22705 8.536612 7.8378277 7.119193 6.376466
        5.623519 4.8954873 4.2337236 3.662077 3.1797328 2.7771773
        2.451734 2.172807 19.087091 18.946108 18.762016 18.489729
        18.13424 17.702011 17.200706 16.638916 16.025839 15.370994
        14.683916 13.973902 13.249763 12.5196 11.7905655 11.068534
        10.3576145 9.659411 8.972056 8.289325 7.6007705 6.894678
        6.165773 5.4261174 4.7093606 4.0568886 3.4941442 3.0226896
        2.6343167 2.32426 2.0615342 19.089254 18.921762 18.711405
        18.413517 18.033482 17.578106 17.05536 16.474085 15.843676
        15.173781 14.474018 13.753699 13.021609 12.285783 11.553275
        10.829859 10.119563 9.42398 8.741333 8.065605 7.386531
        6.692164 5.976052 5.2481556 4.5404134 3.8944447 3.3378203
        2.8747513 2.498084 2.2007473 1.951741 19.09143 18.900555
        18.666975 18.346405 17.944569 17.468584 16.926697 16.32797
        15.681983 14.9985075 14.287234 13.557506 12.818086 12.076958
        11.341103 10.616215 9.906274 9.21289 8.534423 7.8651023
        7.1948857 6.5115914 5.8074465 5.0899625 4.3890333 3.7466726
        3.1931942 2.7358367 2.368341 2.0812767 1.8440139 19.09362
        18.882225 18.628237 18.287693 17.866621 17.372416 16.813562
        16.199331 15.539459 14.843836 14.122222 13.383988 12.637891
        11.891874 11.152861 10.426489 9.716715 9.0252 8.350479
        7.687083 7.025243 6.3525567 5.6597977 4.9516187 4.2553916
        3.6136067 3.0600476 2.6055243 2.2446485 1.9657052 1.738747
        19.095823 18.866526 18.594704 18.236687 17.798758 17.288553
        16.714777 16.086876 15.41473 14.708336 13.977519 13.231678
        12.479569 11.729106 10.987169 10.25936 9.549635 8.859739
        8.188423 7.5305758 6.8767705 6.2144294 5.5327535 4.8330626
        4.1395335 3.4950917 2.9378679 2.4830422 2.126254 1.8536475
        1.6360686 19.098038 18.853233 18.565947 18.192755 17.74017
        17.216036 16.629242 15.989395 15.3064995 14.590646 13.85172
        13.09915 12.341693 11.587241 10.842648 10.113492 9.403753
        8.715291 8.047117 7.394539 6.748558 6.0964956 5.4259
        4.7342134 4.0414906 3.3908474 2.8258502 2.3672428 2.0120726
        1.7444501 1.5357634 19.100262 18.842175 18.54163 18.15541
        17.690226 17.154102 16.556084 15.905916 15.213716 14.489654
        13.74367 12.985222 12.223068 11.465092 10.718123 9.9877405
        9.277965 8.590801 7.925565 7.2780504 6.6397924 5.9981294
        5.33892 4.655127 3.9614153 3.3005369 2.7228782 2.2565482
        1.9006468 1.6371657 1.4371965 19.102495 18.833254 18.52156
        18.124374 17.648565 17.102308 16.49479 15.835868 15.135756
        14.404695 13.652674 12.889175 12.122968 11.361925 10.612871
        9.881393 9.171579 8.485605 7.823136 7.1805277 6.5499687
        5.9189825 5.271777 4.5961785 3.8997445 3.223819 2.627441
        2.1488357 1.790082 1.5305247 1.3392508 19.104736 18.825397
        18.503616 18.096504 17.611078 17.055655 16.43954 15.772702
        15.065437 14.328053 13.570582 12.802532 12.032675 11.268885
        10.517979 9.7855625 9.075797 8.39105 7.731367 7.0937295
        6.4711127 5.8514905 5.2177863 4.552745 3.855866 3.1657467
        2.5498552 2.0567486 1.6916679 1.432138 1.2449669
      </DataArray>
      <DataArray type="Float32" Name="jacobian" format="ascii" RangeMin="8.370251453015953e-05" RangeMax="0.011744526214897633">
        0.011622638 0.011566885 0.011479407 0.011332519 0.011129367 0.010874138
        0.010571881 0.010228308 0.009849582 0.009442106 0.009012326 0.008566541
        0.008110752 0.0076505276 0.0071908915 0.0067362348 0.0062902253 0.0058557135
        0.0054346323 0.005027901 0.004635384 0.0042559807 0.003887964 0.0035294618
        0.0031775497 0.002819924 0.002414127 0.0018889764 0.0012279535 0.00055782293
        8.3702515e-05 0.011623406 0.011591589 0.011527965 0.01140444 0.011223767
        0.010989779 0.010707216 0.010381531 0.01001869 0.009624954 0.009206691
        0.008770175 0.008321434 0.0078661 0.007409291 0.0069554886 0.0065084225
        0.0060709147 0.0056447065 0.005230279 0.004826737 0.0044318945 0.004042709
        0.003656056 0.0032688004 0.0028730447 0.0024431283 0.0019358794 0.0013348715
        0.0007025183 0.0001604304 0.011624176 0.011614875 0.0115738055 0.011472489
        0.011313306 0.011099751 0.010836258 0.010528022 0.010180807 0.009800724
        0.009394046 0.008967008 0.0085256435 0.0080756275 0.007622147 0.0071697547
        0.006722211 0.0062822737 0.0058514415 0.0054296823 0.005015259 0.0046048434
        0.0041941744 0.0037793538 0.0033580835 0.0029278141 0.0024777402 0.0019866226
        0.0014382217 0.0008426085 0.00023094333 0.011624954 0.011635022 0.011613557
        0.011531752 0.011391665 0.011196481 0.010950358 0.010658245 0.010325699
        0.009958678 0.009563337 0.009145847 0.008712212 0.008268117 0.007818777
        0.007368773 0.006921851 0.006480651 0.006046364 0.0056183646 0.0051939837
        0.00476871 0.004337197 0.0038952916 0.0034425042 0.0029821247 0.0025152816
        0.0020362595 0.0015332903 0.0009846893 0.0003219027 0.0116257435 0.011651498
        0.011646053 0.0115803415 0.0114561645 0.01127645 0.011045118 0.010766906
        0.010447186 0.010091767 0.009706691 0.009298049 0.0088718 0.008433613
        0.0079887 0.007541632 0.007096104 0.006654593 0.006217933 0.005784847
        0.005351689 0.004912784 0.004461898 0.003995147 0.0035146272 0.003029615
        0.0025506523 0.0020822147 0.0016183623 0.0011239715 0.0004391638 0.011626551
        0.011663766 0.011670115 0.011616358 0.0115041 0.0113360835 0.011116047
        0.010848565 0.010538864 0.010192629 0.009815806 0.00941441 0.008994354
        0.008561273 0.008120359 0.0076761525 0.0072322646 0.006790986 0.006352764
        0.0059156623 0.0054750787 0.0050242804 0.0045564296 0.0040684105 0.0035654234
        0.0030624755 0.0025772601 0.0021202462 0.0016905973 0.0012537816 0.00058352726
        0.011627381 0.011671578 0.011685175 0.0116388295 0.011534034 0.011373413
        0.011160588 0.010900028 0.010596862 0.010256692 0.009885391 0.0094889235
        0.009073157 0.008643697 0.008205703 0.0077636726 0.007321122 0.006880144
        0.006440813 0.0060005696 0.0055539566 0.0050933845 0.004611753 0.004107144
        0.003588065 0.0030745897 0.0025894903 0.0021461404 0.0017470509 0.0013667524
        0.0007484067 0.011628239 0.011674621 0.011690544 0.011646647 0.011544381
        0.011386329 0.01117607 0.01091803 0.010617296 0.010279435 0.009910286
        0.009515785 0.009101773 0.008673832 0.008237093 0.007796002 0.0073539834
        0.0069129434 0.006472624 0.0060299374 0.0055787493 0.005110902 0.0046194065
        0.004103857 0.0035759374 0.0030597714 0.0025813 0.0021546683 0.0017838381
        0.0014555436 0.00091643684 0.011629133 0.011673627 0.011687687 0.011641993
        0.011538026 0.011378386 0.011166669 0.010907314 0.010605418 0.01026655
        0.00989655 0.009501348 0.009086779 0.008658409 0.008221341 0.0077799778
        0.007337653 0.006896114 0.0064548254 0.0060102926 0.005555904 0.0050832257
        0.004585696 0.004064552 0.0035342656 0.0030218598 0.002554841 0.002146782
        0.0018014788 0.0015176449 0.0010719877 0.011630062 0.011669749 0.011678942
        0.011628415 0.01151972 0.011355523 0.011139479 0.010876077 0.01057046
        0.010228228 0.009855244 0.009457453 0.009040691 0.008610516 0.008172009
        0.007729529 0.0072863316 0.0068440284 0.0064018685 0.005956058 0.0054996894
        0.0050242827 0.004523904 0.0040014004 0.0034735142 0.002969111 0.0025160734
        0.002126654 0.0018031831 0.0015529904 0.0012041393 0.011631029 0.011662103
        0.011662532 0.011603247 0.0114859305 0.011313371 0.011089341 0.010818427
        0.010505861 0.01015731 0.009778693 0.009375984 0.008955036 0.008521406
        0.008080156 0.0076355995 0.007190924 0.006747636 0.006304834 0.005858555
        0.0054017943 0.004926267 0.0044268244 0.003907785 0.0033875252 0.0028956917
        0.0024595526 0.0020896464 0.0017860993 0.0015597423 0.0012963582 0.011632034
        0.011650286 0.011637677 0.011565364 0.011435225 0.011250237 0.011014346
        0.010732296 0.0104094455 0.010051571 0.009664668 0.009254762 0.008827733
        0.008389136 0.00794401 0.007496625 0.007050103 0.0066058678 0.0061629363
        0.005717301 0.005262049 0.0047892947 0.004294759 0.0037839958 0.0032763279
        0.0028012116 0.0023845367 0.0020349799 0.0017503358 0.0015407403 0.0013407797
        0.011633073 0.011634921 0.0116057005 0.011516852 0.01137051 0.011169894
        0.010919167 0.010623269 0.010287723 0.009918431 0.0095214825 0.009102962
        0.008668772 0.008224459 0.0077750296 0.007324696 0.006876512 0.006431834
        0.005989641 0.005545971 0.005094129 0.004626739 0.004140369 0.0036415092
        0.0031498228 0.0026938652 0.0022976932 0.001968164 0.0017009467 0.0015030568
        0.0013435936 0.011634144 0.01161648 0.01156763 0.011459366 0.011294129
        0.01107542 0.0108076595 0.010496005 0.010146161 0.009764167 0.009356204
        0.00892841 0.008486695 0.008036583 0.0075830226 0.007130154 0.006680949
        0.0062366975 0.0057963673 0.005356094 0.00490947 0.0044496655 0.003974004
        0.003489606 0.003015996 0.0025803633 0.0022047283 0.0018942895 0.0016429779
        0.001453883 0.0013162891 0.011635242 0.01159561 0.011524845 0.011395091
        0.011209127 0.010970761 0.010684687 0.010356289 0.009991451 0.009596343
        0.009177225 0.008740261 0.008291351 0.007835966 0.007378972 0.0069244104
        0.006475151 0.006032411 0.0055951513 0.005159628 0.004719743 0.0042691855
        0.0038059049 0.0033373856 0.0028826795 0.002467381 0.0021114685 0.001818711
        0.0015817444 0.0014000125 0.001272281 0.0116363615 0.011572837 0.011478476
        0.01132582 0.011118 0.010859144 0.010554212 0.010208811 0.009828984
        0.009421006 0.00899119 0.008545699 0.008090384 0.007630633 0.0071712015
        0.006716 0.006267777 0.0058276625 0.005394607 0.0049649877 0.0045330036
        0.0040928116 0.0036428494 0.0031907512 0.002754895 0.0023592133 0.0020217563
        0.0017451132 0.0015210445 0.0013461346 0.0012218314 0.011637499 0.011548629
        0.011429524 0.011253125 0.011022919 0.010743338 0.010419596 0.010057491
        0.009663199 0.009243065 0.008803413 0.00835037 0.007889704 0.0074266824
        0.0069659175 0.0065111667 0.006065036 0.005628553 0.0052006496 0.004777814
        0.004354517 0.003925318 0.0034890189 0.003053246 0.0026355993 0.0022583904
        0.0019379148 0.0016758188 0.0014633472 0.0012951024 0.0011715107 0.011638651
        0.011523219 0.011378501 0.011177833 0.010925041 0.010624835 0.010282652
        0.009904443 0.009496473 0.009065115 0.008616665 0.008157169 0.007692275
        0.007227098 0.0067660785 0.006312797 0.0058696996 0.0054377005 0.0050157025
        0.0046002925 0.004186185 0.0037682778 0.0033456348 0.0029257627 0.0025254407
        0.0021654486 0.0018605136 0.0016115421 0.0014095503 0.0012479044 0.0011242838
        0.011639815 0.0114968065 0.011325849 0.011100647 0.0108253285 0.010504851
        0.010144822 0.009751302 0.009330597 0.008889061 0.008432915 0.007968087
        0.007500066 0.0070337863 0.006573492 0.0061225696 0.0056832917 0.0052564503
        0.0048409128 0.004433351 0.004028697 0.0036221321 0.0032129001 0.0028083103
        0.0024243186 0.0020802852 0.0017895445 0.0015524306 0.00135995 0.001204784
        0.001081282 0.01164099 0.011468667 0.011270215 0.011019669 0.010721423
        0.010380628 0.0100030145 0.009594695 0.009161961 0.008711098 0.0082482
        0.0077790315 0.007308888 0.0068424875 0.0063838526 0.0059361546 0.0055014803
        0.005080488 0.0046720034 0.004272774 0.0038779262 0.0034828829 0.003087003
        0.0026973393 0.0023290226 0.0020000814 0.0017225895 0.0014964284 0.0013127545
        0.0011639392 0.0010410072 0.011642176 0.011439738 0.011213447 0.010937603
        0.010616803 0.010256325 0.009861961 0.009439813 0.008996107 0.008537001
        0.008068427 0.007595948 0.0071246354 0.006658972 0.006202743 0.005758897
        0.0053293286 0.0049145636 0.0045133815 0.004122598 0.0037375148 0.0033537582
        0.0029707516 0.0025952589 0.0022416196 0.0019266449 0.0016612893 0.0014450839
        0.001269448 0.0011266976 0.0010048107 0.01164337 0.0114050405 0.011146176
        0.01084127 0.010495038 0.0101128 0.009700311 0.009263578 0.008808659
        0.008341507 0.007867804 0.007392833 0.0069213775 0.0064576226 0.0060050655
        0.005566388 0.0051432597 0.004736049 0.004343474 0.0039624074 0.0035883165
        0.0032170105 0.0028479344 0.0024875037 0.00214922 0.0018486718 0.0015957127
        0.0013895556 0.0012219729 0.0010854489 0.0009652847 0.011644571 0.011372433
        0.011083303 0.010751753 0.010382519 0.00998088 0.009552489 0.009103194
        0.008638857 0.008165189 0.00768761 0.0072111245 0.0067402264 0.006278818
        0.0058301245 0.005396582 0.004979657 0.0045795757 0.0041950056 0.003822877
        0.0034588028 0.0030987444 0.0027421429 0.0023950804 0.002070313 0.0017823715
        0.001540171 0.0013426843 0.0011820651 0.0010510964 0.0009327856 0.01164578
        0.011372987 0.011083209 0.010751018 0.010381162 0.00997893 0.009549983
        0.009100177 0.008635379 0.008161307 0.00768338 0.0072066057 0.006735478
        0.0062738988 0.0058250963 0.005391513 0.004974631 0.0045747133 0.0041904864
        0.0038189685 0.0034558768 0.0030972546 0.0027425555 0.0023977847 0.0020755313
        0.0017900547 0.0015500261 0.0013544944 0.0011959489 0.001067375 0.00094979844
        0.011647001 0.011406213 0.011144942 0.010837688 0.010489203 0.01010484
        0.0096903825 0.009251855 0.00879534 0.008326797 0.007851914 0.007375979
        0.0069037722 0.006439478 0.005986597 0.005547829 0.0051248968 0.0047182767
        0.00432688 0.003947867 0.003577042 0.0032104854 0.0028476897 0.0024948178
        0.002164815 0.0018723904 0.0016266147 0.001426926 0.0012661171 0.0011371835
        0.0010193973 0.011648233 0.011442602 0.011213105 0.010934055 0.010610101
        0.010246577 0.009849318 0.009424472 0.008978296 0.008516978 0.008046468
        0.0075723412 0.007099679 0.006632972 0.006176022 0.005731821 0.005302367
        0.0048883883 0.00448902 0.0041016 0.003722049 0.003346495 0.0029744622
        0.002612267 0.0022732525 0.0019726874 0.0017201798 0.0015156496 0.0013522262
        0.0012228912 0.0011050645 0.011649478 0.01147444 0.011273107 0.011019508
        0.010718104 0.010374111 0.009993323 0.009581913 0.009146229 0.008692602
        0.008227171 0.0077557317 0.0072836094 0.0068155522 0.006355626 0.0059070853
        0.005472186 0.005051908 0.004645622 0.0042508757 0.003863747 0.0034804405
        0.0031004956 0.0027303065 0.0023835145 0.0020758838 0.0018175588 0.0016089675
        0.0014436061 0.0013144664 0.0011970499 0.011650735 0.011505092 0.011331233
        0.011102847 0.010824132 0.010500115 0.010136481 0.009739363 0.009315137
        0.008870224 0.008410902 0.007943149 0.0074725035 0.0070039486 0.0065417974
        0.0060895616 0.005649758 0.0052236314 0.0048108166 0.0044091116 0.004014798
        0.0036241894 0.003236831 0.0028591345 0.0025049709 0.0021905906 0.0019267322
        0.0017144006 0.0015474915 0.0014189781 0.0013025956 0.011652004 0.01153336
        0.011385112 0.011180576 0.010923649 0.010619127 0.010272526 0.009889887
        0.009477555 0.009041985 0.008589543 0.008126342 0.007658088 0.0071899644
        0.006726505 0.0062714564 0.005827589 0.005396416 0.0049778605 0.0045700157
        0.0041694213 0.003772545 0.003378931 0.0029949276 0.0026345158 0.0023143631
        0.002045818 0.0018305123 0.0016627681 0.0015355166 0.0014209043 0.011653285
        0.011559489 0.011435129 0.011253138 0.011017095 0.010731532 0.010401765
        0.010033694 0.009633592 0.009207901 0.0087630255 0.00830517 0.007840171
        0.007373376 0.0069095083 0.0064525316 0.006005457 0.005570074 0.005146619
        0.004733527 0.0043276655 0.003925715 0.0035272222 0.0031383836 0.0027731436
        0.0024484815 0.0021763493 0.0019590508 0.0017913529 0.0016661062 0.0015541748
        0.011654576 0.01158339 0.011481029 0.01132006 0.011103739 0.010836323
        0.010522905 0.010169219 0.00978143 0.009365925 0.008929115 0.008477251
        0.008016263 0.007551627 0.007088226 0.0066302163 0.0061808387 0.0057421606
        0.005314757 0.0048974627 0.00448755 0.0040819896 0.0036803514 0.0032885892
        0.002920427 0.0025929932 0.0023187913 0.002100816 0.001934282 0.0018119134
        0.0017036508 0.011655879 0.011605114 0.0115228435 0.011381284 0.011183385
        0.010933127 0.010635376 0.01029568 0.009920073 0.009514863 0.009086431
        0.008641043 0.008184688 0.007722937 0.0072608055 0.0068026176 0.00635183
        0.005910791 0.0054804436 0.0050600795 0.0046474715 0.00423998 0.003837245
        0.003444893 0.0030762125 0.0027482517 0.0024739492 0.0022569697 0.0020929507
        0.0019744278 0.0018708145 0.011657193 0.011624733 0.011560646 0.01143683
        0.011255946 0.011021714 0.010738767 0.010412469 0.01004871 0.009653698
        0.009233761 0.008795153 0.008343896 0.007885624 0.0074254586 0.00696787
        0.0065165176 0.006074034 0.005641759 0.00521951 0.0048056655 0.004398104
        0.003996617 0.0036064454 0.0032402 0.0029145398 0.0026426292 0.0024287154
        0.0022687886 0.0021551044 0.0020569218 0.011658517 0.011642355 0.011594598
        0.011486857 0.01132153 0.0111020915 0.010832961 0.010519315 0.010166895
        0.009781801 0.009370292 0.008938591 0.008492727 0.008038377 0.007580745
        0.007124426 0.0066732713 0.0062302016 0.0057969852 0.005374037 0.0049604652
        0.0045548244 0.004157189 0.0037723966 0.00341213 0.003092257 0.0028258308
        0.002617483 0.0024634164 0.002355454 0.0022629923 0.01165985 0.011658112
        0.011624915 0.011531617 0.011380379 0.011174458 0.010918068 0.010616211
        0.010274484 0.009898873 0.009495559 0.009070724 0.008630387 0.008180248
        0.0077255717 0.007271066 0.006820762 0.006377876 0.0059446367 0.0055221342
        0.005110341 0.004708685 0.0043177153 0.0039419224 0.003591821 0.0032819854
        0.0030248351 0.0028250224 0.002678697 0.002577 0.0024896087 0.011661192
        0.011672147 0.011651844 0.011571423 0.011432837 0.011239143 0.010994374
        0.010703368 0.0103715835 0.010004899 0.009609413 0.009191257 0.008756426
        0.0083106365 0.007859197 0.0074069127 0.00695799 0.006515946 0.0060835048
        0.005662512 0.0052539553 0.0048583644 0.0044770394 0.00411428 0.0037792483
        0.0034846107 0.0032413767 0.0030535818 0.0029168564 0.0028212569 0.0027366967
        0.011662542 0.011684601 0.011675642 0.011606613 0.011479288 0.01129655
        0.011062266 0.01078113 0.010458471 0.010100064 0.009711928 0.009300139
        0.008870668 0.008429229 0.007981171 0.007531383 0.0070842435 0.0066435775
        0.00621264 0.005794112 0.005390157 0.005002679 0.0046340954 0.0042888266
        0.003974601 0.003701461 0.0034778635 0.0033061507 0.0031806312 0.0030896706
        0.0030032112 0.011663899 0.011695603 0.011696542 0.011637502 0.0115201045
        0.011347078 0.0111221485 0.010849876 0.0105354795 0.0101846345 0.009803284
        0.009397453 0.008973081 0.008535878 0.008091221 0.0076440815 0.007199003
        0.0067601292 0.006331276 0.0059160413 0.005517931 0.0051405355 0.004787871
        0.0044649965 0.0041783275 0.003934479 0.0037376918 0.0035868112 0.0034734595
        0.0033835105 0.003286733 0.01166526 0.011705248 0.011714722 0.011664335
        0.011555574 0.011391042 0.011174338 0.01090991 0.010602874 0.01025882
        0.009883622 0.009483255 0.009063627 0.0086304415 0.0081891 0.007744647
        0.0073017944 0.0068650083 0.0064386954 0.006027445 0.005636279 0.0052708224
        0.004937305 0.0046422277 0.004391151 0.004186444 0.0040257075 0.0039012549
        0.0037997228 0.0037036731 0.0035829574 0.011666627 0.011713588 0.011730274
        0.011687231 0.011585834 0.011428577 0.011218957 0.010961323 0.010660703
        0.010322614 0.009952867 0.009557392 0.009142067 0.008712589 0.008274378
        0.007832552 0.0073919855 0.006957474 0.0065340386 0.006127327 0.005744045
        0.0053922376 0.005081118 0.0048198216 0.0046140705 0.0044613034 0.0043489398
        0.0042575817 0.0041650366 0.0040503317 0.0038850992 0.011667996 0.011721282
        0.011744526 0.011708175 0.011613504 0.011462912 0.011259798 0.011008426
        0.010713739 0.010381188 0.010016527 0.009625641 0.009214382 0.008788436
        0.008353246 0.007914003 0.007475743 0.0070436047 0.006623251 0.0062214616
        0.0058468007 0.0055101304 0.005224444 0.0050027 0.0048515582 0.0047620167
        0.0047064773 0.0046481434 0.004554066 0.004403675 0.004173178
      </DataArray>
    </PointData>
    <CellData>
    </CellData>
    <Points>
      <DataArray type="Float32" Name="Points" NumberOfComponents="3" format="ascii" RangeMin="0.7025394974235823" RangeMax="0.8152786936545366">
        0.49101222 -0.01355001 0.50228 0.49884474 -0.013568469 0.50296426
        0.50664914 -0.0135864755 0.5036317 0.5143859 -0.013603947 0.5042794
        0.5220167 -0.0136208115 0.5049045 0.52950555 -0.013637006 0.5055048
        0.5368192 -0.013652478 0.50607836 0.54392755 -0.013667187 0.50662357
        0.5508043 -0.013681102 0.5071394 0.5574272 -0.013694205 0.5076251
        0.56377804 -0.013706489 0.5080804 0.56984264 -0.013717955 0.50850546
        0.5756111 -0.013728616 0.50890064 0.5810773 -0.013738489 0.5092666
        0.58623844 -0.013747601 0.5096044 0.59109527 -0.013755982 0.5099151
        0.5956512 -0.013763667 0.51019996 0.5999122 -0.013770695 0.51046044
        0.60388637 -0.013777103 0.510698 0.60758334 -0.013782934 0.51091415
        0.6110142 -0.013788228 0.51111037 0.61419094 -0.013793025 0.5112882
        0.6171264 -0.013797365 0.5114491 0.61983365 -0.013801286 0.5115944
        0.622326 -0.013804823 0.51172554 0.6246169 -0.013808014 0.5118438
        0.6267194 -0.013810889 0.51195043 0.6286464 -0.013813481 0.51204646
        0.6304103 -0.013815815 0.512133 0.6320231 -0.013817916 0.51221085
        0.6334961 -0.013819806 0.51228094 0.49101222 -0.0132396845 0.5022883
        0.49884525 -0.013257314 0.5029726 0.50665015 -0.013274573 0.5036401
        0.51438737 -0.013291381 0.50428784 0.5220187 -0.013307667 0.50491303
        0.52950794 -0.013323364 0.50551337 0.53682196 -0.013338418 0.50608695
        0.54393065 -0.013352785 0.5066322 0.5508077 -0.013366434 0.507148
        0.5574308 -0.013379342 0.50763375 0.56378174 -0.0133915 0.5080891
        0.5698464 -0.013402906 0.50851417 0.57561487 -0.013413571 0.5089093
        0.5810808 -0.013423508 0.5092753 0.5862417 -0.013432744 0.50961304
        0.59109807 -0.013441309 0.50992364 0.59565336 -0.013449251 0.5102085
        0.59991336 -0.0134566305 0.5104689 0.60388577 -0.013463537 0.51070637
        0.60757995 -0.013470106 0.5109223 0.61100584 -0.013476541 0.51111823
        0.61417425 -0.013483126 0.51129556 0.6170955 -0.013490232 0.5114556
        0.6197796 -0.013498291 0.51159966 0.6222356 -0.013507888 0.51172876
        0.6244726 -0.013520521 0.5118441 0.62650293 -0.0135409115 0.51194674
        0.6283491 -0.013578372 0.51203805 0.63004947 -0.0136402715 0.5121201
        0.63164866 -0.013719804 0.5121955 0.63316935 -0.013793234 0.5122662
        0.49101222 -0.012929354 0.5022963 0.49884576 -0.012945511 0.50298077
        0.50665116 -0.012961369 0.50364834 0.51438886 -0.012976853 0.5042961
        0.52202064 -0.012991891 0.5049214 0.5295104 -0.013006416 0.50552183
        0.5368248 -0.013020373 0.5060954 0.5439338 -0.013033718 0.50664073
        0.5508112 -0.0130464155 0.5071566 0.5574345 -0.013058443 0.5076424
        0.56378555 -0.013069789 0.50809777 0.5698503 -0.013080452 0.5085228
        0.5756187 -0.013090435 0.508918 0.58108455 -0.013099756 0.50928396
        0.5862451 -0.013108438 0.5096217 0.59110105 -0.013116516 0.50993234
        0.5956557 -0.013124049 0.51021713 0.5999146 -0.013131123 0.5104775
        0.6038853 -0.013137889 0.5107148 0.6075765 -0.01314459 0.5109306
        0.6109974 -0.013151613 0.5111262 0.614157 -0.013159515 0.511303
        0.6170638 -0.013169036 0.5114623 0.6197247 -0.013181033 0.511605
        0.62214553 -0.013196613 0.5117322 0.6243325 -0.0132184345 0.5118448
        0.62629837 -0.01325452 0.51194394 0.6280721 -0.013320772 0.5120311
        0.62970674 -0.013432282 0.51210886 0.63127315 -0.013584396 0.51218104
        0.63282096 -0.013740396 0.5122511 0.49101222 -0.012619019 0.50230426
        0.4988463 -0.012633136 0.50298876 0.50665224 -0.01264701 0.50365645
        0.5143904 -0.012660575 0.5043043 0.52202266 -0.012673756 0.50492966
        0.5295129 -0.012686489 0.5055302 0.5368277 -0.0126987165 0.5061038
        0.5439371 -0.012710395 0.5066492 0.55081475 -0.01272149 0.50716513
        0.5574383 -0.012731977 0.507651 0.56378955 -0.012741843 0.50810635
        0.5698544 -0.012751085 0.50853145 0.57562274 -0.012759707 0.50892663
        0.5810885 -0.012767724 0.50929266 0.5862488 -0.0127751585 0.5096304
        0.5911043 -0.012782056 0.50994104 0.59565824 -0.01278848 0.51022583
        0.5999161 -0.012794556 0.5104861 0.60388505 -0.012800497 0.51072335
        0.6075732 -0.012806671 0.510939 0.6109889 -0.012813667 0.5111343
        0.61413974 -0.012822356 0.51131064 0.6170319 -0.012833877 0.51146907
        0.6196698 -0.01284954 0.5116105 0.6220566 -0.01287094 0.51173586
        0.6241973 -0.012901615 0.51184595 0.6261057 -0.012951756 0.5119419
        0.62781477 -0.0130415885 0.5120255 0.6293842 -0.013193061 0.51209927
        0.630902 -0.013409531 0.5121677 0.6324518 -0.013653971 0.5122358
        0.49101222 -0.012308678 0.50231194 0.49884683 -0.012320282 0.50299656
        0.50665325 -0.012331682 0.5036644 0.514392 -0.012342818 0.5043123
        0.52202475 -0.012353617 0.50493777 0.52951545 -0.012364017 0.50553834
        0.53683066 -0.012373959 0.5061121 0.5439405 -0.0123834 0.50665754
        0.55081844 -0.012392308 0.50717354 0.5574423 -0.012400653 0.50765944
        0.5637937 -0.012408427 0.50811493 0.5698587 -0.012415621 0.50854003
        0.5756271 -0.012422242 0.50893533 0.58109266 -0.012428304 0.50930136
        0.5862528 -0.01243383 0.5096391 0.5911079 -0.012438869 0.50994974
        0.59566116 -0.012443506 0.51023453 0.59991795 -0.012447896 0.5104948
        0.6038851 -0.012452327 0.510732 0.6075703 -0.0124573 0.51094747
        0.61098075 -0.012463638 0.51114255 0.6141227 -0.01247255 0.5113184
        0.6170003 -0.012485619 0.511476 0.6196157 -0.012504617 0.5116162
        0.6219702 -0.0125315795 0.5117398 0.62406826 -0.012570644 0.51184756
        0.6259257 -0.0126332585 0.5119408 0.6275775 -0.012742094 0.5120211
        0.62908417 -0.01292431 0.51209134 0.63054144 -0.01319401 0.51215583
        0.632065 -0.013525789 0.5122207 0.49101222 -0.011998333 0.50231946
        0.49884737 -0.012007054 0.5030042 0.5066544 -0.012015594 0.50367206
        0.5143936 -0.012023899 0.50432014 0.5220269 -0.012031898 0.5049457
        0.52951807 -0.012039528 0.5055464 0.53683376 -0.012046733 0.50612026
        0.543944 -0.012053469 0.50666577 0.5508223 -0.012059703 0.5071819
        0.5574465 -0.012065407 0.50766784 0.5637981 -0.012070568 0.50812334
        0.56986326 -0.012075184 0.5085486 0.5756317 -0.012079254 0.5089439
        0.58109725 -0.012082796 0.50930995 0.5862572 -0.012085833 0.5096478
        0.59111196 -0.01208842 0.5099584 0.5956646 -0.012090656 0.5102432
        0.5999204 -0.012092738 0.5105035 0.6038859 -0.01209503 0.51074064
        0.6075681 -0.012098185 0.5109559 0.61097336 -0.01210327 0.5111508
        0.61410654 -0.012111864 0.51132613 0.6169698 -0.012126018 0.51148295
        0.6195635 -0.012147977 0.511622 0.6218876 -0.01218015 0.51174396
        0.6239471 -0.012227005 0.51184964 0.6257595 -0.012300489 0.5119405
        0.62736094 -0.012424201 0.51201814 0.62880903 -0.012628514 0.51208514
        0.63019854 -0.012938176 0.51214564 0.6316676 -0.01334794 0.51220626
        0.49101222 -0.011687985 0.5023267 0.49884793 -0.011693574 0.5030116
        0.5066555 -0.011698994 0.50367963 0.5143953 -0.011704193 0.50432783
        0.5220291 -0.011709105 0.50495344 0.5295208 -0.011713664 0.50555426
        0.536837 -0.011717815 0.5061282 0.54394764 -0.011721516 0.5066738
        0.55082643 -0.01172473 0.50719005 0.5574509 -0.011727434 0.50767606
        0.56380284 -0.011729612 0.5081317 0.56986815 -0.011731258 0.50855696
        0.57563674 -0.011732375 0.5089523 0.5811023 -0.011732976 0.5093185
        0.5862621 -0.0117330905 0.5096563 0.59111655 -0.011732775 0.509967
        0.59566873 -0.011732148 0.5102518 0.5999236 -0.011731443 0.5105121
        0.60388744 -0.0117311105 0.51074916 0.60756683 -0.011731955 0.5109644
        0.61096716 -0.011735308 0.511159 0.6140918 -0.0117431395 0.5113339
        0.61694145 -0.0117579745 0.51149 0.61951464 -0.011782521 0.5116279
        0.6218108 -0.011819481 0.5117484 0.6238356 -0.011873393 0.51185226
        0.6256087 -0.011956079 0.51194096 0.62716633 -0.012090883 0.51201636
        0.6285614 -0.012309329 0.51208067 0.62988067 -0.012644563 0.5121374
        0.6312713 -0.013114963 0.5121932 0.49101222 -0.011377631 0.5023339
        0.4988485 -0.011379961 0.50301886 0.50665665 -0.011382125 0.503687
        0.514397 -0.011384074 0.5043353 0.5220314 -0.011385743 0.5049611
        0.5295237 -0.011387066 0.50556195 0.5368404 -0.01138799 0.506136
        0.5439515 -0.011388471 0.50668174 0.5508307 -0.011388474 0.507198
        0.5574556 -0.011387973 0.5076842 0.5638079 -0.011386953 0.50813985
        0.56987345 -0.011385406 0.5085652 0.5756422 -0.011383333 0.5089606
        0.58110785 -0.011380749 0.5093268 0.58626765 -0.011377681 0.5096647
        0.5911219 -0.011374195 0.5099755 0.5956736 -0.011370423 0.51026034
        0.5999277 -0.011366641 0.5105206 0.6038902 -0.0113633815 0.5107576
        0.60756695 -0.01136161 0.5109728 0.6109626 -0.011362922 0.5111671
        0.6140793 -0.011369683 0.51134163 0.61691606 -0.011384897 0.5114971
        0.61947036 -0.011411703 0.511634 0.62174124 -0.011453001 0.5117531
        0.6237356 -0.011513164 0.51185536 0.62547475 -0.011603397 0.51194227
        0.62699497 -0.011745892 0.5120158 0.6283434 -0.011971456 0.51207787
        0.6295948 -0.012318134 0.5121314 0.63089085 -0.012825736 0.5121821
        0.49101222 -0.011067273 0.50234085 0.4988491 -0.011066356 0.5030259
        0.5066579 -0.011065271 0.5036942 0.5143989 -0.011063977 0.50434256
        0.5220339 -0.011062406 0.50496846 0.52952665 -0.011060496 0.50556946
        0.53684396 -0.011058191 0.50614357 0.5439556 -0.011055449 0.5066894
        0.5508353 -0.011052234 0.5072058 0.5574606 -0.01104852 0.50769204
        0.56381327 -0.01104429 0.5081478 0.5698792 -0.0110395355 0.50857323
        0.5756482 -0.011034258 0.5089687 0.581114 -0.011028467 0.509335
        0.58627385 -0.011022193 0.50967294 0.59112805 -0.011015509 0.5099837
        0.59567946 -0.011008563 0.5102686 0.59993297 -0.011001668 0.5105289
        0.6038942 -0.01099544 0.51076597 0.6075686 -0.010991002 0.510981
        0.61096007 -0.010990212 0.51117516 0.61406946 -0.010995816 0.51134926
        0.6168946 -0.011011275 0.5115041 0.6194319 -0.01104011 0.5116401
        0.6216805 -0.011085322 0.51175797 0.6236486 -0.011150922 0.5118589
        0.62535924 -0.011247121 0.5119444 0.62684804 -0.0113943275 0.51201636
        0.6281568 -0.011621108 0.5120767 0.6293466 -0.011966401 0.5121275
        0.6305434 -0.01248663 0.5121736 0.49101222 -0.010756911 0.5023476
        0.49884975 -0.010752835 0.50303274 0.50665915 -0.010748596 0.5037011
        0.5144008 -0.010744152 0.50434965 0.5220364 -0.010739438 0.5049756
        0.5295298 -0.0107343905 0.5055767 0.5368477 -0.010728957 0.50615096
        0.5439599 -0.010723092 0.5066969 0.55084014 -0.0107167605 0.50721335
        0.557466 -0.010709937 0.5076996 0.56381905 -0.010702602 0.5081555
        0.5698854 -0.010694748 0.50858104 0.5756547 -0.010686372 0.5089766
        0.5811207 -0.010677488 0.5093429 0.58628076 -0.010668124 0.5096809
        0.591135 -0.010658355 0.50999177 0.5956863 -0.010648348 0.5102767
        0.59993935 -0.010638457 0.510537 0.6038996 -0.010629373 0.510774
        0.607572 -0.010622371 0.510989 0.61095977 -0.010619559 0.51118296
        0.61406267 -0.010624049 0.5113568 0.61687744 -0.010639721 0.511511
        0.6193997 -0.010670433 0.5116462 0.62162906 -0.010719198 0.5117631
        0.62357503 -0.010789512 0.5118628 0.6252621 -0.010890349 0.51194715
        0.6267253 -0.011039947 0.51201797 0.62800163 -0.011263603 0.512077
        0.6291388 -0.011597364 0.5121258 0.63024026 -0.012106226 0.512168
        0.49101222 -0.010446544 0.50235415 0.4988504 -0.010439479 0.5030394
        0.50666046 -0.010432257 0.5037079 0.51440275 -0.010424842 0.5043565
        0.52203906 -0.010417168 0.5049826 0.5295331 -0.010409172 0.50558376
        0.5368516 -0.010400802 0.5061581 0.54396445 -0.010392013 0.50670415
        0.55084527 -0.0103827715 0.5072207 0.5574716 -0.010373047 0.50770706
        0.5638252 -0.010362825 0.508163 0.5698919 -0.010352092 0.50858855
        0.57566166 -0.010340847 0.5089842 0.58112806 -0.010329101 0.50935054
        0.58628833 -0.010316886 0.5096887 0.5911428 -0.01030428 0.5099996
        0.59569407 -0.010291466 0.5102845 0.59994686 -0.010278831 0.51054484
        0.60390633 -0.010267146 0.5107818 0.6075771 -0.010257821 0.51099676
        0.6109617 -0.010253206 0.51119053 0.6140589 -0.010256741 0.51136404
        0.6168647 -0.010272697 0.5115178 0.6193741 -0.010305207 0.51165235
        0.6215871 -0.010357242 0.51176834 0.6235148 -0.010431674 0.5118671
        0.6251828 -0.010536096 0.5119505 0.62662584 -0.010686388 0.51202047
        0.6278768 -0.010904058 0.5120785 0.6289721 -0.01121954 0.51212597
        0.62998945 -0.011696274 0.5121653 0.49101222 -0.010136173 0.50236046
        0.4988511 -0.010126414 0.50304586 0.50666183 -0.010116516 0.50371444
        0.51440483 -0.010106444 0.5043632 0.5220418 -0.0100961365 0.5049893
        0.52953655 -0.010085528 0.5055906 0.5368557 -0.01007457 0.506165
        0.54396915 -0.010063215 0.5067111 0.5508506 -0.010051429 0.5072277
        0.55747753 -0.010039186 0.5077142 0.5638317 -0.010026465 0.5081702
        0.5698989 -0.010013256 0.5085958 0.5756691 -0.009999557 0.50899154
        0.5811359 -0.009985377 0.5093579 0.58629656 -0.009970748 0.50969607
        0.59115124 -0.009955756 0.51000696 0.59570265 -0.009940594 0.510292
        0.5999553 -0.009925684 0.5105523 0.60391426 -0.009911864 0.51078933
        0.6075838 -0.009900675 0.51100415 0.6109657 -0.009894675 0.51119787
        0.61405826 -0.009897605 0.5113711 0.6168564 -0.009914068 0.51152444
        0.61935496 -0.009948428 0.5116584 0.6215546 -0.010003549 0.51177365
        0.6234676 -0.010081643 0.5118717 0.6251209 -0.010188862 0.51195437
        0.6265487 -0.010338701 0.51202375 0.62778103 -0.0105487555 0.51208115
        0.6288454 -0.010842518 0.5121279 0.62979627 -0.011274556 0.51216525
        0.49101222 -0.0098258 0.50236666 0.49885178 -0.009813738 0.5030521
        0.50666326 -0.009801571 0.5037208 0.5144069 -0.009789264 0.5043696
        0.5220446 -0.009776752 0.5049958 0.52954006 -0.0097639775 0.5055972
        0.5368599 -0.009750887 0.5061717 0.54397404 -0.009737435 0.50671786
        0.5508561 -0.00972359 0.5072345 0.5574837 -0.009709321 0.50772107
        0.5638384 -0.009694612 0.5081771 0.56990623 -0.009679449 0.5086028
        0.5756769 -0.009663829 0.5089985 0.5811442 -0.0096477615 0.509365
        0.58630526 -0.009631281 0.50970316 0.5911603 -0.009614474 0.5100141
        0.59571195 -0.009597548 0.5102991 0.5999647 -0.009580954 0.5105595
        0.6039233 -0.009565591 0.5107964 0.60759187 -0.009553111 0.51101124
        0.6109717 -0.009546256 0.5112048 0.61406034 -0.009549025 0.5113779
        0.6168522 -0.009566303 0.5115308 0.619342 -0.009602634 0.5116643
        0.62153083 -0.009660749 0.511779 0.6234325 -0.009742187 0.51187646
        0.6250748 -0.0098516885 0.51195866 0.6264918 -0.01000045 0.51202756
        0.6277115 -0.010202325 0.5120847 0.62875515 -0.010473676 0.5121311
        0.62965876 -0.0108559625 0.5121676 0.49101222 -0.0095154205 0.5023726
        0.49885252 -0.009501546 0.5030582 0.5066647 -0.009487611 0.5037269
        0.5144091 -0.009473582 0.5043758 0.5220475 -0.009459394 0.50500214
        0.5295437 -0.00944499 0.50560355 0.5368642 -0.009430318 0.50617814
        0.5439791 -0.009415333 0.50672436 0.5508618 -0.009400004 0.5072411
        0.55749 -0.009384297 0.5077276 0.56384534 -0.009368197 0.5081837
        0.56991374 -0.00935169 0.5086095 0.57568496 -0.009334771 0.5090052
        0.5811528 -0.009317449 0.50937176 0.5863143 -0.009299758 0.5097099
        0.5911697 -0.00928179 0.51002085 0.5957217 -0.009263761 0.5103059
        0.59997463 -0.009246147 0.51056623 0.6039331 -0.009229898 0.5108032
        0.607601 -0.009216762 0.511018 0.6109792 -0.009209638 0.5112114
        0.61406475 -0.009212741 0.51138425 0.6168516 -0.009231186 0.51153696
        0.61933446 -0.009269652 0.51167 0.6215149 -0.00933073 0.51178426
        0.623408 -0.009415312 0.5118813 0.62504256 -0.009526811 0.5119631
        0.6264525 -0.00967429 0.51203185 0.6276647 -0.009868209 0.51208895
        0.6286963 -0.010118356 0.5121353 0.62957054 -0.010452021 0.5121717
        0.49101222 -0.00920504 0.5023784 0.49885327 -0.009189912 0.50306404
        0.5066662 -0.009174782 0.50373286 0.5144114 -0.009159611 0.5043818
        0.5220505 -0.009144339 0.50500816 0.5295474 -0.009128908 0.50560963
        0.53686863 -0.009113263 0.5061843 0.5439842 -0.009097366 0.50673056
        0.55086756 -0.0090811765 0.50724727 0.5574964 -0.009064668 0.5077339
        0.5638524 -0.009047819 0.50819004 0.5699214 -0.009030616 0.5086158
        0.57569325 -0.009013051 0.50901157 0.58116156 -0.008995134 0.50937814
        0.58632356 -0.008976901 0.5097163 0.59117943 -0.00895844 0.5100273
        0.5957318 -0.0089399805 0.51031226 0.59998494 -0.008922016 0.5105726
        0.60394347 -0.008905539 0.5108096 0.6076109 -0.00889238 0.5110243
        0.6109879 -0.00888556 0.51121765 0.61407113 -0.008889475 0.5113903
        0.61685413 -0.008909427 0.5115428 0.6193315 -0.008950198 0.51167554
        0.6215057 -0.009014237 0.51178944 0.62339264 -0.009101848 0.5118862
        0.62502205 -0.009215225 0.51196784 0.6264281 -0.009361513 0.51203644
        0.6276369 -0.009548197 0.5120936 0.6286636 -0.009779393 0.5121403
        0.6295232 -0.010069237 0.51217705 0.49101222 -0.008894654 0.502384
        0.498854 -0.008878892 0.5030697 0.5066677 -0.008863191 0.5037386
        0.51441365 -0.008847511 0.50438756 0.5220535 -0.0088317925 0.50501394
        0.52955115 -0.008815973 0.5056155 0.5368731 -0.008800003 0.5061902
        0.54398936 -0.008783837 0.50673646 0.5508734 -0.008767438 0.5072533
        0.5575029 -0.008750776 0.5077399 0.5638595 -0.008733829 0.50819606
        0.5699291 -0.00871658 0.5086218 0.57570153 -0.008699024 0.5090176
        0.5811704 -0.008681164 0.50938416 0.5863329 -0.008663034 0.5097223
        0.59118927 -0.008644728 0.5100333 0.59574205 -0.008626481 0.5103183
        0.5999955 -0.008608797 0.51057863 0.60395414 -0.008592708 0.51081556
        0.6076214 -0.008580105 0.51103026 0.6109975 -0.008574118 0.5112235
        0.614079 -0.008579279 0.5113961 0.6168591 -0.0086010415 0.51154834
        0.61933243 -0.008644267 0.51168084 0.62150204 -0.008711277 0.5117945
        0.62338483 -0.008801851 0.511891 0.6250114 -0.008917101 0.51197255
        0.626416 -0.009062464 0.5120412 0.62762463 -0.00924289 0.5120986
        0.62865174 -0.009457824 0.51214576 0.6295082 -0.009710329 0.5121832
        0.49101222 -0.008584266 0.5023894 0.49885476 -0.008568533 0.5030751
        0.5066692 -0.008552924 0.503744 0.5144159 -0.008537398 0.50439304
        0.5220565 -0.00852189 0.50501955 0.5295549 -0.008506342 0.5056211
        0.53687763 -0.008490699 0.5061958 0.54399455 -0.008474914 0.5067421
        0.5508793 -0.00845895 0.50725895 0.5575094 -0.008442774 0.50774556
        0.5638667 -0.008426362 0.5082017 0.5699369 -0.008409696 0.5086275
        0.5757098 -0.008392766 0.5090233 0.58117926 -0.008375575 0.5093898
        0.5863423 -0.008358156 0.509728 0.5911991 -0.008340602 0.510039
        0.59575236 -0.008323149 0.510324 0.60000616 -0.00830632 0.5105843
        0.603965 -0.008291168 0.51082116 0.6076321 -0.008279638 0.5110358
        0.61100775 -0.008274938 0.51122904 0.614088 -0.008281715 0.5114015
        0.61686605 -0.008305541 0.5115536 0.61933655 -0.00835134 0.51168597
        0.62150306 -0.008421327 0.51179945 0.62338346 -0.008514832 0.5118958
        0.6250088 -0.008632003 0.5119773 0.626414 -0.008776801 0.5120461
        0.62762505 -0.008952039 0.5121038 0.6286565 -0.0091534415 0.5121515
        0.62951815 -0.009375402 0.5121899 0.49101222 -0.0082738735 0.5023946
        0.49885556 -0.008258867 0.50308037 0.5066708 -0.00824404 0.5037493
        0.51441824 -0.008229347 0.5043984 0.5220596 -0.0082147205 0.50502485
        0.52955866 -0.008200101 0.50562644 0.5368821 -0.008185431 0.50620115
        0.54399973 -0.008170664 0.5067475 0.55088514 -0.008155758 0.5072643
        0.5575159 -0.00814068 0.507751 0.56387377 -0.008125403 0.50820714
        0.56994456 -0.008109906 0.5086329 0.5757181 -0.008094177 0.5090287
        0.5811881 -0.008078217 0.50939524 0.58635163 -0.008062054 0.5097334
        0.59120893 -0.008045785 0.51004434 0.5957626 -0.008029647 0.5103293
        0.6000168 -0.00801417 0.5105896 0.6039759 -0.0080004325 0.51082647
        0.6076431 -0.007990412 0.51104105 0.6110185 -0.007987384 0.5112342
        0.614098 -0.007996082 0.5114066 0.6168747 -0.008022174 0.5115586
        0.6193434 -0.008070637 0.51169086 0.62150806 -0.008143599 0.5118042
        0.62338734 -0.008240009 0.5119005 0.62501305 -0.008359188 0.511982
        0.6264203 -0.008503807 0.51205105 0.62763566 -0.008674917 0.5121091
        0.6286743 -0.008865365 0.51215744 0.62954694 -0.009063141 0.51219696
        0.49101222 -0.0079634795 0.5023996 0.49885634 -0.007949928 0.50308543
        0.5066723 -0.007936592 0.5037544 0.5144205 -0.007923423 0.5044035
        0.52206266 -0.007910352 0.50503 0.5295625 -0.007897316 0.50563157
        0.5368866 -0.007884257 0.5062063 0.54400486 -0.007871125 0.50675267
        0.550891 -0.007857877 0.50726944 0.55752236 -0.007844477 0.5077561
        0.56388086 -0.0078308955 0.50821227 0.5699522 -0.007817112 0.508638
        0.5757263 -0.0078031085 0.5090338 0.5811968 -0.0077888854 0.5094003
        0.5863608 -0.007774472 0.50973845 0.59121865 -0.00775996 0.5100494
        0.59577274 -0.0077455905 0.5103343 0.6000273 -0.0077319006 0.5105946
        0.6039868 -0.007719981 0.5108314 0.6076542 -0.0077118417 0.51104593
        0.61102957 -0.0077108056 0.51123905 0.6141088 -0.0077216737 0.51141137
        0.61688477 -0.00775019 0.51156336 0.6193525 -0.007801377 0.51169544
        0.6215164 -0.007877303 0.5118088 0.6233958 -0.007976602 0.51190513
        0.625023 -0.008097886 0.51198673 0.62643355 -0.008242716 0.512056
        0.62765455 -0.008410698 0.51211447 0.62870246 -0.00859253 0.51216346
        0.6295899 -0.008771787 0.5122041 0.49101222 -0.0076530804 0.50240445
        0.4988571 -0.0076417346 0.50309026 0.5066739 -0.007630615 0.50375926
        0.51442283 -0.007619665 0.50440836 0.5220657 -0.007608817 0.50503486
        0.5295662 -0.007598005 0.50563645 0.53689104 -0.007587171 0.50621116
        0.54401004 -0.007576263 0.5067575 0.55089676 -0.007565237 0.5072743
        0.5575288 -0.0075540557 0.507761 0.56388783 -0.007542688 0.5082171
        0.56995976 -0.00753111 0.50864285 0.5757344 -0.007519306 0.5090386
        0.5812054 -0.0075072735 0.5094051 0.58636993 -0.007495038 0.5097432
        0.5912282 -0.0074826954 0.5100542 0.59578276 -0.007470485 0.5103391
        0.60003775 -0.007458949 0.5105993 0.6039976 -0.007449191 0.51083606
        0.60766536 -0.0074432404 0.5110506 0.6110409 -0.0074444567 0.5112437
        0.6141201 -0.007457693 0.5114159 0.61689603 -0.007488753 0.5115679
        0.6193636 -0.007542704 0.5117 0.6215277 -0.007621574 0.5118133
        0.6234081 -0.0077237445 0.51190966 0.6250377 -0.007847229 0.5119914
        0.62645257 -0.007992638 0.5120609 0.6276803 -0.008158402 0.5121198
        0.6287388 -0.008333681 0.5121696 0.6296433 -0.008499264 0.5122114
        0.49101222 -0.0073426794 0.5024091 0.49885792 -0.007334361 0.5030949
        0.5066755 -0.0073262355 0.5037639 0.51442516 -0.0073182443 0.504413
        0.52206874 -0.007310318 0.5050395 0.52957004 -0.007302393 0.5056411
        0.5368955 -0.007294412 0.5062158 0.54401517 -0.007286322 0.50676215
        0.5509025 -0.0072780796 0.507279 0.5575351 -0.0072696484 0.5077656
        0.56389475 -0.007260996 0.5082217 0.5699672 -0.0072521004 0.50864744
        0.57574236 -0.0072429436 0.50904316 0.5812139 -0.007233524 0.5094096
        0.58637893 -0.007223868 0.50974774 0.59123766 -0.0072140703 0.5100586
        0.59579265 -0.007204372 0.5103435 0.60004807 -0.0071953204 0.51060367
        0.6040083 -0.007188027 0.5108405 0.60767645 -0.0071845343 0.51105493
        0.6110524 -0.0071882294 0.511248 0.61413205 -0.0072040027 0.51142025
        0.61690825 -0.0072377063 0.5115721 0.61937636 -0.00729445 0.51170427
        0.6215413 -0.0073762415 0.5118176 0.6234236 -0.00748127 0.511914
        0.6250565 -0.007607051 0.511996 0.62647635 -0.007753395 0.51206577
        0.6277116 -0.007917794 0.51212513 0.62878156 -0.008088384 0.5121756
        0.62970436 -0.008244513 0.51221853 0.49101222 -0.0070322757 0.5024135
        0.49885872 -0.007027777 0.5030994 0.50667703 -0.0070233867 0.5037684
        0.5144275 -0.0070190467 0.5044174 0.52207184 -0.007014691 0.505044
        0.52957374 -0.0070102583 0.5056456 0.5368999 -0.007005695 0.5062203
        0.54402024 -0.0070009506 0.50676656 0.55090815 -0.006995986 0.50728333
        0.55754143 -0.006990765 0.50776994 0.5639016 -0.0069852597 0.50822604
        0.5699746 -0.006979448 0.50865173 0.57575023 -0.006973314 0.50904745
        0.58122224 -0.006966858 0.5094139 0.58638775 -0.006960109 0.509752
        0.5912469 -0.0069531607 0.5100628 0.59580237 -0.006946259 0.51034766
        0.60005826 -0.0069399537 0.51060784 0.6040189 -0.0069353594 0.5108446
        0.60768753 -0.006934533 0.51105905 0.6110641 -0.006940875 0.51125205
        0.6141443 -0.0069593065 0.5114243 0.61692137 -0.0069957166 0.51157624
        0.61939055 -0.007055257 0.5117084 0.6215572 -0.0071399347 0.51182175
        0.623442 -0.007247796 0.51191837 0.6250788 -0.00737595 0.5120005
        0.62650424 -0.007523528 0.5120706 0.6277475 -0.007687276 0.51213044
        0.6288295 -0.007854698 0.5121816 0.629771 -0.008004751 0.51222557
        0.49101222 -0.0067218696 0.50241774 0.4988595 -0.006722322 0.5031036
        0.5066786 -0.0067227054 0.50377256 0.5144298 -0.0067229685 0.50442165
        0.5220749 -0.006723059 0.50504816 0.5295775 -0.0067229234 0.50564975
        0.53690434 -0.0067225173 0.50622445 0.54402524 -0.0067218007 0.50677073
        0.55091375 -0.0067207394 0.5072875 0.55754757 -0.006719306 0.50777406
        0.5639083 -0.0067174784 0.50823015 0.5699818 -0.006715238 0.5086558
        0.575758 -0.0067125782 0.5090515 0.5812304 -0.0067095 0.5094179
        0.58639634 -0.006706038 0.5097559 0.59125596 -0.0067022904 0.51006675
        0.59581184 -0.0066985064 0.5103516 0.60006815 -0.006695239 0.5106117
        0.6040293 -0.006693608 0.5108484 0.60769844 -0.0066956775 0.51106286
        0.61107564 -0.006704857 0.51125586 0.6141568 -0.006726088 0.5114281
        0.616935 -0.0067652906 0.51158005 0.61940575 -0.0068276557 0.51171225
        0.6215746 -0.0069152047 0.51182574 0.62346256 -0.007025892 0.5119225
        0.6251037 -0.0071565164 0.51200485 0.6265351 -0.0073056724 0.5120753
        0.6277866 -0.0074695474 0.5121356 0.62888056 -0.00763536 0.5121874
        0.6298403 -0.0077825976 0.5122324 0.49101222 -0.00641146 0.5024218
        0.4988603 -0.0064175455 0.50310767 0.5066802 -0.006423317 0.5037766
        0.51443213 -0.006428741 0.5044257 0.52207786 -0.00643378 0.5050522
        0.5295812 -0.0064383987 0.50565374 0.5369087 -0.006442565 0.5062284
        0.5440302 -0.0064462526 0.50677466 0.55091935 -0.0064494377 0.50729144
        0.5575537 -0.006452104 0.507778 0.56391495 -0.0064542377 0.508234
        0.56998897 -0.006455829 0.50865966 0.57576555 -0.0064568776 0.5090553
        0.5812385 -0.006457393 0.50942165 0.58640486 -0.0064574145 0.50975966
        0.5912649 -0.0064570457 0.5100705 0.5958212 -0.0064565414 0.5103553
        0.6000779 -0.006456456 0.5106154 0.6040396 -0.0064579165 0.5108521
        0.6077094 -0.0064629856 0.5110665 0.6110874 -0.006475083 0.5112595
        0.61416966 -0.006499157 0.51143175 0.6169494 -0.0065411567 0.51158375
        0.6194222 -0.0066063106 0.511716 0.6215938 -0.0066966685 0.5118297
        0.6234854 -0.00681013 0.5119266 0.62513137 -0.0069432496 0.51200926
        0.62656915 -0.007094168 0.51207995 0.62782913 -0.007258627 0.5121408
        0.6289352 -0.007423772 0.51219326 0.6299131 -0.007570252 0.51223916
        0.49101222 -0.0061010486 0.5024257 0.4988611 -0.0061121173 0.50311154
        0.5066818 -0.0061226957 0.5037805 0.5144345 -0.006132757 0.5044296
        0.52208096 -0.006142276 0.505056 0.52958494 -0.0061512263 0.5056576
        0.5369131 -0.0061595854 0.50623226 0.54403526 -0.0061673354 0.50677854
        0.550925 -0.00617446 0.50729525 0.55755997 -0.0061809486 0.5077818
        0.56392175 -0.006186795 0.50823784 0.5699963 -0.0061919955 0.5086635
        0.5757734 -0.006196553 0.5090591 0.5812468 -0.006200483 0.5094254
        0.5864136 -0.0062038274 0.5097634 0.59127414 -0.0062066955 0.51007414
        0.5958309 -0.0062093404 0.5103589 0.6000882 -0.0062123216 0.510619
        0.6040504 -0.006216762 0.5108557 0.6077209 -0.006224723 0.5110701
        0.6110999 -0.0062396196 0.51126313 0.6141836 -0.006266405 0.51143545
        0.61696535 -0.0063110455 0.5115875 0.61944085 -0.006378812 0.5117199
        0.6216159 -0.006471795 0.5118337 0.6235119 -0.0065878616 0.5119309
        0.6251636 -0.0067233387 0.5120138 0.62660855 -0.00687591 0.51208496
        0.627878 -0.007040873 0.5121463 0.6289973 -0.0072054346 0.51219946
        0.62999433 -0.007351645 0.5122463 0.49101222 -0.005790635 0.50242937
        0.49886194 -0.0058056163 0.50311524 0.5066834 -0.005820022 0.50378424
        0.5144369 -0.005833826 0.50443333 0.5220841 -0.0058470066 0.50505984
        0.5295889 -0.0058595412 0.50566137 0.5369177 -0.0058714096 0.5062361
        0.5440405 -0.0058825966 0.5067823 0.5509309 -0.0058930903 0.50729907
        0.55756646 -0.005902881 0.50778556 0.56392884 -0.005911964 0.5082416
        0.5700039 -0.005920339 0.50866723 0.57578164 -0.0059280107 0.5090628
        0.58125556 -0.0059349947 0.50942916 0.5864229 -0.0059413356 0.5097672
        0.59128386 -0.00594714 0.5100779 0.59584117 -0.0059526637 0.5103626
        0.60009897 -0.0059584607 0.5106227 0.6040619 -0.005965647 0.5108594
        0.6077333 -0.005976273 0.51107377 0.61111355 -0.0059937392 0.5112668
        0.6141991 -0.006022989 0.5114392 0.6169834 -0.006069998 0.5115914
        0.6194623 -0.0061400817 0.51172394 0.62164176 -0.0062353886 0.511838
        0.62354326 -0.0063537695 0.5119355 0.6252017 -0.0064913263 0.51201874
        0.626655 -0.0066452525 0.5120903 0.62793523 -0.0068103857 0.51215225
        0.6290693 -0.0069741025 0.5122062 0.6300872 -0.007119914 0.5122541
        0.49101222 -0.005480219 0.5024328 0.49886277 -0.0054982966 0.50311875
        0.506685 -0.005515769 0.5037878 0.51443934 -0.00553261 0.5044369
        0.52208734 -0.005548796 0.5050635 0.5295928 -0.0055643045 0.505665
        0.5369224 -0.0055791168 0.5062397 0.5440459 -0.005593217 0.506786
        0.550937 -0.0056065926 0.5073027 0.55757314 -0.005619236 0.50778925
        0.5639362 -0.00563114 0.5082453 0.57001185 -0.005642305 0.5086709
        0.5757901 -0.005652735 0.5090666 0.5812646 -0.005662446 0.50943285
        0.5864325 -0.00567148 0.5097708 0.5912941 -0.005679944 0.5100816
        0.59585196 -0.005688088 0.5103663 0.6001104 -0.0056964606 0.5106264
        0.6040741 -0.0057061636 0.51086307 0.60774654 -0.0057192286 0.51107746
        0.61112833 -0.0057390276 0.5112706 0.6142161 -0.0057704793 0.5114431
        0.6170036 -0.0058195614 0.5115954 0.6194868 -0.0058916314 0.51172817
        0.6216716 -0.0059889113 0.51184255 0.6235797 -0.006109261 0.5119403
        0.62524605 -0.0062485705 0.51202404 0.62670887 -0.0064035286 0.5120961
        0.6280012 -0.006568526 0.51215863 0.6291516 -0.00673122 0.51221347
        0.63019156 -0.0068767346 0.5122625 0.49101222 -0.005169801 0.5024361
        0.4988636 -0.005190149 0.5031221 0.5066867 -0.0052099074 0.5037912
        0.5144418 -0.0052290475 0.50444037 0.5220906 -0.005247543 0.50506693
        0.52959687 -0.0052653714 0.5056686 0.53692716 -0.0052825115 0.5062433
        0.54405147 -0.0052989447 0.50678957 0.5509432 -0.0053146584 0.50730634
        0.5575801 -0.0053296424 0.5077929 0.5639438 -0.005343889 0.508249
        0.57002014 -0.0053573954 0.5086746 0.575799 -0.005370165 0.5090702
        0.5812741 -0.005382211 0.50943655 0.5864426 -0.0053935735 0.5097745
        0.5913048 -0.005404355 0.5100852 0.5958633 -0.0054148003 0.51037
        0.60012245 -0.005425446 0.5106301 0.60408705 -0.005437376 0.51086676
        0.6077607 -0.00545259 0.5110812 0.61114436 -0.0054744175 0.5112744
        0.6142348 -0.0055077365 0.511447 0.61702627 -0.005558507 0.51159954
        0.61951464 -0.005632131 0.5117326 0.621706 -0.005730922 0.51184726
        0.623622 -0.005852774 0.5119455 0.62529755 -0.005993374 0.5120297
        0.6267714 -0.006148905 0.51210237 0.6280774 -0.006313323 0.51216567
        0.62924564 -0.006474679 0.51222146 0.6303092 -0.0066197533 0.51227164
        0.49101222 -0.0048593804 0.5024392 0.49886447 -0.004881247 0.50312525
        0.5066884 -0.0049025705 0.50379443 0.51444435 -0.004923318 0.50444365
        0.52209395 -0.004943463 0.50507027 0.529601 -0.004962979 0.5056719
        0.5369321 -0.004981842 0.50624675 0.54405713 -0.005000035 0.5067931
        0.55094963 -0.00501754 0.50730985 0.55758727 -0.005034345 0.50779647
        0.5639516 -0.0050504403 0.5082525 0.57002866 -0.0050658216 0.50867814
        0.5758082 -0.0050804885 0.5090738 0.581284 -0.005094451 0.5094401
        0.58645314 -0.0051077465 0.50977814 0.591316 -0.005120473 0.51008886
        0.5958752 -0.0051328656 0.51037365 0.6001352 -0.0051454464 0.5106337
        0.6041008 -0.0051592737 0.51087046 0.6077759 -0.005176303 0.511085
        0.6111617 -0.005199807 0.5112782 0.61425537 -0.005234596 0.511451
        0.6170515 -0.005286598 0.5116038 0.61954623 -0.005361253 0.51173717
        0.62174547 -0.0054609817 0.51185226 0.62367076 -0.0055837445 0.51195097
        0.62535715 -0.005725047 0.5120358 0.62684363 -0.005880566 0.51210916
        0.628165 -0.0060438565 0.5121733 0.6293529 -0.006203458 0.51223004
        0.63044155 -0.006347821 0.51228154 0.49101222 -0.0045489585 0.5024421
        0.49886534 -0.0045716455 0.50312823 0.50669014 -0.0045938557 0.5037975
        0.5144469 -0.0046155527 0.5044468 0.52209735 -0.0046367077 0.5050734
        0.5296052 -0.0046572923 0.5056752 0.5369371 -0.004677283 0.50625
        0.544063 -0.0046966583 0.5067964 0.55095625 -0.0047153984 0.50731325
        0.5575946 -0.0047334908 0.50779986 0.5639598 -0.004750923 0.50825596
        0.5700375 -0.0047676857 0.50868165 0.57581776 -0.0047837775 0.5090773
        0.58129424 -0.004799206 0.5094437 0.58646417 -0.004814004 0.5097817
        0.5913277 -0.004828262 0.51009244 0.5958877 -0.0048422073 0.5103772
        0.6001486 -0.004856342 0.51063734 0.6041154 -0.0048716897 0.51087415
        0.6077922 -0.004890152 0.5110887 0.6111804 -0.0049149194 0.51128215
        0.61427796 -0.004950713 0.5114551 0.6170796 -0.0050033987 0.5116082
        0.6195819 -0.005078448 0.511742 0.6217906 -0.0051784064 0.51185757
        0.6237269 -0.005301333 0.51195693 0.62542593 -0.005442581 0.51204234
        0.6269269 -0.005597336 0.5121165 0.62826556 -0.0057587973 0.5121816
        0.62947506 -0.005916072 0.51223946 0.6305902 -0.0060592066 0.51229227
        0.49101222 -0.0042385357 0.50244486 0.4988662 -0.0042614066 0.50313103
        0.5066919 -0.0042838766 0.5038004 0.51444954 -0.004305906 0.5044497
        0.5221008 -0.0043274653 0.50507647 0.52960956 -0.004348527 0.5056783
        0.5369423 -0.004369065 0.5062531 0.54406893 -0.0043890565 0.50679964
        0.55096304 -0.0044084815 0.5073165 0.5576022 -0.0044273236 0.50780314
        0.5639681 -0.004445569 0.5082593 0.57004666 -0.0044632084 0.50868505
        0.5758277 -0.0044802353 0.50908077 0.58130497 -0.004496656 0.50944716
        0.5864756 -0.0045124977 0.5097852 0.59133995 -0.004527846 0.510096
        0.59590083 -0.0045429147 0.5103808 0.60016274 -0.0045581833 0.510641
        0.60413086 -0.0045746337 0.5108778 0.6078095 -0.004594097 0.5110925
        0.61120063 -0.00461966 0.511286 0.6143026 -0.0046559204 0.51145923
        0.61711085 -0.004708652 0.51161265 0.61962205 -0.004783338 0.51174694
        0.6218419 -0.0048826644 0.5118632 0.6237913 -0.00500483 0.5119632
        0.62550503 -0.005145072 0.51204944 0.6270226 -0.005298116 0.5121245
        0.62838084 -0.0054568592 0.5121906 0.629614 -0.005611039 0.5122497
        0.63075703 -0.005752147 0.5123039 0.49101222 -0.0039281095 0.50244737
        0.49886706 -0.00395059 0.50313365 0.5066936 -0.003972744 0.503803
        0.51445216 -0.0039945347 0.5044525 0.5221043 -0.0040159323 0.5050793
        0.5296139 -0.004036908 0.5056812 0.53694755 -0.0040574376 0.50625616
        0.544075 -0.0040774965 0.5068027 0.55097 -0.004097065 0.5073196
        0.55761 -0.004116125 0.50780636 0.56397676 -0.004134662 0.5082626
        0.57005614 -0.004152665 0.50868833 0.57583797 -0.004170126 0.5090841
        0.58131605 -0.0041870475 0.5094505 0.58648753 -0.0042034546 0.50978863
        0.59135276 -0.0042194254 0.5100995 0.5959146 -0.0042351596 0.5103843
        0.6001776 -0.00425111 0.51064456 0.6041472 -0.004268208 0.5108814
        0.60782796 -0.0042881975 0.5110962 0.6112224 -0.004314035 0.51128995
        0.61432946 -0.0043501556 0.5114634 0.61714536 -0.004402198 0.51161724
        0.61966705 -0.0044756313 0.5117521 0.6219001 -0.004573292 0.5118691
        0.6238648 -0.004693565 0.5119699 0.6255958 -0.004831617 0.5120571
        0.62713253 -0.004981767 0.5121332 0.6285128 -0.005136678 0.5122004
        0.6297717 -0.0052867467 0.5122609 0.6309443 -0.0054246783 0.5123165
        0.49101222 -0.003617683 0.5024497 0.49886796 -0.0036392526 0.5031361
        0.5066954 -0.0036605697 0.5038056 0.51445484 -0.0036815968 0.5044551
        0.5221079 -0.0037023062 0.505082 0.5296184 -0.003722671 0.50568396
        0.5369529 -0.0037426653 0.506259 0.5440813 -0.0037622678 0.5068056
        0.5509771 -0.0037814574 0.5073226 0.557618 -0.0038002168 0.5078094
        0.56398565 -0.003818531 0.5082657 0.57006586 -0.0038363878 0.5086915
        0.5758486 -0.0038537793 0.50908726 0.5813275 -0.0038707056 0.5094538
        0.5864999 -0.003887188 0.5097919 0.59136605 -0.0039032975 0.5101028
        0.5959289 -0.0039192187 0.5103877 0.6001932 -0.003935374 0.510648
        0.60416436 -0.0039526336 0.51088494 0.6078476 -0.003972638 0.5110999
        0.6112457 -0.0039981795 0.5112938 0.61435866 -0.0040334873 0.51146764
        0.6171834 -0.0040840115 0.51162195 0.6197173 -0.004155166 0.5117575
        0.62196577 -0.004249941 0.51187533 0.62394863 -0.00436695 0.51197714
        0.62569964 -0.004501361 0.5120654 0.62725854 -0.004647156 0.51214266
        0.62866354 -0.0047968426 0.51221114 0.62995076 -0.0049414737 0.51227313
        0.6311543 -0.005074683 0.5123303 0.49101222 -0.0033072548 0.50245184
        0.49886888 -0.0033274512 0.5031383 0.50669724 -0.0033474606 0.5038079
        0.5144575 -0.003367248 0.50445753 0.52211154 -0.0033867867 0.5050845
        0.529623 -0.0034060522 0.5056866 0.5369584 -0.0034250214 0.50626165
        0.54408765 -0.0034436728 0.50680834 0.5509844 -0.003461987 0.5073254
        0.5576262 -0.0034799483 0.50781226 0.5639947 -0.003497541 0.50826865
        0.57007587 -0.0035147541 0.5086945 0.57585955 -0.0035315785 0.50909036
        0.5813394 -0.0035480137 0.50945693 0.58651274 -0.0035640784 0.5097951
        0.59137994 -0.0035798359 0.510106 0.59594387 -0.0035954546 0.51039106
        0.6002095 -0.0036113202 0.51065135 0.6041825 -0.0036282346 0.51088846
        0.6078683 -0.0036477123 0.5111035 0.61127067 -0.0036723488 0.51129764
        0.61439025 -0.0037061137 0.51147187 0.61722505 -0.0037542006 0.5116267
        0.61977315 -0.0038219115 0.5117631 0.62203974 -0.0039123744 0.5118819
        0.62404376 -0.0040244833 0.5119848 0.62581825 -0.0041534905 0.51207435
        0.6274026 -0.00429314 0.51215297 0.62883574 -0.0044358745 0.51222295
        0.6301538 -0.0045733713 0.5122864 0.63138986 -0.004699873 0.51234525
        0.49101222 -0.0029968254 0.5024538 0.49886978 -0.0030152383 0.5031404
        0.506699 -0.0030335193 0.50381005 0.51446027 -0.0030516367 0.50445974
        0.52211523 -0.0030695668 0.50508684 0.52962756 -0.0030872875 0.50568897
        0.53696394 -0.0031047775 0.5062642 0.54409415 -0.003122018 0.5068109
        0.55099183 -0.0031389913 0.5073281 0.5576346 -0.0031556825 0.507815
        0.56400406 -0.0031720784 0.5082714 0.5700862 -0.003188168 0.5086974
        0.57587075 -0.0032039427 0.5090933 0.58135164 -0.0032194022 0.5094599
        0.586526 -0.0032345622 0.50979817 0.59139425 -0.0032494788 0.5101092
        0.5959594 -0.0032643024 0.5103942 0.60022646 -0.0032793782 0.5106546
        0.60420144 -0.003295428 0.5108918 0.6078902 -0.0033138192 0.511107
        0.6112972 -0.003336914 0.51130146 0.6144243 -0.0033683577 0.51147604
        0.6172705 -0.003413008 0.5116316 0.61983496 -0.0034759718 0.5117688
        0.6221225 -0.00356048 0.51188874 0.6241514 -0.003665751 0.51199305
        0.6259534 -0.003787229 0.512084 0.62756735 -0.0039185514 0.5121642
        0.62903214 -0.004052204 0.5122358 0.63038385 -0.0041804337 0.51230097
        0.631654 -0.004297797 0.51236147 0.49101222 -0.0026863946 0.50245553
        0.49887067 -0.0027026623 0.50314224 0.5067009 -0.0027188414 0.503812
        0.51446307 -0.0027349049 0.5044618 0.5221189 -0.0027508317 0.505089
        0.5296322 -0.002766603 0.50569123 0.53696954 -0.0027822 0.5062665
        0.54410076 -0.0027976062 0.5068133 0.5509994 -0.0028128063 0.50733054
        0.5576431 -0.0028277878 0.50781757 0.5640136 -0.002842539 0.5082741
        0.57009673 -0.0028570504 0.5087001 0.5758823 -0.0028713148 0.5090961
        0.5813642 -0.0028853314 0.5094628 0.5865397 -0.0028991145 0.5098011
        0.5914091 -0.002912712 0.51011217 0.5959755 -0.0029262549 0.51039726
        0.60024416 -0.0029400436 0.5106578 0.6042212 -0.0029547072 0.5108951
        0.6079132 -0.002971446 0.5111104 0.6113253 -0.0029923434 0.5113052
        0.61446077 -0.0030206556 0.5114802 0.61731994 -0.003060801 0.5116365
        0.6199029 -0.0031175804 0.5117748 0.622215 -0.003194262 0.51189595
        0.6242729 -0.0032904197 0.5120019 0.6261071 -0.00340182 0.5120945
        0.62775534 -0.0035221681 0.51217645 0.62925607 -0.0036441276 0.5122499
        0.6306445 -0.0037604675 0.51231694 0.6319501 -0.0038658443 0.5123791
        0.49101222 -0.002375963 0.5024571 0.4988716 -0.0023897672 0.5031439
        0.5067027 -0.0024035154 0.50381374 0.51446587 -0.0024171842 0.5044637
        0.5221227 -0.0024307556 0.50509095 0.529637 -0.002444214 0.50569326
        0.53697526 -0.0024575433 0.5062686 0.54410744 -0.0024707303 0.5068155
        0.55100715 -0.002483762 0.50733286 0.5576518 -0.002496628 0.50781995
        0.5640233 -0.0025093195 0.5082765 0.57010746 -0.0025218276 0.5087026
        0.5758942 -0.002534148 0.50909865 0.58137715 -0.00254628 0.5094654
        0.5865537 -0.002558235 0.50980383 0.59142435 -0.002570054 0.51011497
        0.5959922 -0.002581846 0.5104001 0.60026246 -0.0025938614 0.51066077
        0.60424185 -0.0026066266 0.5108982 0.6079373 -0.0026211494 0.51111376
        0.611355 -0.0026391924 0.5113088 0.61449957 -0.0026635425 0.5114844
        0.61737317 -0.0026980613 0.51164144 0.61997736 -0.0027470954 0.5117808
        0.6223176 -0.0028138347 0.5119036 0.6244097 -0.0028982195 0.51201123
        0.62628174 -0.0029964908 0.5121059 0.62797004 -0.0031026553 0.5121898
        0.62951154 -0.0032097378 0.5122654 0.6309399 -0.0033110357 0.51233435
        0.63228196 -0.0034012513 0.5123983 0.49101222 -0.0020655305 0.50245845
        0.49887252 -0.0020765949 0.50314534 0.50670457 -0.0020876236 0.5038153
        0.51446867 -0.002098597 0.50446534 0.5221265 -0.0021095017 0.5050927
        0.52964175 -0.0021203237 0.5056951 0.53698105 -0.0021310505 0.5062705
        0.54411423 -0.002141672 0.5068175 0.55101496 -0.0021521775 0.50733495
        0.5576607 -0.002162559 0.5078221 0.56403327 -0.00217281 0.5082787
        0.5701184 -0.0021829244 0.5087049 0.5759062 -0.0021928982 0.50910103
        0.5813904 -0.002202733 0.5094679 0.5865681 -0.0022124369 0.50980633
        0.59144 -0.0022220435 0.5101176 0.5960093 -0.002231637 0.51040286
        0.60028136 -0.002241414 0.51066357 0.6042632 -0.0022517862 0.5109011
        0.6079623 -0.002263545 0.5111169 0.6113861 -0.0022780856 0.5113123
        0.6145407 -0.0022976412 0.51148844 0.6174303 -0.0023253744 0.5116464
        0.6200584 -0.0023649875 0.51178706 0.62243116 -0.0024194114 0.5119115
        0.6245632 -0.002488918 0.51202124 0.6264801 -0.002570401 0.5121182
        0.6282152 -0.0026584791 0.5122045 0.62980306 -0.0027468211 0.5122823
        0.63127476 -0.0028293873 0.5123534 0.6326538 -0.002901117 0.51241916
        0.49101222 -0.0017550972 0.50245965 0.49887347 -0.0017631823 0.50314665
        0.5067065 -0.0017712411 0.50381666 0.51447153 -0.0017792585 0.5044668
        0.5221303 -0.0017872229 0.50509423 0.5296466 -0.0017951243 0.5056967
        0.5369869 -0.0018029531 0.50627226 0.54412115 -0.0018107009 0.5068193
        0.5510228 -0.0018183608 0.50733685 0.5576697 -0.0018259268 0.5078241
        0.5640433 -0.0018333942 0.5082808 0.57012963 -0.0018407597 0.50870705
        0.5759185 -0.0018480213 0.50910324 0.5814038 -0.0018551797 0.50947016
        0.58658284 -0.0018622426 0.5098087 0.59145606 -0.0018692332 0.51012
        0.59602684 -0.001876211 0.51040536 0.6003008 -0.0018833126 0.5106662
        0.6042852 -0.0018908242 0.5109039 0.6079883 -0.0018992971 0.5111199
        0.6114186 -0.0019097105 0.51131564 0.614584 -0.001923652 0.5114924
        0.6174912 -0.0019434255 0.5116513 0.6201461 -0.0019718376 0.5117933
        0.62255627 -0.002011295 0.5119198 0.6247353 -0.0020622879 0.512032
        0.6267054 -0.0021225584 0.5121316 0.62849563 -0.0021877738 0.5122207
        0.6301365 -0.0022527098 0.512301 0.63165474 -0.0023123617 0.51237434
        0.63307023 -0.0023624233 0.51244175 0.49101222 -0.0014446633 0.50246066
        0.4988744 -0.0014495659 0.5031477 0.5067083 -0.0014544406 0.50381786
        0.5144744 -0.0014592771 0.5044681 0.5221342 -0.0014640664 0.5050956
        0.52965146 -0.0014688009 0.50569814 0.5369928 -0.0014734741 0.5062738
        0.54412806 -0.0014780799 0.506821 0.5510309 -0.0014826137 0.5073385
        0.55767876 -0.0014870722 0.50782585 0.5640535 -0.0014914526 0.50828266
        0.5701409 -0.0014957534 0.50870895 0.575931 -0.0014999743 0.50910527
        0.5814175 -0.0015041167 0.50947225 0.5865978 -0.0015081853 0.50981086
        0.5914724 -0.001512194 0.5101222 0.5960448 -0.0015161748 0.5104077
        0.60032064 -0.0015201995 0.5106686 0.6043077 -0.001524418 0.51090646
        0.608015 -0.0015291186 0.5111227 0.6114522 -0.0015348162 0.5113188
        0.61462927 -0.0015423568 0.5114962 0.6175556 -0.001552998 0.5116561
        0.62024045 -0.0015683407 0.51179975 0.62269354 -0.0015898724 0.5119284
        0.62492794 -0.0016180639 0.51204336 0.6269617 -0.0016517036 0.5121462
        0.62881756 -0.0016881427 0.51223844 0.630519 -0.001724061 0.5123217
        0.6320868 -0.0017562662 0.5123973 0.6335364 -0.0017820613 0.51246613
        0.49101222 -0.0011342288 0.50246143 0.49887532 -0.00113578 0.5031486
        0.50671023 -0.001137293 0.5038188 0.51447725 -0.0011387608 0.5044691
        0.52213806 -0.0011401776 0.50509673 0.52965635 -0.0011415379 0.5056994
        0.5369987 -0.0011428376 0.5062751 0.54413503 -0.0011440729 0.50682235
        0.5510389 -0.0011452413 0.50733995 0.5576879 -0.0011463416 0.5078274
        0.5640637 -0.0011473729 0.5082842 0.57015234 -0.0011483354 0.5087106
        0.57594365 -0.0011492302 0.509107 0.5814314 -0.0011500587 0.50947404
        0.58661294 -0.0011508232 0.5098127 0.591489 -0.0011515262 0.5101242
        0.596063 -0.0011521708 0.5104097 0.6003409 -0.0011527601 0.5106708
        0.6043308 -0.0011532974 0.5109088 0.6080424 -0.001153786 0.51112527
        0.61148685 -0.0011542295 0.5113217 0.61467624 -0.0011546314 0.51149976
        0.61762327 -0.0011549948 0.51166075 0.62034124 -0.0011553231 0.5118062
        0.62284356 -0.0011556192 0.5119373 0.6251435 -0.0011558862 0.51205564
        0.62725437 -0.0011561268 0.5121622 0.62918895 -0.0011563436 0.51225823
        0.63095987 -0.0011565387 0.5123447 0.6325791 -0.0011567144 0.5124225
        0.63405794 -0.0011568724 0.5124925
        <InformationKey name="L2_NORM_RANGE" location="vtkDataArray" length="2">
          <Value index="0">
            0.70253949742
          </Value>
          <Value index="1">
            0.81527869365
          </Value>
        </InformationKey>
      </DataArray>
    </Points>
  </Piece>
  </StructuredGrid>
</VTKFile>
