<?xml version="1.0"?>
<VTKFile type="StructuredGrid" version="0.1" byte_order="LittleEndian" header_type="UInt32" compressor="vtkZLibDataCompressor">
  <StructuredGrid WholeExtent="0 30 0 40 0 0">
  <Piece Extent="0 30 0 40 0 0">
    <PointData>
      <DataArray type="Float32" Name="orthogonality" format="ascii" RangeMin="0" RangeMax="0.06069649010896683">
        0.05984004 0.059086777 0.058430754 0.057850894 0.057321053 0.05681502
        0.056309387 0.055784296 0.05522287 0.054610245 0.053932704 0.05317698
        0.052329596 0.05137608 0.050299946 0.049081482 0.04769667 0.046116885
        0.04430993 0.042242557 0.039884035 0.037209805 0.034204338 0.03086279
        0.027191654 0.023208836 0.0189435 0.0144357085 0.00973563 0.0049020313
        0 0.058308832 0.058313712 0.058158316 0.057887748 0.057533346
        0.057115834 0.056645736 0.05612552 0.05555205 0.054918554 0.054215956
        0.053433605 0.052559454 0.051579833 0.050478704 0.04923664 0.04782986
        0.046229944 0.04440488 0.04232153 0.03994918 0.037263155 0.034247726
        0.030897785 0.027219545 0.023230638 0.01896 0.01444749 0.0097431205
        0.004905558 2.6619352e-07 0.057580657 0.057846837 0.057911184 0.05783458
        0.057628144 0.057309818 0.05689735 0.0564038 0.05583598 0.055194855
        0.054476745 0.053674534 0.05277841 0.051776078 0.05065236 0.04938839
        0.047960803 0.04634154 0.04449886 0.042399835 0.040013816 0.03731609
        0.034290753 0.030932462 0.027247153 0.023252198 0.018976292 0.014459101
        0.009750473 0.004908978 6.0951623e-07 0.057116553 0.057460614 0.057628613
        0.057676632 0.05759354 0.057380117 0.05704564 0.056602526 0.056061707
        0.055429902 0.05470889 0.053895887 0.052984204 0.051963676 0.05082053
        0.049536843 0.04808993 0.04645224 0.04459247 0.042478006 0.040078394
        0.03736895 0.03433367 0.03096699 0.027274596 0.023273593 0.018992433
        0.014470582 0.009757724 0.0049123215 1.0030475e-06 0.05677997 0.05715474
        0.057373255 0.057494797 0.05749913 0.05737427 0.057117797 0.056734934
        0.056234587 0.055625293 0.054912493 0.05409732 0.053176478 0.05214237
        0.05098307 0.04968195 0.04821723 0.04656208 0.044685762 0.042556114
        0.04014298 0.037421804 0.03437653 0.031001428 0.027301928 0.023294872
        0.019008469 0.014481974 0.009764905 0.004915617 1.4240266e-06 0.056519993
        0.05690918 0.057154555 0.05731999 0.057383474 0.057326812 0.057138763
        0.056816164 0.056362476 0.05578447 0.05508872 0.054279022 0.053355075
        0.052311953 0.051139824 0.049823605 0.04834266 0.04667104 0.044778734
        0.04263417 0.040207602 0.03747469 0.034419384 0.031035816 0.027329184
        0.023316069 0.019024428 0.0144933015 0.00977204 0.0049188836 1.8568234e-06
        0.05631184 0.056708474 0.056969263 0.05716192 0.05726537 0.057259403
        0.05712762 0.056860052 0.05645387 0.055911887 0.055239536 0.054441642
        0.053520072 0.052472297 0.051290624 0.049961664 0.0484661 0.046779044
        0.044871345 0.04271215 0.040272247 0.037527595 0.03446223 0.031070163
        0.02735638 0.0233372 0.019040326 0.014504583 0.009779143 0.004922135
        2.290302e-06 0.05614135 0.05654202 0.05681218 0.057022404 0.057153307
        0.05718469 0.057097778 0.056877952 0.056516815 0.05601242 0.05536747
        0.054586276 0.05367181 0.052623417 0.051435363 0.050096 0.048587453
        0.046886 0.044963524 0.042790007 0.040336885 0.037580512 0.03450506
        0.031104473 0.027383523 0.023358274 0.019056173 0.014515826 0.009786226
        0.0049253795 2.7161427e-06 0.05599962 0.0564025 0.056678593 0.056900572
        0.057050735 0.057109762 0.05705817 0.0568786 0.056558356 0.05609089
        0.055475358 0.05471436 0.053810894 0.05276548 0.051574025 0.050226536
        0.04870661 0.046991825 0.045055192 0.042867683 0.04040148 0.03763342
        0.034547873 0.031138742 0.027410613 0.023379294 0.019071978 0.014527039
        0.009793294 0.0049286247 3.127906e-06 0.055880673 0.056284726 0.056564692
        0.05679478 0.056958757 0.057038464 0.0570146 0.056868453 0.05658434
        0.056151755 0.055566125 0.054827552 0.05393813 0.052898813 0.05170669
        0.050353236 0.048823506 0.047096435 0.045146286 0.04294512 0.040465984
        0.037686285 0.03459064 0.03117296 0.027437648 0.023400262 0.01908774
        0.014538226 0.009800353 0.0049318764 3.5204853e-06 0.055780306 0.05618493
        0.056467485 0.05670331 0.056877404 0.056972772 0.056970753 0.056852166
        0.056599434 0.056198943 0.05564261 0.054927636 0.054054502 0.05302387
        0.051833525 0.050476123 0.048938088 0.047199763 0.045236733 0.043022256
        0.040530354 0.037739072 0.03463335 0.031207114 0.027464623 0.02342118
        0.019103462 0.01454939 0.009807408 0.004935139 3.889761e-06 0.05569547
        0.056100305 0.056384616 0.0566246 0.05680625 0.056913648 0.05692894
        0.056833044 0.056607306 0.056235828 0.055707447 0.05501641 0.054161083
        0.05314122 0.051954776 0.050595265 0.049050353 0.047301754 0.045326468
        0.04309904 0.04059454 0.03779175 0.03467597 0.031241197 0.02749153
        0.023442041 0.019119147 0.014560536 0.009814462 0.004938415 4.2323745e-06
        0.0556239 0.05602874 0.05631426 0.056557313 0.056744713 0.056861483
        0.05689061 0.05681342 0.05661079 0.056265224 0.055763043 0.05509564
        0.054259013 0.053251512 0.052070763 0.050710786 0.049160305 0.047402374
        0.045415435 0.043175407 0.0406585 0.037844285 0.034718487 0.03127519
        0.027518364 0.023462845 0.019134795 0.014571662 0.009821516 0.0049417075
        4.5455654e-06 0.055563893 0.05596861 0.056254975 0.05650034 0.056692194
        0.056816358 0.05685665 0.05679495 0.056612067 0.056289483 0.05581152
        0.055167004 0.054349452 0.05335546 0.052181866 0.050822854 0.049267985
        0.047501594 0.045503583 0.043251302 0.040722176 0.03789664 0.034760874
        0.031309076 0.027545117 0.02348359 0.019150402 0.014582771 0.009828573
        0.004945019 4.8270613e-06 0.055514146 0.05591867 0.056205638 0.05645278
        0.05664814 0.05677823 0.05682762 0.056778815 0.056612816 0.056310527
        0.055854753 0.05523207 0.05443356 0.05345381 0.052288514 0.050931666
        0.049373455 0.047599398 0.04559086 0.043326672 0.04078553 0.037948776
        0.034803096 0.031342845 0.027571775 0.023504267 0.019165969 0.014593862
        0.009835634 0.00494835 5.074992e-06 0.055473667 0.055877972 0.056165375
        0.05641392 0.056612086 0.056746986 0.056803863 0.05676587 0.05661435
        0.056329954 0.05589438 0.055292293 0.054512464 0.053547338 0.052391168
        0.05103746 0.049476806 0.047695793 0.04567723 0.04340146 0.040848505
        0.038000654 0.034845136 0.031376474 0.027598334 0.023524875 0.019181492
        0.014604935 0.0098427 0.0049517034 5.2878286e-06 0.055441707 0.05584579
        0.05613352 0.05638319 0.056583647 0.056722507 0.05678562 0.05675676
        0.05661771 0.056349088 0.055931825 0.05534901 0.054587252 0.05363682
        0.05249032 0.0511405 0.049578134 0.047790784 0.04576266 0.043475628
        0.040911056 0.038052235 0.034886964 0.03140995 0.027624778 0.023545405
        0.019196969 0.01461599 0.009849771 0.0049550794 5.464337e-06 0.05541771
        0.055821586 0.056109577 0.05636017 0.05656254 0.05670471 0.056773078
        0.056752 0.05662375 0.05636906 0.05596836 0.05540344 0.054658964
        0.053723037 0.052586474 0.05124105 0.049677562 0.04788439 0.045847114
        0.043549117 0.040973138 0.038103487 0.034928553 0.03144325 0.027651101
        0.023565851 0.019212397 0.014627025 0.009856846 0.0049584783 5.6035415e-06
        0.05540128 0.055804975 0.05609319 0.05634458 0.05654857 0.056693554
        0.056766406 0.056752026 0.056633182 0.056390833 0.056005098 0.055456717
        0.054728597 0.053806752 0.052680142 0.05133942 0.049775217 0.047976643
        0.04593057 0.043621887 0.041034702 0.038154364 0.034969874 0.031476356
        0.027677288 0.02358621 0.019227771 0.014638039 0.009863926 0.0049619004
        5.704699e-06 0.055392172 0.055795718 0.056084145 0.056336235 0.056541637
        0.056689057 0.05676579 0.056757238 0.05664665 0.056415275 0.05604306
        0.05550988 0.05479709 0.05388872 0.052771844 0.0514359 0.049871232
        0.048067566 0.046013 0.043693885 0.0410957 0.03820483 0.035010897
        0.03150925 0.02770333 0.02360647 0.019243091 0.014649029 0.00987101
        0.0049653463 5.7672833e-06 0.05539026 0.055793695 0.05608234 0.05633508
        0.056541745 0.056691315 0.05677146 0.056768034 0.056664757 0.056443185
        0.056083176 0.05556391 0.05486535 0.05396966 0.052862085 0.051530793
        0.04996575 0.0481572 0.046094384 0.043765068 0.041156083 0.038254846
        0.03505159 0.031541917 0.027729211 0.023626627 0.01925835 0.014659994
        0.009878096 0.004968815 5.7909683e-06 0.05539554 0.055798914 0.056087803
        0.05634116 0.056548983 0.056700498 0.056783695 0.056784846 0.056688104
        0.056475326 0.05612634 0.05561974 0.05493423 0.05405027 0.05295136
        0.051624395 0.05005891 0.048245575 0.046174698 0.043835398 0.04121581
        0.038304374 0.035091937 0.031574335 0.027754923 0.023646675 0.019273546
        0.014670932 0.0098851845 0.0049723065 5.7756242e-06 0.055408128 0.055811495
        0.05610066 0.05635464 0.056563567 0.056716874 0.056802854 0.056808155
        0.056717306 0.056512456 0.056173418 0.055678252 0.055004556 0.05413123
        0.053040143 0.051716994 0.050150845 0.048332725 0.046253916 0.043904822
        0.041274834 0.038353372 0.035131898 0.03160648 0.02778045 0.023666603
        0.01928867 0.014681838 0.009892273 0.0049758204 5.7213147e-06 0.055428255
        0.05583168 0.056121174 0.0563758 0.056585807 0.056740824 0.0568294
        0.056838516 0.056753043 0.05655537 0.05622527 0.05574032 0.055077117
        0.05421317 0.053128894 0.05180886 0.050241686 0.048418682 0.04633202
        0.0439733 0.041333105 0.038401805 0.035171445 0.03163834 0.027805781
        0.023686403 0.019303722 0.014692712 0.00989936 0.0049793553 5.6282993e-06
        0.055456296 0.055859838 0.05614974 0.05640506 0.05661617 0.056772854
        0.056863908 0.056876596 0.056796078 0.056604907 0.056282774 0.0558068
        0.05515268 0.05429671 0.053218037 0.05190025 0.050331544 0.048503466
        0.046408985 0.044040788 0.04139058 0.03844963 0.035210554 0.031669885
        0.027830902 0.023706071 0.019318694 0.0147035485 0.009906444 0.0049829106
        5.497043e-06 0.05549276 0.055896502 0.056186896 0.056442995 0.056655254
        0.056813627 0.05690711 0.0569232 0.056847274 0.05666198 0.056346856
        0.05587855 0.055231977 0.054382414 0.053307958 0.05199139 0.050420523
        0.0485871 0.046484776 0.044107232 0.041447204 0.038496807 0.03524919
        0.031701103 0.027855802 0.023725593 0.019333582 0.014714345 0.009913521
        0.004986484 5.328226e-06 0.05553833 0.05594237 0.056233376 0.056490358
        0.056703873 0.056863997 0.056959912 0.0569793 0.056907654 0.05672761
        0.05641848 0.05595644 0.055315718 0.054470807 0.05339901 0.05208247
        0.0505087 0.048669584 0.046559364 0.044172592 0.041502938 0.0385433
        0.035287324 0.03173197 0.027880466 0.023744965 0.01934838 0.014725098
        0.00992059 0.004990075 5.1227657e-06 0.0555939 0.05599835 0.05629012
        0.05654814 0.056763053 0.05692506 0.057023473 0.057046086 0.05697842
        0.056802962 0.05649869 0.056041326 0.05540457 0.054562367 0.0534915
        0.052173663 0.05059614 0.04875092 0.046632703 0.04423681 0.04155773
        0.038589068 0.03532493 0.03176247 0.027904877 0.023764174 0.019363081
        0.014735804 0.009927648 0.00499368 4.881841e-06 0.055660613 0.05606561
        0.05635834 0.05661761 0.05683413 0.05699821 0.05709924 0.05712504
        0.057061005 0.056889333 0.056588598 0.05613409 0.055499166 0.05465751
        0.053585667 0.052265085 0.05068288 0.04883108 0.046704754 0.044299833
        0.041611526 0.03863407 0.035361983 0.031792577 0.027929028 0.023783214
        0.01937768 0.014746456 0.009934692 0.004997298 4.6069254e-06 0.055739943
        0.056145664 0.05643962 0.056700412 0.056918837 0.05708525 0.057189062
        0.05721798 0.057157114 0.056988217 0.05668939 0.056235593 0.05560008
        0.054756586 0.0536817 0.052356817 0.050768923 0.048910037 0.046775468
        0.04436161 0.041664284 0.03867827 0.035398442 0.03182227 0.027952902
        0.023802076 0.01939217 0.014757052 0.009941717 0.0050009266 4.2998336e-06
        0.05583378 0.056240458 0.056535996 0.0567987 0.057019416 0.05718851
        0.057295293 0.05732718 0.05726879 0.05710129 0.056802314 0.056346666
        0.0557078 0.054859847 0.053779718 0.052448884 0.050854247 0.048987743
        0.046844777 0.044422083 0.041715953 0.03872162 0.035434287 0.031851538
        0.027976483 0.023820747 0.019406544 0.014767585 0.00994872 0.0050045615
        3.9627766e-06 0.0559446 0.056352556 0.05665017 0.056915324 0.057138857
        0.057311058 0.05742096 0.057455454 0.057398446 0.057230428 0.056928657
        0.056468077 0.055822723 0.054967456 0.05387974 0.052541256 0.0509388
        0.049064133 0.046912614 0.044481184 0.041766476 0.038764093 0.035469487
        0.03188035 0.027999759 0.023839219 0.019420795 0.0147780515 0.009955697
        0.0050081997 3.5984403e-06 0.056075685 0.056485362 0.056785773 0.05705412
        0.057281177 0.05745697 0.05756999 0.057606306 0.05754892 0.05737766
        0.057069678 0.056600478 0.0559451 0.055079445 0.05398172 0.05263385
        0.051022496 0.04913912 0.046978913 0.04453885 0.041815802 0.038805634
        0.03550401 0.031908687 0.028022716 0.02385748 0.019434914 0.014788442
        0.009962641 0.0050118375 3.210085e-06 0.056231488 0.056643557 0.056947816
        0.05722043 0.05745192 0.05763175 0.057747487 0.05778406 0.05772347
        0.057545114 0.05722654 0.056744345 0.056075 0.055195715 0.054085504
        0.05272653 0.05110521 0.049212605 0.04704358 0.04459502 0.04186388
        0.038846213 0.035537828 0.031936534 0.028045336 0.023875521 0.019448895
        0.014798753 0.009969548 0.005015469 2.80168e-06 0.056418255 0.056833748
        0.057143487 0.0574219 0.057658914 0.057842925 0.057960086 0.05799394
        0.05792569 0.05773488 0.05740017 0.056899883 0.05621228 0.055315997
        0.054190833 0.052819073 0.05118678 0.04928447 0.047106534 0.04464962
        0.041910656 0.03888579 0.035570912 0.031963866 0.028067607 0.02389333
        0.019462727 0.014808974 0.00997641 0.005019089 2.378094e-06 0.056645114
        0.057065748 0.057383567 0.057669967 0.057913564 0.058100924 0.058216322
        0.05824208 0.058159318 0.05794876 0.057591103 0.057066936 0.056356523
        0.055439856 0.054297347 0.052911226 0.051267028 0.04935458 0.047167674
        0.044702575 0.041956075 0.03892432 0.035603236 0.031990662 0.028089512
        0.023910895 0.019476399 0.014819099 0.009983221 0.0050226906 1.945363e-06
        0.05692623 0.05735508 0.05768533 0.057982605 0.058232896 0.058420125
        0.058526833 0.058535177 0.058427773 0.058187928 0.057799246 0.057244893
        0.056507014 0.05556667 0.054404583 0.05300266 0.051345736 0.049422797
        0.0472269 0.044753816 0.04200009 0.038961772 0.03563477 0.032016903
        0.028111039 0.023928205 0.019489905 0.014829118 0.009989971 0.005026266
        1.5110888e-06 0.057285603 0.057728816 0.058078885 0.058389567 0.05864268
        0.058819856 0.058903936 0.058879644 0.058733396 0.058452435 0.058023658
        0.057432584 0.056662716 0.05569565 0.054511987 0.053093012 0.05142267
        0.04948897 0.04728412 0.044803284 0.042042654 0.038998116 0.035665497
        0.032042578 0.028132172 0.02394525 0.019503232 0.014839021 0.009996652
        0.0050298045 1.0850483e-06 0.057769857 0.05824179 0.058622554 0.058942217
        0.059180986 0.059323817 0.059359614 0.059279718 0.059076257 0.058740627
        0.058262337 0.05762824 0.056822285 0.055825867 0.054618955 0.05318192
        0.051497616 0.049552966 0.04733925 0.04485093 0.04208374 0.039033327
        0.0356954 0.03206767 0.028152907 0.023962019 0.019516375 0.0148487985
        0.010003251 0.005033295 6.80105e-07 0.058492307 0.059035107 0.059440937
        0.05972644 0.059896205 0.059953492 0.059899703 0.05973388 0.059452344
        0.059048362 0.058511876 0.057829373 0.056984015 0.055956207 0.054724794
        0.053268954 0.051570322 0.049614653 0.04739222 0.044896703 0.04212332
        0.039067395 0.03572447 0.032092176 0.028173232 0.023978507 0.019529318
        0.014858439 0.010009754 0.0050367215 3.1306638e-07 0.05984004 0.060237873
        0.06050926 0.06065925 0.06069649 0.060629193 0.060462497 0.060197365
        0.059830483 0.059354484 0.058758173 0.058026727 0.05714196 0.056082975
        0.05482736 0.053353023 0.051640376 0.049674027 0.04744323 0.044940885
        0.042161647 0.039100505 0.03575283 0.03211616 0.028193178 0.023994716
        0.019542057 0.014867926 0.010016145 0.005040066 0
      </DataArray>
      <DataArray type="Float32" Name="aspect_ratio" format="ascii" RangeMin="1.0244344472885132" RangeMax="11.79596996307373">
        3.0119162 2.529987 2.155566 1.8372808 1.5668112 1.3370379
        1.141879 1.0244344 1.196989 1.3967156 1.6271758 1.8921311
        2.1954432 2.5409248 2.9321282 3.3720577 3.8628056 4.4051037
        4.9978046 5.6373205 6.317057 7.0269256 7.753012 8.477528
        9.179144 9.833813 10.416088 10.900904 11.26565 11.492278
        11.645863 3.0078757 2.5266032 2.1528375 1.8351617 1.5651957
        1.3358135 1.1409497 1.0251795 1.1977715 1.3975425 1.6280546
        1.8930701 2.1964514 2.542013 2.9333081 3.373345 3.8642182
        4.4066625 4.999532 5.639238 6.3191833 7.029273 7.755586
        8.480326 9.182157 9.837021 10.419465 10.904418 11.269263
        11.495946 11.649566 3.0060039 2.5244179 2.1507003 1.8332962
        1.5636679 1.3346065 1.1400131 1.0259391 1.1985717 1.3983872
        1.62895 1.8940234 2.1974716 2.5431101 2.9344947 3.374636
        3.865632 4.4082203 5.0012565 5.641151 6.3213034 7.031613
        7.758152 8.483115 9.18516 9.84022 10.422836 10.9079275
        11.272874 11.499615 11.653272 3.0046525 2.5229192 2.1491678
        1.8318481 1.5623869 1.3335286 1.1391373 1.0266726 1.1993589
        1.3992269 1.6298444 1.8949776 2.1984923 2.5442069 2.935679
        3.3759224 3.867039 4.4097686 5.002969 5.6430492 6.3234067
        7.033935 7.7606993 8.485887 9.188146 9.843405 10.426193
        10.9114275 11.276478 11.503282 11.65698 3.0034842 2.5217085
        2.1479528 1.8306766 1.5613085 1.33258 1.1383346 1.0273678
        1.2001225 1.4000537 1.630733 1.8959298 2.1995132 2.5453038
        2.9368632 3.3772078 3.8684428 4.4113116 5.004674 5.6449385
        6.325499 7.0362444 7.763233 8.488645 9.191118 9.846577
        10.429541 10.91492 11.280078 11.506947 11.66069 3.0024004
        2.5206437 2.1469145 1.8296804 1.5603784 1.3317406 1.137603
        1.0280204 1.200856 1.4008617 1.6316116 1.896878 2.2005336
        2.5464025 2.9380493 3.3784947 3.8698475 4.4128547 5.006377
        5.646824 6.327586 7.0385475 7.7657595 8.491393 9.194083
        9.849741 10.432882 10.918407 11.283675 11.5106125 11.664404
        3.0013626 2.519662 2.145982 1.8287977 1.5595541 1.3309877
        1.136934 1.0286311 1.2015566 1.401647 1.6324762 1.8978194
        2.2015522 2.547502 2.9392383 3.379785 3.8712554 4.4144
        5.008082 5.6487093 6.329672 7.040848 7.7682815 8.494139
        9.197043 9.8529005 10.436219 10.921892 11.2872715 11.514278
        11.668119 3.000352 2.5187316 2.1451168 1.8279908 1.5588051
        1.3303014 1.1363177 1.029203 1.202224 1.4024067 1.6333238
        1.8987509 2.2025664 2.5486016 2.9404297 3.3810792 3.8726678
        4.4159493 5.0097895 5.650597 6.3317585 7.043147 7.7708025
        8.496881 9.200001 9.856058 10.439555 10.925377 11.290869
        11.517946 11.671838 2.9993587 2.517835 2.1442966 1.8272362
        1.5581107 1.3296664 1.1357446 1.0297409 1.2028599 1.4031403
        1.634152 1.8996702 2.2035747 2.5496998 2.9416225 3.382377
        3.874085 4.417504 5.0115023 5.6524887 6.3338475 7.0454483
        7.773323 8.499622 9.202957 9.859215 10.442889 10.928861
        11.294465 11.521615 11.675558 2.9983766 2.5169613 2.1435075
        1.8265189 1.5574564 1.3290707 1.1352066 1.0302494 1.2034667
        1.4038482 1.63496 1.9005754 2.2045746 2.5507946 2.9428163
        3.3836782 3.8755069 4.419064 5.0132203 5.654385 6.3359404
        7.047752 7.7758455 8.502365 9.205914 9.862371 10.446224
        10.932344 11.298063 11.525287 11.679281 2.9974024 2.5161037
        2.1427407 1.8258287 1.5568321 1.3285054 1.1346968 1.0307328
        1.2040472 1.4045315 1.6357473 1.9014653 2.205565 2.551885
        2.9440095 3.3849819 3.8769333 4.42063 5.0149446 5.656287
        6.338038 7.050059 7.7783704 8.505109 9.20887 9.865527
        10.449559 10.935829 11.301662 11.528959 11.683007 2.9964335
        2.515258 2.1419907 1.8251587 1.5562307 1.327964 1.13421
        1.0311952 1.2046047 1.4051918 1.6365142 1.902339 2.2065442
        2.5529692 2.9452014 3.3862877 3.8783646 4.4222016 5.016675
        5.658195 6.340141 7.05237 7.7808986 8.507855 9.211829
        9.868686 10.452895 10.939315 11.3052635 11.532634 11.686736
        2.9954684 2.514421 2.1412528 1.8245041 1.5556469 1.3274413
        1.1337417 1.0316398 1.2051419 1.4058311 1.6372615 1.9031965
        2.2075117 2.5540466 2.9463906 3.387595 3.8797998 4.423779
        5.018412 5.6601095 6.34225 7.0546865 7.78343 8.510604
        9.214789 9.871844 10.456232 10.942802 11.308866 11.53631
        11.690467 2.994506 2.5135906 2.1405241 1.8238616 1.5550768
        1.3269336 1.1332887 1.0320696 1.2056615 1.4064515 1.6379902
        1.9040376 2.2084668 2.5551162 2.9475765 3.3889027 3.8812387
        4.4253626 5.020156 5.662031 6.344365 7.0570083 7.785966
        8.513356 9.217752 9.875006 10.459572 10.946291 11.3124695
        11.539989 11.6942 2.9935455 2.5127652 2.139803 1.8232282
        1.5545179 1.3264381 1.1328483 1.0324868 1.2061659 1.4070545
        1.6387016 1.904863 2.2094092 2.5561771 2.9487586 3.3902106
        3.8826811 4.426952 5.021907 5.66396 6.346487 7.0593357
        7.788507 8.516112 9.220718 9.878169 10.462913 10.949782
        11.316076 11.543671 11.697936 2.9925864 2.5119436 2.1390877
        1.8226024 1.5539677 1.3259523 1.132418 1.0328935 1.2066569
        1.4076425 1.6393968 1.9056733 2.2103388 2.5572293 2.949936
        3.3915179 3.8841267 4.4285464 5.023665 5.6658964 6.3486156
        7.061669 7.791053 8.518872 9.223688 9.881336 10.466256
        10.953276 11.319685 11.547355 11.701674 2.9916284 2.511125
        2.1383767 1.8219824 1.5534246 1.3254746 1.1319964 1.0332913
        1.2071365 1.4082168 1.6400774 1.9064691 2.2112563 2.5582724
        2.9511085 3.3928246 3.8855748 4.4301467 5.0254297 5.66784
        6.350752 7.064009 7.793604 8.521636 9.226661 9.884505
        10.469602 10.956771 11.323296 11.551041 11.705415 2.9906714
        2.510309 2.1376696 1.8213673 1.5528874 1.3250036 1.131582
        1.0336816 1.2076062 1.408779 1.6407444 1.9072514 2.2121618
        2.5593064 2.9522758 3.3941302 3.8870258 4.4317527 5.027202
        5.6697917 6.3528957 7.066356 7.7961607 8.5244055 9.229637
        9.887677 10.472951 10.960269 11.326909 11.554729 11.709159
        2.9897146 2.5094948 2.1369653 1.8207561 1.552355 1.3245381
        1.1311737 1.0340654 1.2080673 1.4093305 1.6413993 1.9080211
        2.2130556 2.5603316 2.9534378 3.3954346 3.8884792 4.4333634
        5.028981 5.671751 6.355047 7.06871 7.7987237 8.52718
        9.232618 9.890853 10.476302 10.963769 11.330524 11.55842
        11.712905 2.9887586 2.5086823 2.1362636 1.8201481 1.5518266
        1.3240774 1.1307706 1.0344436 1.2085208 1.4098724 1.642043
        1.9087793 2.213939 2.5613484 2.9545949 3.3967378 3.889935
        4.43498 5.030768 5.6737185 6.357207 7.0710707 7.801293
        8.529959 9.235603 9.8940325 10.479657 10.967273 11.334144
        11.562114 11.716654 2.987803 2.5078714 2.135564 1.819543
        1.5513017 1.3236206 1.1303719 1.0348171 1.2089677 1.4104059
        1.6426767 1.9095267 2.214812 2.5623572 2.955747 3.39804
        3.8913934 4.4366016 5.032562 5.675694 6.359374 7.073439
        7.803869 8.532743 9.238592 9.897216 10.483015 10.970779
        11.337765 11.56581 11.720405 2.9868476 2.5070615 2.1348662
        1.8189402 1.5507796 1.3231672 1.1299771 1.0351865 1.2094088
        1.4109318 1.6433016 1.9102645 2.215676 2.5633585 2.9568946
        3.3993413 3.8928547 4.438229 5.034363 5.677678 6.36155
        7.075815 7.806451 8.535534 9.241587 9.900403 10.486377
        10.974289 11.341389 11.569509 11.724158 2.985893 2.5062528
        2.1341698 1.8183395 1.5502601 1.3227168 1.1295856 1.0355521
        1.2098448 1.4114511 1.6439184 1.9109937 2.2165318 2.5643532
        2.9580388 3.4006422 3.8943186 4.4398623 5.036172 5.6796703
        6.3637342 7.078199 7.80904 8.53833 9.244586 9.903594
        10.489741 10.977801 11.345016 11.573211 11.727915 2.9849389
        2.5054452 2.133475 1.8177406 1.5497428 1.3222691 1.1291971
        1.0359147 1.2102764 1.4119645 1.6445283 1.9117154 2.2173803
        2.5653427 2.9591796 3.4019432 3.8957858 4.441501 5.037988
        5.681671 6.3659267 7.0805907 7.8116364 8.541132 9.24759
        9.90679 10.493111 10.981317 11.348645 11.576915 11.731674
        2.9839852 2.504639 2.1327817 1.8171433 1.5492276 1.3218237
        1.1288114 1.0362743 1.2107038 1.4124728 1.645132 1.9124304
        2.2182229 2.5663273 2.9603186 3.403245 3.8972569 4.4431467
        5.039813 5.683681 6.3681283 7.0829906 7.81424 8.543941
        9.2506 9.90999 10.496483 10.984837 11.352278 11.580622
        11.7354355 2.9830327 2.5038338 2.1320899 1.8165479 1.5487144
        1.3213806 1.1284281 1.0366313 1.2111279 1.4129766 1.6457305
        1.9131402 2.2190607 2.5673084 2.961456 3.4045482 3.8987322
        4.4447985 5.0416455 5.6856995 6.370339 7.085399 7.8168507
        8.546756 9.253615 9.913196 10.49986 10.988359 11.355913
        11.5843315 11.7392 2.9820814 2.5030303 2.1313996 1.8159541
        1.5482031 1.3209397 1.1280471 1.0369861 1.2115488 1.4134766
        1.6463248 1.9138457 2.219895 2.5682878 2.9625938 3.405854
        3.9002125 4.4464574 5.043487 5.6877275 6.372558 7.087816
        7.8194695 8.549578 9.256637 9.916406 10.503241 10.991886
        11.359552 11.588045 11.742966 2.981132 2.5022287 2.130711
        1.8153622 1.5476937 1.3205009 1.1276683 1.0373389 1.2119671
        1.4139736 1.6469159 1.9145485 2.2207272 2.5692666 2.9637327
        3.4071634 3.9016984 4.448124 5.0453367 5.6897645 6.3747873
        7.090242 7.8220963 8.552406 9.259664 9.9196205 10.506627
        10.995417 11.363195 11.591761 11.746736 2.9801848 2.5014298
        2.130025 1.8147725 1.5471866 1.3200643 1.1272917 1.0376896
        1.2123832 1.4144684 1.6475052 1.9152501 2.2215595 2.5702465
        2.9648745 3.4084773 3.9031909 4.4497986 5.0471964 5.6918116
        6.377026 7.0926766 7.824731 8.555243 9.262697 9.922842
        10.510017 10.998951 11.366841 11.595479 11.750507 2.979241
        2.500634 2.1293414 1.8141854 1.546682 1.31963 1.1269171
        1.0380387 1.2127978 1.4149619 1.648094 1.9159521 2.2223933
        2.5712295 2.9660208 3.4097972 3.904691 4.451482 5.0490656
        5.6938686 6.3792744 7.095121 7.8273745 8.558086 9.265738
        9.926068 10.513412 11.00249 11.370491 11.599201 11.754282
        2.9783015 2.4998424 2.1286616 1.8136016 1.5461802 1.3191983
        1.1265447 1.0383866 1.2132114 1.4154556 1.6486841 1.9166569
        2.2232313 2.5722175 2.9671736 3.4111247 3.9061995 4.453175
        5.050945 5.695936 6.3815336 7.0975747 7.830027 8.560938
        9.2687845 9.929301 10.516813 11.006033 11.374145 11.602926
        11.758059 2.9773686 2.499057 2.127987 1.813022 1.5456821
        1.3187693 1.1261742 1.0387336 1.2136253 1.4159509 1.6492776
        1.9173666 2.2240756 2.573213 2.9683342 3.412461 3.9077177
        4.4548783 5.052835 5.698015 6.3838034 7.100039 7.832689
        8.563798 9.27184 9.932541 10.52022 11.009582 11.377802
        11.606654 11.761838 2.9764447 2.4982798 2.1273193 1.812448
        1.5451883 1.3183434 1.1258051 1.0390807 1.214041 1.4164501
        1.6498772 1.9180844 2.224929 2.5742185 2.9695053 3.4138079
        3.909247 4.4565935 5.054737 5.7001057 6.3860846 7.1025143
        7.835361 8.566668 9.274903 9.935787 10.523633 11.013135
        11.381464 11.610386 11.76562 2.9755342 2.497515 2.126661
        1.8118817 1.5446998 1.3179206 1.1254371 1.0394292 1.2144607
        1.4169561 1.6504861 1.9188133 2.2257948 2.5752366 2.970689
        3.415167 3.9107885 4.4583206 5.0566516 5.702209 6.388378
        7.105001 7.8380437 8.569547 9.277975 9.939042 10.527052
        11.016694 11.38513 11.6141205 11.769405 2.9746437 2.4967675
        2.1260169 1.8113253 1.5442177 1.3175005 1.1250683 1.0397815
        1.2148876 1.4174728 1.6511086 1.9195576 2.2266765 2.5762703
        2.9718878 3.416541 3.912344 4.4600616 5.05858 5.7043257
        6.3906846 7.1075006 7.8407383 8.572437 9.281056 9.942306
        10.530479 11.020259 11.388802 11.617859 11.773192 2.9737847
        2.4960468 2.1253924 1.8107823 1.5437427 1.3170813 1.1246958
        1.0401412 1.2153265 1.4180055 1.6517495 1.9203215 2.227578
        2.5773232 2.9731042 3.4179316 3.9139156 4.461818 5.0605235
        5.706457 6.393006 7.110014 7.843446 8.575339 9.284149
        9.945579 10.533915 11.023831 11.392478 11.621602 11.776982
        2.972978 2.495368 2.1247976 1.8102564 1.5432731 1.3166587
        1.1243138 1.0405145 1.2157842 1.4185606 1.652415 1.9211104
        2.2285032 2.5783985 2.9743416 3.419341 3.9155052 4.4635925
        5.062484 5.7086053 6.3953433 7.1125426 7.846168 8.578256
        9.287255 9.948862 10.537359 11.027411 11.396161 11.625349
        11.780774 2.9722657 2.494758 2.1242447 1.8097486 1.5428026
        1.3162223 1.1239119 1.0409108 1.2162701 1.4191467 1.6531122
        1.92193 2.2294576 2.5795002 2.975603 3.4207733 3.9171157
        4.4653864 5.064464 5.7107725 6.3977 7.11509 7.8489084
        8.581188 9.290376 9.95216 10.540816 11.031002 11.399851
        11.629101 11.78457 2.9717498 2.4942634 2.1237464 1.8092486
        1.5423102 1.3157502 1.1234717 1.0413442 1.2167962 1.4197737
        1.6538489 1.9227867 2.230446 2.580633 2.976893 3.4222312
        3.9187508 4.467204 5.0664673 5.7129626 6.4000783 7.1176586
        7.851669 8.58414 9.293514 9.955474 10.544287 11.034602
        11.403549 11.632858 11.788367 2.971743 2.4939563 2.1232858
        1.8087057 1.5417434 1.3152014 1.1229664 1.0418321 1.2173761
        1.4204514 1.6546322 1.9236854 2.231472 2.5817993 2.978213
        3.4237175 3.9204123 4.469047 5.068495 5.715177 6.4024806
        7.120251 7.854452 8.587113 9.296672 9.958805 10.547772
        11.038216 11.407257 11.6366205 11.792167 2.9735885 2.4943814
        2.1230266 1.8081475 1.5410957 1.3145686 1.1223937 1.0423733
        1.2180057 1.421174 1.6554556 1.9246194 2.2325292 2.582993
        2.9795575 3.425225 3.9220934 4.470908 5.07054 5.7174077
        6.4048986 7.1228576 7.8572493 8.590099 9.299842 9.962147
        10.551267 11.041836 11.41097 11.640388 11.79597
      </DataArray>
      <DataArray type="Float32" Name="jacobian" format="ascii" RangeMin="0.0011931104818359017" RangeMax="0.042313430458307266">
        0.0011931105 0.0014224818 0.001671388 0.0019624769 0.0023025176 0.002699208
        0.0031612366 0.0036983276 0.00432125 0.005041781 0.0058725895 0.0068270215
        0.007918748 0.0091612395 0.010567023 0.0121466825 0.013907578 0.01585226
        0.017976617 0.020267857 0.022702448 0.02524434 0.027843785 0.030437145
        0.032948136 0.035290774 0.037374116 0.03910864 0.040413603 0.04122455
        0.041774977 0.0011948217 0.0014236899 0.0016722017 0.0019630096 0.002302874
        0.0026994783 0.0031614956 0.0036986368 0.004321663 0.0050423443 0.0058733467
        0.006828015 0.007920021 0.0091628395 0.0105690025 0.012149106 0.013910521
        0.015855812 0.017980875 0.020272912 0.022708386 0.025251223 0.027851649
        0.030445993 0.03295794 0.035301477 0.03738562 0.03912082 0.040426303
        0.041237593 0.04178826 0.0011956163 0.0014244278 0.001672884 0.0019636224
        0.002303422 0.0026999826 0.0031619915 0.003699167 0.0043222727 0.00504308
        0.005874254 0.006829139 0.007921408 0.009164539 0.010571071 0.012151609
        0.013913539 0.015859434 0.0179852 0.020278035 0.02271439 0.02525817
        0.027859574 0.030454902 0.032967802 0.035312228 0.037397165 0.03913303
        0.040439032 0.041250654 0.041801553 0.001196186 0.0014250732 0.0016735718
        0.0019643328 0.002304139 0.0027007014 0.0031627202 0.003699928 0.0043230997
        0.005044013 0.005875337 0.006830419 0.007922934 0.009166364 0.010573254
        0.012154221 0.013916661 0.01586316 0.017989626 0.020283261 0.022720497
        0.025265222 0.027867602 0.030463906 0.032977756 0.03532306 0.037408784
        0.039145302 0.0404518 0.04126374 0.041814856 0.0011966742 0.0014256515
        0.0016742229 0.001965051 0.002304915 0.0027015263 0.0031635908 0.003700851
        0.004324094 0.005045108 0.0058765714 0.0068318364 0.007924583 0.009168298
        0.010575536 0.012156923 0.0139198685 0.015866967 0.017994136 0.02028857
        0.022726687 0.025272356 0.027875712 0.030472992 0.03298778 0.035333958
        0.037420455 0.03915762 0.040464602 0.041276846 0.041828167 0.0011971239
        0.0014261886 0.0016748405 0.0019657535 0.0023057028 0.002702396 0.0031645386
        0.0037018778 0.0043252083 0.005046329 0.0058779283 0.006833368 0.007926335
        0.009170325 0.0105779 0.0121597 0.013923145 0.015870841 0.01799871
        0.020293942 0.022732943 0.025279555 0.027883884 0.030482136 0.03299786
        0.03534491 0.037432175 0.039169975 0.040477432 0.041289974 0.04184149
        0.001197552 0.0014267004 0.0016754336 0.0019664376 0.0023064846 0.0027032795
        0.0031655247 0.0037029665 0.004326404 0.0050476436 0.0058793826 0.0068349936
        0.007928174 0.009172428 0.010580333 0.012162538 0.013926477 0.015874768
        0.018003337 0.020299368 0.022739252 0.025286807 0.027892107 0.03049133
        0.03300799 0.0353559 0.03744393 0.039182357 0.040490285 0.041303113
        0.041854817 0.0011979669 0.0014271956 0.0016760097 0.0019671058 0.0023072565
        0.0027041635 0.0031665268 0.0037040901 0.0043276525 0.0050490247 0.0058809114
        0.0068366956 0.007930086 0.009174599 0.010582826 0.01216543 0.013929859
        0.015878743 0.018008009 0.020304838 0.022745604 0.0252941 0.027900374
        0.030500563 0.033018153 0.035366926 0.03745571 0.039194766 0.040503155
        0.04131627 0.041868154 0.0011983732 0.0014276799 0.0016765737 0.001967762
        0.0023080176 0.0027050423 0.003167533 0.003705231 0.004328933 0.0050504515
        0.005882496 0.0068384577 0.007932058 0.009176826 0.01058537 0.012168367
        0.013933283 0.015882757 0.018012721 0.020310348 0.022751996 0.025301434
        0.027908677 0.030509833 0.033028353 0.03537798 0.03746752 0.039207194
        0.040516045 0.04132944 0.0418815 0.0011987736 0.0014281566 0.0016771291
        0.0019684087 0.0023087699 0.0027059137 0.003168537 0.0037063784 0.0043302313
        0.0050519076 0.0058841193 0.0068402644 0.007934076 0.009179099 0.010587956
        0.012171344 0.013936745 0.015886808 0.018017469 0.020315893 0.022758424
        0.025308803 0.027917014 0.030519135 0.03303858 0.035389062 0.037479352
        0.039219644 0.04052895 0.04134262 0.041894857 0.00119917 0.0014286279
        0.0016776782 0.0019690485 0.0023095142 0.002706778 0.0031695361 0.0037075253
        0.004331537 0.00505338 0.0058857678 0.006842104 0.00793613 0.009181408
        0.0105905775 0.012174356 0.013940239 0.01589089 0.01802225 0.020321473
        0.022764886 0.025316205 0.027925383 0.030528465 0.033048835 0.03540017
        0.037491206 0.039232112 0.040541872 0.04135581 0.04190822 0.0011995635
        0.001429095 0.0016782227 0.0019696828 0.0023102523 0.0027076355 0.003170529
        0.0037086683 0.0043328432 0.00505486 0.0058874316 0.006843964 0.007938211
        0.009183746 0.010593228 0.012177396 0.0139437625 0.015895003 0.018027062
        0.020327084 0.022771379 0.025323637 0.027933782 0.030537825 0.033059113
        0.0354113 0.037503082 0.039244596 0.040554807 0.041369017 0.041921593
        0.0011999548 0.0014295593 0.0016787637 0.0019703123 0.0023109848 0.0027084863
        0.0031715145 0.003709805 0.004334145 0.00505634 0.0058891005 0.006845836
        0.007940306 0.009186102 0.0105959 0.012180459 0.013947312 0.015899144
        0.018031903 0.020332726 0.022777902 0.0253311 0.027942209 0.03054721
        0.033069417 0.035422448 0.037514973 0.039257098 0.040567756 0.04138223
        0.04193498 0.0012003444 0.0014300214 0.0016793017 0.0019709386 0.0023117128
        0.0027093312 0.0031724928 0.0037109335 0.00433544 0.0050578145 0.005890768
        0.006847711 0.00794241 0.00918847 0.010598587 0.0121835405 0.0139508825
        0.015903309 0.01803677 0.020338396 0.022784455 0.02533859 0.027950661
        0.030556617 0.03307974 0.035433616 0.037526883 0.039269615 0.040580716
        0.041395456 0.04194837 0.0012007329 0.0014304814 0.0016798375 0.0019715617
        0.0023124365 0.0027101706 0.003173464 0.0037120532 0.004336725 0.00505928
        0.0058924276 0.0068495814 0.007944515 0.009190843 0.010601284 0.012186637
        0.013954472 0.015907498 0.018041665 0.020344093 0.022791035 0.025346108
        0.02795914 0.030566048 0.03309009 0.035444804 0.037538808 0.039282143
        0.04059369 0.041408695 0.04196177 0.0012011203 0.0014309402 0.0016803714
        0.0019721822 0.0023131564 0.0027110043 0.0031744274 0.003713163 0.0043379976
        0.005060732 0.005894075 0.0068514417 0.007946611 0.0091932155 0.010603985
        0.012189743 0.013958078 0.015911708 0.018046584 0.020349817 0.022797644
        0.025353651 0.027967643 0.030575503 0.033100452 0.03545601 0.03755075
        0.039294686 0.040606674 0.041421942 0.04197518 0.0012015072 0.0014313977
        0.0016809035 0.0019728001 0.0023138726 0.0027118328 0.003175383 0.003714262
        0.0043392573 0.0050621685 0.0058957054 0.0068532857 0.007948697 0.009195578
        0.010606685 0.012192856 0.013961696 0.015915936 0.018051526 0.02035557
        0.022804279 0.025361221 0.02797617 0.03058498 0.03311084 0.035467234
        0.037562706 0.039307244 0.04061967 0.0414352 0.0419886 0.0012018933
        0.0014318541 0.0016814339 0.0019734155 0.002314585 0.0027126553 0.0031763304
        0.0037153498 0.0043405015 0.0050635864 0.005897315 0.0068551092 0.007950762
        0.009197929 0.010609378 0.012195971 0.013965325 0.015920183 0.018056491
        0.020361347 0.022810942 0.025368817 0.027984722 0.030594476 0.033121243
        0.035478473 0.03757468 0.039319813 0.04063268 0.041448466 0.04200203
        0.0012022789 0.0014323095 0.0016819629 0.0019740283 0.0023152935 0.002713472
        0.003177269 0.0037164248 0.0043417285 0.005064983 0.005898901 0.006856907
        0.007952806 0.009200262 0.010612062 0.012199084 0.013968963 0.015924446
        0.01806148 0.02036715 0.02281763 0.02537644 0.027993295 0.030603994
        0.033131663 0.035489727 0.037586663 0.039332397 0.0406457 0.041461743
        0.042015467 0.0012026641 0.0014327639 0.0016824901 0.0019746386 0.0023159976
        0.0027142821 0.0031781977 0.0037174858 0.004342937 0.0050663557 0.0059004584
        0.0068586757 0.00795482 0.009202572 0.010614732 0.012202195 0.013972607
        0.015928725 0.01806649 0.020372977 0.022824343 0.025384083 0.028001891
        0.030613532 0.0331421 0.035500996 0.037598662 0.03934499 0.04065873
        0.04147503 0.042028915 0.001203049 0.0014332173 0.0016830156 0.001975246
        0.0023166973 0.002715085 0.0031791155 0.0037185315 0.0043441243 0.005067702
        0.005901985 0.0068604113 0.007956804 0.009204855 0.010617385 0.012205298
        0.013976257 0.015933016 0.018071521 0.02037883 0.022831084 0.025391754
        0.02801051 0.030623088 0.033152558 0.03551228 0.037610672 0.039357595
        0.04067177 0.041488327 0.04204237 0.0012034334 0.0014336697 0.0016835392
        0.00197585 0.0023173913 0.0027158794 0.003180021 0.0037195596 0.0043452885
        0.0050690183 0.0059034764 0.006862109 0.00795875 0.009207109 0.010620017
        0.012208394 0.01397991 0.015937323 0.018076573 0.020384707 0.022837847
        0.025399448 0.02801915 0.030632664 0.03316303 0.03552358 0.037622694
        0.03937021 0.04068482 0.041501634 0.042055834 0.0012038173 0.0014341208
        0.0016840606 0.0019764502 0.0023180796 0.0027166647 0.0031809127 0.003720568
        0.004346426 0.005070302 0.0059049297 0.0068637654 0.0079606585 0.00920933
        0.010622626 0.01221148 0.013983565 0.015941642 0.018081645 0.020390607
        0.022844639 0.025407165 0.02802781 0.030642258 0.033173516 0.03553489
        0.03763473 0.039382838 0.04069788 0.04151495 0.04206931 0.0012042008
        0.0014345705 0.0016845794 0.001977046 0.0023187606 0.0027174389 0.0031817884
        0.003721554 0.0043475344 0.0050715487 0.0059063397 0.0068653775 0.007962523
        0.009211515 0.0106252115 0.0122145545 0.013987223 0.015945975 0.018086735
        0.020396532 0.022851452 0.025414906 0.028036492 0.03065187 0.033184018
        0.035546213 0.037646774 0.039395474 0.040710952 0.041528277 0.042082794
        0.0012045837 0.0014350187 0.001685095 0.0019776365 0.002319433 0.0027182
        0.0031826452 0.0037225145 0.0043486087 0.005072754 0.0059077037 0.0068669403
        0.007964343 0.009213663 0.010627771 0.012217618 0.013990881 0.015950318
        0.018091848 0.02040248 0.022858292 0.02542267 0.028045194 0.030661495
        0.033194534 0.03555755 0.037658833 0.03940812 0.04072403 0.04154161
        0.042096287 0.0012049659 0.0014354648 0.001685607 0.0019782207 0.0023200954
        0.0027189462 0.0031834804 0.0037234449 0.0043496448 0.0050739134 0.005909016
        0.0068684504 0.007966113 0.00921577 0.010630304 0.012220668 0.013994541
        0.015954675 0.01809698 0.020408453 0.022865154 0.025430456 0.028053913
        0.03067114 0.033205066 0.035568897 0.037670895 0.039420776 0.04073712
        0.041554954 0.042109787 0.0012053472 0.0014359085 0.0016861144 0.0019787971
        0.0023207457 0.002719674 0.0031842897 0.0037243408 0.004350637 0.005075021
        0.005910272 0.0068699047 0.0079678325 0.009217838 0.01063281 0.012223707
        0.013998203 0.015959045 0.018102132 0.02041445 0.02287204 0.025438264
        0.028062653 0.0306808 0.033215605 0.035580255 0.037682973 0.03943344
        0.040750213 0.04156831 0.0421233 0.0012057273 0.0014363491 0.0016866161
        0.0019793643 0.0023213811 0.0027203802 0.0031850683 0.0037251965 0.0043515796
        0.0050760717 0.0059114667 0.0068712994 0.0079695005 0.009219864 0.010635289
        0.012226733 0.014001867 0.015963428 0.018107302 0.020420467 0.02287895
        0.02544609 0.02807141 0.030690473 0.03322616 0.03559162 0.037695054
        0.03944611 0.04076332 0.041581668 0.042136822 0.001206106 0.0014367859
        0.0016871108 0.0019799196 0.0023219984 0.0027210596 0.0031858103 0.0037260046
        0.0043524653 0.005077058 0.0059125954 0.006872631 0.007971114 0.00922185
        0.010637743 0.012229749 0.014005534 0.015967824 0.018112496 0.020426508
        0.022885881 0.025453938 0.028080182 0.030700158 0.033236723 0.035602998
        0.037707146 0.03945879 0.04077643 0.041595038 0.04215035 0.0012064829
        0.0014372177 0.0016875964 0.00198046 0.002322593 0.0027217064 0.0031865085
        0.0037267574 0.004353285 0.005077973 0.0059136525 0.0068738973 0.007972673
        0.0092237955 0.010640173 0.012232756 0.014009205 0.015972234 0.018117705
        0.020432571 0.022892833 0.025461804 0.028088968 0.030709855 0.033247296
        0.03561438 0.037719246 0.039471474 0.04078955 0.041608416 0.04216389
        0.001206857 0.0014376432 0.0016880705 0.0019809818 0.002323159 0.0027223132
        0.0031871533 0.0037274444 0.0043540304 0.0050788093 0.0059146336 0.0068750964
        0.007974177 0.009225703 0.01064258 0.012235756 0.014012881 0.015976656
        0.018122936 0.020438654 0.022899805 0.025469687 0.02809777 0.030719563
        0.033257876 0.035625767 0.037731346 0.039484166 0.040802676 0.0416218
        0.04217744 0.0012072277 0.0014380601 0.0016885295 0.0019814789 0.002323689
        0.0027228694 0.0031877335 0.0037280542 0.00435469 0.0050795595 0.005915534
        0.0068762265 0.007975629 0.009227574 0.010644968 0.012238751 0.014016563
        0.015981095 0.018128185 0.020444758 0.022906795 0.025477584 0.028106581
        0.030729279 0.03326846 0.03563716 0.037743453 0.03949686 0.040815808
        0.041635197 0.042190995 0.0012075936 0.0014384654 0.0016889682 0.001981944
        0.002324172 0.0027233625 0.0031882345 0.003728573 0.004355254 0.005080216
        0.005916352 0.0068772887 0.00797703 0.009229412 0.010647338 0.012241742
        0.014020252 0.015985547 0.018133452 0.020450879 0.0229138 0.025485493
        0.028115401 0.030739 0.03327905 0.035648555 0.03775556 0.03950956
        0.040828943 0.041648597 0.042204563 0.0012079525 0.001438855 0.0016893792
        0.0019823662 0.0023245937 0.0027237753 0.003188639 0.003728985 0.00435571
        0.005080773 0.0059170844 0.006878285 0.007978385 0.009231222 0.010649695
        0.012244732 0.014023949 0.015990013 0.018138735 0.020457016 0.02292082
        0.025493413 0.028124228 0.030748723 0.033289637 0.03565995 0.03776767
        0.03952226 0.040842082 0.041662 0.042218138 0.0012083013 0.0014392217
        0.0016897514 0.0019827292 0.0023249337 0.0027240852 0.0031889253 0.0037292736
        0.004356047 0.0050812257 0.005917733 0.00687922 0.0079796985 0.009233007
        0.010652043 0.012247723 0.014027654 0.015994491 0.018144032 0.020463169
        0.02292785 0.025501339 0.028133057 0.030758446 0.033300225 0.03567134
        0.03777978 0.03953496 0.040855225 0.041675415 0.042231724 0.0012086348
        0.0014395545 0.0016900669 0.0019830086 0.002325163 0.002724263 0.0031890683
        0.0037294207 0.0043562576 0.0050815735 0.005918302 0.006880098 0.007980976
        0.009234774 0.010654383 0.012250716 0.014031368 0.01599898 0.01814934
        0.020469327 0.022934886 0.025509264 0.028141882 0.030768162 0.0333108
        0.035682723 0.037791874 0.039547656 0.040868368 0.041688833 0.042245317
        0.0012089434 0.0014398346 0.0016902965 0.001983167 0.002325241 0.0027242713
        0.0031890408 0.0037294116 0.0043563372 0.0050818203 0.005918799 0.0068809288
        0.007982226 0.009236527 0.010656719 0.01225371 0.014035087 0.016003476
        0.018154655 0.02047549 0.022941917 0.025517184 0.028150696 0.030777866
        0.033321366 0.035694093 0.037803967 0.039560344 0.040881507 0.041702252
        0.042258922 0.0012092082 0.0014400259 0.0016903881 0.0019831436 0.0023251104
        0.0027240666 0.0031888173 0.0037292384 0.0043562897 0.005081976 0.0059192344
        0.006881722 0.0079834545 0.009238268 0.010659051 0.012256705 0.014038808
        0.016007975 0.018159967 0.020481646 0.02294894 0.02552509 0.028159492
        0.030787546 0.03333191 0.03570544 0.037816036 0.03957302 0.040894642
        0.041715674 0.042272534 0.0012093844 0.0014400516 0.0016902437 0.001982843
        0.0023246978 0.002723607 0.0031883845 0.003728907 0.004356131 0.0050820583
        0.0059196246 0.006882488 0.007984667 0.009240001 0.0106613785 0.012259697
        0.014042523 0.016012464 0.018165266 0.020487783 0.022955937 0.025532965
        0.028168254 0.030797193 0.033342414 0.035716757 0.03782808 0.039585676
        0.040907767 0.041729096 0.042286158 0.0012093361 0.0014397153 0.0016896708
        0.001982128 0.0023239343 0.0027228785 0.003187762 0.0037284512 0.0043558967
        0.0050820974 0.005919993 0.0068832445 0.007985877 0.009241734 0.010663704
        0.012262683 0.014046231 0.01601694 0.018170549 0.020493899 0.022962905
        0.025540803 0.028176975 0.030806797 0.03335288 0.035728037 0.037840094
        0.039598312 0.04092088 0.04174252 0.04229979 0.0012084888 0.0014387501
        0.0016886574 0.0019811364 0.0023230207 0.0027220887 0.003187135 0.0037280244
        0.004355708 0.00508219 0.005920415 0.0068840515 0.007987132 0.009243505
        0.010666064 0.012265699 0.014049962 0.016021434 0.018175842 0.020500017
        0.022969872 0.025548637 0.028185688 0.030816391 0.033363335 0.03573931
        0.0378521 0.03961094 0.04093399 0.04175594 0.04231343
      </DataArray>
    </PointData>
    <CellData>
    </CellData>
    <Points>
      <DataArray type="Float32" Name="Points" NumberOfComponents="3" format="ascii" RangeMin="1.2736088576322127" RangeMax="1.4625372931525802">
        0.91321445 -0.025456201 0.8906627 0.9138627 -0.025456123 0.89066
        0.91462415 -0.025456032 0.89065677 0.91551816 -0.025455924 0.890653
        0.91656715 -0.025455797 0.89064854 0.91779715 -0.025455648 0.89064336
        0.9192382 -0.025455475 0.8906373 0.920925 -0.025455272 0.89063025
        0.9228972 -0.025455039 0.8906221 0.9252002 -0.025454773 0.8906127
        0.9278854 -0.025454469 0.8906021 0.9310107 -0.02545413 0.89059025
        0.93464094 -0.025453752 0.890577 0.93884754 -0.025453337 0.8905625
        0.94370884 -0.025452882 0.8905466 0.9493088 -0.025452388 0.8905293
        0.9557362 -0.025451854 0.8905106 0.96308243 -0.025451275 0.8904903
        0.97143865 -0.025450638 0.89046806 0.98089224 -0.025449924 0.89044315
        0.9915215 -0.025449097 0.8904141 1.0033902 -0.02544809 0.8903789
        1.0165408 -0.025446808 0.89033407 1.0309877 -0.02544511 0.8902746
        1.04671 -0.025442796 0.8901937 1.0636466 -0.025439616 0.8900825
        1.081691 -0.025435265 0.8899302 1.100692 -0.02542939 0.8897246
        1.1204545 -0.025421625 0.889453 1.1407472 -0.025411628 0.8891032
        1.1613114 -0.025399113 0.8886653 0.91313446 -0.024122583 0.89070016
        0.9137835 -0.024121683 0.8906975 0.9145457 -0.024120934 0.89069426
        0.91544044 -0.024120316 0.8906905 0.9164901 -0.024119802 0.8906861
        0.91772074 -0.024119373 0.89068085 0.9191625 -0.024119008 0.89067477
        0.92085004 -0.024118697 0.89066774 0.922823 -0.024118429 0.8906595
        0.9251269 -0.02411819 0.89065015 0.927813 -0.024117978 0.89063954
        0.9309394 -0.024117786 0.8906277 0.9345708 -0.024117604 0.89061445
        0.9387787 -0.024117425 0.8905999 0.9436415 -0.02411724 0.890584
        0.94924307 -0.024117038 0.89056665 0.9556724 -0.024116805 0.8905479
        0.9630207 -0.024116525 0.8905276 0.9713794 -0.024116179 0.8905053
        0.98083574 -0.024115734 0.8904804 0.9914682 -0.02411515 0.8904514
        1.0033405 -0.024114368 0.8904162 1.0164951 -0.024113296 0.8903713
        1.0309465 -0.024111798 0.8903119 1.0466738 -0.024109697 0.890231
        1.0636156 -0.024106752 0.8901198 1.0816658 -0.024102679 0.8899675
        1.1006727 -0.024097145 0.8897619 1.1204417 -0.024089806 0.88949025
        1.1407408 -0.024080338 0.88914037 1.1613114 -0.024068477 0.88870233
        0.91305447 -0.02278891 0.8907356 0.913704 -0.022787567 0.8907329
        0.9144667 -0.022786349 0.8907297 0.915362 -0.02278528 0.890726
        0.91641235 -0.022784369 0.89072156 0.9176437 -0.022783611 0.8907164
        0.9190863 -0.022782996 0.89071023 0.9207746 -0.022782512 0.89070326
        0.92274845 -0.022782147 0.89069504 0.9250532 -0.022781886 0.8906857
        0.92774034 -0.022781715 0.89067507 0.9308678 -0.022781625 0.8906631
        0.9345004 -0.022781605 0.89064986 0.9387097 -0.022781633 0.8906353
        0.9435739 -0.02278169 0.89061934 0.9491772 -0.022781758 0.890602
        0.95560837 -0.022781808 0.8905832 0.96295893 -0.022781814 0.8905629
        0.97132003 -0.022781739 0.89054066 0.98077923 -0.022781553 0.8905157
        0.9914148 -0.022781204 0.89048666 1.0032907 -0.022780636 0.89045143
        1.0164493 -0.022779763 0.8904066 1.0309052 -0.022778463 0.8903472
        1.0466374 -0.022776563 0.8902663 1.0635846 -0.02277385 0.8901551
        1.0816405 -0.022770049 0.89000285 1.1006535 -0.022764854 0.8897973
        1.1204287 -0.022757938 0.88952553 1.1407342 -0.022749 0.88917553
        1.1613114 -0.022737786 0.8887374 0.91297454 -0.02145518 0.89076906
        0.9136243 -0.021453546 0.8907664 0.9143874 -0.021451995 0.8907632
        0.91528326 -0.021450572 0.89075947 0.9163342 -0.021449309 0.89075506
        0.9175663 -0.021448234 0.8907498 0.91900957 -0.021447351 0.8907438
        0.9206987 -0.02144666 0.8907367 0.92267346 -0.021446157 0.8907285
        0.92497915 -0.02144583 0.8907191 0.9276673 -0.021445664 0.89070845
        0.9307959 -0.021445641 0.8906965 0.93442976 -0.021445744 0.8906833
        0.9386404 -0.02144595 0.8906687 0.9435062 -0.021446228 0.8906527
        0.9491112 -0.021446541 0.8906354 0.9555443 -0.021446858 0.8906166
        0.962897 -0.02144713 0.8905962 0.9712606 -0.021447316 0.8905739
        0.98072255 -0.021447374 0.89054894 0.9913614 -0.02144725 0.8905199
        1.0032408 -0.02144689 0.89048475 1.0164037 -0.021446208 0.8904399
        1.0308639 -0.021445096 0.8903805 1.046601 -0.021443397 0.8902996
        1.0635536 -0.021440905 0.89018846 1.0816152 -0.021437375 0.89003617
        1.1006342 -0.021432515 0.8898306 1.1204156 -0.02142602 0.8895588
        1.1407276 -0.021417607 0.88920873 1.1613114 -0.021407042 0.88877046
        0.91289455 -0.020121407 0.89080054 0.9135446 -0.020119557 0.8907978
        0.9143081 -0.020117756 0.89079463 0.91520435 -0.020116052 0.89079094
        0.91625583 -0.020114498 0.89078647 0.9174885 -0.020113135 0.89078134
        0.91893256 -0.020111991 0.8907752 0.92062247 -0.020111084 0.8907682
        0.9225981 -0.02011042 0.89076 0.9249048 -0.020109996 0.8907506
        0.92759407 -0.0201098 0.8907399 0.9307238 -0.020109816 0.890728
        0.9343589 -0.020110017 0.8907147 0.938571 -0.020110374 0.89070004
        0.94343835 -0.020110846 0.89068407 0.94904506 -0.020111388 0.8906667
        0.9554801 -0.020111948 0.8906479 0.962835 -0.020112475 0.89062756
        0.9712011 -0.02011291 0.8906052 0.98066586 -0.020113198 0.89058024
        0.99130785 -0.02011329 0.89055127 1.003191 -0.020113125 0.890516
        1.0163578 -0.02011263 0.89047116 1.0308226 -0.020111699 0.8904118
        1.0465647 -0.020110194 0.8903309 1.0635225 -0.020107925 0.8902198
        1.0815898 -0.02010466 0.8900675 1.1006149 -0.020100132 0.8898619
        1.1204026 -0.020094058 0.8895901 1.1407211 -0.020086167 0.8892399
        1.1613114 -0.02007625 0.8888015 0.91281456 -0.018787585 0.89083
        0.91346484 -0.018785568 0.8908273 0.9142287 -0.018783571 0.89082414
        0.9151253 -0.018781647 0.8908204 0.9161773 -0.01877985 0.890816
        0.91741055 -0.018778237 0.8908108 0.91885525 -0.018776853 0.8908047
        0.920546 -0.018775735 0.8907977 0.92252254 -0.018774904 0.89078945
        0.9248302 -0.018774366 0.89078003 0.9275205 -0.018774116 0.89076936
        0.9306515 -0.018774142 0.8907574 0.93428785 -0.018774414 0.89074415
        0.93850136 -0.018774897 0.8907294 0.9433703 -0.018775541 0.89071345
        0.9489788 -0.018776292 0.89069605 0.9554158 -0.018777084 0.8906772
        0.9627729 -0.018777847 0.8906569 0.9711415 -0.018778514 0.89063454
        0.9806091 -0.018779024 0.8906095 0.9912543 -0.01877932 0.8905805
        1.003141 -0.018779345 0.8905453 1.016312 -0.018779026 0.8905005
        1.0307813 -0.018778276 0.8904411 1.0465283 -0.018776959 0.89036024
        1.0634915 -0.018774906 0.8902491 1.0815645 -0.018771905 0.89009684
        1.1005956 -0.018767707 0.8898912 1.1203896 -0.01876205 0.88961935
        1.1407145 -0.018754685 0.8892691 1.1613114 -0.018745417 0.88883054
        0.91273457 -0.01745372 0.89085746 0.9133851 -0.017451573 0.8908548
        0.91414917 -0.017449418 0.8908516 0.9150462 -0.017447311 0.89084786
        0.9160986 -0.017445313 0.89084345 0.9173325 -0.017443486 0.89083827
        0.91877776 -0.01744189 0.8908322 0.9204693 -0.01744057 0.8908251
        0.92244667 -0.01743957 0.8908169 0.92475533 -0.017438909 0.89080745
        0.9274467 -0.017438592 0.8907968 0.9305789 -0.01743861 0.8907848
        0.9342166 -0.017438931 0.8907715 0.93843156 -0.017439522 0.89075685
        0.9433021 -0.017440319 0.8907408 0.9489124 -0.017441258 0.8907234
        0.95535135 -0.017442262 0.8907046 0.9627107 -0.017443247 0.8906842
        0.9710818 -0.017444136 0.8906618 0.98055226 -0.017444856 0.8906368
        0.9912007 -0.017445346 0.8906078 1.0030911 -0.017445553 0.8905726
        1.016266 -0.017445406 0.8905278 1.0307399 -0.017444825 0.89046836
        1.0464919 -0.01744369 0.8903876 1.0634604 -0.017441852 0.89027643
        1.0815392 -0.017439112 0.8901242 1.1005763 -0.017435241 0.88991857
        1.1203766 -0.01743 0.88964665 1.140708 -0.017423159 0.88929635
        1.1613114 -0.01741454 0.8888576 0.9126546 -0.016119815 0.8908829
        0.91330534 -0.01611756 0.8908802 0.9140697 -0.016115276 0.89087707
        0.91496706 -0.01611302 0.8908733 0.91601986 -0.016110854 0.8908689
        0.9172542 -0.016108844 0.8908637 0.91870016 -0.016107058 0.89085764
        0.9203924 -0.016105557 0.89085054 0.9223707 -0.016104398 0.8908423
        0.9246803 -0.016103612 0.8908329 0.9273728 -0.016103216 0.89082223
        0.93050617 -0.016103208 0.8908102 0.9341452 -0.016103564 0.8907969
        0.9383616 -0.01610424 0.89078224 0.9432337 -0.016105173 0.8907662
        0.9488458 -0.016106285 0.89074874 0.95528674 -0.016107485 0.89072984
        0.96264833 -0.016108679 0.89070946 0.971022 -0.016109774 0.89068705
        0.9804953 -0.016110692 0.8906621 0.991147 -0.016111368 0.8906331
        1.003041 -0.016111745 0.8905979 1.0162201 -0.016111763 0.89055306
        1.0306984 -0.016111346 0.89049375 1.0464554 -0.016110394 0.8904129
        1.0634292 -0.016108764 0.89030176 1.0815138 -0.016106283 0.89014953
        1.1005569 -0.016102739 0.8899439 1.1203635 -0.016097913 0.8896719
        1.1407014 -0.016091594 0.8893215 1.1613114 -0.016083622 0.8888827
        0.9125746 -0.014785875 0.8909064 0.9132256 -0.014783528 0.8909037
        0.9139902 -0.014781137 0.8909005 0.9148879 -0.014778759 0.8908968
        0.9159411 -0.0147764515 0.8908924 0.91717595 -0.014774285 0.89088714
        0.9186225 -0.014772333 0.8908811 0.92031544 -0.01477067 0.89087397
        0.9222945 -0.014769359 0.8908658 0.9246051 -0.014768449 0.8908564
        0.92729867 -0.014767971 0.89084566 0.9304332 -0.014767929 0.8908336
        0.93407357 -0.014768306 0.8908203 0.9382915 -0.014769055 0.8908056
        0.9431652 -0.014770108 0.8907895 0.9487791 -0.014771375 0.8907721
        0.9552221 -0.014772755 0.8907532 0.96258587 -0.014774141 0.89073277
        0.9709621 -0.01477543 0.8907104 0.9804383 -0.014776536 0.8906854
        0.9910932 -0.014777387 0.89065635 1.002991 -0.014777928 0.8906212
        1.0161741 -0.014778102 0.8905764 1.0306569 -0.014777848 0.890517
        1.0464188 -0.01477707 0.89043623 1.0633981 -0.014775646 0.8903251
        1.0814884 -0.014773419 0.8901729 1.1005375 -0.0147702005 0.88996726
        1.1203505 -0.014765787 0.8896953 1.1406949 -0.014759993 0.88934475
        1.1613114 -0.014752671 0.88890576 0.91249466 -0.013451899 0.89092785
        0.91314584 -0.013449476 0.8909252 0.91391075 -0.013446999 0.890922
        0.9148087 -0.013444516 0.89091825 0.9158623 -0.013442089 0.89091384
        0.91709757 -0.013439789 0.8909086 0.9185447 -0.013437696 0.8909026
        0.9202383 -0.013435887 0.8908954 0.9222182 -0.013434439 0.89088726
        0.92452973 -0.013433414 0.8908778 0.92722434 -0.013432853 0.89086705
        0.9303601 -0.013432772 0.8908551 0.9340018 -0.0134331575 0.8908417
        0.93822116 -0.013433964 0.890827 0.9430966 -0.01343512 0.89081085
        0.9487122 -0.013436527 0.89079344 0.9551572 -0.013438073 0.8907745
        0.96252334 -0.013439637 0.8907541 0.9709021 -0.013441108 0.8907317
        0.9803812 -0.01344239 0.89070666 0.9910394 -0.013443407 0.89067763
        1.0029408 -0.013444103 0.89064246 1.0161281 -0.013444428 0.8905977
        1.0306154 -0.013444326 0.89053833 1.0463823 -0.013443719 0.8904576
        1.0633669 -0.0134425 0.8903465 1.0814629 -0.013440524 0.8901943
        1.1005182 -0.013437628 0.8899886 1.1203374 -0.01343363 0.88971657
        1.1406882 -0.013428358 0.889366 1.1613114 -0.013421686 0.88892686
        0.91241467 -0.012117892 0.89094734 0.9130661 -0.012115407 0.89094466
        0.91383123 -0.012112855 0.8909415 0.9147295 -0.0121102845 0.8909377
        0.91578346 -0.012107757 0.89093333 0.91701925 -0.012105344 0.89092815
        0.91846687 -0.012103126 0.890922 0.9201611 -0.012101192 0.8909149
        0.9221418 -0.012099622 0.8909067 0.9244542 -0.012098488 0.8908972
        0.9271499 -0.012097848 0.8908865 0.9302868 -0.012097724 0.89087445
        0.93392986 -0.012098109 0.8908611 0.9381507 -0.012098964 0.8908464
        0.94302773 -0.01210021 0.8908303 0.94864523 -0.012101743 0.89081275
        0.9550923 -0.012103441 0.89079386 0.96246064 -0.012105171 0.89077336
        0.970842 -0.01210681 0.890751 0.980324 -0.012108255 0.8907259
        0.9909855 -0.012109427 0.89069694 1.0028906 -0.012110271 0.8906617
        1.0160819 -0.012110739 0.89061695 1.0305738 -0.0121107865 0.89055765
        1.0463457 -0.012110347 0.89047694 1.0633357 -0.012109325 0.8903659
        1.0814375 -0.012107602 0.8902136 1.1004988 -0.012105026 0.890008
        1.1203244 -0.012101441 0.8897359 1.1406816 -0.012096693 0.8893852
        1.1613114 -0.012090671 0.88894594 0.9123347 -0.010783858 0.8909648
        0.9129863 -0.01078132 0.8909621 0.9137517 -0.010778705 0.8909589
        0.9146503 -0.010776062 0.8909552 0.91570467 -0.010773449 0.8909508
        0.9169408 -0.01077094 0.89094555 0.918389 -0.010768618 0.8909395
        0.9200839 -0.010766572 0.8909324 0.9220653 -0.010764893 0.8909241
        0.92437863 -0.010763664 0.8909147 0.9270753 -0.010762949 0.89090395
        0.93021345 -0.01076278 0.89089185 0.9338578 -0.010763162 0.8908785
        0.93808013 -0.010764055 0.8908637 0.9429588 -0.01076538 0.89084756
        0.9485781 -0.010767027 0.8908301 0.9550272 -0.010768862 0.89081115
        0.9623979 -0.010770744 0.8907907 0.9707818 -0.010772539 0.8907683
        0.9802667 -0.010774136 0.89074326 0.9909315 -0.010775453 0.89071417
        1.0028403 -0.010776435 0.890679 1.0160358 -0.01077704 0.8906343
        1.0305322 -0.010777231 0.890575 1.0463091 -0.010776953 0.8904943
        1.0633045 -0.010776129 0.89038324 1.081412 -0.010774653 0.890231
        1.1004794 -0.010772398 0.8900253 1.1203113 -0.010769224 0.8897532
        1.1406751 -0.010764998 0.88940245 1.1613114 -0.010759628 0.88896304
        0.9122547 -0.009449797 0.8909803 0.9129065 -0.009447215 0.8909776
        0.9136722 -0.009444549 0.8909744 0.9145711 -0.009441843 0.89097065
        0.91562575 -0.00943916 0.89096624 0.91686237 -0.00943657 0.89096105
        0.9183111 -0.009434159 0.890955 0.9200066 -0.00943202 0.8909478
        0.9219887 -0.009430247 0.89093953 0.92430294 -0.009428931 0.8909301
        0.92700064 -0.009428146 0.8909194 0.9301399 -0.009427938 0.8909073
        0.9337856 -0.009428314 0.8908939 0.9380094 -0.009429237 0.8908791
        0.9428897 -0.009430631 0.89086294 0.9485109 -0.009432379 0.8908454
        0.954962 -0.009434338 0.89082646 0.962335 -0.009436358 0.89080596
        0.9707215 -0.009438296 0.89078355 0.98020935 -0.009440034 0.8907585
        0.99087745 -0.0094414875 0.89072955 1.00279 -0.009442599 0.8906943
        1.0159895 -0.009443334 0.8906496 1.0304906 -0.009443663 0.8905903
        1.0462725 -0.009443542 0.89050967 1.0632733 -0.0094429115 0.8903986
        1.0813864 -0.009441681 0.89024645 1.10046 -0.009439745 0.8900407
        1.1202981 -0.009436982 0.88976854 1.1406685 -0.009433281 0.8894177
        1.1613114 -0.009428562 0.8889782 0.91217476 -0.008115714 0.8909938
        0.9128268 -0.0081130965 0.89099115 0.9135927 -0.008110386 0.89098793
        0.9144919 -0.0081076315 0.8909841 0.9155469 -0.008104888 0.8909797
        0.9167839 -0.008102232 0.89097446 0.91823316 -0.008099746 0.8909684
        0.91992927 -0.008097527 0.8909613 0.92191213 -0.008095673 0.890953
        0.9242272 -0.008094284 0.8909435 0.9269259 -0.008093439 0.8909328
        0.9300663 -0.008093192 0.8909207 0.93371326 -0.008093559 0.8909072
        0.9379386 -0.00809451 0.8908925 0.9428205 -0.008095964 0.8908763
        0.9484435 -0.0080978 0.89085877 0.9548967 -0.008099871 0.8908398
        0.962272 -0.0081020165 0.89081925 0.9706611 -0.008104085 0.8907969
        0.9801519 -0.008105953 0.8907718 0.9908233 -0.008107531 0.8907428
        1.0027395 -0.008108764 0.8907076 1.0159433 -0.008109622 0.8906629
        1.030449 -0.008110083 0.8906036 1.0462358 -0.008110116 0.89052296
        1.063242 -0.008109675 0.890412 1.0813609 -0.0081086885 0.8902598
        1.1004406 -0.00810707 0.89005405 1.120285 -0.008104717 0.8897819
        1.1406618 -0.00810154 0.889431 1.1613114 -0.008097474 0.8889913
        0.9120948 -0.0067816125 0.8910053 0.912747 -0.0067789652 0.89100254
        0.9135132 -0.0067762206 0.8909994 0.9144126 -0.006773423 0.8909956
        0.91546804 -0.006770632 0.8909912 0.9167055 -0.0067679207 0.89098597
        0.9181552 -0.0067653735 0.8909798 0.9198519 -0.006763088 0.89097273
        0.9218355 -0.0067611686 0.89096445 0.92415136 -0.006759716 0.890955
        0.92685103 -0.0067588193 0.8909442 0.92999256 -0.00675854 0.8909321
        0.93364084 -0.0067589 0.8909186 0.9378676 -0.006759872 0.89090383
        0.94275117 -0.006761378 0.8908877 0.948376 -0.0067632943 0.8908701
        0.95483124 -0.0067654657 0.8908511 0.96220887 -0.0067677237 0.8908306
        0.9706006 -0.00676991 0.89080817 0.9800944 -0.0067718956 0.8907831
        0.99076915 -0.0067735873 0.8907541 1.002689 -0.006774934 0.89071894
        1.015897 -0.0067759072 0.89067423 1.0304073 -0.0067764944 0.890615
        1.0461991 -0.0067766774 0.89053434 1.0632107 -0.0067764227 0.89042336
        1.0813355 -0.0067756786 0.8902712 1.1004212 -0.0067743757 0.89006543
        1.1202719 -0.0067724343 0.8897932 1.1406553 -0.00676978 0.8894422
        1.1613114 -0.006766368 0.88900244 0.9120148 -0.0054474943 0.89101475
        0.9126672 -0.0054448233 0.8910121 0.9134336 -0.0054420503 0.89100885
        0.9143334 -0.005439221 0.8910051 0.9153892 -0.005436392 0.8910007
        0.91662705 -0.0054336363 0.89099544 0.91807723 -0.00543104 0.8909893
        0.91977453 -0.005428702 0.8909822 0.9217588 -0.005426728 0.8909739
        0.9240755 -0.0054252245 0.8909644 0.9267761 -0.005424286 0.8909536
        0.92991877 -0.0054239794 0.89094144 0.9335683 -0.0054243337 0.89092803
        0.9377965 -0.005425325 0.8909132 0.94268167 -0.005426877 0.89089704
        0.94830835 -0.005428863 0.89087945 0.9547657 -0.0054311226 0.89086044
        0.9621456 -0.005433481 0.8908399 0.97054 -0.005435773 0.89081746
        0.98003674 -0.0054378645 0.89079237 0.99071485 -0.0054396605 0.8907634
        1.0026386 -0.005441111 0.89072824 1.0158507 -0.0054421932 0.89068353
        1.0303655 -0.0054429015 0.89062434 1.0461624 -0.0054432293 0.8905437
        1.0631794 -0.005443159 0.8904328 1.0813099 -0.0054426542 0.89028054
        1.1004016 -0.0054416656 0.8900748 1.1202589 -0.0054401346 0.8898025
        1.1406487 -0.0054380046 0.8894515 1.1613114 -0.005435247 0.88901156
        0.9119348 -0.0041133636 0.89102226 0.91258746 -0.0041106744 0.8910195
        0.9133541 -0.004107881 0.89101636 0.9142542 -0.004105025 0.8910126
        0.91531026 -0.004102167 0.89100814 0.91654855 -0.004099378 0.8910029
        0.9179992 -0.004096744 0.8909968 0.9196971 -0.0040943655 0.89098966
        0.92168206 -0.00409235 0.8909814 0.92399955 -0.004090808 0.89097184
        0.92670107 -0.0040898365 0.890961 0.92984486 -0.0040895096 0.8909489
        0.93349564 -0.0040898607 0.89093536 0.93772525 -0.0040908703 0.8909206
        0.94261205 -0.0040924624 0.89090437 0.9482406 -0.0040945094 0.8908868
        0.9547 -0.004096846 0.89086777 0.96208227 -0.0040992917 0.8908472
        0.9704793 -0.004101677 0.89082474 0.97997904 -0.004103862 0.8907997
        0.9906605 -0.004105753 0.8907707 1.0025879 -0.004107299 0.89073557
        1.0158042 -0.0041084825 0.89069086 1.0303237 -0.0041093063 0.8906316
        1.0461255 -0.004109775 0.89055103 1.063148 -0.0041098846 0.8904401
        1.0812844 -0.004109618 0.89028794 1.1003822 -0.004108943 0.8900822
        1.1202457 -0.0041078213 0.8898099 1.140642 -0.004106216 0.8894588
        1.1613114 -0.004104114 0.8890187 0.9118548 -0.0027792219 0.89102775
        0.9125077 -0.0027765206 0.89102507 0.9132746 -0.002773711 0.89102185
        0.914175 -0.0027708383 0.8910181 0.9152314 -0.0027679594 0.8910136
        0.91647005 -0.0027651463 0.8910084 0.91792125 -0.002762486 0.89100224
        0.9196197 -0.0027600785 0.89099514 0.9216053 -0.002758034 0.8909868
        0.92392355 -0.0027564638 0.89097726 0.926626 -0.0027554699 0.8909665
        0.9297708 -0.00275513 0.8909543 0.93342286 -0.0027554813 0.8909408
        0.9376539 -0.0027565083 0.89092594 0.9425424 -0.002758136 0.89090973
        0.9481727 -0.0027602355 0.8908921 0.9546342 -0.0027626383 0.8908731
        0.9620188 -0.0027651594 0.8908525 0.97041845 -0.0027676248 0.89083004
        0.9799212 -0.0027698926 0.890805 0.99060607 -0.0027718672 0.890776
        1.0025373 -0.0027734996 0.8907409 1.0157578 -0.0027747776 0.8906962
        1.0302819 -0.0027757115 0.89063704 1.0460887 -0.0027763168 0.8905564
        1.0631166 -0.002776604 0.8904455 1.0812588 -0.0027765722 0.89029336
        1.1003628 -0.00277621 0.8900876 1.1202326 -0.0027754975 0.8898153
        1.1406355 -0.0027744172 0.889464 1.1613114 -0.0027729715 0.88902384
        0.9117748 -0.0014450733 0.89103127 0.9124279 -0.0014423643 0.8910285
        0.9131951 -0.0014395457 0.8910253 0.9140957 -0.0014366618 0.89102155
        0.9151525 -0.00143377 0.8910171 0.91639155 -0.0014309424 0.89101183
        0.9178432 -0.0014282658 0.8910057 0.9195422 -0.001425841 0.8909986
        0.92152846 -0.0014237788 0.89099026 0.9238475 -0.0014221923 0.8909807
        0.9265509 -0.001421186 0.8909699 0.9296968 -0.0014208406 0.8909577
        0.93335 -0.0014211966 0.8909442 0.9375825 -0.0014222406 0.89092934
        0.9424725 -0.0014238995 0.89091307 0.9481047 -0.0014260435 0.8908955
        0.9545682 -0.0014285017 0.89087635 0.9619552 -0.0014310864 0.8908558
        0.97035754 -0.0014336201 0.8908334 0.9798633 -0.001435959 0.8908083
        0.99055153 -0.0014380069 0.89077926 1.0024866 -0.0014397169 0.89074415
        1.0157112 -0.0014410821 0.8906995 1.0302399 -0.0014421201 0.8906404
        1.0460519 -0.0014428577 0.8905598 1.0630852 -0.0014433193 0.89044887
        1.0812331 -0.0014435211 0.89029676 1.1003432 -0.0014434699 0.890091
        1.1202195 -0.0014431662 0.8898186 1.1406289 -0.0014426112 0.88946736
        1.1613114 -0.0014418229 0.889027 0.9116949 -0.000110920446 0.89103276
        0.91234815 -0.00010820853 0.89103 0.91311556 -0.000105386374 0.89102685
        0.9140165 -0.00010249825 0.89102304 0.91507363 -9.960158e-05 0.89101857
        0.9163131 -9.676836e-05 0.8910133 0.9177652 -9.408562e-05 0.8910072
        0.91946477 -9.165439e-05 0.89100003 0.9214517 -8.958595e-05 0.8909917
        0.92377144 -8.799457e-05 0.89098215 0.92647576 -8.6986096e-05 0.8909713
        0.92962265 -8.664302e-05 0.8909591 0.93327713 -8.7008004e-05 0.89094555
        0.9375109 -8.806979e-05 0.8909307 0.94240254 -8.9756024e-05 0.89091444
        0.94803655 -9.193684e-05 0.8908968 0.95450217 -9.4440235e-05 0.8908777
        0.96189153 -9.707647e-05 0.89085716 0.97029656 -9.9666024e-05 0.8908347
        0.9798053 -0.00010206399 0.8908096 0.99049693 -0.00010417462 0.8907806
        1.0024358 -0.00010595349 0.89074546 1.0156647 -0.00010739854 0.8907009
        1.030198 -0.0001085351 0.8906417 1.046015 -0.00010940067 0.89056116
        1.0630537 -0.00011003353 0.8904503 1.0812075 -0.00011046654 0.8902982
        1.1003237 -0.000110725436 0.89009243 1.1202064 -0.00011083032 0.88982
        1.1406223 -0.00011080094 0.8894686 1.1613114 -0.0001106709 0.8890282
        0.9116149 0.0012232336 0.8910322 0.9122684 0.0012259437 0.89102954
        0.913036 0.0012287638 0.8910263 0.9139373 0.0012316497 0.8910225
        0.9149947 0.0012345436 0.89101803 0.9162346 0.0012373737 0.8910128
        0.9176872 0.0012400526 0.89100665 0.9193873 0.0012424794 0.8909995
        0.9213748 0.0012445427 0.89099115 0.9236954 0.0012461278 0.8909816
        0.92640054 0.0012471282 0.89097077 0.92954844 0.001247461 0.89095855
        0.9332041 0.0012470821 0.89094496 0.93743926 0.0012460019 0.89093006
        0.9423325 0.0012442919 0.8909138 0.9479683 0.0012420815 0.89089614
        0.954436 0.0012395433 0.89087707 0.9618277 0.0012368674 0.8908565
        0.9702354 0.0012342344 0.89083403 0.97974724 0.0012317891 0.89080894
        0.9904423 0.0012296264 0.8907799 1.0023849 0.0012277876 0.8907448
        1.0156181 0.0012262699 0.89070016 1.030156 0.0012250405 0.89064103
        1.0459781 0.0012240512 0.8905605 1.0630223 0.0012232502 0.8904497
        1.0811819 0.001222588 0.8902976 1.1003042 0.0012220202 0.8900918
        1.1201931 0.0012215071 0.8898194 1.1406156 0.0012210105 0.8894679
        1.1613114 0.0012204812 0.88902736 0.9115349 0.002557386 0.8910298
        0.91218865 0.0025600896 0.89102703 0.9129565 0.0025629022 0.8910238
        0.913858 0.002565779 0.89102 0.9149158 0.0025686626 0.8910155
        0.9161561 0.0025714808 0.8910103 0.9176091 0.0025741463 0.89100415
        0.91930974 0.002576558 0.89099693 0.92129797 0.0025786045 0.89098865
        0.9236192 0.002580172 0.89097905 0.92632526 0.0025811542 0.89096814
        0.9294742 0.0025814686 0.8909559 0.933131 0.002581071 0.8909424
        0.93736756 0.0025799717 0.89092743 0.94226235 0.0025782413 0.89091116
        0.94789994 0.0025760084 0.89089346 0.9543697 0.0025734457 0.8908744
        0.9617638 0.002570742 0.89085376 0.9701742 0.002568078 0.8908313
        0.97968906 0.0025655974 0.8908062 0.9903875 0.002563393 0.89077723
        1.002334 0.0025615033 0.8907421 1.0155714 0.0025599203 0.89069754
        1.030114 0.0025586039 0.8906384 1.0459412 0.0025574951 0.89055794
        1.0629908 0.0025565291 0.8904471 1.0811563 0.00255564 0.89029497
        1.1002847 0.0025547643 0.8900892 1.12018 0.0025538434 0.88981676
        1.140609 0.0025528201 0.8894652 1.1613114 0.0025516306 0.8890245
        0.9114549 0.0038915335 0.89102525 0.91210884 0.0038942257 0.89102256
        0.91287696 0.0038970248 0.89101934 0.9137788 0.0038998865 0.89101547
        0.91483694 0.003902752 0.891011 0.91607755 0.0039055494 0.89100575
        0.9175311 0.0039081913 0.8909996 0.91923225 0.003910577 0.8909924
        0.9212211 0.0039125956 0.89098406 0.92354304 0.0039141346 0.89097446
        0.9262499 0.0039150887 0.89096355 0.92939985 0.003915376 0.89095134
        0.9330578 0.003914955 0.89093775 0.9372957 0.0039138356 0.89092284
        0.942192 0.0039120885 0.8909065 0.94783145 0.003909841 0.8908888
        0.95430326 0.0039072633 0.89086974 0.9616997 0.0039045443 0.8908491
        0.97011286 0.0039018611 0.89082664 0.97963077 0.0038993573 0.89080155
        0.99033266 0.0038971219 0.8907725 1.002283 0.0038951903 0.8907375
        1.0155246 0.0038935493 0.8906929 1.030072 0.0038921514 0.89063376
        1.0459042 0.0038909279 0.8905533 1.0629593 0.0038897998 0.8904425
        1.0811305 0.0038886857 0.89029044 1.1002651 0.0038875036 0.8900846
        1.1201668 0.003886175 0.8898121 1.1406024 0.0038846252 0.8894605
        1.1613114 0.0038827744 0.8890197 0.9113749 0.005225674 0.89101875
        0.9120291 0.0052283495 0.891016 0.91279745 0.0052311295 0.8910128
        0.91369957 0.0052339686 0.89100903 0.914758 0.005236808 0.8910045
        0.91599905 0.005239575 0.89099926 0.917453 0.005242184 0.8909931
        0.9191547 0.0052445326 0.89098585 0.9211441 0.005246512 0.89097756
        0.92346686 0.0052480106 0.89096797 0.9261746 0.005248926 0.89095706
        0.92932546 0.0052491794 0.8909448 0.93298453 0.0052487305 0.8909312
        0.93722373 0.0052475906 0.8909162 0.9421216 0.00524583 0.8908999
        0.94776285 0.0052435747 0.89088213 0.95423675 0.0052409926 0.8908631
        0.9616356 0.00523827 0.89084244 0.9700514 0.005235581 0.89081997
        0.9795724 0.0052330657 0.8907949 0.99027777 0.0052308105 0.89076585
        1.002232 0.005228846 0.8907308 1.0154779 0.0052271546 0.8906862
        1.0300299 0.0052256812 0.89062715 1.0458672 0.0052243466 0.8905467
        1.0629277 0.00522306 0.8904359 1.0811049 0.0052217226 0.8902838
        1.1002455 0.0052202353 0.890078 1.1201537 0.0052185 0.8898055
        1.1405958 0.0052164225 0.8894538 1.1613114 0.0052139093 0.8890129
        0.91129494 0.0065598027 0.8910103 0.91194934 0.006562457 0.89100754
        0.91271794 0.006565212 0.8910043 0.9136203 0.0065680216 0.8910005
        0.9146791 0.0065708268 0.89099604 0.91592056 0.006573555 0.89099073
        0.91737497 0.0065761195 0.8909846 0.91907716 0.00657842 0.8909774
        0.9210672 0.006580348 0.890969 0.9233906 0.0065817954 0.8909594
        0.9260991 0.0065826625 0.8909485 0.92925096 0.006582874 0.8909362
        0.93291116 0.0065823924 0.89092255 0.9371517 0.0065812315 0.8909076
        0.9420511 0.0065794615 0.89089125 0.94769406 0.0065772063 0.89087355
        0.9541701 0.006574631 0.8908544 0.9615713 0.006571917 0.89083374
        0.9699899 0.0065692347 0.89081126 0.97951394 0.0065667196 0.8907862
        0.9902228 0.0065644546 0.89075714 1.0021808 0.0065624667 0.8907221
        1.015431 0.0065607317 0.8906776 1.0299877 0.006559189 0.8906185
        1.0458301 0.0065577477 0.8905381 1.0628963 0.0065563056 0.8904273
        1.0810791 0.006554748 0.89027524 1.1002259 0.006552956 0.8900695
        1.1201404 0.0065508136 0.8897969 1.1405891 0.0065482087 0.8894451
        1.1613114 0.006545033 0.88900405 0.911215 0.007893918 0.8909998
        0.9118695 0.007896545 0.89099705 0.91263837 0.0078992685 0.89099383
        0.9135411 0.007902041 0.89098996 0.9146002 0.007904803 0.89098555
        0.915842 0.007907483 0.89098024 0.9172968 0.007909992 0.89097404
        0.91899955 0.007912233 0.89096683 0.92099017 0.007914098 0.8909585
        0.9233143 0.007915483 0.8909489 0.9260236 0.007916291 0.8909379
        0.9291764 0.007916453 0.89092565 0.93283767 0.0079159355 0.890912
        0.9370795 0.007914754 0.89089704 0.9419804 0.0079129785 0.89088064
        0.9476252 0.007910732 0.89086294 0.9541033 0.007908174 0.8908438
        0.9615069 0.00790548 0.8908231 0.9699282 0.007902819 0.8908006
        0.9794554 0.007900315 0.8907755 0.99016774 0.007898051 0.89074653
        1.0021297 0.007896049 0.8907114 1.0153841 0.0078942785 0.8906669
        1.0299455 0.007892671 0.8906079 1.045793 0.007891129 0.8905275
        1.0628647 0.007889535 0.8904167 1.0810534 0.007887758 0.8902647
        1.1002064 0.007885664 0.89005893 1.1201272 0.007883116 0.8897863
        1.1405824 0.007879982 0.8894345 1.1613114 0.007876142 0.8889933
        0.911135 0.009228016 0.8909873 0.9117898 0.009230611 0.8909846
        0.91255885 0.009233296 0.8909813 0.9134618 0.009236023 0.8909775
        0.9145213 0.009238732 0.89097303 0.9157635 0.009241352 0.8909677
        0.91721874 0.009243795 0.8909615 0.918922 0.009245964 0.8909544
        0.92091316 0.009247754 0.890946 0.9232379 0.009249064 0.8909363
        0.925948 0.009249805 0.89092535 0.9291017 0.009249911 0.89091307
        0.9327641 0.009249355 0.8908994 0.9370072 0.009248153 0.8908844
        0.9419097 0.009246378 0.890868 0.9475562 0.009244148 0.8908503
        0.95403636 0.009241618 0.8908311 0.9614424 0.009238958 0.8908105
        0.96986645 0.009236328 0.89078796 0.97939676 0.00923385 0.89076287
        0.9901126 0.009231599 0.89073384 1.0020784 0.009229591 0.8906988
        1.0153371 0.009227793 0.89065427 1.0299033 0.009226127 0.89059526
        1.0457559 0.009224487 0.89051485 1.062833 0.009222743 0.89040416
        1.0810276 0.009220749 0.8902521 1.1001867 0.009218354 0.8900463
        1.120114 0.009215399 0.88977367 1.1405758 0.009211737 0.8894218
        1.1613114 0.009207232 0.8889805 0.911055 0.010562096 0.8909728
        0.91171 0.01056465 0.89097005 0.91247934 0.010567288 0.89096683
        0.9133826 0.010569962 0.89096296 0.91444236 0.010572609 0.89095855
        0.91568494 0.010575158 0.89095324 0.9171406 0.010577522 0.89094704
        0.91884434 0.010579604 0.89093983 0.9208361 0.010581307 0.8909314
        0.92316157 0.010582532 0.89092183 0.9258724 0.010583195 0.8909108
        0.92902696 0.010583239 0.8908985 0.93269044 0.010582641 0.8908848
        0.93693477 0.010581422 0.89086986 0.94183874 0.010579653 0.8908534
        0.9474871 0.010577449 0.89083564 0.95396936 0.010574959 0.8908165
        0.9613778 0.010572347 0.8907958 0.9698046 0.010569761 0.8907733
        0.97933805 0.01056732 0.8907482 0.99005735 0.010565092 0.8907192
        1.002027 0.010563089 0.8906841 1.0152901 0.010561269 0.8906396
        1.029861 0.0105595505 0.89058065 1.0457188 0.010557818 0.8905003
        1.0628014 0.010555929 0.89038956 1.0810018 0.01055372 0.89023757
        1.1001672 0.010551024 0.89003175 1.1201007 0.010547664 0.88975906
        1.1405691 0.010543474 0.88940716 1.1613114 0.010538302 0.8889657
        0.91097504 0.011896152 0.89095634 0.9116302 0.01189866 0.8909536
        0.9123998 0.011901244 0.8909503 0.9133033 0.011903851 0.8909465
        0.91436344 0.0119064255 0.89094204 0.9156064 0.011908891 0.89093673
        0.91706246 0.011911162 0.89093053 0.9187667 0.011913147 0.8909233
        0.920759 0.011914749 0.8909149 0.9230851 0.0119158765 0.8909053
        0.9257967 0.011916454 0.8908943 0.92895216 0.011916431 0.89088196
        0.93261665 0.011915789 0.89086825 0.93686223 0.011914556 0.8908533
        0.9417677 0.011912799 0.89083683 0.94741786 0.011910631 0.8908191
        0.9539022 0.011908195 0.8907999 0.961313 0.01190564 0.8907792
        0.9697426 0.011903114 0.8907566 0.9792792 0.011900722 0.8907315
        0.9900021 0.011898528 0.8907025 1.0019758 0.011896538 0.8906675
        1.0152432 0.011894705 0.890623 1.0298187 0.01189294 0.890564
        1.0456816 0.011891119 0.8904837 1.0627697 0.011889086 0.89037305
        1.080976 0.011886667 0.890221 1.1001475 0.011883671 0.89001524
        1.1200875 0.011879906 0.88974255 1.1405624 0.011875187 0.8893905
        1.1613114 0.011869349 0.888949 0.9108951 0.013230183 0.8909378
        0.91155046 0.013232635 0.8909351 0.91232026 0.013235153 0.89093184
        0.91322404 0.013237687 0.89092803 0.91428447 0.013240175 0.89092356
        0.91552776 0.013242543 0.89091825 0.9169843 0.013244707 0.89091206
        0.918689 0.013246579 0.89090484 0.92068183 0.013248067 0.8908964
        0.92300856 0.013249086 0.8908868 0.9257209 0.01324957 0.89087576
        0.9288772 0.013249475 0.8908634 0.93254274 0.01324879 0.8908497
        0.9367896 0.013247548 0.8908347 0.9416965 0.013245813 0.89081824
        0.9473484 0.013243691 0.8908004 0.9538349 0.013241318 0.8907813
        0.96124816 0.013238838 0.89076054 0.96968055 0.013236382 0.890738
        0.9792203 0.013234053 0.8907128 0.9899467 0.013231903 0.8906838
        1.0019243 0.013229935 0.8906488 1.015196 0.013228098 0.8906044
        1.0297763 0.013226292 0.8905454 1.0456444 0.013224387 0.8904651
        1.062738 0.013222216 0.8903544 1.0809501 0.013219586 0.89020246
        1.1001278 0.0132162925 0.88999665 1.1200743 0.013212123 0.88972396
        1.1405557 0.013206875 0.8893719 1.1613114 0.01320037 0.88893014
        0.9108151 0.0145641845 0.89091736 0.91147065 0.014566573 0.8909146
        0.91224074 0.014569015 0.89091134 0.91314477 0.014571463 0.8909075
        0.91420555 0.014573848 0.89090306 0.9154492 0.014576104 0.89089775
        0.9169061 0.014578147 0.89089155 0.9186112 0.014579889 0.89088434
        0.92060465 0.014581249 0.89087594 0.9229319 0.01458215 0.8908663
        0.92564493 0.014582532 0.89085525 0.92880213 0.014582364 0.8908429
        0.93246865 0.014581637 0.8908292 0.93671674 0.01458039 0.89081407
        0.94162524 0.014578685 0.8907977 0.9472789 0.014576622 0.89077985
        0.9537674 0.014574326 0.89076066 0.9611832 0.014571934 0.89073986
        0.9696183 0.014569565 0.8907173 0.97916126 0.01456731 0.89069223
        0.98989123 0.014565215 0.8906632 1.0018728 0.014563278 0.8906282
        1.0151489 0.014561443 0.8905837 1.0297339 0.014559603 0.8905248
        1.0456071 0.014557619 0.8904445 1.0627062 0.014555311 0.89033383
        1.0809243 0.014552475 0.89018196 1.1001081 0.014548885 0.88997614
        1.120061 0.01454431 0.8897034 1.1405491 0.014538533 0.88935125
        1.1613114 0.014531359 0.8889094 0.91073513 0.015898155 0.8908949
        0.9113909 0.015900467 0.8908921 0.9121612 0.015902821 0.8908889
        0.9130655 0.015905164 0.89088506 0.9141265 0.015907435 0.8908806
        0.9153705 0.015909562 0.8908753 0.91682786 0.015911464 0.8908691
        0.91853344 0.01591306 0.8908618 0.9205273 0.015914278 0.89085346
        0.9228552 0.015915051 0.89084375 0.92556894 0.015915327 0.8908327
        0.9287269 0.015915083 0.8908204 0.9323945 0.015914321 0.8908066
        0.93664384 0.015913075 0.8907916 0.9415538 0.01591141 0.8907751
        0.94720924 0.015909418 0.89075726 0.9536999 0.015907217 0.890738
        0.96111804 0.015904924 0.89071727 0.9695561 0.015902653 0.89069474
        0.97910213 0.015900485 0.8906695 0.9898357 0.015898459 0.89064056
        1.0018212 0.015896564 0.8906055 1.0151017 0.015894737 0.89056104
        1.0296915 0.01589287 0.8905022 1.0455698 0.01589081 0.8904219
        1.0626745 0.01588837 0.8903113 1.0808984 0.015885329 0.89015937
        1.1000885 0.015881445 0.88995355 1.1200478 0.015876468 0.8896808
        1.1405425 0.015870161 0.88932854 1.1613114 0.015862318 0.88888663
        0.91065514 0.017232092 0.8908704 0.91131115 0.017234312 0.89086765
        0.91208166 0.017236562 0.89086443 0.9129862 0.017238786 0.8908606
        0.91404754 0.017240923 0.8908561 0.91529185 0.0172429 0.8908508
        0.91674954 0.017244643 0.89084464 0.91845554 0.017246079 0.8908374
        0.9204499 0.017247142 0.89082897 0.92277837 0.017247774 0.89081925
        0.92549276 0.01724794 0.8908082 0.9286516 0.017247621 0.8907958
        0.9323201 0.01724683 0.8907821 0.9365707 0.017245596 0.89076704
        0.9414822 0.017243985 0.8907505 0.94713944 0.017242078 0.89073265
        0.9536322 0.017239982 0.8907134 0.96105283 0.017237809 0.89069265
        0.9694937 0.01723565 0.89067006 0.97904295 0.01723358 0.8906449
        0.98978007 0.017231634 0.89061594 1.0017695 0.017229788 0.8905809
        1.0150543 0.01722798 0.8905364 1.029649 0.017226089 0.8904776
        1.0455325 0.01722396 0.89039737 1.0626427 0.01722139 0.89028674
        1.0808725 0.017218146 0.8901348 1.1000687 0.017213969 0.889929
        1.1200345 0.01720859 0.8896562 1.1405357 0.017201753 0.8893039
        1.1613114 0.017193241 0.8888619 0.91057515 0.018565988 0.890844
        0.91123134 0.018568106 0.8908412 0.9120021 0.018570235 0.89083797
        0.91290694 0.01857232 0.8908341 0.9139685 0.018574296 0.8908296
        0.91521317 0.018576099 0.8908244 0.91667116 0.018577663 0.8908181
        0.9183776 0.01857892 0.89081085 0.92037237 0.018579813 0.8908025
        0.92270136 0.018580299 0.8907928 0.9254164 0.018580353 0.89078176
        0.92857605 0.018579965 0.89076936 0.9322456 0.01857915 0.8907556
        0.93649745 0.018577944 0.89074045 0.94141036 0.018576398 0.890724
        0.94706947 0.018574594 0.89070606 0.95356435 0.018572621 0.8906868
        0.9609875 0.018570576 0.890666 0.96943116 0.018568547 0.8906434
        0.97898364 0.018566592 0.8906183 0.9897244 0.018564733 0.8905893
        1.0017178 0.018562946 0.89055425 1.015007 0.018561162 0.89050984
        1.0296065 0.018559255 0.89045095 1.0454952 0.018557059 0.8903708
        1.0626109 0.018554365 0.89026016 1.0808467 0.018550921 0.8901083
        1.100049 0.018546453 0.88990253 1.1200212 0.018540671 0.88962966
        1.140529 0.018533306 0.88927734 1.1613114 0.018524123 0.8888352
        0.91049516 0.019899845 0.89081544 0.9111515 0.01990184 0.89081275
        0.9119225 0.01990382 0.8908095 0.91282755 0.019905739 0.89080566
        0.9138894 0.019907532 0.89080113 0.9151344 0.019909142 0.8907958
        0.9165927 0.0199105 0.8907897 0.91829944 0.01991156 0.8907824
        0.9202947 0.019912273 0.890774 0.9226242 0.019912608 0.89076436
        0.9253399 0.019912552 0.89075327 0.92850035 0.019912105 0.8907409
        0.9321709 0.019911278 0.8907271 0.936424 0.01991011 0.8907119
        0.9413385 0.019908648 0.89069545 0.9469994 0.019906959 0.8906775
        0.9534964 0.019905126 0.89065826 0.960922 0.019903228 0.8906374
        0.9693685 0.019901339 0.8906148 0.9789243 0.01989951 0.89058965
        0.9896686 0.019897753 0.8905606 1.0016661 0.019896038 0.89052564
        1.0149597 0.019894285 0.89048123 1.0295639 0.019892367 0.8904224
        1.0454577 0.019890111 0.8903422 1.062579 0.019887295 0.89023167
        1.0808207 0.019883655 0.89007974 1.1000292 0.019878896 0.8898739
        1.1200079 0.019872714 0.8896011 1.1405224 0.01986482 0.88924867
        1.1613114 0.019854967 0.8888064 0.91041523 0.02123366 0.89078504
        0.9110718 0.0212355 0.8907823 0.9118429 0.02123731 0.890779
        0.9127482 0.02123903 0.8907752 0.9138103 0.02124061 0.8907707
        0.91505545 0.021241989 0.8907654 0.9165141 0.021243121 0.8907592
        0.9182212 0.021243965 0.890752 0.9202168 0.02124449 0.89074355
        0.9225468 0.021244677 0.89073384 0.92526317 0.021244518 0.8907228
        0.9284245 0.02124402 0.89071035 0.93209606 0.021243198 0.8906966
        0.93635035 0.021242084 0.89068145 0.94126636 0.021240724 0.8906649
        0.9469291 0.021239169 0.890647 0.95342827 0.02123749 0.8906276
        0.9608564 0.021235757 0.8906069 0.9693058 0.021234026 0.8905842
        0.9788648 0.021232335 0.890559 0.98961276 0.021230688 0.89053
        1.0016142 0.021229053 0.89049506 1.0149122 0.02122734 0.8904506
        1.0295212 0.02122542 0.89039177 1.0454203 0.02122311 0.8903116
        1.0625472 0.021220174 0.8902011 1.0807947 0.02121634 0.8900492
        1.1000096 0.021211293 0.88984346 1.1199946 0.021204712 0.8895706
        1.1405157 0.021196289 0.8892181 1.1613114 0.021185763 0.8887757
        0.91033524 0.022567429 0.89075255 0.91099197 0.022569083 0.8907498
        0.9117633 0.022570677 0.8907466 0.91266876 0.022572162 0.8907428
        0.91373104 0.022573486 0.89073825 0.9149764 0.022574605 0.89073294
        0.9164353 0.022575486 0.89072675 0.9181427 0.022576101 0.89071953
        0.9201387 0.022576435 0.89071107 0.92246926 0.022576477 0.8907014
        0.9251862 0.022576226 0.8906903 0.92834836 0.022575695 0.8906779
        0.93202096 0.022574896 0.8906641 0.93627656 0.022573858 0.8906489
        0.9411941 0.022572616 0.89063233 0.94685864 0.022571215 0.89061445
        0.95336 0.022569712 0.8905951 0.9607907 0.022568159 0.8905743
        0.969243 0.022566598 0.8905516 0.97880524 0.022565061 0.8905264
        0.98955685 0.02256354 0.8904974 1.0015624 0.022561993 0.8904624
        1.0148648 0.022560326 0.89041805 1.0294785 0.022558408 0.8903592
        1.0453829 0.022556046 0.8902791 1.0625154 0.022552999 0.8901686
        1.0807688 0.022548974 0.89001673 1.0999898 0.02254364 0.8898109
        1.1199813 0.022536661 0.889538 1.140509 0.02252771 0.8891855
        1.1613114 0.022516515 0.888743 0.91025525 0.023901144 0.8907181
        0.9109121 0.023902565 0.8907153 0.9116836 0.023903895 0.89071214
        0.9125892 0.02390509 0.8907083 0.91365165 0.023906112 0.8907038
        0.9148972 0.023906939 0.89069855 0.91635627 0.023907546 0.89069235
        0.91806394 0.023907926 0.8906851 0.92006034 0.023908071 0.8906767
        0.92239136 0.02390798 0.890667 0.925109 0.023907656 0.89065593
        0.92827195 0.023907114 0.8906435 0.9319457 0.02390636 0.89062965
        0.9362025 0.02390542 0.89061445 0.94112164 0.02390432 0.8905979
        0.9467881 0.023903094 0.8905799 0.95329165 0.023901783 0.89056057
        0.96072483 0.023900429 0.89053965 0.96918005 0.023899056 0.890517
        0.9787456 0.023897683 0.89049184 0.9895008 0.023896297 0.8904628
        1.0015104 0.023894846 0.89042777 1.0148172 0.023893237 0.8903834
        1.0294359 0.023891328 0.89032465 1.0453453 0.023888921 0.89024454
        1.0624834 0.023885764 0.89013404 1.0807427 0.02388155 0.8899822
        1.09997 0.023875935 0.8897764 1.1199679 0.023868559 0.8895035
        1.1405023 0.02385908 0.88915086 1.1613114 0.023847213 0.8887083
        0.91017526 0.02523481 0.8906816 0.9108322 0.02523592 0.8906789
        0.9116038 0.025236906 0.89067566 0.91250944 0.025237741 0.8906719
        0.913572 0.025238413 0.8906674 0.9148177 0.025238913 0.89066213
        0.91627693 0.025239235 0.89065593 0.91798484 0.025239382 0.8906487
        0.91998166 0.025239354 0.89064026 0.9223132 0.025239151 0.89063054
        0.92503154 0.025238782 0.89061946 0.92819536 0.025238253 0.89060706
        0.9318701 0.025237577 0.89059323 0.9361283 0.02523676 0.890578
        0.941049 0.025235828 0.89056134 0.9467173 0.025234798 0.89054334
        0.9532231 0.025233699 0.89052397 0.9606589 0.025232557 0.8905031
        0.969117 0.02523139 0.8904804 0.97868586 0.025230195 0.89045525
        0.9894448 0.025228957 0.8904262 1.0014584 0.025227616 0.89039123
        1.0147697 0.025226071 0.8903468 1.0293932 0.025224177 0.89028805
        1.0453079 0.025221732 0.89020795 1.0624515 0.025218468 0.8900975
        1.0807167 0.02521407 0.8899457 1.0999502 0.025208173 0.8897399
        1.1199547 0.025200402 0.88946694 1.1404955 0.025190398 0.88911426
        1.1613114 0.02517786 0.8886716 0.9100953 0.026568418 0.8906432
        0.91075224 0.026569083 0.89064044 0.91152376 0.02656961 0.8906372
        0.9124294 0.026570003 0.89063346 0.91349196 0.026570274 0.890629
        0.9147377 0.02657043 0.89062375 0.9161972 0.026570473 0.8906176
        0.9179054 0.026570408 0.89061034 0.91990256 0.026570238 0.89060193
        0.92223465 0.026569963 0.8905922 0.9249537 0.02656958 0.89058113
        0.92811847 0.026569102 0.8905687 0.93179435 0.026568526 0.8905548
        0.9360539 0.026567863 0.8905395 0.94097614 0.026567122 0.8905229
        0.94664645 0.026566312 0.89050484 0.95315444 0.02656545 0.8904854
        0.9605928 0.02656454 0.89046454 0.96905386 0.026563592 0.8904419
        0.978626 0.026562594 0.8904166 0.98938864 0.026561514 0.8903876
        1.0014063 0.026560288 0.8903526 1.0147221 0.026558816 0.89030826
        1.0293504 0.026556946 0.8902495 1.0452703 0.026554467 0.89016944
        1.0624195 0.026551103 0.890059 1.0806907 0.026546523 0.8899072
        1.0999304 0.02654035 0.88970137 1.1199414 0.026532188 0.8894284
        1.1404889 0.026521657 0.8890757 1.1613114 0.02650845 0.8886329
        0.9100153 0.027901972 0.8906027 0.91067195 0.027901886 0.8906
        0.91144323 0.027901787 0.8905968 0.91234875 0.027901668 0.89059305
        0.9134113 0.027901528 0.8905886 0.9146572 0.027901364 0.89058334
        0.91611683 0.02790117 0.8905772 0.9178254 0.027900945 0.89057
        0.91982305 0.02790068 0.8905615 0.92215574 0.027900377 0.8905518
        0.92487556 0.027900029 0.8905407 0.9280412 0.027899638 0.8905282
        0.93171823 0.027899202 0.8905143 0.9359792 0.027898723 0.89049906
        0.9409031 0.027898202 0.89048237 0.94657534 0.027897635 0.8904643
        0.95308566 0.027897026 0.8904449 0.9605266 0.027896373 0.89042395
        0.9689906 0.02789566 0.89040124 0.9785661 0.02789487 0.89037603
        0.98933244 0.027893959 0.890347 1.0013542 0.027892863 0.890312
        1.0146744 0.027891474 0.8902676 1.0293076 0.027889634 0.8902089
        1.0452327 0.027887126 0.89012885 1.0623875 0.027883667 0.89001846
        1.0806646 0.027878912 0.88986665 1.0999106 0.027872464 0.8896609
        1.119928 0.02786391 0.8893879 1.1404822 0.02785286 0.8890351
        1.1613114 0.027838983 0.8885922
        <InformationKey name="L2_NORM_RANGE" location="vtkDataArray" length="2">
          <Value index="0">
            1.2736088576
          </Value>
          <Value index="1">
            1.4625372932
          </Value>
        </InformationKey>
      </DataArray>
    </Points>
  </Piece>
  </StructuredGrid>
</VTKFile>
