<?xml version="1.0"?>
<VTKFile type="StructuredGrid" version="0.1" byte_order="LittleEndian" header_type="UInt32" compressor="vtkZLibDataCompressor">
  <StructuredGrid WholeExtent="0 240 0 4 0 0">
  <Piece Extent="0 240 0 4 0 0">
    <PointData>
      <DataArray type="Float32" Name="orthogonality" format="ascii" RangeMin="2.311853222636273e-06" RangeMax="0.411798357963562">
        0.00023491 0.042542804 0.061290007 0.067761295 0.06773409 0.064379185
        0.059642073 0.05492875 0.051393904 0.050449803 0.052933212 0.06288594
        0.07460187 0.11950952 0.15308173 0.12201176 0.113500305 0.105754785
        0.0968978 0.08722626 0.07679091 0.06583841 0.054676764 0.043693114
        0.03330535 0.02391204 0.015834458 0.009269583 0.004265494 0.0007260227
        0.0015575212 0.002857353 0.003456876 0.0036080503 0.0035064658 0.0032851975
        0.0030227727 0.0027579463 0.002504767 0.0022650736 0.0020361862 0.0018143645
        0.0015966917 0.0013819363 0.0011709608 0.00096706935 0.00077625137 0.0006072331
        0.00047146174 0.00038236505 0.00035612826 0.00040368713 0.00051035086 0.0006492072
        0.0008023633 0.0009377539 0.0010600333 0.001047749 0.0011764389 0.0006232215
        0.00030462554 0.000118952645 0.00037284006 2.3118532e-06 2.7821243e-05 0.00013846646
        0.00021685865 0.00026723708 0.00028474315 0.00027967128 0.00027558918 0.00029461607
        0.00033586542 0.0003885014 0.0004363936 0.00046335603 0.00046139155 0.00043269765
        0.00038777813 0.000342959 0.0003137556 0.0003119347 0.00034832023 0.0004342717
        0.0005828808 0.0008095869 0.0011319306 0.0015679072 0.0021324551 0.0028320234
        0.003657898 0.004579799 0.0055417633 0.0064621572 0.007238738 0.0077583063
        0.007909282 0.0075946185 0.006743433 0.005317168 0.0033197147 0.00077348953
        0.002195923 0.0056718043 0.008947974 0.013435799 0.01738674 0.0227521
        0.027302887 0.033139683 0.039137207 0.04537786 0.051208038 0.055957913
        0.05868008 0.05833538 0.054011334 0.045133017 0.032247934 0.016311267
        0.00094551855 0.014534762 0.030794935 0.044117764 0.053438198 0.058119766
        0.058696784 0.0560813 0.051336728 0.045445517 0.039106376 0.033010546
        0.02706497 0.022486353 0.017000368 0.013050927 0.008456753 0.005163041
        0.0016169801 0.0014114005 0.0040203817 0.00607486 0.0075522647 0.008447652
        0.008800283 0.008682049 0.00819075 0.0074376813 0.006534303 0.005579722
        0.0046515767 0.0038018026 0.0030574217 0.0024251475 0.0018978451 0.0014609137
        0.0010973088 0.0007907649 0.0005274497 0.00029660296 9.0702284e-05 9.4363895e-05
        0.000258981 0.0003982896 0.0005051751 0.00057569175 0.0006106911 0.0006179823
        0.00061180483 0.0006072365 0.0006155389 0.00064023724 0.0006648215 0.0006711789
        0.000649104 0.0006107346 0.00048726262 0.00037404423 0.00012082322 0.00023637537
        8.557039e-05 0.00017689345 0.00048243368 0.0004050446 0.000346492 0.00018734172
        1.2343893e-05 0.00023718897 0.00045802127 0.00064963475 0.00078020326 0.0008323669
        0.00081896223 0.0007597106 0.0006717059 0.00056984794 0.00046607602 0.00036952284
        0.0002867749 0.00022227532 0.00017864328 0.0001565245 0.00015340383 0.00016057055
        0.00015710705 0.0001005574 8.6064305e-05 0.0005284635 0.0014099046 0.0029676547
        0.005471686 0.009185297 0.014314138 0.020955905 0.02906514 0.038444556
        0.048766974 0.059622657 0.07057932 0.08123947 0.09128259 0.10048414
        0.10872836 0.11593634 0.122398086 0.12831256 0.15991482 0.12329131
        0.07482238 0.060791306 0.049068075 0.045469582 0.045878705 0.049404655
        0.054563902 0.06011193 0.06453233 0.065745756 0.060418475 0.04255959
        0.00083420274 0.37291047 0.28566393 0.20965724 0.14954467 0.10118998
        0.061411977 0.027629122 0.0023934257 0.030669171 0.05923025 0.0897133
        0.12507652 0.16371384 0.2193873 0.25664714 0.2335538 0.2056015
        0.18735564 0.16550282 0.14374433 0.12191773 0.10078612 0.08091348
        0.06284557 0.047002792 0.033649325 0.0228686 0.014566608 0.008498998
        0.0043171365 0.0016233578 2.4222096e-05 0.00082786527 0.0012102172 0.0013231168
        0.0012970327 0.0012078367 0.0010940662 0.00097215665 0.00084850955 0.00072526344
        0.0006020177 0.00047802588 0.00035374195 0.00023147355 0.00011581116 1.391035e-05
        6.443879e-05 0.00010681767 9.901649e-05 2.4657644e-05 0.00012319177 0.0003193684
        0.0005289869 0.0007334302 0.0009022562 0.0010430169 0.001035918 0.0011590945
        0.00059647707 0.00030535384 4.324986e-05 0.00026907667 0.00011360484 0.00014373563
        0.0002522471 0.00033103896 0.00037692874 0.00038180398 0.00035511353 0.00032572783
        0.00032500687 0.0003586232 0.00041877996 0.00048798302 0.00054344226 0.0005668461
        0.0005482541 0.00048652652 0.0003898236 0.00026735413 0.0001222073 4.7207293e-05
        0.00024654024 0.0004852992 0.0007772948 0.0011416184 0.0016040874 0.0021989378
        0.002970362 0.0039733383 0.005273147 0.0069431057 0.009060332 0.011699696
        0.014926545 0.018789014 0.023311123 0.028487062 0.03427976 0.040614963
        0.047405045 0.054476146 0.06184247 0.06884543 0.076649934 0.08425683
        0.09238753 0.09952626 0.10712987 0.11405802 0.1200195 0.12413646
        0.12548584 0.1229702 0.115523346 0.10235925 0.08323361 0.058981445
        0.031139014 0.0025587503 0.02616918 0.054421812 0.0792516 0.0990029
        0.11273474 0.12062702 0.12344489 0.122266285 0.11821907 0.11225869
        0.10530177 0.09764479 0.090498194 0.08228866 0.07465212 0.06678242
        0.059796218 0.052434 0.045401435 0.0386761 0.032439 0.026776636
        0.021760851 0.017423186 0.013762037 0.010744877 0.008315149 0.006400241
        0.0049200254 0.003794593 0.0029502953 0.0023235884 0.0018626483 0.0015271344
        0.0012867142 0.0011190048 0.0010074446 0.0009393798 0.00090442627 0.00089303136
        0.0008950093 0.00089813734 0.0008866507 0.0008485224 0.0007833214 0.0007001264
        0.0006158065 0.0005504438 0.00051837036 0.0005242862 0.00056089676 0.0005972355
        0.000606195 0.00057699875 0.00052275974 0.00036460793 0.00020975656 8.3036444e-05
        3.891093e-06 0.00022809916 0.00047879637 0.0008049985 0.00073432 0.00067438744
        0.00050445757 0.000285252 3.0373738e-05 0.00023319086 0.0004813261 0.0006772639
        0.00079552975 0.000845351 0.0008456846 0.00081272266 0.0007602587 0.0006990101
        0.00063687883 0.0005792597 0.0005294663 0.00048912154 0.00045836534 0.00043585518
        0.00041706458 0.00038776067 0.0003148325 0.00013509416 0.00025987654 0.0010390703
        0.0024423024 0.004779624 0.008415318 0.013735046 0.021099174 0.030789785
        0.04296164 0.05760732 0.07454408 0.09342436 0.11377112 0.13501593
        0.1566033 0.17781615 0.19886418 0.21613832 0.24310748 0.26596096
        0.22635448 0.16767128 0.12649049 0.08913073 0.057274833 0.027990624
        0.00038486253 0.029961223 0.06287892 0.101540186 0.14872225 0.20781615
        0.2831706 0.3705139 0.41179836 0.34785873 0.28180218 0.22094016
        0.16699998 0.12030294 0.08015085 0.045277942 0.014241237 0.014377752
        0.041630004 0.06869614 0.09474883 0.12308824 0.14178504 0.12788394
        0.09740779 0.082270086 0.06483233 0.049994435 0.037113227 0.026540563
        0.018217077 0.011996767 0.0076109674 0.0047221454 0.0029649006 0.0019898245
        0.001498655 0.0012656769 0.0011423179 0.0010470158 0.0009464497 0.0008354452
        0.00072097115 0.0006123337 0.00051687023 0.00043913504 0.00038137348 0.00034302165
        0.0003222736 0.00031811124 0.00032949715 0.0003543355 0.00038900366 0.0004279494
        0.00046339308 0.00048523472 0.0004810146 0.00043673016 0.00033618225 0.000172067
        3.190209e-05 0.00024343679 0.0004467221 0.00061373523 0.00075472606 0.0007523707
        0.0008842131 0.0003515983 0.00013991186 0.00016163639 7.4715346e-05 0.00028812716
        0.00030676925 0.00040601692 0.0004773945 0.000519157 0.000523157 0.00049772166
        0.0004694143 0.0004677354 0.0004979956 0.0005533048 0.0006179116 0.0006709147
        0.0006953088 0.0006813366 0.0006267099 0.0005375691 0.00042083542 0.0002769179
        0.0001012215 0.00011542039 0.00038660466 0.00073059986 0.0011705926 0.0017346012
        0.0024546657 0.0033650415 0.0044994117 0.005887509 0.007551867 0.009505473
        0.011750837 0.014280509 0.017078558 0.020122478 0.023384368 0.02683334
        0.03043092 0.034150295 0.037910532 0.04180285 0.045377728 0.04967412
        0.05427746 0.0586065 0.06184676 0.065051444 0.06743182 0.06882874
        0.06878868 0.066953525 0.06301831 0.056847986 0.048537176 0.038384397
        0.026909549 0.014542675 0.0015783682 0.011421951 0.023888119 0.035522014
        0.045885015 0.054439276 0.060860977 0.06503103 0.0670677 0.06726999
        0.06599695 0.063712195 0.06057209 0.057400342 0.053075314 0.048439924
        0.044142347 0.040627852 0.036797114 0.033123083 0.029505303 0.026025523
        0.022707222 0.019585937 0.01668883 0.0140398545 0.01165745 0.00955363
        0.0077323425 0.0061883405 0.0049070185 0.0038656292 0.0030357346 0.0023863125
        0.0018867505 0.0015090987 0.0012292825 0.0010273306 0.0008868751 0.00079420506
        0.00073709385 0.00070337876 0.00067952287 0.00064873236 0.00059835287 0.0005275419
        0.00044448208 0.0003646341 0.00030623816 0.00028154557 0.00029364837 0.0003348569
        0.0003746996 0.00038746715 0.0003633811 0.0003171617 0.00016956255 2.9274244e-05
        0.00025108916 0.00015996877 0.0004097351 0.0005989582 0.0009149165 0.00084684906
        0.0007993297 0.00064975204 0.00045777136 0.00023469624 5.132142e-06 0.00020974923
        0.00037629122 0.00047066 0.0005019312 0.0004880142 0.00044381878 0.00038192823
        0.00031192988 0.00024069154 0.00017265121 0.000110238885 5.4346816e-05 4.909515e-06
        3.7753085e-05 7.1377275e-05 9.2800416e-05 9.7744094e-05 7.8122524e-05 2.1833172e-05
        8.405659e-05 0.00024499587 0.00044443388 0.00062419317 0.0006639339 0.00036644106
        0.0005444092 0.0024091154 0.00560224 0.01049153 0.017392414 0.026529059
        0.0379856 0.051751833 0.06739266 0.08555167 0.10094683 0.13237226
        0.14631613 0.12732057 0.09850505 0.071845904 0.044246588 0.016579349
        0.012283196 0.043376338 0.07813327 0.118039295 0.16442497 0.21806821
        0.27872956 0.34474567 0.40891328 0.30376008 0.25840586 0.21084134
        0.16986667 0.13517977 0.1061357 0.08189546 0.06161399 0.04456357
        0.030119214 0.01776517 0.00668042 0.0034577046 0.01552169 0.025434734
        0.017222889 0.009827908 0.016942792 0.023716677 0.026365114 0.026482057
        0.024518833 0.021172099 0.017044162 0.012681407 0.00852757 0.0049027367
        0.001991542 0.00014960363 0.00156826 0.0023805005 0.0027333605 0.0027733573
        0.0026256882 0.0023847024 0.0021134987 0.0018492757 0.0016110074 0.0014065895
        0.0012368183 0.0010994984 0.0009925145 0.0009135359 0.0008593348 0.0008254641
        0.000805888 0.00079268863 0.0007759652 0.0007437617 0.00068282976 0.00057770615
        0.00042026344 0.00023008636 3.4534376e-05 0.00015365315 0.00030924252 0.00044383245
        0.0004463653 0.0005827239 9.798848e-05 4.4274275e-05 0.00035450506 0.00011226689
        0.00044242284 0.000450911 0.0005394538 0.00060237764 0.000640698 0.0006471404
        0.0006289669 0.0006088144 0.0006117856 0.00064147793 0.00069145916 0.000748287
        0.0007946728 0.00081729377 0.00080922927 0.0007695484 0.00070403086 0.00061867945
        0.0005133889 0.0003837495 0.00022144265 1.4465096e-05 0.00025289066 0.0005998792
        0.0010486104 0.0016224176 0.0023430148 0.0032264565 0.0042783106 0.0054888944
        0.0068297284 0.008252402 0.00969072 0.011066181 0.012296241 0.013303254
        0.014024884 0.014415835 0.014471189 0.014163706 0.013653962 0.012637523
        0.012151005 0.011975534 0.011273259 0.009573653 0.00779432 0.005520567
        0.002906006 2.1704042e-05 0.00289393 0.0055099973 0.00741965 0.008226811
        0.007686454 0.0057832594 0.0028896 0.00016835853 0.0032631624 0.006261251
        0.00830353 0.008975538 0.008257094 0.006375589 0.0037279313 0.0007345571
        0.002255272 0.004984831 0.007370773 0.0092444215 0.011030774 0.011767655
        0.011904525 0.012411813 0.013490373 0.014063963 0.014447127 0.014470749
        0.014160562 0.013518474 0.0125880465 0.011430175 0.0101214405 0.008743418
        0.0073736655 0.0060775112 0.004902776 0.003877909 0.0030133727 0.0023053247
        0.0017403453 0.0013000454 0.00096474873 0.00071589113 0.0005371786 0.00041477845
        0.00033687314 0.00029285924 0.00027222058 0.00026334525 0.00025137758 0.00022465157
        0.00018144106 0.00012740178 7.4622105e-05 3.8094822e-05 2.8067025e-05 4.742743e-05
        9.047964e-05 0.00013104371 0.00014725425 0.00013059532 9.634248e-05 3.0033725e-05
        0.00014504243 0.00039704377 0.0002932133 0.0005404204 0.00067236804 0.000965181
        0.00090222864 0.0008689003 0.0007461821 0.0005905043 0.00041122345 0.00023051682
        6.6595145e-05 5.1624185e-05 0.000104035884 9.980387e-05 5.5292345e-05 1.6193579e-05
        0.00010349938 0.00019828365 0.00029475839 0.00038943876 0.00048076038 0.0005686341
        0.00065386813 0.00073660683 0.00081366725 0.0008775284 0.00091280934 0.0008884438
        0.00075072126 0.00041814582 0.0002192734 0.001293448 0.0029421016 0.00528257
        0.008378059 0.0122026475 0.016613638 0.02133888 0.025982006 0.030044494
        0.032952536 0.03410664 0.032834645 0.028763609 0.020250639 0.011797421
        0.018641327 0.027424844 0.017844656 0.006109103 0.003685364 0.014401795
        0.026432887 0.040651638 0.05760909 0.07794008 0.1023564 0.13166752
        0.16666731 0.20795676 0.25580347 0.3015117 0.00022174594 0.044697903
        0.072961845 0.08697352 0.090815924 0.088679045 0.0838259 0.07850262
        0.07426923 0.072340265 0.07381261 0.07975236 0.091360696 0.109206766
        0.11297128 0.09162907 0.088430606 0.07039215 0.057302587 0.04477861
        0.03369593 0.02383968 0.015348793 0.008306861 0.0027710134 0.0012910655
        0.004012891 0.005614624 0.0063614906 0.006514991 0.0062957164 0.00586779
        0.0053421725 0.004789043 0.004250527 0.0037501445 0.0032992458 0.0029016503
        0.0025570206 0.0022617658 0.0020113168 0.0018019851 0.0016301753 0.0014917135
        0.0013815929 0.001293659 0.0012203609 0.001152668 0.0010799882 0.0009908258
        0.0008718125 0.0007154877 0.000537322 0.00035882992 0.0001891677 4.8578884e-05
        7.435922e-05 8.559754e-05 0.00021276552 0.00018394133 0.00026225642 0.0005538145
        0.00033633088 0.00060921465 0.0006105401 0.000683005 0.00073494343 0.0007683466
        0.0007769919 0.00076657574 0.0007552021 0.0007633031 0.0007936844 0.0008412976
        0.00089561794 0.0009430048 0.0009730381 0.000980305 0.00096381817 0.0009278587
        0.0008769142 0.0008101502 0.00072320335 0.0006084569 0.00045522343 0.00024964171
        2.5424344e-05 0.0003903098 0.0008680099 0.0014828177 0.0022576393 0.003209377
        0.0043418813 0.0056366394 0.007042624 0.0084681995 0.009778536 0.010801501
        0.011341515 0.011202454 0.010203593 0.008223779 0.0051388354 0.0010660767
        0.0043332055 0.010013798 0.016192904 0.022910617 0.030767635 0.039098565
        0.048088025 0.05726508 0.065932155 0.07302636 0.077242136 0.07720771
        0.07178742 0.06046881 0.04371867 0.023203494 0.001582888 0.020200532
        0.041170403 0.0585589 0.07055939 0.07658275 0.07706677 0.07312452
        0.06614558 0.057475697 0.048224457 0.039130908 0.03069834 0.022757322
        0.015993714 0.009872214 0.00416475 0.0012781345 0.0054009696 0.008544469
        0.010588113 0.011654685 0.011862979 0.011391104 0.010431886 0.009177229
        0.0077957264 0.006419551 0.0051392084 0.004006375 0.0030417917 0.0022448986
        0.0016025867 0.0010958277 0.00070404756 0.0004076669 0.00018932522 3.4228142e-05
        7.00514e-05 0.00013409878 0.00016735142 0.00017902955 0.00017904812 0.00018011662
        0.00019205456 0.00021625923 0.0002483615 0.00027888067 0.00029609524 0.00029235883
        0.00026590645 0.00022151635 0.00018085512 0.00016146792 0.00017003115 0.00019266055
        0.00029258657 0.00038127165 0.0005882267 0.00049355906 0.00071399077 0.00079078827
        0.0010391397 0.0009920137 0.00097643223 0.0008900677 0.0007806827 0.00065527065
        0.0005319169 0.00042503042 0.0003579445 0.00034713614 0.00038502336 0.00045840783
        0.0005568828 0.0006718977 0.00079734816 0.00092934316 0.0010660067 0.0012071753
        0.0013540835 0.0015090839 0.0016746841 0.0018516169 0.0020395326 0.0022366992
        0.0024360835 0.002622261 0.0027671305 0.0028228795 0.002710789 0.0023073645
        0.0014348656 0.00013274576 0.0026409482 0.0063071805 0.011271953 0.01756914
        0.025130257 0.033812534 0.043473538 0.05392574 0.06540415 0.07678822
        0.0933706 0.09001534 0.11146192 0.10688021 0.08763545 0.07468319
        0.06764387 0.0654413 0.06709213 0.07152578 0.0774951 0.083353676
        0.08673178 0.084220506 0.07145804 0.044147648 0.00046739896
      </DataArray>
      <DataArray type="Float32" Name="aspect_ratio" format="ascii" RangeMin="3.8386874198913574" RangeMax="1050.7635498046875">
        21.206099 18.660656 17.051735 15.923091 15.105335 14.50137
        14.053595 13.726179 13.500123 13.3538265 13.310534 13.253563
        13.569517 12.842229 8.641381 4.5600686 4.1966963 5.0761623
        5.7577853 6.619421 7.5831857 8.681985 9.920302 11.308347
        12.853961 14.565424 16.451944 18.524853 20.798416 23.290281
        26.021383 29.015358 32.297592 35.894093 39.830322 44.130135
        48.814796 53.90198 59.404667 65.33034 71.68053 78.44959
        85.62307 93.176506 101.07498 109.273315 117.71737 126.34673
        135.09883 143.9141 152.74213 161.54288 170.26001 178.78745
        186.97049 194.61716 201.51633 207.41672 212.13522 215.35779
        210.96391 204.95233 203.48795 200.76497 196.80911 191.81255
        185.89323 179.2076 171.92084 164.20149 156.18999 147.97507
        139.61168 131.15005 122.65037 114.191864 105.87013 97.7849
        90.02657 82.66359 75.73736 69.26763 63.259 57.705246
        52.592518 47.90173 43.610374 39.69393 36.126926 32.883762
        29.939358 27.269619 24.851793 22.664669 20.68865 18.905712
        17.299282 15.854078 14.555858 13.391535 12.348055 11.415789
        10.576959 9.84173 9.1459 8.582127 8.484493 8.830892
        9.241849 9.61642 10.023368 10.450171 10.915619 11.422099
        11.9688635 12.541203 13.11029 13.624819 14.031519 14.261184
        14.330071 14.30233 14.109696 13.733121 13.241338 12.688952
        12.129333 11.593109 11.096187 10.639771 10.221674 9.822296
        9.455151 9.047491 8.706193 8.819035 9.410123 10.140817
        10.912751 11.793618 12.772166 13.866659 15.086517 16.44458
        17.953444 19.626583 21.47812 23.522984 25.776876 28.256218
        30.977936 33.959106 37.216457 40.765705 44.620823 48.79315
        53.29051 58.11624 63.268383 68.73902 74.51419 80.57476
        86.89903 93.468575 100.2745 107.31403 114.578514 122.03867
        129.62912 137.24174 144.73308 151.94101 158.72147 164.97873
        170.65404 175.69713 180.08983 183.80334 186.84921 189.13535
        196.36589 202.76686 202.40492 200.78018 197.7393 193.28973
        187.4844 180.45695 172.38924 163.49745 154.02661 144.23828
        134.37227 124.61977 115.125656 105.99534 97.30118 89.08873
        81.382355 74.19028 67.508736 61.32547 55.622288 50.376583
        45.562817 41.154133 37.12312 33.44195 30.082664 27.017605
        24.220154 21.66556 19.33179 17.20016 15.255564 13.48622
        11.882907 10.437919 9.143819 7.9930043 6.975165 6.0854683
        5.290843 4.669759 3.8386874 4.273855 8.506985 12.826222
        13.549394 13.19426 13.216695 13.225102 13.340846 13.542938
        13.855413 14.299339 14.912262 15.753173 16.920435 18.585093
        21.201666 16.66259 16.066383 15.575516 15.146069 14.771792
        14.44365 14.150555 13.879558 13.617672 13.347127 13.062788
        12.713783 12.396833 11.712624 9.521633 6.8863225 6.678598
        7.8497157 8.725319 9.792705 10.948728 12.230757 13.644768
        15.207197 16.935553 18.850975 20.977577 23.342064 25.972906
        28.899372 32.150654 35.75524 39.740665 44.133457 48.95916
        54.242134 60.004917 66.26712 73.04383 80.344154 88.17027
        96.51571 105.36313 114.68286 124.43215 134.5553 144.98518
        155.64642 166.46027 177.35095 188.2529 199.11276 209.85811
        220.35632 230.41661 239.80444 248.25917 255.48343 261.23282
        265.17004 259.71658 252.28352 250.48135 247.1097 242.24228
        236.08983 228.8039 220.57523 211.60576 202.1011 192.23395
        182.11417 171.81151 161.3899 150.9247 140.51378 130.27405
        120.32681 110.78171 101.72158 93.19665 85.231064 77.8306
        70.98786 64.68615 58.90241 53.60947 48.777832 44.377007
        40.37657 36.74688 33.45954 30.487623 27.80569 25.389692
        23.216812 21.265322 19.51451 17.944595 16.536997 15.27361
        14.139578 13.114555 12.199796 11.343042 10.604584 10.45427
        10.859188 11.296135 11.679475 12.051652 12.395876 12.714204
        12.997538 13.237807 13.427517 13.566024 13.660556 13.731003
        13.79638 13.833891 13.8165865 13.772192 13.724376 13.65399
        13.54011 13.374186 13.155822 12.891961 12.590469 12.260532
        11.89984 11.525875 11.094219 10.694084 10.862132 11.633991
        12.530076 13.487426 14.560401 15.747424 17.069338 18.541042
        20.180573 22.006117 24.036665 26.291616 28.790718 31.553965
        34.60153 37.953655 41.630463 45.65155 50.03544 54.79871
        59.955013 65.5139 71.479614 77.84992 84.61532 91.75879
        99.25679 107.082344 115.21185 123.632835 132.3401 141.32143
        150.54 159.9155 169.31606 178.56677 187.46994 195.84843
        203.5839 210.60155 216.83911 222.26562 226.85202 230.59296
        233.40295 242.28996 250.14009 249.64932 247.58307 243.78175
        238.24712 231.0524 222.36366 212.4068 201.44838 189.78838
        177.74619 165.61314 153.62138 141.94698 130.71815 120.02307
        109.9174 100.43109 91.57447 83.34333 75.72312 68.69216
        62.223743 56.288204 50.85519 45.894806 41.377857 37.275803
        33.56044 30.203476 27.176216 24.449532 21.994247 19.781887
        17.785604 15.981037 14.346927 12.865173 11.5212145 10.301106
        9.201301 8.184185 7.361877 6.211959 6.525968 9.291707
        11.495539 12.177445 12.499733 12.856206 13.151449 13.4357395
        13.713842 14.00298 14.3155365 14.663928 15.058878 15.509219
        16.020922 16.638407 14.582567 15.200267 15.743112 16.17296
        16.485142 16.678215 16.751661 16.704224 16.53448 16.239586
        15.825416 15.280632 14.673592 13.829424 12.098844 10.193487
        10.430482 11.871105 13.014916 14.35662 15.804646 17.403282
        19.169498 21.131845 23.321363 25.773216 28.52524 31.616756
        35.08715 38.974724 43.31606 48.14599 53.498013 59.404823
        65.89859 73.010704 80.77079 89.20504 98.33391 108.17001
        118.71662 129.96535 141.89319 154.46048 167.60982 181.26613
        195.3387 209.72525 224.3185 239.0146 253.72263 268.36774
        282.8504 296.99057 310.53104 323.15768 334.51788 344.22293
        351.9219 357.21292 349.83176 339.7924 337.37366 332.8138
        326.2609 317.9726 308.15942 297.0768 284.99603 272.1926
        258.8991 245.26367 231.38171 217.34071 203.2432 189.22128
        175.43217 162.03831 149.18625 136.98663 125.50653 114.77849
        104.810486 95.592926 87.10381 79.31262 72.18337 65.67692
        59.752766 54.370373 49.490086 45.073734 41.084934 37.489166
        34.253674 31.34728 28.74018 26.403826 24.310844 22.435291
        20.75219 19.239784 17.873014 16.643948 15.506339 14.49606
        14.284138 14.833883 15.395046 15.889337 16.346087 16.749935
        17.098793 17.38362 17.598797 17.74394 17.829365 17.876652
        17.918169 17.98445 18.033346 18.011526 17.973604 17.962961
        17.94898 17.897934 17.786312 17.602058 17.344444 17.018583
        16.633507 16.191282 15.707877 15.152919 14.607442 14.841322
        15.894596 17.081366 18.364595 19.792088 21.37194 23.129803
        25.08766 27.270504 29.703875 32.414204 35.428375 38.77363
        42.477425 46.56737 51.071075 56.015835 61.428116 67.33278
        73.752014 80.70402 88.20148 96.24999 104.84651 113.97822
        123.62219 133.74663 144.31493 155.29446 166.66716 178.42458
        190.54903 202.99039 215.64078 228.32347 240.8043 252.81822
        264.1266 274.5697 284.0448 292.46832 299.7901 305.98
        311.0098 314.79538 326.7517 337.30048 336.6114 333.7785
        328.6178 321.122 311.3969 299.6667 286.23706 271.46735
        255.76045 239.54504 223.21098 207.06857 191.35338 176.23695
        161.8374 148.22931 135.45294 123.5223 112.431946 102.16255
        92.68522 83.964355 75.960556 68.63364 61.9443 55.85465
        50.32837 45.330418 40.826363 36.781536 33.16027 29.925535
        27.039177 24.462778 22.15891 20.092478 18.23167 16.54914
        15.019874 13.630957 12.338131 11.24864 9.80779 9.673331
        11.718115 13.442964 14.282248 14.89932 15.4646015 15.909328
        16.242224 16.454674 16.546534 16.51637 16.36299 16.085123
        15.68327 15.162077 14.561374 15.184127 16.35356 17.454094
        18.416405 19.196848 19.776903 20.154364 20.33437 20.32407
        20.129257 19.758081 19.209522 18.521215 17.614504 16.168726
        15.13352 16.031654 17.792904 19.446918 21.359625 23.485575
        25.873682 28.555513 31.571703 34.9654 38.78314 43.073654
        47.887146 53.274597 59.287445 65.977585 73.397514 81.60045
        90.6401 100.570114 111.44284 123.30745 136.20735 150.17683
        165.23793 181.39816 198.64691 216.95107 236.25157 256.46155
        277.46597 299.12427 321.27615 343.75107 366.38055 389.01236
        411.51593 433.7253 455.35803 476.01962 495.23434 512.4677
        527.1474 538.72845 546.66797 535.2159 519.746 516.01135
        508.9972 498.96985 486.2855 471.2766 454.3288 435.85062
        416.25708 395.902 375.01596 353.75302 332.25458 310.68228
        289.23886 268.16153 247.69312 228.05173 209.40176 191.84334
        175.42564 160.16138 146.03687 133.01968 121.06443 110.11727
        100.11931 91.009254 82.72538 75.206856 68.39479 62.232773
        56.667263 51.647697 47.12645 43.05869 39.402203 36.117188
        33.16629 30.514177 28.12897 25.978035 24.04088 22.274876
        20.688461 20.249632 20.888927 21.491121 21.99017 22.406713
        22.735765 22.981052 23.14413 23.231003 23.253826 23.233952
        23.20139 23.192429 23.240248 23.289005 23.270208 23.25377
        23.296913 23.36666 23.425745 23.442522 23.393919 23.266388
        23.052986 22.751635 22.358202 21.877676 21.288673 20.658895
        21.129194 22.773909 24.606268 26.61784 28.852545 31.331465
        34.087944 37.154247 40.56575 44.35932 48.573547 53.248466
        58.42548 64.147156 70.456955 77.39874 85.0161 93.35131
        102.44405 112.32974 123.03756 134.58821 146.99147 160.24387
        174.32683 189.20602 204.83286 221.15027 238.10522 255.66449
        273.80826 292.50333 311.6694 331.14175 350.65442 369.85605
        388.34818 405.7685 421.8691 436.48468 449.4809 460.763
        470.2766 477.95636 483.7077 501.946 517.9692 516.7165
        512.1424 504.01578 492.3309 477.26907 459.18237 438.54483
        415.9074 391.88116 367.10962 342.1744 317.53812 293.55237
        270.4738 248.47952 227.68204 208.14279 189.884 172.89877
        157.15932 142.6232 129.23767 116.94374 105.68043 95.3869
        86.0034 77.471886 69.73625 62.742348 56.437683 50.771034
        45.692013 41.150795 37.098198 33.48613 30.26837 27.401278
        24.844875 22.561598 20.523563 18.681866 17.09688 15.34121
        14.533795 15.698132 17.138315 18.047039 18.753426 19.333017
        19.746075 19.990448 20.054617 19.929338 19.604286 19.0717
        18.33188 17.402205 16.32597 15.174247 21.92312 25.02093
        27.774323 29.880852 31.322014 32.20002 32.659008 32.823277
        32.77018 32.52597 32.069954 31.340925 30.246914 28.693249
        26.626432 26.376482 28.204542 30.55492 33.435814 36.888237
        40.95274 45.674686 51.099262 57.270927 64.233986 72.03518
        80.727554 90.37438 101.05194 112.85011 125.87093 140.22562
        156.03114 173.40677 192.47076 213.337 236.1111 260.88583
        287.73553 316.71048 347.83255 381.0884 416.42065 453.72104
        492.82553 533.51294 575.5082 618.492 662.1175 706.0326
        749.90546 793.4372 836.2661 877.8287 917.3641 953.97095
        986.64404 1014.3327 1036.0135 1050.7635 1028.3053 998.2753
        990.9591 977.39624 958.1162 933.7356 904.91284 872.3743
        836.88525 799.2245 760.0648 719.8628 678.9383 637.58527
        596.1279 554.9567 514.51685 475.2577 437.58 401.78574
        368.05984 336.49484 307.11594 279.8993 254.7856 231.6907
        210.51384 191.14412 173.46548 157.36055 142.71344 129.4119
        117.34874 106.42279 96.539314 87.61006 79.55306 72.2922
        65.75664 59.880318 54.601524 49.862568 45.60959 41.792732
        38.365463 35.286736 34.2327 35.03211 35.694042 36.178646
        36.51077 36.71792 36.828117 36.86926 36.868015 36.849102
        36.834736 36.844803 36.898106 37.015133 37.101894 37.0615
        36.990524 36.983223 37.019314 37.080166 37.14592 37.19411
        37.19951 37.13461 36.970467 36.677834 36.227898 35.5945
        34.817398 35.924793 39.09649 42.63028 46.568542 50.959145
        55.853115 61.30522 67.37369 74.12022 81.6101 89.91234
        99.09984 109.249405 120.44155 132.7599 146.29015 161.1185
        177.3295 195.00323 214.21204 235.01642 257.46066 281.56815
        307.33646 334.73373 363.69672 394.13275 425.92926 458.97577
        493.1925 528.5215 564.88007 602.1023 639.872 677.69073
        714.9038 750.76715 784.5945 815.89874 844.3387 869.6329
        891.557 909.9563 924.67834 935.583 970.4713 1000.91534
        997.8846 988.3847 972.0695 948.96954 919.4826 884.31494
        844.39484 800.78394 754.6402 707.1616 659.42163 612.2727
        566.3644 522.172 480.0253 440.13556 402.6201 367.52396
        334.8383 304.51498 276.4784 250.63258 226.86853 205.07086
        185.12097 166.8985 150.28267 135.1538 121.39505 108.89484
        97.54949 87.2662 77.965065 69.579544 62.054657 55.3435
        49.40299 44.190376 39.661266 35.769783 32.469547 29.719425
        27.476671 25.731403 26.011534 28.082716 29.665543 30.800037
        31.573116 32.073364 32.361485 32.459225 32.34207 31.93458
        31.1136 29.733707 27.687502 24.985409 21.922678
      </DataArray>
      <DataArray type="Float32" Name="jacobian" format="ascii" RangeMin="4.292220182833262e-05" RangeMax="0.014502035453915596">
        0.0013095981 0.0014714791 0.0016079287 0.0017133877 0.0017908968 0.0018433448
        0.0018735699 0.0018841719 0.0018779675 0.0018559479 0.0018243027 0.001769434
        0.0017449786 0.0015728703 0.0009961744 0.0004992501 0.00044277913 0.0005118958
        0.0005549888 0.0006094394 0.00066734076 0.00073158054 0.0008027338 0.0008821455
        0.0009711782 0.0010713433 0.0011842088 0.0013113539 0.0014543185 0.0016145719
        0.0017934996 0.0019924112 0.0022125598 0.0024551598 0.00272139 0.003012371
        0.0033291124 0.003672431 0.0040428494 0.0044405274 0.004865237 0.005316293
        0.0057924436 0.006291823 0.006811956 0.007349823 0.007902009 0.008464949
        0.009035272 0.009610213 0.0101880785 0.01076829 0.0113489805 0.01192388
        0.012482691 0.013012007 0.013496529 0.013917654 0.014260765 0.014502035
        0.014225473 0.013833213 0.013742017 0.013561519 0.013295557 0.012959092
        0.012559283 0.012107351 0.011615363 0.011095531 0.010557694 0.010007168
        0.009446548 0.008878198 0.008305549 0.0077338964 0.0071701882 0.0066219466
        0.006096111 0.0055979416 0.005130554 0.0046953764 0.0042926855 0.0039219665
        0.003582171 0.0032718994 0.0029895415 0.002733375 0.0025016356 0.002292567
        0.0021044507 0.0019356244 0.00178449 0.001649518 0.0015292504 0.0014223024
        0.0013273654 0.0012432111 0.0011686885 0.0011027472 0.0010443544 0.000992782
        0.00094661524 0.0009069179 0.0008680198 0.0008386688 0.0008536698 0.00091703155
        0.0009934736 0.001072749 0.0011629176 0.0012629728 0.0013752377 0.0014995609
        0.0016345092 0.0017756101 0.0019151483 0.002041215 0.0021413884 0.0022015139
        0.0022218125 0.0022114445 0.0021602302 0.0020671766 0.0019461637 0.0018097707
        0.0016703333 0.001536038 0.0014117536 0.0012991708 0.0011986184 0.0011077683
        0.0010278359 0.00095029577 0.0008861971 0.0008720381 0.0009038652 0.00094594853
        0.0009888889 0.0010387439 0.0010943349 0.0011571354 0.0012278615 0.0013075346
        0.0013971645 0.0014978304 0.0016106446 0.0017367459 0.0018772805 0.0020333852
        0.002206168 0.0023966862 0.002605923 0.0028347557 0.0030839182 0.0033539555
        0.00364517 0.0039575677 0.004290809 0.004644182 0.0050166203 0.005406799
        0.0058133765 0.00623548 0.0066731987 0.0071272147 0.007597745 0.008083313
        0.00857949 0.009078426 0.00956955 0.010040986 0.010482545 0.010888308
        0.01125531 0.011581255 0.011866347 0.012111668 0.012317964 0.012478877
        0.012972249 0.013418006 0.013421516 0.013342767 0.01316869 0.012897295
        0.0125301555 0.012074845 0.011542815 0.0109484745 0.0103090145 0.009643865
        0.00897121 0.008305547 0.007657802 0.0070358524 0.0064450228 0.005888578
        0.005368168 0.0048842216 0.0044362806 0.004023267 0.0036436897 0.0032957701
        0.0029775756 0.0026871816 0.0024227551 0.002182578 0.0019650517 0.0017686854
        0.0015920659 0.0014338167 0.001292556 0.0011668659 0.0010552823 0.0009563058
        0.00086843356 0.00079020666 0.0007202496 0.0006573511 0.00060033216 0.00054875825
        0.0004999352 0.0004617835 0.00039717217 0.00045838903 0.0009617727 0.0015425475
        0.0017125244 0.0017329972 0.0017837321 0.0018114737 0.0018305221 0.0018354118
        0.0018257468 0.0017990855 0.0017528561 0.0016838367 0.0015883372 0.0014621763
        0.0013093239 0.0006615849 0.000706292 0.0007386082 0.0007581528 0.0007680625
        0.0007706964 0.0007677043 0.0007600578 0.0007482113 0.00073193054 0.0007113598
        0.0006838764 0.000654996 0.00060275744 0.00047587586 0.0003389688 0.0003253448
        0.0003770623 0.0004138742 0.00045897986 0.000507564 0.00056142185 0.0006209093
        0.00068687345 0.0007602105 0.0008419697 0.00093331066 0.0010354775 0.0011497561
        0.0012774315 0.0014197531 0.0015779147 0.0017530521 0.0019462508 0.0021585543
        0.002390959 0.0026443885 0.0029196395 0.0032173097 0.0035377326 0.003880939
        0.0042465823 0.0046338453 0.005041379 0.00546728 0.0059091044 0.0063639497
        0.0068286057 0.007299783 0.007774407 0.008249944 0.008724482 0.009195234
        0.0096565485 0.010100066 0.010515384 0.010890832 0.011213005 0.011470701
        0.011648568 0.011412903 0.011088912 0.011011236 0.010863694 0.010649955
        0.010379687 0.010059379 0.009697552 0.009303268 0.008885735 0.008452618
        0.008008608 0.0075565474 0.0070990357 0.0066392585 0.0061815046 0.0057310127
        0.0052932734 0.0048732753 0.004474791 0.0041000918 0.0037502567 0.0034255318
        0.0031255707 0.0028496138 0.0025966219 0.002365378 0.002154566 0.001962832
        0.0017888264 0.0016312365 0.0014888041 0.0013603331 0.001244689 0.0011407938
        0.0010476193 0.0009641808 0.0008895364 0.000822784 0.0007630752 0.00070958363
        0.00066163257 0.0006182913 0.00057963625 0.0005432349 0.00051193224 0.0005087415
        0.00053314056 0.0005601147 0.0005853904 0.00061112497 0.00063642586 0.0006613099
        0.00068512565 0.0007071602 0.00072659727 0.00074286043 0.0007557225 0.0007656504
        0.000773198 0.0007767816 0.0007748251 0.00076889776 0.00076059095 0.0007493182
        0.0007345476 0.0007164426 0.00069554197 0.00067265594 0.00064850936 0.00062377856
        0.0005984487 0.0005734632 0.0005465657 0.0005222339 0.000526219 0.0005591601
        0.00059747935 0.0006381957 0.0006838479 0.00073434255 0.00079063565 0.00085340603
        0.000923477 0.001001677 0.0010888684 0.0011859271 0.0012937386 0.0014131904
        0.0015451692 0.001690555 0.0018502136 0.0020249805 0.0022156374 0.002422877
        0.0026472595 0.0028891643 0.0031487364 0.0034258391 0.0037200202 0.004030507
        0.0043562595 0.004696116 0.0050491155 0.0054148533 0.005793281 0.006184026
        0.0065855733 0.006994389 0.007404562 0.007808223 0.008196488 0.008561476
        0.0088981 0.009203278 0.009474496 0.0097106835 0.009911191 0.010075772
        0.010200631 0.010592351 0.010940201 0.010924324 0.010839803 0.010679061
        0.010441672 0.010130452 0.009752409 0.009317306 0.0088368235 0.008324278
        0.0077940654 0.007259401 0.0067308084 0.006216259 0.0057215434 0.0052506276
        0.0048059965 0.00438897 0.0039999764 0.0036387902 0.0033047213 0.0029967634
        0.002713689 0.0024541465 0.0022167682 0.0020002278 0.0018032509 0.0016246125
        0.0014631175 0.0013175751 0.0011867732 0.0010694679 0.0009643898 0.0008702705
        0.00078588 0.0007100667 0.0006417913 0.0005801404 0.0005243555 0.00047371432
        0.0004279845 0.00038538605 0.00035113544 0.00030054073 0.00031890548 0.00046107732
        0.00058804516 0.00064024486 0.00066948717 0.0006973677 0.0007184979 0.00073550537
        0.0007482811 0.0007570822 0.0007614661 0.0007604547 0.0007523646 0.00073476013
        0.0007043634 0.00066130783 0.00032868667 0.0003249033 0.00032052814 0.0003145689
        0.00030773497 0.000300738 0.000294076 0.0002879725 0.0002824232 0.00027722333
        0.00027217646 0.0002666786 0.00026140496 0.00025274756 0.00022728648 0.00019568366
        0.00020362793 0.00023634185 0.0002645466 0.0002981373 0.00033527307 0.00037683194
        0.00042306972 0.00047444567 0.0005314472 0.0005946508 0.00066471787 0.000742393
        0.0008284911 0.0009238791 0.0010294585 0.0011461506 0.0012748854 0.0014165898
        0.0015721756 0.0017425203 0.0019284408 0.002130658 0.002349747 0.0025860937
        0.002839855 0.003110903 0.0033987532 0.0037025074 0.004020819 0.004351884
        0.004693473 0.005043014 0.0053977324 0.005754839 0.0061117443 0.0064661438
        0.006815188 0.0071543446 0.007477416 0.0077769845 0.00804485 0.008272095
        0.008450835 0.008572074 0.008390388 0.008146515 0.008086724 0.007976623
        0.00781927 0.007620376 0.0073851715 0.0071196263 0.0068300273 0.0065227854
        0.0062033935 0.00587556 0.005541835 0.0052045556 0.0048663276 0.0045303293
        0.004200212 0.0038796864 0.0035720686 0.0032798622 0.0030045991 0.0027470377
        0.0025073772 0.0022854104 0.0020806377 0.0018923543 0.0017197208 0.0015618167
        0.0014176838 0.00128636 0.0011669043 0.001058415 0.00096003996 0.0008709806
        0.00079049 0.00071786693 0.0006524483 0.00059360283 0.0005407262 0.00049324374
        0.00045059924 0.00041230355 0.00037779316 0.0003468694 0.0003185205 0.00029346926
        0.00028494676 0.00029117826 0.00029684533 0.00030048323 0.00030273115 0.0003034375
        0.00030275568 0.00030077694 0.000297707 0.00029386888 0.0002897506 0.00028596667
        0.00028322186 0.00028211102 0.0002820451 0.00028222817 0.00028349351 0.00028646342
        0.00029055742 0.00029506473 0.00029935004 0.00030289878 0.00030536263 0.00030651456
        0.00030624788 0.00030439402 0.0003011014 0.00029570397 0.0002897019 0.0002987197
        0.00032461196 0.0003539359 0.00038594948 0.00042169238 0.00046136614 0.0005055443
        0.00055471907 0.000609446 0.0006702913 0.0007378415 0.0008126974 0.00089547515
        0.0009868075 0.0010873446 0.0011977517 0.0013187019 0.0014508609 0.0015948656
        0.0017512954 0.0019206376 0.0021032488 0.002299315 0.0025088126 0.0027314764
        0.0029667874 0.0032139916 0.0034721824 0.0037404904 0.0040183165 0.004305249
        0.0046006693 0.0049032513 0.0052104094 0.0055180383 0.0058207377 0.006112377
        0.006387349 0.0066416967 0.006872716 0.0070781377 0.007256407 0.0074060815
        0.0075264755 0.0076156245 0.007900945 0.008150507 0.008127261 0.00805192
        0.007920731 0.0077341124 0.007495072 0.0072093233 0.006884384 0.006528908
        0.006152399 0.0057647135 0.005374727 0.004989501 0.004614411 0.0042533875
        0.003909154 0.0035834508 0.00327724 0.002990885 0.002724302 0.0024770866
        0.002248608 0.0020380733 0.0018445856 0.0016672073 0.0015049876 0.0013569735
        0.0012222162 0.0010997734 0.0009887131 0.00088811613 0.00079708284 0.00071474357
        0.00064027484 0.00057291746 0.0005119933 0.00045691387 0.00040717484 0.00036235485
        0.00032204518 0.00028604548 0.00025343796 0.00022637343 0.00019362527 0.00018789519
        0.0002227149 0.000248474 0.00025723816 0.00026279528 0.00026868162 0.0002741919
        0.0002798887 0.0002859329 0.0002924996 0.00029957158 0.00030691375 0.00031402658
        0.0003202051 0.000324752 0.00032867654 0.00015543695 0.00014683025 0.00013963593
        0.00013348983 0.00012844893 0.00012449641 0.00012153888 0.00011943393 0.00011802629
        0.00011716637 0.000116742696 0.00011660819 0.000116838906 0.00011678629 0.00011371079
        0.00011214842 0.00012394982 0.00014344644 0.0001628785 0.00018519952 0.00020997647
        0.00023756655 0.00026816732 0.00030206196 0.0003395707 0.00038106815 0.00042697918
        0.00047777474 0.00053396536 0.0005960957 0.00066473987 0.0007404971 0.0008239855
        0.00091583247 0.0010166622 0.0011270803 0.0012476536 0.0013788873 0.0015211948
        0.0016748672 0.0018400458 0.002016684 0.0022045013 0.0024029424 0.0026111489
        0.002827948 0.0030518633 0.0032811626 0.0035139385 0.003748223 0.003982117
        0.004213854 0.004441349 0.004661548 0.004870415 0.0050632064 0.0052347034
        0.005379424 0.0054922765 0.0055682766 0.0054477607 0.005287676 0.0052481582
        0.005176149 0.005073934 0.004944732 0.0047920975 0.004619818 0.004431867
        0.0042322977 0.004024635 0.00381136 0.0035942646 0.0033749929 0.0031553165
        0.0029373094 0.0027232864 0.002515561 0.0023161839 0.0021266988 0.0019480607
        0.0017807524 0.0016249118 0.0014804212 0.0013469771 0.0012241445 0.0011113997
        0.0010081641 0.00091383106 0.00082778593 0.0007494226 0.0006781545 0.0006134235
        0.0005547039 0.0005015049 0.00045336998 0.00040987405 0.0003706206 0.00033523788
        0.0003033778 0.0002747107 0.00024893755 0.00022575125 0.00020495166 0.00018614242
        0.0001693746 0.00016233217 0.00016355388 0.00016386491 0.00016281183 0.00016063733
        0.00015743801 0.000153415 0.0001487936 0.00014385521 0.00013892578 0.00013436584
        0.00013054018 0.00012778795 0.0001263674 0.00012600173 0.00012631761 0.00012770841
        0.00013046747 0.0001343472 0.00013901203 0.000144094 0.00014922417 0.00015406538
        0.00015832375 0.00016176199 0.00016416753 0.00016543521 0.00016531131 0.00016425214
        0.00017156336 0.00018875106 0.00020804803 0.00022940492 0.00025322728 0.00027972035
        0.00030919685 0.0003419594 0.0003783392 0.00041868252 0.0004633545 0.00051273854
        0.00056723744 0.0006272733 0.0006932859 0.00076572865 0.00084506057 0.0009317353
        0.0010261865 0.0011288091 0.0012399376 0.0013598225 0.0014886034 0.0016262839
        0.0017727093 0.0019275546 0.0020903326 0.0022604375 0.0024372542 0.0026202998
        0.0028091911 0.0030034217 0.0032020689 0.0034034597 0.003605003 0.0038033086
        0.003994517 0.00417504 0.004342241 0.0044942307 0.004629418 0.004746542
        0.004844416 0.0049223793 0.004979524 0.005163937 0.0053240987 0.0053056143
        0.0052527445 0.005163705 0.0050389376 0.004880688 0.0046928255 0.004480332
        0.0042488473 0.0040044575 0.0037533524 0.0035010453 0.0032519219 0.0030093275
        0.0027757175 0.0025528027 0.0023416865 0.0021429902 0.0019569627 0.0017835745
        0.0016225917 0.0014736365 0.0013362253 0.0012098062 0.001093792 0.0009875763
        0.00089054194 0.00080206833 0.00072153856 0.000648347 0.0005819057 0.00052164897
        0.00046703714 0.00041755964 0.00037273997 0.00033214208 0.00029537702 0.00026210552
        0.0002320405 0.00020492497 0.00018058803 0.0001586583 0.00013968948 0.000120173776
        0.00010916813 0.00011186679 0.000115076444 0.000115243296 0.00011519087 0.0001155509
        0.00011622956 0.000117353185 0.0001190113 0.00012133302 0.00012445748 0.00012851803
        0.00013360745 0.00013975009 0.00014690326 0.00015545222 6.382835e-05 5.527485e-05
        4.980341e-05 4.637983e-05 4.440737e-05 4.3404252e-05 4.301528e-05 4.3001142e-05
        4.3218224e-05 4.360053e-05 4.4149252e-05 4.4930137e-05 4.607623e-05 4.778222e-05
        5.048162e-05 5.6781977e-05 6.677688e-05 7.757413e-05 8.9123605e-05 0.00010149173
        0.00011477027 0.00012909417 0.00014464324 0.00016164086 0.00018034788 0.00020105235
        0.0002240572 0.00024966904 0.0002781907 0.000309919 0.00034514721 0.00038416908
        0.00042728224 0.0004747888 0.0005269923 0.0005841914 0.0006466701 0.00071468466
        0.0007884469 0.0008681073 0.00095373846 0.001045316 0.001142694 0.0012455849
        0.0013535431 0.0014659596 0.001582068 0.0017009685 0.0018216702 0.0019431503
        0.002064421 0.0021845626 0.0023024927 0.0024166298 0.0025248812 0.0026247906
        0.0027136449 0.0027886315 0.0028470415 0.0028864583 0.0028238965 0.002740833
        0.002720407 0.0026830325 0.0026300624 0.0025630854 0.0024839682 0.0023946692
        0.002297247 0.002193799 0.0020861505 0.0019755866 0.0018630399 0.001749366
        0.0016354877 0.0015224821 0.0014115501 0.0013038897 0.0012005611 0.0011023608
        0.0010097827 0.00092307816 0.0008423199 0.000767449 0.0006983104 0.0006346816
        0.00057629414 0.0005228515 0.00047404174 0.0004295479 0.00038905485 0.00035225443
        0.00031884896 0.00028855362 0.00026109832 0.00023622894 0.00021370851 0.00019331797
        0.00017485657 0.00015814185 0.0001430091 0.00012931039 0.000116913216 0.00010569837
        9.556e-05 8.639896e-05 8.225911e-05 8.229725e-05 8.161852e-05 8.0123034e-05
        7.7896075e-05 7.5055425e-05 7.175371e-05 6.817575e-05 6.45315e-05 6.104366e-05
        5.7931018e-05 5.5390028e-05 5.3577467e-05 5.2595802e-05 5.2309722e-05 5.2535695e-05
        5.346731e-05 5.5247692e-05 5.7780653e-05 6.0913357e-05 6.445039e-05 6.817094e-05
        7.184769e-05 7.526422e-05 7.822848e-05 8.058061e-05 8.2196275e-05 8.298462e-05
        8.3042694e-05 8.731932e-05 9.668106e-05 0.000107052554 0.000118536926 0.00013124407
        0.00014529734 0.00016083303 0.00017800239 0.0001969722 0.00021792518 0.00024105948
        0.00026658765 0.00029473487 0.00032573636 0.0003598346 0.0003972756 0.00043830433
        0.00048315927 0.0005320655 0.00058522634 0.00064281287 0.0007049523 0.00077171455
        0.00084309955 0.0009190254 0.0009993223 0.0010837365 0.0011719529 0.0012636501
        0.0013585734 0.0014565206 0.0015572289 0.0016602208 0.0017646328 0.001869125
        0.0019719421 0.0020710852 0.0021646922 0.0022513939 0.0023302063 0.002400311
        0.002461035 0.0025117951 0.0025521899 0.002581853 0.0026774213 0.002760415
        0.0027508468 0.002723379 0.0026771836 0.0026124544 0.0025303736 0.0024329466
        0.0023227606 0.0022027418 0.0020760458 0.0019458795 0.0018150957 0.0016859634
        0.0015602147 0.0014391207 0.0013235679 0.0012141283 0.0011111244 0.0010146858
        0.000924798 0.0008413404 0.0007641173 0.000692879 0.0006273432 0.0005672114
        0.00051217916 0.00046194132 0.0004161966 0.00037465012 0.0003370145 0.0003030081
        0.00027235152 0.00024476217 0.00021995028 0.00019761796 0.00017746416 0.00015919421
        0.0001425326 0.0001272352 0.000113098286 9.996294e-05 8.771408e-05 7.627847e-05
        6.559903e-05 5.576703e-05 4.955612e-05 4.6912493e-05 4.528786e-05 4.4252647e-05
        4.3609656e-05 4.321606e-05 4.2992302e-05 4.2922202e-05 4.305816e-05 4.353337e-05
        4.4581146e-05 4.6555822e-05 4.9943807e-05 5.5351786e-05 6.382706e-05
      </DataArray>
    </PointData>
    <CellData>
    </CellData>
    <Points>
      <DataArray type="Float32" Name="Points" NumberOfComponents="3" format="ascii" RangeMin="1.128320961523387" RangeMax="1.278235224969413">
        0.91648525 0.03315384 0.8903956 0.91650534 0.03376924 0.89037234
        0.9164581 0.03438361 0.8903491 0.91634417 0.034988396 0.89032596
        0.91616577 0.035575286 0.8903035 0.9159262 0.036136545 0.89028186
        0.91563 0.036665224 0.8902615 0.9152823 0.03715539 0.8902427
        0.91488904 0.037602104 0.8902256 0.91445625 0.03800171 0.89021045
        0.91399086 0.038350895 0.8901974 0.91349673 0.03864931 0.89018655
        0.91298926 0.038891215 0.8901782 0.91244054 0.039089136 0.8901718
        0.91197914 0.03920935 0.8901684 0.9117673 0.03925342 0.8901674
        0.91163087 0.03928137 0.89016676 0.91145265 0.039317586 0.8901659
        0.9112589 0.039356638 0.890165 0.9110401 0.0394003 0.89016396
        0.9107954 0.039448645 0.8901628 0.91052103 0.039502185 0.8901616
        0.91021377 0.039561346 0.8901602 0.90986973 0.039626583 0.8901587
        0.90948457 0.03969836 0.8901571 0.9090536 0.039777108 0.8901554
        0.90857166 0.039863244 0.8901534 0.9080329 0.03995713 0.8901514
        0.907431 0.04005904 0.89014924 0.906759 0.040169157 0.890147
        0.9060093 0.04028751 0.8901445 0.90517366 0.040413916 0.8901421
        0.90424305 0.04054796 0.8901396 0.90320784 0.040688913 0.890137
        0.9020575 0.040835664 0.8901345 0.9007813 0.04098668 0.89013225
        0.8993673 0.04113992 0.8901301 0.8978035 0.04129279 0.89012825
        0.89607733 0.041442145 0.8901268 0.89417607 0.041584283 0.89012593
        0.892087 0.041715026 0.8901256 0.8897976 0.04182987 0.89012593
        0.8872959 0.041924153 0.89012694 0.8845705 0.04199339 0.8901286
        0.8816111 0.04203356 0.8901309 0.8784088 0.042041514 0.8901333
        0.8749561 0.042015385 0.89013565 0.8712471 0.041954875 0.8901373
        0.86727774 0.041861415 0.8901376 0.86304545 0.04173804 0.8901357
        0.85854894 0.041588847 0.89013064 0.8537876 0.0414179 0.89012146
        0.84876174 0.041227512 0.89010745 0.84347355 0.041016392 0.89008784
        0.83792967 0.040778335 0.8900626 0.83214223 0.04050148 0.89003175
        0.82613057 0.04016821 0.88999623 0.81992143 0.03975594 0.88995737
        0.8135519 0.039239157 0.8899171 0.80706304 0.038591832 0.8898774
        0.8005146 0.037792828 0.88984084 0.7943194 0.036885113 0.8898109
        0.78817415 0.035826676 0.8897869 0.78211826 0.03462145 0.88976943
        0.7761975 0.033282425 0.88975877 0.7704459 0.031825934 0.8897547
        0.7648943 0.030270826 0.88975656 0.7595675 0.028637884 0.8897636
        0.7544841 0.026948312 0.8897747 0.74965674 0.025222225 0.88978875
        0.74509245 0.023477515 0.88980484 0.7407949 0.021729842 0.88982207
        0.73676586 0.019993598 0.8898396 0.7330057 0.018282577 0.88985664
        0.72951275 0.016610255 0.8898727 0.72628313 0.014989471 0.88988745
        0.7233098 0.0134317 0.88990045 0.7205827 0.011946235 0.88991165
        0.7180893 0.010539656 0.8899209 0.715815 0.00921566 0.88992846
        0.7137445 0.0079753995 0.8899343 0.7118623 0.006817995 0.8899387
        0.71015334 0.0057410453 0.88994175 0.70860314 0.00474107 0.8899437
        0.707198 0.0038138826 0.8899448 0.70592517 0.002954884 0.8899451
        0.7047726 0.002159289 0.8899448 0.7037293 0.0014222929 0.88994396
        0.70278496 0.0007391897 0.88994277 0.7019302 0.00010545105 0.8899413
        0.70115644 -0.00048322268 0.88993955 0.7004557 -0.0010308739 0.88993764
        0.69982094 -0.0015412743 0.8899356 0.69924545 -0.0020179234 0.8899335
        0.6987234 -0.002464053 0.8899314 0.6982493 -0.0028826369 0.8899292
        0.69781834 -0.0032764021 0.8899269 0.69742626 -0.0036478431 0.88992476
        0.697069 -0.003999235 0.88992256 0.69674313 -0.004332642 0.88992035
        0.69644547 -0.0046499446 0.8899182 0.69617337 -0.0049527944 0.889916
        0.69592416 -0.0052428194 0.8899139 0.69569606 -0.0055209673 0.8899118
        0.6954861 -0.005789667 0.8899097 0.69529545 -0.0060464577 0.88990766
        0.6951173 -0.006299373 0.8899056 0.69493914 -0.0065674325 0.88990325
        0.69475675 -0.0068610716 0.8899007 0.69457525 -0.007177932 0.8898979
        0.69439596 -0.0075224745 0.8898947 0.6942226 -0.0078970855 0.8898911
        0.69405925 -0.008305546 0.8898871 0.6939115 -0.00875138 0.88988256
        0.69378656 -0.009237761 0.8898774 0.69369364 -0.009766372 0.8898716
        0.6936437 -0.010336049 0.88986504 0.69364864 -0.0109414 0.8898578
        0.69371915 -0.011571035 0.88985 0.69386274 -0.012209182 0.88984174
        0.6940801 -0.012834517 0.88983333 0.69436795 -0.013432103 0.88982505
        0.69471884 -0.013988416 0.8898171 0.6951175 -0.0144880805 0.8898099
        0.6955476 -0.014924259 0.8898035 0.6959931 -0.015295851 0.88979805
        0.6964414 -0.015606991 0.88979346 0.6968835 -0.015864436 0.88978976
        0.6973138 -0.016075853 0.8897868 0.6977291 -0.016248679 0.88978446
        0.6981278 -0.016389454 0.88978267 0.69850963 -0.016503854 0.8897813
        0.69887346 -0.016596263 0.8897803 0.6992215 -0.01667097 0.88977957
        0.69954807 -0.016729992 0.8897791 0.69986415 -0.016777754 0.88977885
        0.70019245 -0.01681839 0.8897788 0.700544 -0.016852582 0.88977885
        0.70091623 -0.016879132 0.8897791 0.70131314 -0.016897429 0.88977957
        0.7017366 -0.016906558 0.8897802 0.70218986 -0.016905505 0.88978124
        0.70267594 -0.016893078 0.8897825 0.70319855 -0.01686791 0.88978404
        0.7037615 -0.016828423 0.889786 0.70436925 -0.016772812 0.8897884
        0.7050265 -0.016699016 0.88979125 0.70573837 -0.016604705 0.8897946
        0.7065105 -0.016487256 0.8897986 0.70734876 -0.016343743 0.88980323
        0.70825976 -0.016170925 0.88980854 0.7092503 -0.015965244 0.88981473
        0.7103275 -0.015722843 0.8898218 0.7114992 -0.015439578 0.8898299
        0.71277326 -0.015111081 0.889839 0.71415794 -0.014732814 0.8898493
        0.7156617 -0.0143001815 0.8898608 0.7172932 -0.0138086565 0.8898736
        0.7190611 -0.013253974 0.88988787 0.72097397 -0.012632327 0.88990355
        0.7230403 -0.011940631 0.8899207 0.7252684 -0.011176783 0.8899393
        0.7276664 -0.010339915 0.8899595 0.7302422 -0.009430568 0.88998115
        0.733004 -0.008450663 0.89000434 0.73596054 -0.00740325 0.890029
        0.7391209 -0.0062922225 0.89005524 0.7424941 -0.0051221005 0.8900831
        0.7460879 -0.0038980201 0.89011264 0.74990755 -0.0026260451 0.8901441
        0.75395405 -0.0013137012 0.89017755 0.75822383 2.9409412e-05 0.89021295
        0.7627084 0.0013910881 0.89025056 0.767396 0.0027567311 0.8902903
        0.77227277 0.0041102585 0.8903321 0.77732354 0.0054350407 0.890376
        0.7825312 0.0067148185 0.8904218 0.7878785 0.007935458 0.8904693
        0.7933458 0.009087181 0.89051807 0.798914 0.010165515 0.89056754
        0.80455583 0.01116953 0.8906169 0.810591 0.0121592 0.8906681
        0.81664854 0.013084543 0.8907168 0.8226923 0.013962956 0.8907616
        0.8286759 0.01481229 0.89080113 0.83455336 0.015649216 0.8908341
        0.8402785 0.01648635 0.89085966 0.84580886 0.017330706 0.8908774
        0.85110724 0.018182991 0.89088744 0.85614353 0.019037966 0.8908902
        0.8608954 0.01988564 0.89088655 0.8653497 0.020713331 0.89087754
        0.86950207 0.021508176 0.8908645 0.87335515 0.022258976 0.8908484
        0.87691677 0.022957185 0.8908306 0.88019806 0.023597233 0.89081174
        0.8832126 0.024176424 0.89079267 0.8859753 0.024694547 0.890774
        0.88850164 0.025153376 0.89075613 0.8908073 0.025556134 0.89073926
        0.8929076 0.025907014 0.89072365 0.8948179 0.026210748 0.8907093
        0.8965525 0.026472282 0.8906962 0.8981253 0.02669652 0.8906845
        0.8995494 0.026888138 0.8906739 0.9008372 0.027051466 0.8906644
        0.9020002 0.027190438 0.890656 0.9030492 0.027308546 0.89064854
        0.9039943 0.02740887 0.89064187 0.90484494 0.02749408 0.890636
        0.90560985 0.027566485 0.8906308 0.9062969 0.02762806 0.8906262
        0.9069136 0.027680479 0.8906222 0.90746665 0.02772517 0.8906186
        0.9079624 0.027763335 0.8906154 0.9084063 0.027795985 0.8906126
        0.90880376 0.02782397 0.8906101 0.9091593 0.027848007 0.8906079
        0.90947723 0.027868697 0.890606 0.90976137 0.027886542 0.89060426
        0.9100153 0.027901972 0.8906027 0.910242 0.027915329 0.8906014
        0.91044474 0.02792694 0.8906002 0.91062444 0.027936965 0.89059913
        0.9107902 0.027945995 0.8905981 0.910915 0.027952684 0.8905974
        0.91111976 0.027963754 0.8905963 0.91158843 0.028012043 0.89059275
        0.9121559 0.02812322 0.8905869 0.91268814 0.028282853 0.89057964
        0.9132151 0.02849868 0.8905705 0.9137209 0.028766973 0.8905598
        0.9142024 0.029087698 0.89054734 0.91465294 0.02945865 0.8905332
        0.91506696 0.029877454 0.89051753 0.9154387 0.030340835 0.8905003
        0.91576266 0.03084474 0.8904816 0.91603357 0.031384252 0.8904616
        0.91624683 0.03195354 0.89044046 0.9163984 0.0325459 0.89041835
        0.91648525 0.03315384 0.8903956 0.9148875 0.033293776 0.89039713
        0.9147641 0.033678498 0.8903832 0.9146289 0.03405876 0.8903693
        0.9144772 0.034430597 0.89035565 0.9143061 0.034790438 0.89034235
        0.9141141 0.03513503 0.8903296 0.9139012 0.03546149 0.8903176
        0.9136682 0.035767294 0.8903063 0.91341704 0.03605034 0.890296
        0.9131504 0.036309082 0.8902866 0.91287196 0.036542434 0.8902782
        0.9125853 0.036750473 0.8902708 0.91229683 0.036932513 0.8902645
        0.9120055 0.037093204 0.890259 0.91173655 0.037224006 0.8902547
        0.9115444 0.037307236 0.89025205 0.9114011 0.03736474 0.8902502
        0.9112185 0.037434593 0.890248 0.9110189 0.0375064 0.8902458
        0.9107942 0.037582174 0.8902436 0.9105431 0.037661146 0.89024127
        0.91026247 0.037743207 0.89023894 0.90994924 0.037828192 0.8902366
        0.9096001 0.037916094 0.89023435 0.909211 0.038007062 0.890232
        0.9087777 0.03810142 0.89022976 0.9082953 0.03819966 0.8902275
        0.9077582 0.038302388 0.8902253 0.9071602 0.0384103 0.89022297
        0.9064943 0.03852405 0.8902207 0.9057528 0.038644187 0.89021844
        0.9049272 0.038771037 0.8902161 0.9040084 0.03890462 0.8902138
        0.90298647 0.039044555 0.89021146 0.90185094 0.039190006 0.89020926
        0.9005906 0.039339602 0.89020723 0.8991938 0.039491452 0.8902053
        0.8976483 0.039643053 0.8902038 0.8959413 0.03979133 0.8902025
        0.89406013 0.039932635 0.89020187 0.8919917 0.040062852 0.89020175
        0.8897232 0.040177487 0.8902022 0.8872422 0.040271915 0.8902033
        0.884537 0.040341627 0.8902051 0.88159674 0.04038258 0.89020723
        0.8784121 0.040391568 0.89020973 0.8749751 0.040366635 0.89021194
        0.8712795 0.040307384 0.8902135 0.8673208 0.04021514 0.89021355
        0.8630964 0.040092833 0.89021146 0.85860527 0.039944455 0.8902061
        0.8538476 0.039774 0.8901967 0.8488248 0.03958377 0.8901824
        0.8435405 0.039372545 0.8901625 0.8380028 0.039134234 0.89013684
        0.83222544 0.038857125 0.8901057 0.8262288 0.03852382 0.89006984
        0.82004076 0.038112 0.8900304 0.81369835 0.037596464 0.88998944
        0.80724365 0.036951695 0.88994896 0.8007329 0.036156613 0.88991123
        0.7945788 0.03525444 0.8898799 0.7884747 0.034202818 0.8898541
        0.78246135 0.033005953 0.88983446 0.7765822 0.031676292 0.88982135
        0.77087134 0.03023008 0.88981444 0.7653592 0.028686002 0.8898133
        0.76007026 0.02706463 0.8898171 0.75502294 0.025386993 0.8898248
        0.75022995 0.023673085 0.8898355 0.7456988 0.021940798 0.8898481
        0.7414333 0.02020585 0.8898619 0.7374354 0.01848266 0.8898759
        0.7337052 0.016784966 0.88988966 0.7302408 0.015126072 0.8899026
        0.7270379 0.0135185765 0.8899142 0.7240892 0.011973695 0.8899243
        0.72138464 0.010500508 0.8899327 0.7189116 0.009105462 0.8899395
        0.7166559 0.007792231 0.8899447 0.71460253 0.0065620304 0.88994837
        0.7127364 0.0054140966 0.88995075 0.7110429 0.004346171 0.889952
        0.7095078 0.00335492 0.8899523 0.70811784 0.0024362996 0.8899518
        0.7068604 0.0015858451 0.8899507 0.7057238 0.00079889194 0.88994914
        0.7046973 7.073938e-05 0.88994724 0.7037708 -0.0006032328 0.889945
        0.7029351 -0.0012274868 0.8899425 0.70218176 -0.0018062781 0.8899399
        0.701503 -0.0023436267 0.8899373 0.7008916 -0.002843302 0.88993454
        0.7003413 -0.0033088159 0.88993186 0.699846 -0.0037434208 0.8899291
        0.69940037 -0.004150108 0.88992643 0.6989995 -0.0045316075 0.88992375
        0.6986389 -0.0048903935 0.8899212 0.69831467 -0.0052286847 0.88991857
        0.6980231 -0.0055484544 0.88991606 0.69776094 -0.005851443 0.8899136
        0.69752544 -0.0061391406 0.88991123 0.6973139 -0.0064129177 0.88990885
        0.6971243 -0.006673645 0.8899066 0.6969541 -0.006922955 0.8899044
        0.6968026 -0.007159673 0.88990223 0.69666606 -0.0073882644 0.8899001
        0.6965325 -0.007629309 0.88989776 0.6964013 -0.007887903 0.8898953
        0.69627595 -0.008162107 0.8898926 0.6961587 -0.008452994 0.88988966
        0.6960526 -0.008760269 0.88988644 0.69596076 -0.009083727 0.88988304
        0.6958868 -0.009422453 0.8898794 0.6958342 -0.009774801 0.8898755
        0.6958067 -0.01013821 0.88987136 0.69580734 -0.010509244 0.88986707
        0.69583875 -0.010883913 0.8898626 0.6959027 -0.011257964 0.88985807
        0.69600016 -0.011627608 0.88985354 0.6961314 -0.0119891185 0.88984895
        0.69629514 -0.012337464 0.88984454 0.69648904 -0.012668097 0.88984025
        0.6967103 -0.012978444 0.8898362 0.6969558 -0.013266388 0.88983244
        0.6972214 -0.013529978 0.889829 0.6975025 -0.013768003 0.8898259
        0.6977943 -0.01398012 0.88982314 0.6980924 -0.014166901 0.88982075
        0.6983929 -0.014329662 0.8898187 0.6986926 -0.014470193 0.88981706
        0.6989889 -0.014590589 0.8898157 0.69927937 -0.014692828 0.88981456
        0.6995631 -0.014779275 0.88981366 0.69983596 -0.0148511445 0.88981307
        0.70010227 -0.014911613 0.8898126 0.70038545 -0.014966397 0.88981223
        0.70069194 -0.0150155695 0.88981205 0.7010212 -0.015057757 0.889812
        0.70137626 -0.015092066 0.8898121 0.7017592 -0.015117343 0.88981247
        0.702173 -0.015132371 0.88981307 0.7026208 -0.015135784 0.88981396
        0.70310605 -0.015126072 0.88981515 0.7036327 -0.015101548 0.8898167
        0.7042052 -0.015060325 0.8898187 0.7048283 -0.015000305 0.8898211
        0.70550716 -0.014919137 0.889824 0.70624745 -0.014814207 0.8898274
        0.7070553 -0.014682617 0.8898315 0.70793706 -0.014521163 0.88983625
        0.70889974 -0.014326337 0.88984174 0.70995057 -0.014094315 0.8898481
        0.71109724 -0.013820993 0.88985544 0.71234775 -0.013502012 0.88986367
        0.7137104 -0.013132837 0.889873 0.71519387 -0.012708841 0.8898835
        0.71680677 -0.012225452 0.88989526 0.718558 -0.011678325 0.8899083
        0.72045636 -0.011063556 0.8899226 0.7225105 -0.01037794 0.8899383
        0.72472906 -0.00961924 0.88995534 0.72712034 -0.008786443 0.8899738
        0.7296925 -0.007879953 0.88999367 0.7324539 -0.0069015957 0.89001495
        0.73541296 -0.0058544 0.8900376 0.73857874 -0.0047423407 0.8900617
        0.74195975 -0.003570109 0.8900873 0.74556345 -0.0023430681 0.8901146
        0.74939454 -0.0010675061 0.89014363 0.75345415 0.00024888202 0.89017457
        0.7577387 0.0015964108 0.8902075 0.7622401 0.002962888 0.8902426
        0.7669467 0.0043337545 0.89027977 0.7718449 0.0056929253 0.89031917
        0.77691936 0.0070236837 0.8903607 0.78215283 0.008309668 0.89040434
        0.78752697 0.009536543 0.89044976 0.79302114 0.0106942775 0.8904966
        0.7986144 0.011778012 0.89054435 0.80427986 0.012787029 0.89059216
        0.8103348 0.013780982 0.8906418 0.8164074 0.014709855 0.890689
        0.8224594 0.01559076 0.89073247 0.82844514 0.01644164 0.8907706
        0.83431876 0.017279154 0.8908022 0.8400353 0.018115966 0.8908264
        0.8455536 0.018959165 0.89084285 0.85083795 0.019809596 0.89085156
        0.85586 0.02066222 0.890853 0.8605991 0.021507317 0.89084804
        0.8650431 0.022332506 0.8908379 0.8691885 0.023125187 0.89082366
        0.8730382 0.02387432 0.8908065 0.8765998 0.02457143 0.8907876
        0.8798845 0.025210941 0.8907678 0.8829052 0.025790103 0.89074785
        0.8856764 0.026308617 0.89072835 0.888213 0.026768155 0.89070964
        0.8905303 0.027171846 0.8906921 0.8926432 0.027523795 0.89067584
        0.8945665 0.027828664 0.89066094 0.8963142 0.028091343 0.89064735
        0.8979 0.028316703 0.8906352 0.8993367 0.028509399 0.89062417
        0.9006366 0.028673789 0.8906144 0.9018112 0.028813848 0.8906056
        0.9028714 0.028933192 0.8905979 0.90382737 0.029035076 0.890591
        0.90468884 0.029122444 0.8905849 0.9054647 0.029197942 0.8905794
        0.90616333 0.029263964 0.8905745 0.9067924 0.029322652 0.8905701
        0.9073588 0.029375883 0.8905661 0.90786904 0.029425267 0.8905624
        0.9083286 0.029472137 0.890559 0.9087424 0.02951751 0.89055586
        0.9091151 0.02956211 0.8905529 0.90945035 0.029606368 0.89055
        0.90975183 0.02965046 0.89054734 0.9100226 0.02969435 0.8905447
        0.9102655 0.02973782 0.8905423 0.9104835 0.02978064 0.89054
        0.9106773 0.029822122 0.8905378 0.9108557 0.029863467 0.89053565
        0.9109932 0.029897206 0.8905339 0.9111884 0.029950455 0.89053136
        0.9114674 0.030039238 0.8905272 0.9117728 0.030153045 0.8905221
        0.9120793 0.030287167 0.8905163 0.9123885 0.030446054 0.89050955
        0.9126945 0.030630084 0.890502 0.9129938 0.030840043 0.89049345
        0.91328293 0.031075617 0.89048404 0.913559 0.031335954 0.8904738
        0.91381997 0.031619553 0.89046264 0.91406447 0.031924337 0.8904507
        0.91429204 0.032247696 0.89043814 0.9145034 0.032586418 0.8904249
        0.91470057 0.03293666 0.8904112 0.9148875 0.033293776 0.89039713
        0.913582 0.033408117 0.8903983 0.91348994 0.033661045 0.8903892
        0.9133917 0.033911966 0.89038014 0.91328514 0.034158748 0.89037114
        0.9131681 0.034399077 0.8903624 0.91303873 0.03463062 0.8903539
        0.9128961 0.034851108 0.89034593 0.9127401 0.035058465 0.8903384
        0.91257143 0.035250936 0.8903315 0.9123917 0.0354272 0.8903253
        0.9122033 0.035586458 0.8903197 0.9120087 0.035728637 0.8903148
        0.91181135 0.035853874 0.89031065 0.9116126 0.03596413 0.890307
        0.9114207 0.036057614 0.890304 0.9112571 0.036127783 0.8903019
        0.9111126 0.036183983 0.8903002 0.9109359 0.03624812 0.8902983
        0.91074055 0.036313508 0.89029646 0.9105207 0.03638142 0.89029455
        0.9102745 0.03645157 0.8902927 0.90999913 0.03652417 0.89029086
        0.9096916 0.036599483 0.89028907 0.9093483 0.03667792 0.8902872
        0.9089656 0.03676001 0.89028543 0.908539 0.036846377 0.8902836
        0.90806365 0.036937695 0.8902817 0.907534 0.037034653 0.8902798
        0.9069438 0.037137877 0.89027786 0.90628606 0.037247896 0.89027584
        0.9055532 0.03736506 0.8902738 0.9047368 0.0374895 0.8902717
        0.9038278 0.037621044 0.89026964 0.9028164 0.03775916 0.89026755
        0.9016922 0.037902907 0.8902656 0.90044415 0.03805087 0.89026374
        0.8990605 0.038201123 0.8902621 0.8975289 0.038351182 0.8902607
        0.8958367 0.038497977 0.89025974 0.89397097 0.038637906 0.8902592
        0.8919184 0.038766865 0.89025927 0.8896661 0.038880408 0.8902599
        0.8872012 0.03897392 0.8902612 0.8845117 0.039042898 0.890263
        0.88158643 0.039083295 0.8902653 0.87841564 0.03909189 0.8902677
        0.8749909 0.039066687 0.89026994 0.87130564 0.039007258 0.89027137
        0.8673553 0.038914897 0.8902714 0.8631371 0.038792502 0.8902691
        0.85865027 0.03864407 0.8902636 0.8538955 0.038473625 0.8902541
        0.84887505 0.038283505 0.8902395 0.8435937 0.038072523 0.8902194
        0.838061 0.03783465 0.89019346 0.8322914 0.037558224 0.890162
        0.82630664 0.037225936 0.89012575 0.8201352 0.036815617 0.8900859
        0.813814 0.036302205 0.89004433 0.8073861 0.035660483 0.89000314
        0.8009048 0.034869295 0.88996446 0.794783 0.03397208 0.889932
        0.78871113 0.03292616 0.8899048 0.7827313 0.031736024 0.8898835
        0.7768848 0.03041379 0.8898685 0.771206 0.028975707 0.8898595
        0.76572484 0.027440311 0.889856 0.76046556 0.025828034 0.8898573
        0.75544655 0.024159795 0.88986236 0.7506806 0.022455556 0.88987035
        0.7461754 0.020733224 0.8898803 0.741935 0.019008549 0.8898913
        0.7379614 0.017295916 0.8899027 0.73425466 0.015608952 0.8899139
        0.7308126 0.013960791 0.8899243 0.7276306 0.012363819 0.8899335
        0.7247013 0.010829064 0.88994133 0.72201437 0.009365471 0.88994765
        0.71955734 0.007979447 0.8899525 0.7173162 0.0066747055 0.8899558
        0.7152762 0.005452561 0.88995785 0.7134225 0.0043123825 0.8899587
        0.7117406 0.0032520525 0.8899585 0.71021676 0.0022683837 0.88995755
        0.70883775 0.0013574769 0.8899559 0.7075912 0.0005150033 0.88995373
        0.70646554 -0.00026357203 0.88995117 0.7054501 -0.0009828265 0.88994837
        0.704535 -0.0016472623 0.8899453 0.703711 -0.0022612272 0.88994217
        0.70296955 -0.0028288655 0.88993895 0.7023032 -0.0033540889 0.88993573
        0.70170456 -0.003840564 0.8899325 0.7011673 -0.004291711 0.88992935
        0.7006853 -0.0047107046 0.88992625 0.70025337 -0.005100478 0.88992316
        0.69986635 -0.005463729 0.8899203 0.6995199 -0.005802924 0.8899174
        0.6992098 -0.0061202976 0.8899147 0.6989325 -0.0064178584 0.88991207
        0.6986847 -0.0066973986 0.8899095 0.6984634 -0.0069604823 0.88990706
        0.698266 -0.007208521 0.8899047 0.6980903 -0.0074425777 0.88990235
        0.6979339 -0.007664022 0.8899002 0.6977956 -0.007872763 0.88989806
        0.69767255 -0.008071372 0.8898961 0.6975529 -0.008279288 0.88989395
        0.69743717 -0.008498638 0.8898917 0.69732815 -0.008727935 0.88988924
        0.69722784 -0.008966918 0.8898866 0.69713867 -0.00921461 0.889884
        0.697063 -0.009469924 0.88988113 0.6970033 -0.009731364 0.8898782
        0.69696164 -0.009997075 0.8898752 0.6969398 -0.010264895 0.8898721
        0.69693923 -0.010532526 0.889869 0.6969608 -0.010797792 0.8898658
        0.69700503 -0.0110588325 0.8898627 0.69707215 -0.011314292 0.8898596
        0.6971624 -0.011563089 0.8898566 0.69727504 -0.011802689 0.88985366
        0.697409 -0.012030801 0.88985085 0.69756335 -0.012246744 0.8898482
        0.69773716 -0.012449693 0.8898457 0.6979288 -0.01263859 0.88984346
        0.69813627 -0.0128124235 0.8898414 0.69835687 -0.012970427 0.88983953
        0.69858783 -0.013112258 0.8898379 0.69882625 -0.013238049 0.8898365
        0.6990693 -0.013348347 0.88983536 0.6993145 -0.0134440465 0.88983434
        0.6995592 -0.013526179 0.8898336 0.6998018 -0.0135960635 0.88983303
        0.70003915 -0.013654631 0.8898326 0.7002724 -0.013703777 0.8898324
        0.7005243 -0.013748437 0.8898322 0.70079863 -0.013788191 0.8898321
        0.7010964 -0.013821934 0.8898322 0.70142025 -0.013848734 0.8898325
        0.7017726 -0.013867476 0.88983285 0.7021563 -0.013876958 0.8898335
        0.7025746 -0.013875826 0.88983446 0.7030312 -0.013862566 0.8898356
        0.70352995 -0.013835477 0.8898371 0.70407534 -0.013792641 0.88983893
        0.7046722 -0.013731914 0.8898412 0.7053258 -0.013650879 0.8898439
        0.7060417 -0.013546856 0.8898471 0.70682603 -0.013416858 0.8898509
        0.7076853 -0.013257594 0.8898553 0.7086263 -0.01306546 0.8898605
        0.7096564 -0.012836539 0.8898664 0.71078336 -0.012566631 0.88987315
        0.7120152 -0.012251281 0.88988084 0.7133603 -0.011885854 0.8898896
        0.71482736 -0.011465623 0.8898994 0.7164252 -0.010985911 0.8899102
        0.7181628 -0.010442256 0.8899223 0.72004914 -0.009830636 0.8899356
        0.7220932 -0.009147717 0.8899503 0.72430366 -0.008391134 0.8899661
        0.72668916 -0.007559759 0.8899833 0.729258 -0.006653902 0.8900017
        0.73201853 -0.0056753447 0.89002144 0.7349793 -0.00462714 0.8900425
        0.73814905 -0.0035133471 0.8900649 0.7415361 -0.0023387852 0.8900888
        0.7451474 -0.0011089514 0.8901142 0.74898756 0.00016976666 0.89014137
        0.7530575 0.0014896272 0.89017034 0.7573537 0.002840954 0.8902013
        0.76186824 0.0042115967 0.89023423 0.7665898 0.005587009 0.89026946
        0.771505 0.0069510518 0.8903069 0.7765982 0.008286893 0.8903466
        0.7818521 0.009578026 0.89038837 0.7872476 0.010809823 0.8904322
        0.79276323 0.011972062 0.89047754 0.7983765 0.013059596 0.8905239
        0.8040609 0.014071838 0.8905704 0.8101316 0.015068151 0.8906188
        0.8162164 0.015998585 0.89066494 0.82227516 0.016880149 0.89070725
        0.82826275 0.017730968 0.89074427 0.8341335 0.018567778 0.89077485
        0.8398434 0.019403365 0.890798 0.84535223 0.020244934 0.8908134
        0.8506257 0.021093499 0.8908211 0.8556366 0.021944214 0.8908215
        0.86036545 0.022787582 0.89081556 0.8648012 0.023611423 0.89080447
        0.86894095 0.024403263 0.8907893 0.87278765 0.025152123 0.89077127
        0.87634915 0.025849527 0.8907515 0.87963617 0.026489856 0.8907309
        0.8826615 0.02707026 0.8907102 0.8854392 0.027590347 0.89068997
        0.8879838 0.028051676 0.89067066 0.89031017 0.028457278 0.89065254
        0.89243287 0.028811166 0.8906357 0.8943664 0.029117933 0.89062035
        0.8961244 0.029382419 0.89060634 0.89772046 0.029609453 0.8905937
        0.8991672 0.02980366 0.8905824 0.9004766 0.029969377 0.89057225
        0.90166014 0.030110551 0.8905633 0.9027286 0.03023074 0.8905553
        0.90369225 0.03033312 0.8905482 0.90456045 0.030420512 0.890542
        0.90534216 0.030495409 0.8905364 0.90604573 0.03056002 0.8905314
        0.90667874 0.030616306 0.890527 0.90724826 0.030665997 0.890523
        0.90776056 0.030710623 0.89051944 0.9082215 0.030751524 0.8905162
        0.90863603 0.030789848 0.8905132 0.9090088 0.030826561 0.89051044
        0.9093438 0.03086244 0.89050776 0.9096446 0.030898064 0.8905053
        0.90991443 0.030933805 0.890503 0.9101562 0.03096986 0.8905007
        0.9103727 0.031006295 0.8904986 0.9105654 0.031042771 0.8904965
        0.91074073 0.031080045 0.8904945 0.9108821 0.031112967 0.89049274
        0.91104907 0.03115768 0.89049053 0.91124785 0.03122091 0.8904875
        0.9114561 0.03129891 0.89048386 0.9116656 0.031391125 0.89047974
        0.91187567 0.03149972 0.89047503 0.9120831 0.031625457 0.89046973
        0.9122855 0.031768817 0.89046377 0.91248065 0.031929538 0.8904572
        0.9126666 0.03210677 0.89045006 0.91284245 0.03229904 0.8904424
        0.91300774 0.032504432 0.8904342 0.91316295 0.03272061 0.8904256
        0.9133093 0.032945015 0.89041674 0.9134484 0.033175014 0.8904076
        0.913582 0.033408117 0.8903983 0.91268027 0.0334871 0.89039916
        0.9126369 0.033666734 0.8903926 0.9125879 0.033845335 0.890386
        0.91253036 0.034021612 0.89037955 0.91246194 0.03419391 0.89037323
        0.912381 0.034360383 0.89036715 0.912287 0.03451915 0.89036137
        0.9121798 0.034668434 0.89035606 0.91206026 0.034806646 0.8903512
        0.9119297 0.03493254 0.89034677 0.9117899 0.035045244 0.8903429
        0.9116429 0.035144445 0.8903396 0.91149116 0.035230264 0.8903369
        0.9113365 0.035303775 0.8903346 0.91118276 0.03536552 0.89033276
        0.9110382 0.03541531 0.8903314 0.91089183 0.03546009 0.8903302
        0.9107206 0.0355083 0.890329 0.9105297 0.035557836 0.8903278
        0.9103151 0.0356097 0.8903266 0.91007483 0.035664342 0.8903254
        0.9098059 0.035722397 0.89032423 0.9095052 0.035784498 0.8903229
        0.909169 0.03585132 0.8903216 0.90879345 0.035923515 0.89032024
        0.90837395 0.036001712 0.89031875 0.9079056 0.036086492 0.89031726
        0.9073826 0.03617835 0.89031565 0.9067988 0.036277693 0.8903139
        0.9061473 0.03638478 0.8903121 0.90542066 0.036499724 0.8903102
        0.9046105 0.03662242 0.89030826 0.9037081 0.03675251 0.89030635
        0.90270364 0.036889352 0.89030445 0.90158695 0.037031904 0.8903026
        0.90034693 0.037178706 0.89030087 0.898972 0.03732781 0.89029944
        0.8974497 0.037476722 0.89029825 0.89576733 0.0376224 0.8902974
        0.89391184 0.037761245 0.89029706 0.8918699 0.037889183 0.8902972
        0.8896284 0.038001783 0.89029795 0.8871743 0.038094454 0.8902993
        0.8844954 0.038162697 0.8903012 0.8815802 0.038202465 0.8903035
        0.8784186 0.038210522 0.890306 0.87500215 0.038184874 0.8903082
        0.87132394 0.03812507 0.89030963 0.8673792 0.038032383 0.8903096
        0.8631652 0.037909728 0.8903072 0.8586812 0.037761107 0.89030164
        0.8539283 0.037590574 0.89029187 0.84890944 0.037400518 0.8902772
        0.8436302 0.037189785 0.8902569 0.8381007 0.036952347 0.8902308
        0.8323365 0.036676586 0.8901991 0.8263597 0.036345225 0.8901626
        0.82019943 0.035936177 0.8901225 0.8138926 0.035424463 0.8900805
        0.80748284 0.034785036 0.8900388 0.80102146 0.033996683 0.8899995
        0.7949216 0.033102963 0.88996625 0.7888716 0.032060985 0.8899381
        0.78291434 0.030875446 0.88991576 0.77709 0.02955825 0.88989943
        0.7714329 0.0281257 0.889889 0.7659728 0.026596189 0.88988394
        0.7607336 0.024990074 0.88988346 0.7557338 0.023328211 0.88988686
        0.75098616 0.02163055 0.88989305 0.74649847 0.01991501 0.88990116
        0.742275 0.01819736 0.8899104 0.73831785 0.016491948 0.88992006
        0.73462695 0.014812318 0.8899295 0.7312 0.013171471 0.8899382
        0.72803223 0.011581655 0.88994575 0.725116 0.01005376 0.8899521
        0.7224411 0.008596663 0.889957 0.7199949 0.007216745 0.88996047
        0.71776366 0.0059177615 0.8899626 0.71573263 0.004701106 0.8899635
        0.7138872 0.003566241 0.88996327 0.71221316 0.0025111516 0.8899622
        0.71069676 0.0015327545 0.88996035 0.7093249 0.0006272494 0.8899579
        0.7080854 -0.00020959754 0.8899551 0.70696676 -0.0009822325 0.8899519
        0.70595837 -0.001695149 0.8899485 0.70505023 -0.0023527695 0.88994485
        0.7042332 -0.0029593625 0.8899413 0.703499 -0.0035189933 0.88993764
        0.7028398 -0.004035491 0.88993406 0.7022484 -0.004512437 0.8899305
        0.7017184 -0.0049531623 0.889927 0.7012438 -0.0053607523 0.8899237
        0.7008192 -0.0057380563 0.8899205 0.70043963 -0.0060876994 0.8899174
        0.7001006 -0.0064120917 0.88991445 0.69979805 -0.0067134397 0.8899116
        0.6995282 -0.006993753 0.88990885 0.6992879 -0.0072548566 0.88990635
        0.6990739 -0.007498389 0.88990384 0.6988838 -0.007725838 0.8899016
        0.6987149 -0.007938471 0.8898993 0.69856524 -0.008137593 0.8898973
        0.698433 -0.0083238715 0.88989526 0.6983159 -0.008498925 0.88989335
        0.698202 -0.00868089 0.8898914 0.6980924 -0.008870326 0.88988936
        0.69798917 -0.009066065 0.8898871 0.6978942 -0.009267351 0.8898849
        0.69780964 -0.009473138 0.8898825 0.6977372 -0.009682314 0.8898802
        0.69767886 -0.009893591 0.8898777 0.69763607 -0.0101055605 0.88987523
        0.69761014 -0.0103167435 0.8898728 0.6976021 -0.010525685 0.8898703
        0.6976125 -0.01073108 0.88986784 0.69764173 -0.010931866 0.88986546
        0.69769007 -0.0111272745 0.88986313 0.69775754 -0.011316696 0.88986087
        0.69784385 -0.0114983795 0.8898588 0.69794804 -0.011670744 0.8898567
        0.69806975 -0.011833448 0.8898548 0.69820833 -0.011986048 0.889853
        0.6983629 -0.01212798 0.8898514 0.69853204 -0.012258689 0.88984996
        0.69871414 -0.012377742 0.88984865 0.69890726 -0.0124849295 0.8898475
        0.69910926 -0.012580311 0.8898466 0.6993179 -0.012664204 0.8898458
        0.6995309 -0.012737148 0.88984525 0.6997462 -0.012799819 0.8898448
        0.6999618 -0.012853056 0.8898444 0.70017517 -0.012897612 0.8898442
        0.70038605 -0.012934656 0.88984406 0.7006161 -0.0129680475 0.88984406
        0.70086825 -0.012997176 0.8898442 0.7011441 -0.013021144 0.88984436
        0.7014463 -0.013039038 0.8898447 0.7017774 -0.013049797 0.88984525
        0.70214045 -0.013052236 0.88984597 0.7025388 -0.013045011 0.8898469
        0.70297605 -0.013026596 0.8898482 0.7034562 -0.012995267 0.8898496
        0.7039838 -0.012949071 0.88985145 0.70456344 -0.012885811 0.8898536
        0.7052005 -0.012803021 0.8898562 0.70590043 -0.012697949 0.8898593
        0.7066694 -0.012567543 0.88986295 0.70751375 -0.012408435 0.8898672
        0.7084404 -0.012216942 0.8898721 0.7094568 -0.011989072 0.88987774
        0.7105706 -0.011720542 0.8898842 0.71178985 -0.0114068175 0.8898915
        0.7131231 -0.011043184 0.88989973 0.714579 -0.010624834 0.889909
        0.7161666 -0.010147004 0.8899194 0.7178949 -0.009605147 0.8899309
        0.7197731 -0.008995149 0.88994354 0.7218102 -0.008313584 0.88995737
        0.7240152 -0.0075579984 0.88997245 0.7263966 -0.0067271823 0.8899887
        0.7289631 -0.005821386 0.89000624 0.73172295 -0.00484237 0.89002496
        0.7346848 -0.0037932126 0.8900449 0.7378572 -0.002678038 0.8900662
        0.7412483 -0.0015017487 0.89008886 0.7448648 -0.00026992074 0.890113
        0.7487111 0.0010110072 0.8901388 0.752788 0.0023332823 0.8901664
        0.7570921 0.0036872518 0.89019597 0.76161563 0.005060803 0.8902276
        0.76634735 0.0064393906 0.8902614 0.771274 0.007806829 0.89029753
        0.77638 0.0091462 0.8903359 0.78164774 0.01044088 0.89037657
        0.7870577 0.0116760135 0.8904192 0.79258794 0.012841251 0.89046353
        0.79821485 0.013931254 0.8905089 0.8039122 0.014945524 0.8905546
        0.8099937 0.0159432 0.8906021 0.8160867 0.016874418 0.8906475
        0.8221502 0.01775614 0.890689 0.82813907 0.01860663 0.8907254
        0.834008 0.019442705 0.89075524 0.8397134 0.02027724 0.8907777
        0.84521586 0.021117551 0.89079237 0.8504819 0.02196476 0.8907993
        0.8554852 0.022814173 0.89079905 0.8602072 0.023656439 0.8907925
        0.8646374 0.024479505 0.8907807 0.86877316 0.025270969 0.8907649
        0.8726179 0.02601988 0.8907463 0.8761792 0.026717747 0.8907259
        0.8794678 0.027358903 0.89070475 0.88249624 0.027940437 0.89068353
        0.8852783 0.028461875 0.8906628 0.8878283 0.0289247 0.890643
        0.89016074 0.029331861 0.8906245 0.8922902 0.029687317 0.8906073
        0.89423054 0.0299956 0.89059156 0.8959957 0.030261517 0.8905773
        0.89759874 0.030489864 0.8905644 0.8990522 0.030685263 0.8905529
        0.90036815 0.030852022 0.89054257 0.9015578 0.030994063 0.8905334
        0.90263194 0.031114912 0.8905252 0.9036006 0.031217676 0.890518
        0.9044731 0.03130508 0.89051163 0.9052583 0.031379476 0.890506
        0.9059643 0.03144291 0.890501 0.90659875 0.031497136 0.8904966
        0.90716857 0.03154365 0.8904927 0.90768003 0.031583767 0.8904892
        0.908139 0.031618632 0.8904862 0.9085508 0.03164925 0.8904834
        0.90892005 0.03167654 0.89048094 0.90925103 0.031701315 0.89047873
        0.9095476 0.03172432 0.8904767 0.90981317 0.031746216 0.8904748
        0.9100508 0.031767584 0.89047307 0.9102633 0.031788938 0.89047146
        0.91045284 0.031810623 0.8904699 0.9106235 0.031833287 0.8904684
        0.9107685 0.03185543 0.890467 0.9109151 0.031882916 0.8904654
        0.9110728 0.031920485 0.8904634 0.9112334 0.03196901 0.89046097
        0.91139334 0.0320296 0.89045817 0.9115511 0.03210364 0.8904548
        0.91170454 0.032191712 0.890451 0.91185164 0.032293934 0.89044666
        0.9119905 0.03240987 0.8904419 0.9121197 0.032538597 0.8904367
        0.91223806 0.032678794 0.89043105 0.9123453 0.032828774 0.8904251
        0.91244155 0.032986622 0.8904188 0.91252816 0.033150267 0.8904124
        0.91260684 0.03331768 0.89040583 0.91268027 0.0334871 0.89039916
        0.91212726 0.033535533 0.89039963 0.9121318 0.033673666 0.89039445
        0.9121212 0.033811547 0.89038926 0.91209555 0.033947617 0.89038414
        0.9120552 0.034080334 0.8903793 0.9120006 0.0342082 0.8903746
        0.91193247 0.034329776 0.8903702 0.91185164 0.034443714 0.89036614
        0.91175914 0.03454877 0.89036244 0.9116562 0.03464384 0.89035916
        0.9115441 0.03472794 0.89035636 0.9114243 0.03480029 0.89035404
        0.9112984 0.03486026 0.8903522 0.91116804 0.034907438 0.8903509
        0.91103494 0.034941625 0.8903501 0.91090196 0.034969028 0.8903496
        0.91075283 0.034999557 0.890349 0.9105856 0.035033543 0.8903484
        0.91039807 0.035071336 0.89034766 0.91018784 0.035113305 0.8903469
        0.9099522 0.035159852 0.89034605 0.9096882 0.035211388 0.89034504
        0.90939236 0.035268348 0.890344 0.90906113 0.035331167 0.89034283
        0.9086902 0.03540029 0.8903416 0.9082752 0.03547614 0.89034027
        0.90781087 0.03555913 0.89033884 0.9072917 0.0356496 0.8903373
        0.9067116 0.03574784 0.8903357 0.9060636 0.03585403 0.89033395
        0.9053405 0.035968196 0.89033216 0.90453404 0.03609019 0.8903303
        0.90363544 0.036219634 0.89032847 0.90263516 0.036355827 0.8903267
        0.901523 0.036497727 0.8903249 0.90028787 0.03664388 0.8903233
        0.89891815 0.03679233 0.8903219 0.89740145 0.036940597 0.8903208
        0.89572513 0.037085637 0.89032006 0.89387596 0.037223883 0.89031976
        0.8918405 0.03735126 0.89032 0.8896056 0.037463363 0.89032084
        0.88715804 0.037555594 0.89032227 0.88448554 0.03762347 0.8903242
        0.8815765 0.03766294 0.8903265 0.87842065 0.037670758 0.890329
        0.8750092 0.03764492 0.89033115 0.8713352 0.03758497 0.8903326
        0.8673939 0.037492163 0.89033246 0.8631824 0.037369415 0.8903301
        0.8587002 0.037220724 0.8903244 0.8539485 0.037050173 0.89031464
        0.84893054 0.036860164 0.8902998 0.84365255 0.036649555 0.8902794
        0.83812505 0.03641234 0.8902532 0.83236414 0.03613692 0.89022136
        0.82639223 0.035806052 0.8901847 0.8202389 0.0353977 0.8901444
        0.8139409 0.03488695 0.8901022 0.8075422 0.03424886 0.89006025
        0.801093 0.03346217 0.89002055 0.7950065 0.032570552 0.8899869
        0.78896993 0.03153097 0.88995814 0.7830266 0.030348232 0.8899351
        0.7772157 0.02903413 0.88991797 0.77157193 0.027604958 0.88990664
        0.76612467 0.026079057 0.8899006 0.7608979 0.024476718 0.8898992
        0.7559098 0.022818763 0.88990146 0.7511734 0.021125125 0.8899066
        0.7466964 0.019413736 0.88991356 0.7424834 0.01770037 0.8899217
        0.7385363 0.015999364 0.88993025 0.7348551 0.0143242115 0.8899386
        0.73143744 0.012687837 0.8899463 0.72827834 0.011102401 0.889953
        0.72537017 0.009578715 0.8899584 0.72270256 0.008125603 0.88996243
        0.7202631 0.006749431 0.8899651 0.7180379 0.0054539763 0.8899665
        0.7160124 0.004240673 0.88996667 0.7141721 0.00310904 0.8899659
        0.71250284 0.0020571211 0.88996416 0.710991 0.0010818932 0.88996184
        0.70962363 0.00017961349 0.8899589 0.70838857 -0.0006538979 0.8899556
        0.7072743 -0.0014230375 0.889952 0.7062703 -0.0021322535 0.88994825
        0.7053666 -0.002785926 0.8899444 0.7045542 -0.0033882847 0.88994044
        0.7038245 -0.0039433558 0.88993657 0.70316994 -0.0044549294 0.88993275
        0.7025834 -0.004926544 0.889929 0.7020582 -0.0053614834 0.8899254
        0.7015886 -0.005762778 0.8899219 0.70116895 -0.006133218 0.88991857
        0.7007945 -0.0064753615 0.88991535 0.7004607 -0.0067915516 0.8899123
        0.7001634 -0.00708393 0.8899094 0.69989896 -0.0073544546 0.8899067
        0.699664 -0.0076049105 0.88990414 0.6994555 -0.00783693 0.8899017
        0.69927067 -0.008051999 0.8898994 0.69910705 -0.008251475 0.8898973
        0.6989624 -0.0084366 0.88989526 0.6988347 -0.0086085005 0.88989335
        0.6987222 -0.008768213 0.88989156 0.69861245 -0.008933267 0.8898897
        0.6985069 -0.00910322 0.88988775 0.69840723 -0.009277036 0.8898858
        0.69831526 -0.00945368 0.8898837 0.6982326 -0.009632132 0.8898817
        0.6981608 -0.009811388 0.8898795 0.6981014 -0.009990482 0.8898775
        0.69805557 -0.010168476 0.88987535 0.6980245 -0.010344478 0.88987327
        0.6980092 -0.010517646 0.8898712 0.6980105 -0.010687188 0.88986915
        0.6980289 -0.010852377 0.8898672 0.69806486 -0.011012544 0.8898653
        0.6981186 -0.0111670885 0.8898635 0.6981896 -0.011314495 0.88986176
        0.69827724 -0.011453334 0.8898602 0.698381 -0.011583258 0.8898587
        0.6985002 -0.011704017 0.88985735 0.69863397 -0.011815461 0.8898561
        0.69878125 -0.011917537 0.8898551 0.69894075 -0.012010289 0.88985413
        0.699111 -0.01209385 0.88985336 0.69929045 -0.012168442 0.8898527
        0.6994774 -0.012234367 0.88985217 0.6996699 -0.012292004 0.88985175
        0.6998661 -0.0123418 0.88985145 0.70006406 -0.012384257 0.8898512
        0.7002616 -0.01241993 0.88985115 0.70045745 -0.012449508 0.88985115
        0.70067316 -0.012476195 0.8898512 0.7009107 -0.012499274 0.8898514
        0.7011724 -0.012517921 0.8898516 0.7014608 -0.012531194 0.88985205
        0.7017786 -0.012538022 0.88985264 0.7021289 -0.012537183 0.88985336
        0.70251495 -0.01252729 0.8898543 0.70294046 -0.01250677 0.8898555
        0.70340943 -0.0124738505 0.889857 0.70392627 -0.012426534 0.8898587
        0.7044956 -0.012362576 0.88986087 0.7051227 -0.0122794695 0.88986343
        0.70581305 -0.012174423 0.8898664 0.7065727 -0.012044342 0.8898699
        0.7074081 -0.011885826 0.8898741 0.7083261 -0.011695151 0.8898788
        0.70933414 -0.011468288 0.8898843 0.7104399 -0.011200913 0.8898905
        0.71165156 -0.010888457 0.8898976 0.7129776 -0.010526162 0.8899056
        0.71442676 -0.010109175 0.88991463 0.7160081 -0.009632689 0.8899246
        0.7177308 -0.009092106 0.88993573 0.7196041 -0.00848326 0.889948
        0.721637 -0.0078026727 0.88996136 0.72383857 -0.0070478357 0.88997597
        0.7262176 -0.006217488 0.8899917 0.72878265 -0.0053118453 0.8900086
        0.73154217 -0.0043326514 0.8900267 0.73450476 -0.0032829982 0.890046
        0.7376788 -0.0021670465 0.89006656 0.74107236 -0.0009897512 0.8900885
        0.7446921 0.00024326029 0.89011186 0.74854213 0.0015255136 0.89013684
        0.7526233 0.0028492429 0.89016366 0.75693226 0.004204804 0.8901924
        0.7614612 0.005580106 0.89022315 0.7661992 0.006960603 0.8902561
        0.7711328 0.008330088 0.89029145 0.77624667 0.009671588 0.890329
        0.78152287 0.010968419 0.8903689 0.7869417 0.01220559 0.89041084
        0.7924809 0.013372677 0.8904545 0.7981161 0.014464229 0.8904993
        0.8038214 0.015479791 0.8905445 0.80990934 0.016478373 0.8905915
        0.8160075 0.01741016 0.8906363 0.82207376 0.018292071 0.8906775
        0.8280634 0.019142454 0.8907134 0.8339312 0.019978167 0.8907428
        0.8396338 0.020812133 0.89076483 0.84513247 0.021651726 0.8907791
        0.850394 0.02249814 0.89078563 0.8553927 0.02334676 0.8907849
        0.8601104 0.024188336 0.89077795 0.8645372 0.025010882 0.8907658
        0.86867064 0.025802054 0.8907496 0.8725141 0.026550919 0.89073056
        0.8760754 0.027248986 0.8907099 0.8793649 0.027890557 0.89068836
        0.88239527 0.028472692 0.8906668 0.88518 0.02899486 0.8906458
        0.88773334 0.02945851 0.8906258 0.8900696 0.029866539 0.89060694
        0.8922031 0.030222869 0.89058954 0.8941478 0.030532008 0.89057356
        0.8959173 0.030798733 0.89055914 0.8975246 0.031027833 0.890546
        0.8989823 0.031223912 0.89053434 0.9003023 0.031391278 0.8905239
        0.90149575 0.031533852 0.8905146 0.9025734 0.031655148 0.8905064
        0.90354526 0.03175827 0.8904991 0.9044206 0.031845927 0.8904927
        0.90520823 0.031920463 0.890487 0.90591615 0.031983882 0.89048195
        0.9065519 0.0320379 0.8904775 0.9071223 0.032083973 0.8904736
        0.9076337 0.03212333 0.89047015 0.9080919 0.03215701 0.89046705
        0.90850216 0.03218589 0.89046437 0.9088693 0.032210696 0.890462
        0.9091976 0.032232057 0.8904599 0.9094912 0.032250483 0.890458
        0.9097535 0.03226641 0.8904563 0.90998787 0.032280214 0.8904549
        0.9101971 0.032292187 0.89045364 0.9103839 0.03230261 0.8904525
        0.91055065 0.032311685 0.89045143 0.91069937 0.032319613 0.89045054
        0.9108321 0.03232654 0.89044976 0.91096604 0.032339856 0.8904487
        0.91109943 0.032366127 0.8904472 0.9112307 0.032405443 0.89044523
        0.9113582 0.032457665 0.8904428 0.9114804 0.03252247 0.8904399
        0.9115958 0.03259934 0.89043665 0.91170305 0.032687586 0.89043295
        0.91180074 0.032786354 0.8904289 0.91188765 0.03289465 0.89042455
        0.9119627 0.03301133 0.8904199 0.91202486 0.033135153 0.8904151
        0.91207343 0.033264756 0.89041 0.9121077 0.033398718 0.8904049
        0.91212726 0.033535533 0.89039963
        <InformationKey name="L2_NORM_RANGE" location="vtkDataArray" length="2">
          <Value index="0">
            1.1283209615
          </Value>
          <Value index="1">
            1.278235225
          </Value>
        </InformationKey>
      </DataArray>
    </Points>
  </Piece>
  </StructuredGrid>
</VTKFile>
