<?xml version="1.0"?>
<VTKFile type="StructuredGrid" version="0.1" byte_order="LittleEndian" header_type="UInt32" compressor="vtkZLibDataCompressor">
  <StructuredGrid WholeExtent="0 68 0 40 0 0">
  <Piece Extent="0 68 0 40 0 0">
    <PointData>
      <DataArray type="Float32" Name="orthogonality" format="ascii" RangeMin="3.7696770505135646e-06" RangeMax="0.10239201039075851">
        0.00059492147 0.0043838904 0.007660693 0.010201778 0.012108357 0.0134727955
        0.014378357 0.014899995 0.015105978 0.015059475 0.014818627 0.014432291
        0.013933641 0.01333734 0.012639952 0.011829755 0.010901999 0.00987119
        0.0087773055 0.007682685 0.006651097 0.0057346444 0.004970901 0.0043659084
        0.0039326 0.0036819768 0.0035696577 0.003604755 0.0043008635 0.003212986
        0.0026727132 0.001967666 0.0010707421 2.3303075e-05 0.0011426138 0.002416611
        0.003828403 0.0054399497 0.0073253214 0.009508491 0.011927894 0.014468346
        0.016992044 0.019360447 0.0214513 0.023168836 0.024448704 0.025258776
        0.025596922 0.025486698 0.024971602 0.02410831 0.022959886 0.021589674
        0.020057432 0.01841734 0.016716795 0.014995892 0.0132874325 0.011617334
        0.010005278 0.008465504 0.0070076436 0.005637524 0.0043579573 0.0031693063
        0.0020704276 0.0010578359 0.0003070053 0.024703393 0.021966673 0.01972213
        0.018904392 0.018649269 0.018557517 0.018442804 0.018219823 0.017854206
        0.017339263 0.01668385 0.015903544 0.015016446 0.014041717 0.0129950205
        0.011890716 0.010747472 0.009590732 0.008453705 0.007373039 0.006372327
        0.005467858 0.004679097 0.004008484 0.0034778132 0.003080099 0.002745057
        0.002496945 0.0028919831 0.0015307082 0.00078921666 9.392318e-06 0.0008155853
        0.0016355728 0.0024227244 0.0031856357 0.003988917 0.004946634 0.0062005874
        0.007837877 0.009833968 0.012087902 0.014463459 0.016816571 0.019015752
        0.020954475 0.022557411 0.023781996 0.024616523 0.025075866 0.02519541
        0.025024349 0.024620311 0.02404417 0.023355586 0.022610517 0.021859828
        0.021148765 0.020516999 0.019999057 0.01962487 0.01942025 0.019407118
        0.019603388 0.02002252 0.020672727 0.021556571 0.022669148 0.023774726
        0.040999837 0.035461266 0.030623186 0.027420092 0.025284635 0.023778789
        0.022609273 0.021589842 0.020605294 0.019586883 0.018496742 0.017317526
        0.016050084 0.014713277 0.013336155 0.011953826 0.010604535 0.009323299
        0.008137577 0.0070615564 0.006083772 0.005188156 0.004376147 0.003645068
        0.0030214982 0.0024834222 0.0019407164 0.0014316357 0.0015486208 6.174081e-05
        0.0009831857 0.0018249467 0.0025739016 0.0031723524 0.003597827 0.0038784717
        0.004113194 0.0044651655 0.0051366766 0.006270257 0.007875605 0.009866588
        0.012109975 0.014457667 0.016770266 0.018931469 0.020855602 0.02248991
        0.023813028 0.024830816 0.025570273 0.02607309 0.02639101 0.026580883
        0.026699653 0.026801167 0.026934128 0.027140783 0.027456006 0.02790657
        0.028510455 0.029276188 0.0302024 0.03127777 0.032481708 0.033785675
        0.035155736 0.036554016 0.03785079 0.05287412 0.046140704 0.039973043
        0.035207544 0.03160793 0.028864466 0.026697619 0.024887383 0.023271665
        0.021736052 0.020203635 0.018627334 0.01699062 0.015309204 0.01362136
        0.011978714 0.010435864 0.009036054 0.0078016217 0.0067267967 0.0057690158
        0.004882658 0.0040514027 0.0032662502 0.0025557575 0.0018851378 0.0011489359
        0.00039864075 0.0002577831 0.0015780939 0.0026587478 0.0035485665 0.004215244
        0.004594849 0.004671453 0.0044931336 0.004192039 0.0039769653 0.0041040336
        0.0047646663 0.0060003735 0.007740497 0.009856429 0.012197833 0.0146189425
        0.016994808 0.019230017 0.021261739 0.023058612 0.024616783 0.025953962
        0.027103202 0.028108576 0.029020105 0.029888092 0.030759182 0.03167355
        0.032662913 0.03374915 0.034943487 0.036246326 0.037647787 0.039129067
        0.040664554 0.042224552 0.04377805 0.045295842 0.046751395 0.04806069
        0.062145215 0.054815378 0.04790207 0.04211553 0.03742446 0.03365808
        0.03060102 0.028045492 0.025813827 0.023764763 0.021792872 0.019826656
        0.017833762 0.015825434 0.0138462 0.011960782 0.010237348 0.008726068
        0.007444604 0.006369353 0.005430002 0.0045538913 0.0037074178 0.002874365
        0.0020832762 0.0012884139 0.00037246436 0.00060049735 0.0009797103 0.003019152
        0.004239765 0.005164867 0.005743991 0.005908181 0.005648978 0.0050344556
        0.004228621 0.003482352 0.0030996879 0.003315383 0.0042004804 0.005700124
        0.0076916753 0.010024131 0.012546745 0.0151269045 0.017659968 0.020073028
        0.022324268 0.024399264 0.026305234 0.028065015 0.029712806 0.03128889
        0.03283343 0.034382034 0.03596265 0.037593603 0.039282735 0.041027516
        0.042816173 0.04462964 0.046444047 0.04823343 0.04997232 0.05163769
        0.053210806 0.05467663 0.055970762 0.06966736 0.06199209 0.05462094
        0.048148803 0.042652097 0.03806416 0.03424076 0.031008407 0.028195804
        0.025651408 0.023252154 0.020908464 0.018574864 0.016257996 0.014006678
        0.011896046 0.010005482 0.008390886 0.0070655434 0.00598983 0.005068536
        0.0042042183 0.0033466222 0.0024716998 0.0016066073 0.000696136 0.00038621327
        0.001564343 0.0021632104 0.004385731 0.005728455 0.0066771484 0.0071643754
        0.00711726 0.006535515 0.0055070017 0.004225963 0.0029818313 0.0021212823
        0.001917594 0.0024692009 0.0037371386 0.0056058355 0.007924994 0.010540135
        0.013311875 0.016126774 0.018901804 0.021584174 0.02414798 0.026588699
        0.028917313 0.031156173 0.03333358 0.035477392 0.03761051 0.039748065
        0.04189606 0.044051394 0.046203 0.048333827 0.05042326 0.05244958
        0.054392092 0.056232776 0.057957184 0.059555307 0.06102017 0.062295973
        0.0759047 0.0679996 0.060320955 0.0533699 0.047273878 0.042033583
        0.037564646 0.03373346 0.030387223 0.027376298 0.02456954 0.021865627
        0.019209266 0.016603172 0.014099296 0.011781151 0.009737383 0.008028547
        0.0066637653 0.005588927 0.004686372 0.003835916 0.002971383 0.0020605316
        0.0011282223 0.000110991044 0.0011247944 0.0024915175 0.0032921496 0.005678596
        0.0071268887 0.008088528 0.008480398 0.0082267085 0.0073358454 0.0059150155
        0.0041868957 0.0024760205 0.0011669423 0.0005672441 0.0008007362 0.0018442546
        0.003590179 0.0058901226 0.008586998 0.011535478 0.014613731 0.017728558
        0.020815725 0.023837019 0.026775036 0.02962758 0.032403734 0.03511859
        0.03778698 0.04041932 0.04301939 0.04558373 0.048102364 0.050560527
        0.05294075 0.055225007 0.057396553 0.05944119 0.06134806 0.0631098
        0.06472292 0.06618603 0.0674468 0.081139416 0.073060825 0.06515677
        0.057855763 0.05130608 0.045548156 0.04054192 0.03619042 0.03236398
        0.028922468 0.025734048 0.0226913 0.019732479 0.016857546 0.014121027
        0.011613316 0.009430727 0.007637544 0.0062388703 0.005167428 0.0042852215
        0.0034511755 0.0025839952 0.0016430984 0.0006504975 0.00046451954 0.0018411446
        0.003380707 0.004366022 0.0068984535 0.008436991 0.009401934 0.009695819
        0.00924086 0.008054433 0.0062624523 0.004114102 0.0019656639 0.00023525386
        0.0007389983 0.00080981164 1.5220648e-05 0.0016371319 0.0039105043 0.006676679
        0.009785172 0.013106179 0.016536348 0.019999648 0.023444893 0.026840968
        0.03017161 0.033431925 0.036623497 0.039748564 0.04280642 0.045791786
        0.048694804 0.05150211 0.054198526 0.056768835 0.0591993 0.061478727
        0.063599005 0.06555532 0.06734584 0.06897194 0.070436195 0.07168718
        0.085557796 0.07733325 0.069249794 0.06168067 0.054779664 0.048608616
        0.043157626 0.038359676 0.034108095 0.030276056 0.026736088 0.023379222
        0.020140361 0.017018069 0.014069309 0.011390285 0.009083704 0.0072167814
        0.0057907198 0.004726211 0.0038667673 0.0030521103 0.0021866795 0.0012215852
        0.00017570845 0.0010280634 0.0025332826 0.0042306636 0.005384364 0.008045948
        0.009660534 0.010620092 0.0108141545 0.010163763 0.008695444 0.006553012
        0.0040101507 0.0014516505 0.0006747532 0.002003771 0.0023664632 0.0017551914
        0.00025971874 0.0019784386 0.0048000193 0.0080501605 0.011591557 0.01531083
        0.019119967 0.022954416 0.026768861 0.030532585 0.034226622 0.0378395
        0.041361954 0.044783924 0.048093412 0.051276714 0.05431947 0.057207998
        0.059930485 0.06247784 0.06484407 0.067026325 0.069024675 0.07084161
        0.07248213 0.073951766 0.07519871 0.08929031 0.08093215 0.072695054
        0.06491053 0.057730366 0.051226348 0.0454077 0.04023005 0.03560709
        0.031426337 0.027567692 0.023923954 0.020429267 0.017082134 0.013942071
        0.0111103235 0.008694993 0.0067655626 0.0053194338 0.0042662593 0.0034326834
        0.002640774 0.0017815898 0.00079811894 0.0002939667 0.0015774585 0.0031993599
        0.0050402 0.006346737 0.009121654 0.010799136 0.011745522 0.01183867
        0.010999182 0.0092627555 0.006790164 0.0038775227 0.00093502033 0.0015636228
        0.0032290476 0.0038723887 0.003471203 0.0021056316 8.754164e-05 0.0029493703
        0.0063214065 0.010059395 0.014040203 0.018163871 0.02235237 0.02654607
        0.030699851 0.034781072 0.038766056 0.042635415 0.046371493 0.049957514
        0.053377748 0.05661829 0.05966783 0.06251826 0.06516487 0.06760624
        0.06984387 0.07188176 0.073725805 0.075383805 0.07686351 0.07811209
        0.09243241 0.08394435 0.07556743 0.0676018 0.060193732 0.053418074
        0.04729517 0.041796718 0.03685312 0.03236556 0.02822262 0.024321042
        0.020596178 0.01704766 0.013737746 0.0107722115 0.008263753 0.0062835785
        0.0048253885 0.003788673 0.002984654 0.0022191752 0.0013708218 0.00037476842
        0.00075644144 0.0021106547 0.003837644 0.0058081774 0.0072527095 0.010126061
        0.011854255 0.012780532 0.012772378 0.011750607 0.0097599765 0.006977168
        0.0037186344 0.00041696892 0.0024314905 0.0044161673 0.0053299367 0.0051360517
        0.0039047236 0.0017672622 0.001118586 0.004591614 0.00850127 0.0127151115
        0.0171215 0.021629099 0.026164195 0.030667663 0.035093892 0.03940806
        0.043582 0.047591973 0.051417835 0.05504301 0.05845476 0.06164443
        0.06460743 0.06734292 0.069853365 0.072143845 0.074221514 0.076094955
        0.0777742 0.07926871 0.08052435 0.09505615 0.08643674 0.0779265
        0.06980207 0.062202834 0.05520263 0.048827365 0.043059424 0.03784213
        0.03308863 0.028696338 0.024567094 0.020638805 0.016913133 0.013455304
        0.010375242 0.007789609 0.005770902 0.0043092226 0.003294686 0.002524392
        0.0017892941 0.0009564219 4.645307e-05 0.0012097144 0.0026257182 0.0044465014
        0.0065335007 0.008101843 0.011059574 0.012827182 0.013727215 0.013618036
        0.01242125 0.010190455 0.007117093 0.0035358497 0.00010115171 0.0032781013
        0.0055658612 0.0067406627 0.006752015 0.0056599895 0.0035897547 0.000696994
        0.0028551982 0.006910741 0.011328503 0.01598566 0.020778032 0.025618305
        0.03043401 0.035167433 0.03977367 0.04421697 0.048468653 0.052506175
        0.05631272 0.059876993 0.06319287 0.06625887 0.06907751 0.07165442
        0.07399763 0.07611687 0.078022845 0.0797274 0.081241354 0.08250917
        0.09721726 0.08846179 0.079820044 0.0715512 0.063787356 0.05659906
        0.050014 0.04402107 0.038572982 0.033592746 0.028985927 0.024659814
        0.02055563 0.016677668 0.013094277 0.009919229 0.0072726514 0.00522798
        0.0037718345 0.0027856724 0.0020536548 0.0013530953 0.00054039556 0.000463585
        0.0016518626 0.0031208168 0.005024384 0.0072151055 0.008893681 0.011922501
        0.013719045 0.014587443 0.01437815 0.013014057 0.010557289 0.0072128316
        0.003331494 0.0006178346 0.004102827 0.0066782814 0.008105357 0.008320436
        0.007373324 0.005382445 0.0025005718 0.0011082372 0.005283255 0.0098754605
        0.014751567 0.019795222 0.024906246 0.029999623 0.035006456 0.03987275
        0.04455612 0.049023747 0.05325124 0.0572218 0.06092549 0.06435842
        0.067521766 0.07042078 0.073063746 0.07546107 0.077624545 0.07956665
        0.081300676 0.08283856 0.084123366 0.09895955 0.09006116 0.08128666
        0.07288244 0.06497342 0.057625566 0.05086589 0.0446866 0.03904678
        0.03387705 0.029089961 0.024598002 0.020345954 0.01634104 0.01265477
        0.0094045065 0.006713428 0.0046556327 0.0032143868 0.0022631562 0.0015742553
        0.0009125398 0.00012471448 0.00087471615 0.0020810356 0.0035942087 0.005569816
        0.007851953 0.009627736 0.012715046 0.014530796 0.015362869 0.015054969
        0.013531706 0.010863338 0.0072671105 0.0031078607 0.0011314207 0.004904682
        0.0077530243 0.0094240755 0.009841752 0.009045547 0.007146598 0.0042939256
        0.00065158284 0.0036160573 0.008353047 0.01341655 0.018678935 0.024028024
        0.029367164 0.034617163 0.039715786 0.044614725 0.049277533 0.05367821
        0.057799947 0.06163393 0.06517808 0.068435736 0.07141435 0.07412436
        0.07657808 0.07878902 0.08077106 0.08253871 0.084104836 0.08541119
        0.10031788 0.09126823 0.08235769 0.0738235 0.065783665 0.058298975
        0.051394105 0.04506223 0.039266262 0.03394227 0.029008357 0.024381517
        0.020009909 0.0159037 0.012137482 0.008831934 0.006112941 0.004055045
        0.0026383046 0.0017288183 0.0010880724 0.0004695937 0.00028867726 0.0012779818
        0.0024954504 0.0040442324 0.006081385 0.008443019 0.010303486 0.01343731
        0.015263216 0.016054919 0.01565049 0.01397662 0.01111123 0.007282502
        0.0028672172 0.0016401036 0.005682341 0.0087891575 0.010696163 0.011315521
        0.010676432 0.00888226 0.0060774493 0.0024250261 0.0019080896 0.006760138
        0.011979821 0.017429272 0.022985322 0.028540608 0.034006484 0.03931318
        0.044406954 0.049248 0.05380871 0.058072075 0.062030043 0.06568189
        0.069032595 0.07209136 0.07487031 0.0773833 0.07964521 0.081671104
        0.083476506 0.08507503 0.08640725 0.10132014 0.092109844 0.083058596
        0.07439732 0.06623752 0.05863448 0.05160946 0.045154873 0.03923536
        0.03379045 0.028742228 0.024011219 0.019548457 0.015366801 0.011543709
        0.008202897 0.005472645 0.003427767 0.0020452759 0.0011844992 0.00059705897
        2.6235874e-05 0.0006978585 0.0016715607 0.0028933866 0.0044692988 0.006557733
        0.008987292 0.010920361 0.014089279 0.01591691 0.016664801 0.016166456
        0.014350959 0.011303366 0.0072614294 0.002611808 0.0021419358 0.006434153
        0.0097852405 0.011920286 0.01274045 0.012264736 0.010588297 0.007850191
        0.0042113652 0.0001599027 0.0050972844 0.010442254 0.016047888 0.02178111
        0.027524792 0.033181615 0.038674816 0.043945555 0.04895072 0.053660974
        0.05805877 0.062136386 0.06589397 0.069337696 0.07247805 0.075328425
        0.07790392 0.080220506 0.08229422 0.084141426 0.08577638 0.08713861
        0.10198868 0.09260759 0.08341 0.074622884 0.06635152 0.05864558
        0.051522218 0.044971745 0.038958844 0.033424683 0.028293757 0.023488937
        0.018963385 0.014732193 0.010875354 0.007519307 0.0047944398 0.0027757068
        0.00143725 0.00063220394 0.00010324614 0.00041553678 0.0011009272 0.0020536734
        0.003273183 0.0048678843 0.006997546 0.009483759 0.011477742 0.0146708265
        0.016492305 0.017193496 0.016604356 0.014656633 0.011441927 0.007206171
        0.0023438542 0.0026348357 0.00715816 0.010739351 0.013094455 0.014114426
        0.013808226 0.012262419 0.009609891 0.006008436 0.001626424 0.0033665944
        0.00880622 0.014537756 0.020419365 0.026325105 0.03214969 0.037809823
        0.043241724 0.04839893 0.053250093 0.05777674 0.061971027 0.065833494
        0.06937101 0.07259494 0.07551963 0.07816109 0.080536164 0.08266167
        0.084554695 0.08623002 0.08762625 0.10234132 0.09277866 0.08342852
        0.07451571 0.06613958 0.058344133 0.051141907 0.044520132 0.038442083
        0.03284895 0.027666079 0.022817401 0.018257285 0.014002429 0.01013493
        0.0067836 0.0040806686 0.002101127 0.00081643526 7.4101314e-05 0.00039125182
        0.00085370516 0.0014959974 0.0024225798 0.0036332342 0.0052385246 0.0073995544
        0.009931412 0.011974953 0.015181704 0.016989648 0.017641753 0.01696543
        0.014895295 0.011528875 0.0071188617 0.002065551 0.0031165974 0.007852114
        0.011649103 0.014216053 0.015434545 0.015303715 0.013901222 0.011353027
        0.007812684 0.00344735 0.0015716371 0.007075455 0.012903004 0.018904883
        0.024947295 0.03091765 0.036726467 0.042305123 0.04760363 0.0525883
        0.057239298 0.06154815 0.06551531 0.06914791 0.0724578 0.07545992
        0.078170955 0.08060838 0.08278967 0.08473246 0.086452015 0.08788613
        0.10239201 0.09263659 0.08312729 0.07408832 0.06561326 0.057740413
        0.050477292 0.043807227 0.03769088 0.032067977 0.026863202 0.022000216
        0.017433545 0.013180764 0.009325556 0.005998734 0.0033341125 0.0014066393
        0.0001852967 0.00048747475 0.0008842362 0.0012862256 0.001881198 0.0027765783
        0.003971989 0.005579813 0.007762521 0.010329232 0.012411257 0.015621541
        0.017409002 0.018010102 0.017250659 0.015068344 0.011565948 0.0070014917
        0.0017790645 0.0035849004 0.008513492 0.012511679 0.015281866 0.016697139
        0.01674709 0.015500216 0.013074844 0.009619212 0.0052979253 0.0002826223
        0.0052549774 0.011148815 0.017243171 0.02339736 0.029492129 0.035432134
        0.041143924 0.04657376 0.05168524 0.056456696 0.06087852 0.064950585
        0.06867985 0.07207828 0.07516109 0.07794537 0.08044906 0.08269008
        0.0846866 0.0864542 0.08793003 0.10215145 0.092191696 0.082516454
        0.073350616 0.064782046 0.056843236 0.04953635 0.042840082 0.03671138
        0.031087147 0.025889946 0.021041816 0.016496336 0.01227115 0.008450957
        0.0051681837 0.0025579836 0.0006951994 0.00045344833 0.0010500272 0.0013734229
        0.0017110287 0.0022546717 0.003114006 0.0042879474 0.005890394 0.008085243
        0.010676192 0.012785851 0.01598984 0.017750246 0.01829883 0.017460763
        0.015176922 0.011554668 0.006855905 0.0014865241 0.004037321 0.009139513
        0.013323841 0.016288104 0.017897803 0.018133339 0.017053857 0.014769388
        0.011421807 0.0071718283 0.0021898656 0.0033510432 0.009281378 0.015440401
        0.02168153 0.0278795 0.0339334 0.039764944 0.045316406 0.050548248
        0.055436485 0.059969865 0.0641472 0.067974836 0.07146445 0.07463126
        0.07749248 0.08006635 0.0823711 0.08442526 0.08624472 0.08776605
        0.10162738 0.09145144 0.081603475 0.072310135 0.06365351 0.055660114
        0.048326347 0.041625585 0.035510022 0.029912453 0.024751902 0.019947445
        0.015450601 0.011278226 0.007515458 0.004295937 0.0017559202 2.989929e-05
        0.0010968341 0.0016108977 0.0018564437 0.0021260197 0.0026145745 0.0034332373
        0.004579662 0.006168965 0.0083665475 0.010971253 0.013097862 0.016285975
        0.01801307 0.018508 0.01759621 0.01522191 0.011496325 0.0066837897
        0.0011900146 0.004471346 0.009727157 0.014081961 0.017230429 0.019031437
        0.019456595 0.018555583 0.016429538 0.013212973 0.009061388 0.004142438
        0.001371132 0.00730789 0.013503426 0.019806303 0.026085926 0.032236136
        0.038173806 0.04383697 0.04918257 0.05418379 0.05882722 0.06311012
        0.06703777 0.0706212 0.073875286 0.076817155 0.07946511 0.08183757
        0.08395332 0.085828446 0.08739906 0.10082482 0.09042066 0.08039338
        0.0709723 0.062233534 0.05419735 0.0468539 0.0401705 0.034093563
        0.028550494 0.023455424 0.01872316 0.014302042 0.010207321 0.0065239775
        0.0033864845 0.00093197805 0.0007650319 0.0017416517 0.0021672705 0.002330848
        0.0025290793 0.0029590784 0.003732686 0.004845736 0.00641427 0.008605285
        0.011213358 0.013346347 0.01650918 0.018196968 0.01863743 0.01765719
        0.01520392 0.011391979 0.0064866734 0.0008915653 0.0048843836 0.010273185
        0.014782038 0.018103981 0.02009226 0.020710157 0.01999784 0.018047037
        0.014983953 0.010957596 0.0061313445 0.0006760261 0.005236599 0.0114398515
        0.017778542 0.024117481 0.030345637 0.036375083 0.0421394 0.047591597
        0.05270154 0.057453163 0.06184164 0.065870754 0.069550484 0.07289505
        0.07592122 0.07864717 0.081091315 0.08327261 0.08520725 0.08683095
        0.09974624 0.089101754 0.0788889 0.06934054 0.060526464 0.052460216
        0.045125116 0.03848156 0.03246911 0.02700851 0.02200765 0.017375812
        0.013057127 0.009064436 0.005482021 0.002444815 9.062365e-05 0.0015062491
        0.0023844547 0.0027161771 0.0027941063 0.0029180672 0.0032863717 0.0040108054
        0.005084825 0.006625105 0.008800335 0.011401435 0.013530283 0.016658565
        0.018301241 0.018686691 0.01764363 0.015123293 0.0112424465 0.0062659113
        0.00059313787 0.005273783 0.01077415 0.015419723 0.018903408 0.021073844
        0.02188652 0.021372115 0.019612508 0.016724737 0.012850101 0.008146225
        0.0027804014 0.003076888 0.009258146 0.015605613 0.021980327 0.028266836
        0.034372527 0.040226363 0.04577706 0.050990693 0.055848006 0.060341604
        0.06447327 0.06825154 0.07168963 0.07480366 0.077611454 0.08013128
        0.08238212 0.08438017 0.08606084 0.09839161 0.08749469 0.077090584
        0.06741647 0.058535233 0.050453093 0.043145716 0.036565594 0.030644238
        0.025294429 0.020416513 0.01591308 0.011723081 0.007856248 0.0043956684
        0.0014764025 0.00076327525 0.0022492844 0.0030215655 0.0032545002 0.0032436142
        0.0032908246 0.0035946625 0.0042660916 0.005295638 0.006800316 0.008950605
        0.011534392 0.013648574 0.016733084 0.01832499 0.018655112 0.017555173
        0.014980082 0.011048291 0.0060226736 0.00029661207 0.0056368452 0.011226422
        0.01599034 0.019622885 0.02196915 0.022977412 0.022668969 0.021115491
        0.018424086 0.014727207 0.010175315 0.0049305875 0.0008393869 0.006967799
        0.013295573 0.019680912 0.026004508 0.03216928 0.03809948 0.043739237
        0.049050394 0.05400998 0.058607507 0.06284229 0.06672096 0.07025536
        0.073460676 0.07635411 0.07895361 0.08127803 0.083343476 0.08508505
        0.0967583 0.08559705 0.074996814 0.065199904 0.056261517 0.048179638
        0.04092123 0.034429677 0.028627103 0.023416966 0.018690817 0.014343474
        0.010307889 0.0065900944 0.0032715655 0.0004871966 0.0016244589 0.0029895625
        0.0036490816 0.0037789815 0.0036766997 0.0036451796 0.003882182 0.0044970843
        0.0054769376 0.0069387984 0.009055026 0.011611117 0.013700037 0.016731558
        0.01826711 0.018541759 0.017391171 0.01477405 0.010809808 0.0057579293
        3.769677e-06 0.0059708427 0.011626203 0.016488899 0.020256134 0.022770545
        0.023973824 0.02387806 0.02254446 0.02006953 0.01657585 0.012205395
        0.007113707 0.0014638774 0.0045795073 0.010857406 0.017226236 0.023563541
        0.029768117 0.035759553 0.041477155 0.046878137 0.05193533 0.05663462
        0.06097233 0.06495274 0.068585895 0.07188569 0.07486847 0.07755162
        0.07995372 0.08209062 0.08389715 0.09484097 0.08340386 0.07260378
        0.062688954 0.05370585 0.045642965 0.03845721 0.032081347 0.026426613
        0.02138574 0.016840283 0.01267637 0.008820301 0.0052739624 0.002116908
        0.00051639066 0.0024872855 0.0037222065 0.004262883 0.0042862277 0.004090627
        0.0039789528 0.004147189 0.0047023715 0.005627545 0.007039504 0.009112558
        0.011630479 0.0136834085 0.016652657 0.018126283 0.018345442 0.01715068
        0.014504646 0.010527012 0.0054724305 0.0002837237 0.0062730364 0.011969541
        0.016910126 0.020796457 0.023469836 0.024866039 0.024988187 0.023886854
        0.021647386 0.018381588 0.014221734 0.009315296 0.0038193131 0.0021054123
        0.008301297 0.014624156 0.020949252 0.027171774 0.033206828 0.03898879
        0.044469934 0.049618427 0.054416005 0.05885546 0.06293821 0.066672064
        0.07006926 0.07314494 0.07591568 0.07839958 0.080612116 0.082487784
        0.092631325 0.08090747 0.06990536 0.05988005 0.050867766 0.042845897
        0.035759483 0.029528847 0.024052633 0.019211408 0.014875637 0.010922038
        0.0072698225 0.0039164764 0.0009394247 0.0015274988 0.0033457424 0.004442047
        0.004858642 0.004772719 0.004482608 0.004289964 0.004387975 0.004880592
        0.0057463427 0.0071014417 0.009122194 0.011591326 0.0135973375 0.016494896
        0.01790098 0.01806469 0.016832445 0.014170999 0.010199613 0.00516669
        0.00056433835 0.0065406924 0.012252354 0.017248474 0.021236753 0.024058292
        0.025643663 0.025987312 0.025129095 0.023142766 0.020128574 0.016208023
        0.011519189 0.0062115723 0.00044064593 0.005638953 0.011883747 0.018167758
        0.024383282 0.030441307 0.03627134 0.04182049 0.047051862 0.05194254
        0.056481235 0.06066596 0.06450179 0.06799886 0.071170755 0.07403294
        0.07660282 0.07889526 0.08084442 0.09011761 0.07809717 0.06689299
        0.05676792 0.047745977 0.03979122 0.032834485 0.026781445 0.021516237
        0.016905827 0.012808691 0.009091667 0.005666718 0.0025268798 0.00025264232
        0.002538835 0.0041934554 0.0051436303 0.0054318258 0.005234817 0.0048498074
        0.0045760423 0.004602872 0.0050304397 0.0058322763 0.0071236813 0.00908296
        0.011492489 0.0134403845 0.016256643 0.017589444 0.01769776 0.016434887
        0.013771895 0.009827 0.0048409593 0.00083670253 0.006771103 0.012470439
        0.017498137 0.021569533 0.024526676 0.026295658 0.026862599 0.026256634
        0.024539597 0.021799555 0.018146316 0.013707386 0.008623345 0.0030428334
        0.0028839735 0.00901573 0.015226433 0.02140642 0.02746315 0.03332151
        0.038923386 0.044226535 0.049202904 0.053836588 0.05812161 0.06205976
        0.06565857 0.06892966 0.071887 0.07454703 0.07692381 0.07895095
        0.087284066 0.0749588 0.063555345 0.05334557 0.04433857 0.036482055
        0.029689688 0.02384981 0.018829985 0.014482242 0.010652426 0.0071973857
        0.0040219915 0.0011150062 0.001450561 0.0035426903 0.0050237034 0.005821226
        0.005977711 0.005668776 0.0051893573 0.0048350324 0.004790255 0.0051506683
        0.0058843624 0.007105361 0.008993923 0.011332782 0.013211019 0.0159361
        0.017189698 0.017242618 0.015956093 0.013305763 0.009408215 0.004495204
        0.0010996261 0.0069616036 0.01261949 0.017653069 0.02178694 0.024865258
        0.02681037 0.027600445 0.027253969 0.02582064 0.023375856 0.020016978
        0.015859932 0.011035143 0.0056830086 5.2267696e-05 0.006032969 0.012134451
        0.01824625 0.024273152 0.030135924 0.03577139 0.04113179 0.04618358
        0.050905686 0.055287555 0.059327092 0.063028656 0.06640138 0.06945735
        0.07221167 0.0746773 0.07678715 0.084110014 0.07147404 0.05987803
        0.04960432 0.04064332 0.032922365 0.026334114 0.02074646 0.016008247
        0.011955463 0.008421078 0.0052522756 0.0023473634 0.00030875157 0.0026451382
        0.00453096 0.005829426 0.006468836 0.0064913887 0.0060707517 0.005498367
        0.0050648074 0.004948555 0.0052400976 0.0059016906 0.007045693 0.008854194
        0.011111006 0.012907617 0.015531314 0.01669953 0.016696928 0.015393794
        0.012770648 0.008941929 0.0041290727 0.001352127 0.0071095936 0.01269511
        0.01770699 0.02188076 0.025063843 0.02717556 0.028186528 0.028104698
        0.026967524 0.02483739 0.02179864 0.017954804 0.01342509 0.008340388
        0.0028374896 0.002951042 0.0089034345 0.014909801 0.02087339 0.026711656
        0.032356787 0.037755605 0.042868804 0.047669712 0.05214259 0.056280807
        0.060084905 0.06356095 0.06671862 0.06957125 0.072130345 0.07432782
        0.08056851 0.06761948 0.055843063 0.045533806 0.036658145 0.02911759
        0.02277901 0.017486311 0.013067577 0.009342064 0.006130196 0.0032703574
        0.00065522944 0.0017334853 0.0038267523 0.0054951627 0.0066032363 0.007080203
        0.0069677727 0.0064368155 0.0057739373 0.005263282 0.0050762664 0.005297617
        0.0058834325 0.0069439732 0.008662939 0.010825952 0.0125284605 0.015040162
        0.016116485 0.016058045 0.014745354 0.012164192 0.008426409 0.0037418688
        0.0015934589 0.0072125555 0.012692821 0.01765339 0.021842439 0.025111781
        0.027378434 0.02860583 0.028791552 0.027960781 0.026162682 0.023468183
        0.01996781 0.01576872 0.010991209 0.0057633608 0.00021110328 0.005548238
        0.011406917 0.017268067 0.023046982 0.02867201 0.03408492 0.03924068
        0.044106673 0.048661444 0.05289314 0.05679779 0.06037769 0.063639484
        0.06659419 0.06925142 0.07154165 0.07662442 0.063365325 0.051428273
        0.04112214 0.0323818 0.02507558 0.0190387 0.014087312 0.01002708
        0.006660551 0.0037966813 0.001266555 0.0010413999 0.0031478265 0.0049853907
        0.006426461 0.007337433 0.0076488145 0.007401612 0.0067629674 0.006013178
        0.0054284264 0.0051719565 0.005322194 0.005828847 0.00679959 0.008419387
        0.010476407 0.0120717315 0.01446036 0.015437866 0.015323007 0.014007754
        0.011483611 0.007859492 0.0033325115 0.0018231429 0.007268073 0.012608073
        0.017485542 0.021663066 0.02499799 0.027405655 0.028842682 0.02929645
        0.0287799 0.027328897 0.02500073 0.021872528 0.018038798 0.013608402
        0.008699628 0.0034304275 0.0020878664 0.007751322 0.013464624 0.019142421
        0.024710437 0.03010621 0.03527933 0.04019119 0.044814195 0.04913065
        0.053131282 0.05681382 0.06018112 0.063241206 0.0660012 0.06838952
        0.07223146 0.0586734 0.046606485 0.03635627 0.027814955 0.020807866
        0.015131666 0.010571172 0.0069088163 0.003931509 0.0014387778 0.00074337743
        0.0027289835 0.0045400145 0.0061106943 0.007315687 0.008024008 0.008167914
        0.007787499 0.007045151 0.006213225 0.005558285 0.005234279 0.005312881
        0.0057372903 0.006612038 0.008122842 0.010061162 0.011535517 0.0137894545
        0.014660729 0.01448852 0.013177573 0.010725664 0.007238543 0.0028995017
        0.0020409992 0.007273853 0.01243624 0.017196476 0.021333396 0.024710946
        0.027243383 0.028880805 0.029600546 0.029403383 0.0283119 0.026369683
        0.023640271 0.020205183 0.01616129 0.011616273 0.006679013 0.0014534559
        0.0039619305 0.009475205 0.015002215 0.020467745 0.025806446 0.03096342
        0.03589443 0.040565647 0.04495302 0.049041208 0.052822497 0.056295004
        0.05946294 0.062330127 0.064822026 0.06732744 0.053494327 0.041344643
        0.031222833 0.022961928 0.016331406 0.011081882 0.0069641666 0.0037381581
        0.0011776757 0.0009239976 0.0027429764 0.0043935636 0.00589798 0.007192006
        0.008153362 0.00865466 0.008630506 0.008119882 0.0072792773 0.0063712676
        0.005650997 0.005261991 0.0052688234 0.005608226 0.0063809357 0.0077726995
        0.0095790215 0.0109178 0.013024828 0.013781874 0.013550953 0.012250971
        0.009886631 0.0065604276 0.002440878 0.0022471836 0.007227738 0.012172626
        0.016778983 0.020843815 0.024238696 0.026877273 0.028703334 0.029684281
        0.02980882 0.029086335 0.027546773 0.025240107 0.022234758 0.018615358
        0.014478502 0.009923256 0.005045094 6.4437605e-05 0.005318573 0.010636403
        0.015943889 0.021174751 0.026271194 0.031184394 0.035874717 0.0403116
        0.044473037 0.04834492 0.051919587 0.055196323 0.058174655 0.06077565
        0.06182656 0.04776327 0.035602935 0.025709894 0.017833369 0.011670998
        0.006920415 0.0032979613 0.00054407323 0.0015760825 0.0032710093 0.0047152466
        0.006020914 0.007209444 0.008218428 0.008929728 0.009220803 0.009029365
        0.008393082 0.0074612442 0.0064845765 0.005704825 0.0052539697 0.005189273
        0.0054412405 0.0061060456 0.007368468 0.009028821 0.010216463 0.012163702
        0.012797853 0.012506331 0.011223677 0.008962286 0.0058214683 0.001954175
        0.0024422233 0.007127723 0.011812447 0.016225578 0.020184327 0.023568835
        0.026292488 0.028292855 0.02952744 0.029972952 0.029625703 0.028502168
        0.02663892 0.024091417 0.020932088 0.017246336 0.013123094 0.008648731
        0.003906831 0.0010225342 0.006063693 0.011146146 0.01620522 0.021182625
        0.02602696 0.030694138 0.03514768 0.039358757 0.04330613 0.046975184
        0.050358947 0.05345128 0.05616665 0.055605806 0.0413934 0.029334484
        0.019810481 0.0124504855 0.0068624583 0.0026872444 0.00038963064 0.0026407542
        0.0043029455 0.00558077 0.00664291 0.007596727 0.00846204 0.009178889
        0.009634773 0.009713585 0.009357054 0.0086013125 0.007586976 0.0065505435
        0.005718188 0.0052092406 0.0050736032 0.00523606 0.005787303 0.0069097946
        0.008409447 0.009429296 0.011203148 0.011704964 0.011350333 0.010090975
        0.007947873 0.005017411 0.0014363778 0.002627054 0.0069719655 0.011350802
        0.015528465 0.019344505 0.022688484 0.02547369 0.027631415 0.029109197
        0.029871758 0.029902477 0.029204585 0.027801543 0.025736159 0.023068944
        0.019874364 0.016231356 0.012217125 0.007906885 0.0033731046 0.0013153204
        0.006093641 0.010901591 0.01568356 0.020388737 0.024971334 0.02939093
        0.033612836 0.037608624 0.041355804 0.04483963 0.04804649 0.05088063
        0.048479725 0.03426582 0.022486983 0.013529435 0.00685146 0.0019566615
        0.0015668758 0.0040541394 0.005780071 0.0069745234 0.007831344 0.008508743
        0.009106853 0.009643461 0.010062223 0.01025828 0.010123906 0.0096059395
        0.008738716 0.0076524685 0.006566738 0.0056897146 0.005127018 0.0049213334
        0.0049925838 0.00542486 0.006396507 0.00771987 0.00855399 0.01014011
        0.010499273 0.010078296 0.008847706 0.006838093 0.0041433927 0.0008838808
        0.0028030549 0.0067587807 0.010782639 0.014679458 0.018313432 0.021584231
        0.02440501 0.026700526 0.028408134 0.029480515 0.029888203 0.029621439
        0.028690932 0.027127258 0.024979493 0.022311687 0.019193346 0.015693057
        0.011878046 0.007813191 0.0035600364 0.000823807 0.005284845 0.009773497
        0.014243676 0.01865236 0.022959372 0.02712744 0.031122817 0.034915462
        0.038481746 0.0417984 0.044753134 0.040150095 0.026213992 0.015010022
        0.0068963487 0.0011008021 0.0029758099 0.0057788673 0.007644418 0.008834605
        0.009561511 0.010000926 0.01029601 0.010537594 0.010741642 0.010857277
        0.010789876 0.010442467 0.009768244 0.008799418 0.0076538627 0.0065309852
        0.0056183124 0.0050067585 0.004732171 0.0047109267 0.0050191446 0.0058286698
        0.0069592004 0.007588173 0.008971436 0.009176637 0.008685245 0.0074882777
        0.005627098 0.0031939219 0.0002924553 0.0029720722 0.0064866263 0.010102672
        0.013669891 0.017079597 0.02024206 0.02306999 0.025481129 0.027402265
        0.028773844 0.0295536 0.029719 0.029268373 0.02822054 0.026613694
        0.024502132 0.0219468 0.019008724 0.015748292 0.0122239 0.008490571
        0.00459901 0.0005951943 0.0034794596 0.0075873956 0.011693834 0.015765565
        0.01976983 0.023673901 0.027444597 0.03105116 0.034459546 0.037528973
        0.030097941 0.017000377 0.006877721 1.098539e-05 0.0046981233 0.0078401845
        0.009872725 0.011103437 0.011763151 0.012034662 0.012068601 0.011989013
        0.011876065 0.01174498 0.011553037 0.011219126 0.010659834 0.009836109
        0.008777615 0.0075875525 0.0064414814 0.0055032712 0.004848251 0.0045060716
        0.0043914914 0.004570952 0.0052066706 0.0061267656 0.0065294323 0.0076939496
        0.0077327546 0.0071659307 0.0060067 0.004308514 0.002162879 0.00034276722
        0.0031364285 0.0061540552 0.009305265 0.012490461 0.015630739 0.018647198
        0.02145147 0.023953516 0.026068969 0.02772571 0.0288686 0.029462507
        0.029493704 0.028969705 0.027918333 0.02638478 0.024422353 0.022085842
        0.0194305 0.016510261 0.013375903 0.010073586 0.006643863 0.003121228
        0.00046572558 0.00409353 0.00774245 0.011394478 0.015031209 0.018630927
        0.022168957 0.025609104 0.028758518 0.017334335 0.0062856926 0.0018482612
        0.007027122 0.010388991 0.012514931 0.013760656 0.014370118 0.014524178
        0.014366009 0.01401521 0.013573669 0.013110549 0.012642538 0.012138747
        0.011535593 0.01076649 0.00980166 0.008667649 0.00745029 0.0062969117
        0.005344369 0.004651702 0.004243299 0.004035037 0.0040815426 0.004531311
        0.005222205 0.0053753527 0.006304521 0.0061632236 0.0055148853 0.0043966314
        0.002875465 0.001043519 0.0010273152 0.0032989413 0.005759667 0.008384296
        0.011131043 0.013953681 0.016783975 0.019531457 0.022097232 0.024384936
        0.026309393 0.027802404 0.02881629 0.02932554 0.029326718 0.028837645
        0.02789481 0.026544595 0.024836792 0.022823274 0.020555843 0.018084068
        0.01545348 0.01270414 0.009869547 0.0069758617 0.004041371 0.001076168
        0.0019178336 0.0049467767 0.008023377 0.01116789 0.014397738 0.017429084
        0.00021511618 0.0064632115 0.010948896 0.013953467 0.015865056 0.016962133
        0.017448414 0.017476257 0.017163914 0.016608614 0.015895655 0.015103372
        0.014290916 0.013479872 0.012655632 0.011776551 0.010796291 0.009695837
        0.00849796 0.007268261 0.006121039 0.0051626936 0.004435643 0.003960236
        0.0036570127 0.003566257 0.003817669 0.004260434 0.0041410695 0.004815637
        0.004477567 0.0037379372 0.0026593946 0.0013244025 0.00017226969 0.0017728468
        0.0034732851 0.005317747 0.007354916 0.009609903 0.012072403 0.014684049
        0.017350527 0.019962305 0.022409588 0.024593094 0.026430912 0.027862499
        0.02885048 0.029380556 0.029460581 0.029118212 0.028393026 0.027330514
        0.025980342 0.024393814 0.022621581 0.020711865 0.018709129 0.016653212
        0.014578858 0.012515577 0.010487734 0.008514913 0.0066121104 0.0047909897
        0.0030576552 0.0014230283 0.0003037729
      </DataArray>
      <DataArray type="Float32" Name="aspect_ratio" format="ascii" RangeMin="1.0006839036941528" RangeMax="9.186430931091309">
        1.4130919 1.5895275 1.7688916 1.9616141 2.1703527 2.397082
        2.6433396 2.9102702 3.198546 3.5081797 3.8382316 4.186377
        4.5485425 4.919231 5.2924128 5.662596 6.0258765 6.3803005
        6.725295 7.0604835 7.383487 7.6881905 7.9660945 8.208209
        8.405901 8.553289 8.638271 8.655981 8.848494 8.951715
        8.726294 8.438791 8.11137 7.7591176 7.3973446 7.036981
        6.685574 6.346948 6.021111 5.7046123 5.3932614 5.0842133
        4.7762184 4.4694076 4.1649604 3.8647432 3.5709677 3.2859051
        3.0116694 2.7500699 2.502533 2.2700942 2.0533981 1.8526907
        1.6678578 1.4985 1.3440034 1.203602 1.0764318 1.0399613
        1.1653765 1.3070971 1.4672257 1.6481444 1.8525499 2.083488
        2.3444164 2.639126 2.9915974 1.425715 1.5940745 1.7698457
        1.961095 2.1693141 2.395955 2.642314 2.9094198 3.1978831
        3.5076816 3.8378541 4.186066 4.5482507 4.9189262 5.292085
        5.6622486 6.0255065 6.3798857 6.7247877 7.0598164 7.382581
        7.686999 7.964608 8.206438 8.403923 8.55106 8.635863
        8.653547 8.846434 8.950202 8.725182 8.438085 8.111001
        7.7589903 7.3974004 7.0372357 6.686132 6.3479743 6.0227447
        5.7069006 5.396126 5.0874777 4.7796626 4.472802 4.1681
        3.867462 3.5731509 3.287491 3.012647 2.7504697 2.5024185
        2.2695496 2.052519 1.8515753 1.6666013 1.4971915 1.3427233
        1.2024214 1.0754136 1.040828 1.1661034 1.3074844 1.466972
        1.6468087 1.8495077 2.077878 2.335087 2.6245623 2.9697425
        1.4387897 1.6008571 1.7730956 1.9624506 2.1697092 2.3959107
        2.6421187 2.9092286 3.1977723 3.5076776 3.8379517 4.1862373
        4.5484576 4.919134 5.2922683 5.6623907 6.025592 6.37989
        6.724677 7.059552 7.382121 7.6863213 7.9637146 8.205337
        8.402682 8.549662 8.634378 8.652091 8.845377 8.949685
        8.724965 8.438147 8.111258 7.7593465 7.397808 7.0377355
        6.6868663 6.349159 6.0245748 5.709465 5.399364 5.09122
        4.7836843 4.476867 4.1719913 3.871002 3.576213 3.2900023
        3.0145853 2.7518573 2.5033107 2.2700243 2.0526679 1.8514943
        1.6663853 1.4969288 1.3424937 1.202295 1.0754495 1.0405604
        1.165429 1.3061653 1.4646851 1.6431264 1.8438789 2.0696084
        2.3233254 2.608271 2.9475386 1.4520444 1.6106193 1.7797989
        1.9668862 2.1726124 2.3978457 2.6434844 2.910296 3.1987202
        3.5086174 3.838944 4.1873007 4.5495734 4.9202614 5.293357
        5.663392 6.026468 6.380615 6.7252436 7.0599737 7.3824196
        7.686518 7.9638305 8.205378 8.402706 8.549698 8.634494
        8.652342 8.84608 8.950923 8.726342 8.439584 8.112645
        7.760581 7.3988576 7.0386815 6.6879144 6.3506126 6.0267286
        5.7124767 5.403208 5.0957384 4.7886515 4.482037 4.1771317
        3.8759189 3.580761 3.2940905 3.0181744 2.7549524 2.5059521
        2.2722776 2.0546143 1.8532232 1.6679853 1.4984823 1.3440732
        1.2039603 1.0772462 1.0384449 1.1625395 1.3022434 1.4594219
        1.6361643 1.8348168 2.0580096 2.3087306 2.5901966 2.9253461
        1.4654425 1.6218325 1.7886686 1.9736446 2.1776772 2.4016614
        2.6464443 2.9127178 3.200846 3.510622 3.8409438 4.189355
        4.551685 4.922385 5.2954235 5.665327 6.028212 6.3821416
        6.726566 7.0611506 7.383528 7.6876206 7.9649653 8.2065525
        8.40397 8.551116 8.636126 8.654192 8.848416 8.953766
        8.729158 8.442243 8.11501 7.7625446 7.4004073 7.03994
        6.689151 6.3522105 6.029069 5.7157826 5.407489 5.100852
        4.7943745 4.4881167 4.1833243 3.8820152 3.5865993 3.2995622
        3.0232224 2.759565 2.5101526 2.2761161 2.0581594 1.8565513
        1.6711723 1.5015966 1.3471712 1.2070831 1.0804183 1.0349743
        1.1581255 1.2966594 1.4524152 1.6274601 1.824121 2.0450106
        2.2931023 2.5715828 2.903215 1.4789928 1.6338862 1.7989355
        1.9820906 2.1844783 2.4071105 2.6508691 2.9164305 3.2041154
        3.5136638 3.8439157 4.1923504 4.5547247 4.9254255 5.29838
        5.6681027 6.0307307 6.384374 6.728545 7.0629754 7.3853254
        7.6894894 7.966963 8.208688 8.406291 8.553715 8.639052
        8.657405 8.8521385 8.9579525 8.73316 8.445881 8.118124
        7.7650266 7.402265 7.0413375 6.6904154 6.353801 6.031443
        5.7192216 5.4120374 5.1063848 4.8006725 4.494924 4.1903887
        3.8891137 3.5935538 3.3062465 3.0295608 2.7655265 2.5157418
        2.2813654 2.0631192 1.861281 1.6757301 1.5060325 1.3515221
        1.2113712 1.08465 1.0305284 1.1526693 1.2899997 1.4443429
        1.6177505 1.8125342 2.0312886 2.2769694 2.5527282 2.8811457
        1.4927129 1.6465064 1.8101581 1.991772 2.1926463 2.4139297
        2.6565864 2.9213223 3.2084503 3.5176768 3.847793 4.1962113
        4.5586057 4.9292836 5.302119 5.6716084 6.0339127 6.387202
        6.731069 7.065329 7.38768 7.69198 7.969665 8.211616
        8.409491 8.5573 8.643067 8.661765 8.857019 8.963249
        8.738123 8.450288 8.121794 7.767852 7.404275 7.042734
        6.691584 6.3552666 6.033732 5.722668 5.41672 5.1121964
        4.807401 4.5023136 4.1981783 3.8970678 3.6014798 3.314
        3.037046 2.7726917 2.5225708 2.2878692 2.069328 1.8672342
        1.6814656 1.511581 1.3569027 1.2165908 1.0897042 1.0253764
        1.1464863 1.282617 1.4355786 1.6074086 1.8004024 2.0171354
        2.2605436 2.5337405 2.8591242 1.5066222 1.6595584 1.822079
        2.0023813 2.2018912 2.4218833 2.6634207 2.927268 3.213758
        3.5225852 3.8525033 4.20086 4.5632415 4.933866 5.306542
        5.675743 6.037657 6.3905244 6.734037 7.0681076 7.39048
        7.6949687 7.9729376 8.215192 8.413419 8.56171 8.647998
        8.667091 8.862871 8.969463 8.743866 8.455294 8.125866
        7.770884 7.4063168 7.0440283 6.692566 6.356522 6.035848
        5.7260284 5.4214344 5.1181774 4.814446 4.510165 4.2065706
        3.9057558 3.6102545 3.3226984 3.0455523 2.7809322 2.5305061
        2.2954876 2.0766375 1.8742522 1.6882105 1.5180657 1.3631325
        1.2225627 1.0954089 1.0197047 1.1397816 1.2747275 1.4263391
        1.5966394 1.787907 2.0026968 2.243924 2.5146642 2.8371313
        1.5207403 1.6729724 1.8345432 2.0137115 2.2119944 2.4307735
        2.67121 2.9341416 3.2199404 3.5283077 3.857972 4.206222
        4.5685534 4.9390874 5.31156 5.6804175 6.041875 6.394256
        6.737363 7.0712233 7.393632 7.698354 7.9766707 8.219299
        8.417952 8.5668125 8.6537 8.673233 8.869538 8.976436
        8.750239 8.460764 8.1302185 7.774017 7.4083023 7.0451436
        6.6932955 6.3575068 6.0377283 5.7292304 5.4261003 5.124239
        4.8217106 4.5183787 4.2154627 3.9150705 3.619769 3.3322318
        3.0549672 2.7901313 2.5394266 2.3040934 2.0849137 1.8821957
        1.6958213 1.5253421 1.3700695 1.2291521 1.1016408 1.0136423
        1.1326915 1.2664684 1.4167566 1.5855639 1.7751513 1.9880525
        2.2271624 2.4955177 2.8151472 1.5350864 1.6867113 1.8474556
        2.0256207 2.2227924 2.440439 2.6798115 2.9418242 3.2269006
        3.5347624 3.864125 4.2122254 4.574467 4.944871 5.317095
        5.685552 6.04649 6.3983226 6.740975 7.0746017 7.3970566
        7.7020507 7.9807715 8.223838 8.422985 8.572494 8.660051
        8.680065 8.876891 8.984034 8.757118 8.466586 8.134754
        7.777169 7.4101634 7.0460258 6.693727 6.3581767 6.0393248
        5.7322197 5.430654 5.1303086 4.829115 4.526867 4.2247624
        3.9249172 3.6299257 3.342499 3.0651865 2.8001823 2.5492213
        2.313572 2.094039 1.8909445 1.7041776 1.533293 1.3776032
        1.236258 1.1083113 1.0072803 1.1253086 1.2579304 1.406916
        1.5742574 1.7621976 1.9732493 2.2102861 2.4763062 2.7931526
        1.5496796 1.7007562 1.8607552 2.0380113 2.234163 2.4507494
        2.689101 2.9502056 3.234544 3.5418677 3.870889 4.2187986
        4.580912 4.951145 5.323074 5.6910763 6.051434 6.402658
        6.7448096 7.07818 7.4006877 7.7059875 7.9851623 8.2287245
        8.42843 8.578656 8.666951 8.68748 8.884816 8.992145
        8.7644005 8.472668 8.139395 7.7802763 7.4118495 7.046635
        6.6938276 6.358501 6.0406027 5.734954 5.4350433 5.136324
        4.836588 4.5355525 4.2343864 3.9352078 3.6406333 3.3534067
        3.0761142 2.8109856 2.5597887 2.3238199 2.1039088 1.9003953
        1.7131797 1.5418243 1.3856475 1.2438049 1.1153561 1.0006839
        1.1176974 1.2491752 1.3968737 1.5627687 1.7490854 1.9583147
        2.1933095 2.457029 2.7711298 1.5645388 1.715099 1.874403
        2.0508146 2.2460146 2.4616008 2.6989725 2.9591866 3.2427814
        3.5495439 3.8781908 4.2258735 4.58782 4.9578424 5.329429
        5.696924 6.0566435 6.4072027 6.7488093 7.0819016 7.404467
        7.710101 7.9897757 8.233888 8.434208 8.585218 8.674308
        8.695384 8.893217 9.000671 8.771996 8.478931 8.144075
        7.7832875 7.413322 7.0469437 6.693575 6.3584585 6.041537
        5.7373986 5.439224 5.142232 4.844067 4.544365 4.2442584
        3.9458613 3.6518066 3.3648663 3.0876591 2.8224494 2.5710356
        2.3347442 2.1144316 1.9104596 1.7227445 1.5508603 1.3941356
        1.2517356 1.1227282 1.006137 1.109904 1.2402459 1.3866682
        1.5511307 1.7358401 1.9432659 2.1762397 2.4376826 2.7490625
        1.5796831 1.7297384 1.888374 2.0639813 2.258277 2.4729087
        2.7093356 2.9686775 3.251528 3.5577133 3.885959 4.2333813
        4.5951257 4.964897 5.3360977 5.7030344 6.062061 6.411904
        6.7529244 7.0857167 7.408344 7.7143383 7.9945536 8.239263
        8.440252 8.592107 8.682043 8.703694 8.902009 9.009531
        8.779829 8.485312 8.148744 7.786162 7.414553 7.0469313
        6.6929555 6.358035 6.042108 5.7395267 5.4431596 5.1479855
        4.851496 4.5532393 4.2543063 3.9568 3.6633642 3.3767936
        3.0997365 2.8344877 2.5828767 2.346261 2.1255271 1.9210625
        1.7328031 1.5603398 1.4030151 1.2600065 1.1303928 1.0132065
        1.1019624 1.2311735 1.3763269 1.5393658 1.7224786 1.9281131
        2.1590803 2.4182615 2.726936 1.5951315 1.7446771 1.902652
        2.077475 2.2708955 2.4846044 2.7201133 2.978598 3.260706
        3.5663013 3.8941228 4.241256 4.6027637 4.972247 5.3430195
        5.7093496 6.067632 6.4167104 6.7571073 7.0895805 7.4122725
        7.7186503 7.9994435 8.244795 8.446503 8.599255 8.690086
        8.712338 8.911116 9.018647 8.787832 8.491754 8.153355
        7.788868 7.415521 7.0465865 6.6919603 6.3572226 6.042303
        5.7413177 5.446819 5.1535425 4.8588233 4.562115 4.264462
        3.9679503 3.6752286 3.389109 3.1122644 2.8470192 2.5952327
        2.3582947 2.1371243 1.9321386 1.7432978 1.5702131 1.4122444
        1.2685843 1.1383237 1.0205055 1.0938978 1.221981 1.3658695
        1.52749 1.7090125 1.9128628 2.141831 2.3987596 2.704737
        1.6109035 1.7599212 1.9172273 2.0912693 2.283827 2.4966307
        2.731238 2.9888763 3.2702417 3.5752366 3.902614 4.2494316
        4.610672 4.9798317 5.3501353 5.715815 6.073307 6.4215765
        6.761315 7.093452 7.416211 7.7229934 8.004398 8.250434
        8.452904 8.606603 8.698373 8.721249 8.920469 9.027953
        8.795947 8.498207 8.157872 7.7913804 7.416211 7.0459013
        6.690587 6.3560166 6.042113 5.7427545 5.450175 5.158865
        4.866 4.5709352 4.2746606 3.9792414 3.6873248 3.4017346
        3.1251657 2.859968 2.6080306 2.370776 2.14916 1.9436315
        1.7541795 1.5804389 1.42179 1.2774422 1.146501 1.0280198
        1.0857296 1.2126856 1.3553107 1.5155149 1.6954494 1.8975184
        2.124491 2.3791704 2.682453 1.6270189 1.7754786 1.9320941
        2.1053436 2.2970366 2.5089393 2.7426515 2.9994466 3.2800665
        3.5844502 3.9113653 4.257843 4.618788 4.9875913 5.35739
        5.722378 6.0790367 6.426458 6.7655077 7.097293 7.420122
        7.727329 8.0093775 8.256132 8.459407 8.614096 8.706846
        8.730366 8.930007 9.037389 8.80412 8.50463 8.162265
        7.7936797 7.4166145 7.0448737 6.688836 6.354418 6.0415335
        5.743823 5.4532037 5.1639194 4.8729825 4.5796447 4.2848396
        3.990605 3.6995802 3.4145966 3.1383657 2.8732615 2.621201
        2.3836417 2.1615767 1.9554915 1.7654061 1.5909824 1.4316242
        1.2865593 1.1549089 1.0357385 1.077473 1.2033006 1.3446614
        1.5034485 1.6817946 1.882082 2.1070585 2.359488 2.6600728
        1.643498 1.7913587 1.9472497 2.119682 2.3104951 2.5214884
        2.7543013 3.0102494 3.2901163 3.5938764 3.9203115 4.266427
        4.62705 4.995468 5.364728 5.728987 6.0847754 6.4313126
        6.769647 7.1010675 7.4239707 7.73162 8.01434 8.261849
        8.465964 8.621685 8.71545 8.739633 8.9396715 9.046898
        8.812304 8.510984 8.166506 7.7957506 7.416725 7.0435057
        6.6867123 6.352429 6.0405617 5.744514 5.4558854 5.1686745
        4.879728 4.5881925 4.29494 4.0019746 3.7119243 3.4276223
        3.1517925 2.8868299 2.6346793 2.3968325 2.1743224 1.9676737
        1.7769402 1.601814 1.4417236 1.2959183 1.1635355 1.0436534
        1.0691406 1.1938368 1.3339303 1.4912975 1.6680521 1.8665543
        2.089531 2.339706 2.6375866 1.6603613 1.807572 1.962693
        2.1342716 2.3241765 2.5342407 2.7661395 3.0212283 3.30033
        3.603451 3.9293883 4.2751207 4.635399 5.0034046 5.3720965
        5.735595 6.0904784 6.4361014 6.7736983 7.104744 7.427725
        7.7358336 8.019253 8.267546 8.472534 8.629324 8.724136
        8.748998 8.9494095 9.05643 8.820454 8.517237 8.170573
        7.7975826 7.4165416 7.041801 6.6842227 6.3500566 6.0392
        5.74482 5.4582033 5.1731024 4.8861976 4.5965295 4.3049026
        4.0132856 3.7242882 3.4407406 3.1653757 2.9006064 2.648403
        2.410292 2.1873481 1.9801365 1.7887481 1.6129067 1.4520682
        1.3055044 1.1723704 1.0517582 1.0607423 1.1843027 1.3231244
        1.4790667 1.6542244 1.8509355 2.0719056 2.3198187 2.6149848
        1.6776304 1.82413 1.9784247 2.1491013 2.3380587 2.5471623
        2.7781224 3.0323312 3.310649 3.613113 3.938533 4.2838635
        4.643775 5.011346 5.3794436 5.7421536 6.096104 6.4407873
        6.777627 7.10829 7.4313545 7.7399397 8.02408 8.273186
        8.479077 8.636967 8.732855 8.758411 8.95917 9.065937
        8.828532 8.523358 8.174448 7.7991667 7.4160643 7.0397673
        6.681378 6.3473096 6.037451 5.744737 5.460143 5.1771774
        4.8923554 4.6046085 4.3146725 4.024475 3.7366042 3.4538822
        3.1790469 2.9145248 2.662311 2.4239662 2.200607 1.9928412
        1.8007984 1.6242361 1.4626396 1.3153046 1.1814052 1.0600477
        1.052287 1.174706 1.3122495 1.4667603 1.6403136 1.8352253
        2.0541801 2.299821 2.5922587 1.6953275 1.8410447 1.9944454
        2.1641607 2.3521197 2.5602205 2.790207 3.043507 3.321016
        3.6228013 3.9476848 4.292594 4.6521206 5.0192366 5.386719
        5.748617 6.1016107 6.445333 6.7814016 7.111677 7.4348316
        7.743909 8.028794 8.278734 8.485555 8.644573 8.741564
        8.767827 8.968907 9.075375 8.8365 8.529321 8.178116
        7.800499 7.415298 7.037415 6.6781898 6.344198 6.035321
        5.744263 5.4616923 5.1808763 4.8981667 4.6123843 4.3241954
        4.035482 3.748806 3.4669788 3.1927376 2.9285204 2.676344
        2.437802 2.2140534 2.00575 1.8130605 1.6357788 1.4734205
        1.3253067 1.1906317 1.0685174 1.0437827 1.1650531 1.301311
        1.4543816 1.6263214 1.8194236 2.0363514 2.279707 2.5694
        1.7134752 1.858328 2.0107565 2.1794395 2.3663387 2.5733836
        2.802352 3.0547063 3.3313763 3.6324573 3.9567828 4.3012524
        4.660378 5.027024 5.3938737 5.754941 6.10696 6.449705
        6.784992 7.1148787 7.43813 7.7477145 8.033363 8.284161
        8.491932 8.652103 8.750217 8.777201 8.978575 9.084701
        8.844324 8.535101 8.181562 7.8015757 7.414249 7.034756
        6.6746736 6.340737 6.0328193 5.743399 5.4628425 5.18418
        4.9036 4.6198153 4.333419 4.0462456 3.7608285 3.4799623
        3.2063804 2.9425285 2.6904418 2.4517462 2.227642 2.0188248
        1.8255045 1.6475116 1.4843938 1.3354989 1.2000426 1.0771631
        1.0352368 1.1553504 1.2903136 1.4419342 1.6122494 1.8035297
        2.0184174 2.2594724 2.5464017 1.7320973 1.8759925 2.0273588
        2.1949277 2.380694 2.5866196 2.814516 3.0658798 3.341674
        3.6420217 3.9657671 4.3097806 4.6684914 5.034654 5.4008594
        5.761083 6.1121135 6.4538713 6.7883706 7.1178684 7.4412255
        7.751332 8.037762 8.2894335 8.498174 8.659518 8.758776
        8.786489 8.988129 9.093874 8.85197 8.540675 8.184775
        7.8023963 7.4129243 7.031805 6.6708455 6.3369403 6.0299554
        5.742148 5.4635863 5.1870694 4.9086266 4.6268606 4.3422923
        4.0567083 3.7726076 3.4927654 3.2199078 2.9564838 2.7045448
        2.4657452 2.2413263 2.0320272 1.8380995 1.6594107 1.495542
        1.3458688 1.2096298 1.0859802 1.0266566 1.145604 1.2792621
        1.4294212 1.5980991 1.7875438 2.0003753 2.2391126 2.5232565
        1.7512178 1.8940506 2.0442522 2.2106135 2.3951626 2.5998952
        2.8266566 3.0769773 3.3518538 3.6514363 3.9745786 4.31812
        4.676406 5.042077 5.4076295 5.767001 6.1170354 6.4577994
        6.791509 7.1206226 7.444095 7.754737 8.041964 8.294524
        8.504247 8.666782 8.767197 8.79565 8.997527 9.102854
        8.859407 8.546022 8.187747 7.802963 7.4113355 7.028578
        6.6667247 6.3328266 6.026743 5.7405143 5.4639196 5.18953
        4.913219 4.6334825 4.3507686 4.0668125 3.7840796 3.5053213
        3.2332518 2.9703207 2.7185907 2.479743 2.255058 2.045317
        1.8508127 1.6714509 1.5068462 1.3564034 1.2193846 1.0949639
        1.0180494 1.1358199 1.2681612 1.416846 1.5838726 1.7714655
        1.9822237 2.2186232 2.4999573 1.7708621 1.9125141 2.0614355
        2.2264829 2.4097192 2.613175 2.8387291 3.0879474 3.3618596
        3.6606424 3.9831583 4.326214 4.684067 5.049243 5.4141393
        5.772656 6.121691 6.461461 6.794383 7.1231184 7.4467173
        7.7579074 8.045944 8.299404 8.51012 8.673858 8.775443
        8.804641 9.006728 9.111604 8.866607 8.551124 8.190467
        7.8032765 7.4094934 7.025092 6.662332 6.328415 6.023197
        5.7385073 5.463841 5.1915493 4.917353 4.6396446 4.3588
        4.0765033 3.7951822 3.5175629 3.246344 2.9839716 2.732516
        2.4936824 2.2687864 2.0586512 1.8636092 1.6836044 1.5182858
        1.3670876 1.2292969 1.104108 1.0094229 1.126005 1.2570165
        1.4042127 1.5695719 1.7552956 1.9639609 2.1980007 2.4764981
        1.791056 1.9313946 2.0789058 2.2425199 2.424336 2.62642
        2.8506866 3.0987365 3.3716338 3.6695812 3.991448 4.334006
        4.691422 5.0561028 5.4203453 5.7780094 6.126048 6.4648275
        6.796969 7.1253357 7.449072 7.7608223 8.04968 8.304048
        8.515763 8.68071 8.783473 8.813421 9.015691 9.120084
        8.873536 8.555958 8.192927 7.803342 7.407411 7.021368
        6.657689 6.323727 6.019335 5.7361364 5.4633512 5.1931167
        4.9210076 4.6453147 4.366343 4.0857267 3.8058543 3.5294237
        3.2591157 2.9973676 2.7462552 2.5075018 2.2824574 2.071983
        1.8764504 1.6958406 1.5298369 1.3779042 1.2393552 1.1134052
        1.0007858 1.1161666 1.2458341 1.3915257 1.5552 1.739035
        1.9455856 2.1772416 2.4528728 1.8118265 1.9507024 2.0966578
        2.2587042 2.4389799 2.6395874 2.8624778 3.1092887 3.3811173
        3.6781929 3.9993894 4.3414407 4.6984196 5.0626106 5.426206
        5.7830243 6.130075 6.4678726 6.7992444 7.127254 7.45114
        7.7634616 8.053147 8.308427 8.521144 8.687303 8.791249
        8.821951 9.024372 9.128258 8.880166 8.560508 8.195123
        7.803163 7.405103 7.0174265 6.6528215 6.318787 6.0151763
        5.733414 5.4624534 5.194225 4.9241633 4.650461 4.3733563
        4.094431 3.8160353 3.5408373 3.271496 3.0104382 2.759739
        2.5211372 2.2960124 2.0852618 1.8892936 1.7081246 1.5414726
        1.3888328 1.249545 1.1228461 1.0079147 1.1063131 1.2346209
        1.3787906 1.5407606 1.7226853 1.9270976 2.1563427 2.4290752
        1.8332006 1.9704465 2.114682 2.2750118 2.4536138 2.6526291
        2.8740475 3.1195438 3.3902493 3.686417 4.006925 4.348465
        4.705011 5.068721 5.4316807 5.7876663 6.133742 6.4705725
        6.8011885 7.128856 7.4529047 7.765807 8.056326 8.312518
        8.526233 8.693602 8.798732 8.830189 9.032732 9.136085
        8.886469 8.5647545 8.197046 7.8027453 7.402585 7.0132904
        6.647754 6.31362 6.0107427 5.7303553 5.461153 5.194869
        4.9268036 4.655057 4.3797994 4.102566 3.8256662 3.5517373
        3.283415 3.0231106 2.7728956 2.53452 2.3093886 2.0984313
        1.9020902 1.7204165 1.5531608 1.3998493 1.2598485 1.1324186
        1.0167569 1.0964544 1.2233856 1.3660141 1.5262585 1.7062494
        1.908497 2.135302 2.4051006 1.8552063 1.9906335 2.1329656
        2.2914116 2.4681926 2.6654906 2.885335 3.1294386 3.3989666
        3.6941936 4.013998 4.355026 4.7111473 5.07439 5.4367313
        5.7919016 6.1370206 6.4729033 6.8027825 7.130125 7.4543495
        7.7678404 8.059195 8.316294 8.530999 8.699573 8.805881
        8.838091 9.040726 9.143527 8.892411 8.568678 8.19869
        7.8020945 7.399873 7.008983 6.642515 6.3082542 6.006058
        5.726977 5.4594584 5.195047 4.928915 4.6590753 4.385636
        4.110083 3.8346894 3.5620584 3.2948008 3.03531 2.7856498
        2.5475764 2.322517 2.1114292 1.914786 1.7326703 1.5648643
        1.410924 1.2702436 1.1421072 1.0257316 1.0866022 1.2121379
        1.3532046 1.5116999 1.6897309 1.8897849 2.1141176 2.380943
        1.8778721 2.0112674 2.1514888 2.3078654 2.4826634 2.678109
        2.8962727 3.1389053 3.4072034 3.7014616 4.020552 4.3610725
        4.7167835 5.079578 5.4413214 5.795699 6.1398854 6.474844
        6.8040094 7.1310453 7.455459 7.769544 8.061731 8.31973
        8.535414 8.705177 8.812655 8.845614 9.04831 9.150544
        8.897964 8.572259 8.200048 7.801216 7.3969836 7.00453
        6.6371346 6.302719 6.0011487 5.723299 5.4573803 5.194758
        4.930486 4.6624937 4.390831 4.116938 3.8430493 3.571736
        3.305582 3.04696 2.7979226 2.560229 2.3353226 2.124186
        1.9273188 1.7448323 1.5765381 1.4220213 1.280703 1.1518916
        1.0348247 1.0767708 1.2008908 1.3403724 1.4970931 1.6731353
        1.870964 2.0927885 2.3565981 1.9012264 2.0323474 2.1702242
        2.3243241 2.4969628 2.6904125 2.9067862 3.1478715 3.414893
        3.7081597 4.026534 4.3665566 4.721876 5.084245 5.445416
        5.799029 6.142311 6.4763746 6.804853 7.1316037 7.4562197
        7.7709017 8.063917 8.322801 8.539445 8.7103815 8.819014
        8.852714 9.055439 9.157093 8.903091 8.575475 8.201113
        7.800116 7.3939342 6.9999566 6.6316423 6.297046 5.996043
        5.7193427 5.454931 5.194005 4.931508 4.6652923 4.395353
        4.123087 3.8506916 3.5807066 3.3156867 3.057983 2.8096328
        2.5723946 2.3477244 2.1366248 1.9396179 1.7568399 1.5881289
        1.4330972 1.2911919 1.1617458 1.0440177 1.066978 1.1896601
        1.3275312 1.4824487 1.6564703 1.8520381 2.0713146 2.332061
        1.9252974 2.0538673 2.1891341 2.340726 2.5110135 2.7023177
        2.916793 3.1562603 3.4219668 3.7142286 4.031892 4.3714333
        4.726384 5.088355 5.4489837 5.8018627 6.1442747 6.477477
        6.8052983 7.131787 7.456617 7.7718964 8.065729 8.32548
        8.543061 8.715146 8.824911 8.859343 9.062065 9.16313
        8.90776 8.578304 8.201873 7.798798 7.3907413 6.9952903
        6.6260715 6.2912683 5.990771 5.7151313 5.4521246 5.1927924
        4.9319744 4.6674533 4.3991723 4.128489 3.8575652 3.5889077
        3.3250437 3.0682993 2.8206956 2.5839856 2.3596342 2.14866
        1.9516029 1.7686203 1.5995731 1.444098 1.3016669 1.1716357
        1.0532855 1.0572457 1.1784656 1.3146986 1.467781 1.6397463
        1.8330137 2.0496976 2.3073277 1.9501129 2.0758114 2.2081652
        2.3569918 2.5247223 2.7137284 2.9262025 3.1639912 3.4283557
        3.7196107 4.036576 4.37566 4.73027 5.091874 5.451993
        5.8041744 6.1457543 6.478134 6.8053327 7.131583 7.456639
        7.7725124 8.067147 8.327743 8.546231 8.719431 8.830303
        8.865451 9.068135 9.168605 8.91193 8.58072 8.202319
        7.797266 7.3874226 6.990557 6.620455 6.2854214 5.985364
        5.710691 5.448979 5.191126 4.9318805 4.66896 4.4022627
        4.133106 3.86362 3.5962796 3.3335826 3.0778303 2.8310242
        2.5949097 2.3709574 2.1601973 1.963183 1.7800887 1.6107943
        1.4549576 1.3120725 1.1815175 1.0625944 1.0476023 1.1673336
        1.3018973 1.4531091 1.622978 1.8138998 2.0279408 2.282395
        1.9756992 2.0981517 2.227244 2.373019 2.5379758 2.7245336
        2.9349148 3.1709802 3.4339921 3.724251 4.040542 4.379198
        4.7334995 5.0947695 5.454415 5.8059387 6.14673 6.4783306
        6.804944 7.130983 7.4562726 7.7727327 8.06815 8.329558
        8.548919 8.723196 8.835139 8.870984 9.073597 9.17347
        8.915561 8.582693 8.2024355 7.79552 7.3839917 6.9857845
        6.6148267 6.2795415 5.9798555 5.706047 5.4455104 5.189014
        4.931223 4.6697993 4.404598 4.136903 3.86881 3.6027644
        3.341235 3.0864968 2.8405304 2.6050718 2.3815932 2.1711335
        1.9742559 1.7911469 1.6217015 1.4655945 1.322339 1.1913332
        1.071899 1.0380845 1.1562985 1.2891583 1.4384594 1.6061857
        1.79471 2.0060499 2.2572591 2.0020807 2.120841 2.2462673
        2.3886747 2.5506349 2.7346058 2.942823 3.1771429 3.438811
        3.7281003 4.0437512 4.3820143 4.736042 5.097013 5.4562225
        5.8071322 6.147182 6.4780517 6.804122 7.1299753 7.4555063
        7.7725406 8.068712 8.330898 8.55109 8.726397 8.839367
        8.875884 9.078388 9.177665 8.918606 8.58419 8.202205
        7.7935586 7.380463 6.9809985 6.6092215 6.273665 5.9742804
        5.7012277 5.4417377 5.186464 4.93 4.6699586 4.406157
        4.1398454 3.8730903 3.6083064 3.3479338 3.0942209 2.849126
        2.6143734 2.3914359 2.1813571 1.9847075 1.801682 1.6321865
        1.4759091 1.3323778 1.2010074 1.0811374 1.0287411 1.145407
        1.2765243 1.4238683 1.5893986 1.7754649 1.9840351 2.231919
        2.0292778 2.1438026 2.265089 2.4037855 2.5625315 2.7438014
        2.9498148 3.1823964 3.4427536 3.7311165 4.0461707 4.384081
        4.73787 5.0985775 5.457391 5.807731 6.147093 6.477285
        6.802857 7.1285524 7.4543276 7.771918 8.06881 8.331731
        8.552706 8.728983 8.84293 8.880089 9.082445 9.18113
        8.921012 8.585174 8.201603 7.7913756 7.3768473 6.976224
        6.6036735 6.2678304 5.9686728 5.69626 5.4376783 5.183483
        4.928209 4.6694245 4.406915 4.141901 3.8764184 3.6128526
        3.3536148 3.1009269 2.8567235 2.622716 2.4003756 2.1907494
        1.9944128 1.811566 1.6421225 1.4857795 1.3420762 1.2104403
        1.0902253 1.0196381 1.1347237 1.2640556 1.4093893 1.57266
        1.7561951 1.9619125 2.206374 2.0573075 2.1669095 2.2834983
        2.4181232 2.5734642 2.751963 2.9557774 3.1866653 3.4457715
        3.7332678 4.047777 4.385376 4.738962 5.0994396 5.4578953
        5.8077164 6.1464458 6.4760184 6.801141 7.1267056 7.4527254
        7.7708454 8.068417 8.33202 8.553723 8.730906 8.845765
        8.883529 9.085695 9.183798 8.922721 8.585596 8.200602
        7.78896 7.37315 6.971482 6.5982156 6.2620745 5.9630675
        5.691171 5.433349 5.180078 4.9258447 4.6681843 4.4068513
        4.1430383 3.878753 3.6163518 3.3582163 3.1065412 2.863237
        2.6300004 2.4083006 2.199187 2.0032375 1.8206561 1.6513618
        1.4950584 1.3512926 1.2195008 1.0990462 1.0108674 1.1243418
        1.2518415 1.3951024 1.5560362 1.7369488 1.9397087 2.1806247
        2.08618 2.189949 2.3011863 2.4313917 2.583198 2.7589262
        2.9606063 3.189889 3.4478323 3.7345374 4.0485597 4.385889
        4.739303 5.099581 5.457718 5.8070693 6.145229 6.4742455
        6.79897 7.1244316 7.45069 7.7693057 8.067504 8.331733
        8.554102 8.73211 8.847807 8.886127 9.088061 9.18559
        8.923667 8.585406 8.199165 7.7862935 7.369373 6.966791
        6.592879 6.256434 5.9574976 5.6859846 5.428764 5.176252
        4.9229016 4.6662216 4.4059405 4.1432242 3.880053 3.6187537
        3.3616781 3.1109927 2.8685832 2.6361308 2.415101 2.2065442
        2.0110404 1.8287973 1.6597382 1.5035719 1.3598505 1.2280166
        1.1074398 1.0025599 1.1143997 1.2400204 1.3811367 1.5396371
        1.7178079 1.9174694 2.1546752 2.1158993 2.2125452 2.317696
        2.443215 2.5914757 2.764536 2.9642212 3.1920347 3.4489307
        3.734932 4.048527 4.385624 4.7388916 5.098995 5.45685
        5.8057857 6.1434417 6.471971 6.7963543 7.121738 7.4482217
        7.76729 8.066053 8.330838 8.553805 8.732546 8.84899
        8.887813 9.089465 9.186431 8.9237795 8.584548 8.197252
        7.7833557 7.365514 6.9621687 6.5876937 6.2509456 5.9519963
        5.6807237 5.4239326 5.172003 4.919368 4.6635156 4.404154
        4.142423 3.8802752 3.6200073 3.363941 3.1142125 2.872682
        2.6410139 2.4206684 2.212696 2.0176787 1.8358275 1.6670698
        1.5111202 1.3675367 1.2357669 1.1151851 1.0051218 1.1051104
        1.2288183 1.3677149 1.5236616 1.6989255 1.8952827 2.1285334
        2.146467 2.2339919 2.3323596 2.4531481 2.5980508 2.7686813
        2.9665942 3.1931221 3.449109 3.734502 4.047727 4.3846216
        4.737759 5.0977087 5.455316 5.8038917 6.1411166 6.4692354
        6.793336 7.1186666 7.4453554 7.76482 8.064075 8.329337
        8.552824 8.732189 8.849274 8.888527 9.089843 9.186258
        8.923003 8.5829735 8.194832 7.78013 7.3615766 6.9576354
        6.582697 6.2456512 5.946599 5.675411 5.418864 5.1673265
        4.9152265 4.660041 4.4014583 4.140595 3.8793738 3.6200602
        3.3649445 3.116132 2.8754554 2.6445603 2.4248998 2.2175233
        2.0230136 1.8415843 1.6731684 1.5174872 1.3741059 1.2424798
        1.1219896 1.0119711 1.0968076 1.2186244 1.3552579 1.508521
        1.6806446 1.873356 2.1022117 2.1779056 2.2528546 2.3442602
        2.4607568 2.602774 2.7713692 2.9678135 3.1932797 3.4485133
        3.7333963 4.046305 4.383018 4.736035 5.095846 5.4532433
        5.801522 6.1383986 6.4661913 6.7900763 7.115379 7.442243
        7.7620373 8.061696 8.327345 8.551267 8.731127 8.8487215
        8.888317 9.089234 9.185105 8.9213705 8.580718 8.191943
        7.776667 7.357624 6.9532695 6.5779757 6.240641 5.9413853
        5.670106 5.413597 5.162244 4.910484 4.6557913 4.3978376
        4.137715 3.877315 3.6188715 3.3646402 3.1166947 2.876838
        2.6466947 2.427708 2.2209237 2.0269234 1.8459232 1.6778606
        1.5224639 1.3793075 1.2478561 1.1275014 1.0175887 1.089989
        1.2101047 1.3446077 1.4951937 1.6639566 1.8524299 2.0757306
        2.210359 2.2701902 2.3546677 2.4671946 2.606618 2.773404
        2.9685493 3.1930776 3.4476442 3.7320735 4.044698 4.381246
        4.7341514 5.0938377 5.4510474 5.799065 6.135639 6.463153
        6.786859 7.112149 7.4391766 7.759267 8.059289 8.325278
        8.549594 8.72988 8.847913 8.887792 9.088268 9.183582
        8.919404 8.578198 8.18888 7.7731338 7.353705 6.9490232
        6.573428 6.2358074 5.9362936 5.664832 5.4082556 5.15698
        4.9054627 4.651175 4.3937755 4.13433 3.8746996 3.6170838
        3.3637047 3.1166017 2.8775482 2.6481464 2.4298275 2.2236326
        2.0301414 1.8495709 1.6818632 1.5267532 1.3838243 1.2525525
        1.1323409 1.022549 1.0839955 1.2025509 1.3350424 1.4830008
        1.6483032 1.8321639 2.049056
      </DataArray>
      <DataArray type="Float32" Name="jacobian" format="ascii" RangeMin="0.0012033703969791532" RangeMax="0.03814119100570679">
        0.0050871302 0.005479576 0.0059166527 0.006413726 0.006967926 0.007578657
        0.008246106 0.008970457 0.009751415 0.010587829 0.01147731 0.012415645
        0.013396303 0.014410965 0.015450558 0.016506033 0.017568886 0.018630857
        0.01968292 0.020714445 0.021711284 0.02265529 0.023527347 0.024310527
        0.024989612 0.025553798 0.025986927 0.026293727 0.027226817 0.028007636
        0.027830428 0.0274615 0.02691742 0.02620044 0.025327984 0.024319936
        0.02320187 0.022001816 0.02074714 0.019461934 0.018167946 0.016885526
        0.015632436 0.014422986 0.013267843 0.012174228 0.011146351 0.010185963
        0.009292912 0.008465664 0.0077017527 0.0069981823 0.0063516945 0.00575887
        0.005216224 0.0047203097 0.00426778 0.0038554252 0.0034801879 0.0031391745
        0.002829656 0.0025490653 0.0022949942 0.0020651885 0.0018575394 0.0016700844
        0.001500983 0.0013485893 0.0012033704 0.0051310076 0.005554458 0.0060054725
        0.0065096538 0.0070685213 0.0076835183 0.008355876 0.009086374 0.009875064
        0.010720941 0.01162155 0.012572312 0.013565985 0.014593329 0.015644401
        0.016709572 0.017780283 0.018848801 0.019907046 0.020945445 0.02195042
        0.022903357 0.023784121 0.024574623 0.025258902 0.025826426 0.026258918
        0.02655885 0.027485272 0.028249998 0.028040597 0.027635206 0.0270539
        0.026302297 0.025401015 0.02437252 0.023244007 0.022043843 0.020797988
        0.019527307 0.018249972 0.016983626 0.015744317 0.014545456 0.013397422
        0.012307543 0.01128038 0.010318146 0.00942119 0.008588463 0.007817935
        0.0071070055 0.006452756 0.0058520366 0.0053015593 0.004798014 0.0043381453
        0.0039187944 0.0035369308 0.0031896639 0.0028742538 0.0025881145 0.0023288156
        0.0020940823 0.0018817916 0.0016899756 0.0015167955 0.0013606235 0.0012118837
        0.005175288 0.005623243 0.006088326 0.006601123 0.007166117 0.0077865045
        0.008464582 0.009201801 0.009998625 0.010854252 0.011766192 0.012729533
        0.01373635 0.014776508 0.0158392 0.016914213 0.017992917 0.019068092
        0.02013258 0.021177849 0.022190886 0.023152635 0.024041964 0.024839623
        0.02552893 0.026099509 0.026531026 0.026823727 0.027743166 0.028491432
        0.028249586 0.027807586 0.027189035 0.026402913 0.025473 0.024424281
        0.023285503 0.022085313 0.020848237 0.01959197 0.018331183 0.01708084
        0.01585527 0.014666977 0.0135260355 0.01243987 0.011413378 0.0104492325
        0.009548286 0.008709973 0.007932711 0.007214297 0.006552155 0.005943405
        0.0053849574 0.0048736418 0.0044062957 0.0039798194 0.0035912134 0.0032376016
        0.0029162476 0.0026245634 0.0023601153 0.0021206255 0.0019039708 0.0017081844
        0.0015314252 0.0013720713 0.0012204829 0.0052200477 0.005682786 0.006160732
        0.006683703 0.00725689 0.007884497 0.008569718 0.0093147 0.010120388
        0.010986254 0.011909839 0.012885957 0.013906062 0.014959179 0.01603367
        0.017118745 0.018205682 0.019287717 0.020358572 0.021410702 0.022431638
        0.023401935 0.02429951 0.025103988 0.025797984 0.026371095 0.026801057
        0.027085992 0.02799799 0.028729355 0.028454978 0.027976478 0.027320981
        0.0265008 0.025542803 0.024474388 0.02332574 0.022125676 0.02089726
        0.019655116 0.018410545 0.017175894 0.015963798 0.014785854 0.01365181
        0.012569172 0.01154317 0.010576931 0.009671805 0.008827721 0.008043541
        0.007317465 0.0066472576 0.0060303113 0.005463736 0.004944508 0.0044695647
        0.0040358766 0.0036404915 0.0032805665 0.0029533887 0.0026563876 0.002387141
        0.0021433767 0.0019229675 0.0017239341 0.0015444094 0.0013827455 0.0012292014
        0.005265396 0.005738309 0.006226803 0.006759609 0.0073416866 0.007977557
        0.008670954 0.009424571 0.010239803 0.011116408 0.012051987 0.013041125
        0.014074703 0.015140953 0.016227435 0.01732279 0.018418187 0.019507285
        0.020584637 0.02164365 0.022672374 0.023651013 0.024556577 0.025367597
        0.026065985 0.026641194 0.027069107 0.027345821 0.028249966 0.028964056
        0.02865709 0.028142223 0.027450098 0.02659632 0.025610777 0.024523174
        0.023365019 0.022165217 0.02094534 0.019717049 0.01848838 0.017269125
        0.01607025 0.014902436 0.013775095 0.012695807 0.011670115 0.010701601
        0.009792116 0.008942077 0.008150808 0.0074169096 0.0067384955 0.0061132335
        0.0055384445 0.0050112577 0.004528726 0.0040879007 0.0036858888 0.0033198877
        0.0029872097 0.0026852938 0.0024117131 0.0021641757 0.001940522 0.0017387297
        0.0015568784 0.0013932736 0.0012380609 0.0053114374 0.005792003 0.0062891142
        0.006830834 0.0074217315 0.008066303 0.008768522 0.009531441 0.010356811
        0.011244637 0.012192588 0.013195034 0.01424232 0.015321918 0.016420612
        0.01752648 0.01863057 0.019726936 0.020810932 0.021876875 0.022913327
        0.02390016 0.024813514 0.025630841 0.026333364 0.026910292 0.027335728
        0.027603818 0.02849973 0.029196206 0.028856585 0.028305471 0.027577009
        0.026690066 0.025677463 0.02457112 0.023403766 0.022204312 0.020992834
        0.019778118 0.018565033 0.017360877 0.016174966 0.015017061 0.013896229
        0.012820107 0.0117945485 0.010823582 0.009909562 0.0090534035 0.008254892
        0.0075130416 0.00682632 0.0061926823 0.0056096674 0.00507457 0.004584563
        0.0041367854 0.003728401 0.0033566402 0.0030188253 0.0027123855 0.002434866
        0.002183934 0.0019573781 0.0017531207 0.0015691825 0.0014038222 0.0012470761
        0.0053582634 0.0058449316 0.006349215 0.006898865 0.007498161 0.008151473
        0.008862843 0.009635525 0.010471513 0.0113710025 0.012331706 0.013347778
        0.014409044 0.015502238 0.016613385 0.017730009 0.018843029 0.019946877
        0.02103767 0.022110619 0.023154778 0.024149705 0.025070693 0.025894132
        0.026600556 0.02717888 0.027601458 0.02786056 0.02874788 0.02942642
        0.029054066 0.028466795 0.027702248 0.026782518 0.025743293 0.024618601
        0.023442294 0.022243228 0.02103999 0.019838566 0.018640747 0.017451396
        0.016278192 0.015129979 0.014015468 0.012942337 0.0119167445 0.010943163
        0.010024451 0.00916203 0.008356155 0.0076062605 0.0069111814 0.006269166
        0.005677981 0.00513509 0.0046377885 0.0041832956 0.003768823 0.0033916184
        0.003048995 0.0027383538 0.002457196 0.0022031348 0.0019739019 0.0017673615
        0.0015814772 0.0014144661 0.0012562596 0.005405956 0.005897684 0.0064080637
        0.006964763 0.0075719114 0.008233774 0.008954391 0.0097371135 0.010584085
        0.011495623 0.01246944 0.013499467 0.014575009 0.015682071 0.01680593
        0.017933564 0.019055756 0.020167295 0.021265049 0.022345094 0.023396967
        0.024399927 0.025328431 0.02615782 0.026867945 0.027447373 0.027866757
        0.028116532 0.028994918 0.02965521 0.029250018 0.028626645 0.02782623
        0.026874045 0.025808576 0.024665868 0.023480805 0.022282131 0.02108696
        0.019898541 0.01871568 0.017540842 0.016380101 0.015241375 0.014133008
        0.013062712 0.012036936 0.0110606 0.010137067 0.009268272 0.008454947
        0.0076969606 0.0069935196 0.0063431757 0.0057439255 0.005193402 0.004689015
        0.0042280555 0.003807767 0.0034253974 0.0030782367 0.0027636436 0.0024790668
        0.0022220619 0.001990301 0.0017815937 0.0015938495 0.0014252488 0.0012656227
        0.0054545905 0.005950626 0.0064662835 0.0070292815 0.0076437243 0.008313834
        0.009043639 0.009836535 0.010694745 0.011618648 0.012605915 0.013650223
        0.014740348 0.015861565 0.016998408 0.018137308 0.019268908 0.020388346
        0.021493224 0.02258047 0.023640096 0.024651056 0.025586993 0.026422199
        0.027135842 0.027716124 0.02813201 0.028372146 0.029241262 0.029883001
        0.02944484 0.028785389 0.027949268 0.026964914 0.025873529 0.024713088
        0.023519417 0.022321112 0.02113382 0.019958125 0.01878992 0.017629324
        0.016480817 0.015351391 0.014249014 0.013181415 0.012155334 0.011176132
        0.01024768 0.009372435 0.008551613 0.0077855256 0.0070737596 0.0064151734
        0.0058079935 0.005250016 0.004738757 0.004271564 0.0038456991 0.0034583968
        0.0031069121 0.002788555 0.0025007175 0.0022408965 0.002006707 0.0017959066
        0.001606355 0.0014362002 0.0012751756 0.005504237 0.006004008 0.0065242997
        0.0070929686 0.0077141817 0.008392186 0.009131024 0.009934119 0.010803733
        0.011740253 0.012741269 0.013800172 0.014905189 0.016040856 0.017190961
        0.018341385 0.019482626 0.02061017 0.021722335 0.022816896 0.023884328
        0.024903286 0.025846599 0.026687514 0.027404517 0.027985431 0.028397549
        0.028627751 0.029487269 0.030110141 0.029638857 0.02894331 0.028071616
        0.027055325 0.025938302 0.024760358 0.023558196 0.02236021 0.021180602
        0.02001736 0.01886352 0.01771691 0.016580427 0.015460138 0.01436362
        0.013298615 0.012272137 0.011289988 0.010356555 0.009474817 0.008646489
        0.007872325 0.007152302 0.0064855833 0.005870623 0.0053053717 0.00478744
        0.0043142196 0.0038829783 0.0034909288 0.003135284 0.0028133008 0.0025223142
        0.0022597637 0.00202321 0.0018103626 0.0016190337 0.001447343 0.0012849282
        0.0055549634 0.006058013 0.0065824217 0.0071562314 0.00778374 0.008469279
        0.009216944 0.01003019 0.010911298 0.0118606305 0.012875654 0.013949448
        0.015069662 0.016220076 0.01738372 0.018545922 0.019697035 0.020832883
        0.021952499 0.023054495 0.024129804 0.025156781 0.026107436 0.026953977
        0.027674204 0.028255558 0.028663658 0.028883653 0.029733248 0.030336933
        0.029832343 0.029100647 0.02819346 0.027145425 0.026002992 0.024807738
        0.02359716 0.022399426 0.021227304 0.020076249 0.018936506 0.017803645
        0.016679 0.0155677125 0.014476955 0.013414465 0.012387532 0.011402391
        0.010463948 0.0095757125 0.008739897 0.007957712 0.0072295195 0.0065547912
        0.0059322002 0.0053598434 0.0048354147 0.0043563405 0.003919885 0.003523232
        0.0031635484 0.002838038 0.0025439786 0.0022787554 0.0020398775 0.0018250083
        0.0016319167 0.0014586964 0.0012948904 0.005606836 0.006112787 0.0066408818
        0.007219383 0.007852765 0.008545493 0.009301753 0.010125055 0.0110176895
        0.011979978 0.013009234 0.014098193 0.015233899 0.016399354 0.017576816
        0.018751046 0.019912252 0.021056592 0.022183819 0.023293372 0.024376646
        0.025411678 0.02636967 0.027221775 0.02794511 0.02852673 0.028930593
        0.029140117 0.02997947 0.03056364 0.030025527 0.029257596 0.028314957
        0.027235318 0.026067663 0.02485525 0.023636304 0.022438737 0.021273905
        0.020134784 0.019008884 0.017889557 0.016776593 0.015674198 0.014589131
        0.013529115 0.012501702 0.011513561 0.0105701145 0.009675403 0.00883215
        0.008042017 0.007305756 0.0066231424 0.0059930626 0.0054137507 0.0048829746
        0.0043981876 0.003956644 0.0035554937 0.003191858 0.0028628875 0.0025658049
        0.0022979428 0.0020567614 0.0018398814 0.0016450298 0.001470277 0.0013050722
        0.0056599216 0.00616845 0.0066998657 0.007282672 0.007921552 0.008621146
        0.0093857655 0.010218998 0.011123155 0.012098501 0.013142182 0.014246556
        0.015398036 0.016578818 0.017770367 0.018956872 0.020128384 0.021281403
        0.022416389 0.023533627 0.024624959 0.025668107 0.026633447 0.027491072
        0.028217424 0.028799165 0.029198589 0.029397387 0.030226177 0.030790491
        0.030218616 0.029414319 0.028436225 0.027325084 0.02613235 0.024902891
        0.023675604 0.022478106 0.021320371 0.02019294 0.01908065 0.01797467
        0.016873255 0.015779672 0.014700261 0.013642712 0.012614829 0.011623711
        0.010675297 0.009774164 0.008923542 0.008125548 0.007381326 0.006690947
        0.0060535064 0.0054673674 0.004930366 0.004439975 0.003993436 0.003587865
        0.0032203358 0.0028879466 0.0025878684 0.0023173834 0.002073905 0.0018550132
        0.0016583952 0.0014821001 0.0013154835 0.0057142866 0.0062251086 0.006759526
        0.007346301 0.007990348 0.008696511 0.009469261 0.010312287 0.011227933
        0.01221641 0.013274676 0.014394695 0.015562216 0.016758604 0.017964505
        0.019163517 0.020345539 0.021507407 0.022650303 0.023775354 0.024874847
        0.025926184 0.026898902 0.027762027 0.028491315 0.029073054 0.029467855
        0.02965569 0.030473594 0.031017695 0.030411785 0.029570956 0.028557366
        0.02741478 0.026197072 0.024950648 0.023715016 0.022517484 0.021366654
        0.020250687 0.019151794 0.018058997 0.016969027 0.015884211 0.014810451
        0.013755395 0.012727088 0.011733051 0.010779737 0.009872258 0.009014352
        0.008208595 0.0074565164 0.0067584827 0.0061137914 0.005520931 0.0049777986
        0.0044818847 0.0040304153 0.0036204718 0.003249083 0.0029132965 0.0026102327
        0.0023371258 0.0020913451 0.0018704314 0.0016720332 0.0014941804 0.0013261344
        0.0057699983 0.0062828576 0.006819994 0.00741044 0.00805936 0.008771824
        0.009552488 0.010405166 0.011332253 0.012333908 0.013406899 0.014542772
        0.015726587 0.016938845 0.01815935 0.0193711 0.020563824 0.021734703
        0.02288565 0.024018636 0.025126403 0.026186014 0.02716616 0.02803478
        0.028766947 0.029348578 0.029738594 0.02991523 0.030721923 0.031245442
        0.030605197 0.02972763 0.02867846 0.027504444 0.026261825 0.024998488
        0.023754492 0.022556815 0.021412706 0.02030799 0.019222302 0.018142547
        0.01706395 0.015987888 0.01491981 0.013867307 0.012838655 0.011841786
        0.010883664 0.009969936 0.009104845 0.008291426 0.0075315903 0.006826
        0.0061741504 0.005574649 0.0050254543 0.0045240712 0.004067711 0.0036534215
        0.0032781868 0.0029390063 0.0026329523 0.002357213 0.002109115 0.0018861612
        0.0016859631 0.0015065323 0.0013370358 0.0058271256 0.0063417866 0.0068813856
        0.0074752374 0.008128767 0.00884729 0.009635668 0.0104978625 0.011436335
        0.012451203 0.013539037 0.014690956 0.015891302 0.017119683 0.018355038
        0.019579738 0.020783342 0.021963386 0.023122516 0.02426356 0.025379721
        0.026447702 0.02743534 0.028309468 0.029044475 0.029625913 0.030010995
        0.030176206 0.030971363 0.031473912 0.030798996 0.02988445 0.028799571
        0.0275941 0.026326604 0.025046375 0.02379398 0.02259604 0.021458473
        0.020364812 0.019292159 0.018225338 0.017158065 0.016090773 0.01502844
        0.0139785865 0.012949699 0.011950116 0.010987302 0.010067437 0.00919527
        0.008374289 0.0076067904 0.0068937265 0.00623479 0.005628707 0.0050734947
        0.0045666727 0.004105439 0.0036868083 0.0033077234 0.0029651376 0.0026560766
        0.002377684 0.0021272448 0.0019022265 0.0017002034 0.00151917 0.0013481985
        0.0058857407 0.00640198 0.0069438056 0.007540823 0.008198729 0.008923095
        0.009719005 0.010590589 0.01154039 0.012568493 0.013671278 0.014839417
        0.016056519 0.017301265 0.0185517 0.019789552 0.021004207 0.022193553
        0.023360988 0.024510216 0.025634885 0.026711348 0.027706556 0.028586224
        0.029324047 0.029905224 0.03028524 0.030438805 0.031222094 0.03170327
        0.030993318 0.030041514 0.028920757 0.027683768 0.026391387 0.025094265
        0.023833418 0.022635099 0.021503903 0.020421116 0.019361354 0.018307377
        0.017251415 0.01619294 0.015136449 0.014089369 0.013060388 0.012058234
        0.011090867 0.010164992 0.009285862 0.008457418 0.0076823398 0.006961871
        0.0062959 0.0056832717 0.005122063 0.004609811 0.0041437005 0.003720717
        0.0033377628 0.0029917469 0.0026796504 0.0023985745 0.0021457637 0.0019186501
        0.0017147721 0.001532108 0.001359634 0.005945916 0.0064635207 0.0070073525
        0.007607317 0.008269388 0.008999404 0.009802686 0.010683544 0.01164462
        0.012685981 0.01380381 0.014988334 0.0162224 0.01748374 0.018749472
        0.020000666 0.021226525 0.0224253 0.023601156 0.024758682 0.025891988
        0.026977051 0.027979923 0.028865173 0.02960581 0.030186677 0.030561507
        0.030703213 0.031474292 0.031933673 0.03118829 0.030198907 0.029042067
        0.027773457 0.026456153 0.025142109 0.023872748 0.022673927 0.021548944
        0.02047687 0.019429872 0.01838868 0.01734404 0.016294459 0.015243939
        0.014199792 0.013170888 0.012166331 0.011194567 0.010262821 0.009376844
        0.008541032 0.007758448 0.0070306263 0.0063576535 0.005738497 0.005171293
        0.004653599 0.004182591 0.003755226 0.0033683688 0.0030188863 0.0027037167
        0.0024199192 0.0021646994 0.0019354548 0.0017296874 0.001545361 0.0013713541
        0.006007727 0.006526491 0.00707212 0.00767483 0.008340877 0.009076373
        0.009886885 0.010776917 0.011749223 0.012803859 0.013936823 0.015137886
        0.016389115 0.017667264 0.018948501 0.020213211 0.021450413 0.022658732
        0.023843111 0.02500905 0.026151117 0.027244907 0.028255548 0.029146446
        0.029889908 0.03047043 0.03083997 0.030969607 0.031728137 0.032165278
        0.031384036 0.030356715 0.029163541 0.027863171 0.026520874 0.025189858
        0.023911906 0.022712465 0.021593543 0.020532038 0.019497702 0.018469263
        0.017435987 0.01639541 0.015351017 0.01430999 0.013281359 0.012274589
        0.011298602 0.010361133 0.009468431 0.00862534 0.007835312 0.0071001737
        0.0064202147 0.0057945247 0.0052213077 0.004698143 0.004222199 0.003790409
        0.0033996028 0.0030466067 0.0027283167 0.0024417522 0.0021840797 0.001952663
        0.001744968 0.0015589441 0.0013833712 0.0060712523 0.0065909736 0.0071381987
        0.007743468 0.00841332 0.0091541475 0.009971769 0.01087089 0.01185439
        0.012922323 0.014070508 0.015288255 0.016556835 0.017851997 0.01914893
        0.02042732 0.02167599 0.02289395 0.02408695 0.025261404 0.026412364
        0.027515015 0.028533546 0.029430168 0.030176481 0.030756647 0.031120803
        0.031238165 0.031983797 0.032398235 0.031580668 0.030515015 0.029285222
        0.02795291 0.02658552 0.02523746 0.023950832 0.022750651 0.021637654
        0.02058659 0.01956484 0.018549144 0.017527303 0.016495865 0.015457788
        0.014420097 0.013391961 0.012383192 0.01140317 0.010460135 0.009560826
        0.008710542 0.007913119 0.0071706865 0.0064837383 0.005851493 0.005272226
        0.0047435425 0.0042626094 0.0038263379 0.0034315244 0.0030749568 0.0027534913
        0.002464107 0.0022039325 0.0019702977 0.0017606326 0.0015728731 0.0013956985
        0.0061365734 0.0066570505 0.0072056786 0.007813333 0.008486839 0.009232867
        0.010057495 0.010965639 0.011960307 0.013041566 0.014205058 0.015439629
        0.01672574 0.018038107 0.019350916 0.02064313 0.02190338 0.023131069
        0.024332767 0.025515841 0.02667582 0.027787477 0.028814029 0.029716467
        0.030465676 0.031045485 0.03140418 0.031509064 0.03224144 0.032632697
        0.031778313 0.030673888 0.029407142 0.028042672 0.026650058 0.025284862
        0.023989465 0.02278843 0.021681229 0.0206405 0.01963128 0.018628346
        0.017618034 0.016595904 0.015564357 0.014530244 0.013502853 0.012492315
        0.011508461 0.010560024 0.00965423 0.00879683 0.0079920525 0.007242332
        0.006548374 0.0059095346 0.005324163 0.0047898972 0.0043039066 0.003863083
        0.0034641926 0.0031039864 0.0027792815 0.0024870175 0.0022242859 0.0019883823
        0.001776701 0.0015871642 0.0014083497 0.006203775 0.006724807 0.0072746496
        0.007884527 0.00856155 0.00931267 0.010144222 0.011061337 0.012067163
        0.013161782 0.014340666 0.015592197 0.01689601 0.018225765 0.019554617
        0.020860787 0.022132711 0.023370197 0.024580667 0.025772454 0.026941583
        0.028062392 0.02909711 0.030005472 0.03075764 0.03133711 0.031690273
        0.03178248 0.032501243 0.032868814 0.03197708 0.030833406 0.02952934
        0.02813246 0.026714459 0.025332013 0.024027742 0.022825744 0.021724224
        0.020693742 0.01969702 0.018706895 0.017708236 0.016695607 0.015670834
        0.014640568 0.013614189 0.012602135 0.0116146635 0.010660995 0.009748837
        0.008884393 0.008072291 0.0073152743 0.006614271 0.0059687793 0.005377232
        0.0048373053 0.0043461737 0.003900715 0.003497667 0.0031337452 0.0028057287
        0.0025105188 0.002245169 0.0020069412 0.0017931934 0.0016018348 0.0014213391
        0.0062729437 0.0067943293 0.0073452033 0.007957153 0.008637573 0.009393692
        0.010232106 0.01115816 0.012175145 0.013283166 0.0144775305 0.015746154
        0.017067831 0.018415147 0.019760195 0.02108044 0.022364115 0.023611452
        0.024830751 0.026031341 0.02720975 0.02833987 0.029382909 0.030297317
        0.031052517 0.031631682 0.031979267 0.0320586 0.032763377 0.033106733
        0.03217709 0.03099365 0.02965185 0.028222267 0.02677869 0.025378862
        0.02406561 0.022862537 0.021766601 0.020746298 0.019762067 0.01878482
        0.017797966 0.016795056 0.015777327 0.014751201 0.013726126 0.012712823
        0.011721964 0.01076324 0.009844841 0.008973421 0.00815401 0.0073896777
        0.006681577 0.0060293595 0.005431549 0.0048858663 0.0043894965 0.0039393064
        0.0035320085 0.0031642846 0.0028328763 0.0025346468 0.002266612 0.002026
        0.0018101311 0.0016169025 0.0014346819 0.0063441703 0.0068657077 0.007417434
        0.008031315 0.008715028 0.009476076 0.010321308 0.011256285 0.012284442
        0.013405914 0.0146158505 0.015901698 0.017241398 0.018606437 0.019967824
        0.021302244 0.022597732 0.023854962 0.025083132 0.026292605 0.02748042
        0.028620016 0.029671544 0.030592134 0.031350464 0.031929374 0.032271337
        0.032337606 0.03302802 0.03334662 0.03237847 0.031154701 0.02977471
        0.028312096 0.026842719 0.025425361 0.024103008 0.022898758 0.021808319
        0.020798147 0.019826425 0.01886215 0.017887283 0.01689434 0.015883949
        0.014862279 0.013838822 0.012824555 0.011830548 0.010866954 0.009942435
        0.0090641 0.008237393 0.007465708 0.006750443 0.0060914103 0.005487233
        0.0049356828 0.004433963 0.0039789327 0.003567281 0.0031956586 0.0028607696
        0.0025594397 0.0022886468 0.002045585 0.0018275365 0.0016323864 0.0014483941
        0.0064175483 0.0069390344 0.0074914386 0.008107124 0.008794043 0.009559968
        0.010411994 0.011355893 0.01239525 0.013530231 0.014755832 0.01605903
        0.01741691 0.018799825 0.020177677 0.021526363 0.022833709 0.02410085
        0.025337925 0.026556352 0.027753705 0.028902946 0.029963143 0.03089007
        0.03165164 0.03223036 0.032566674 0.032619692 0.033295363 0.033588637
        0.032581337 0.03131664 0.029897964 0.028401949 0.026906518 0.025471458
        0.024139881 0.022934355 0.021849342 0.020849278 0.019890105 0.01893893
        0.01797625 0.01699355 0.015990816 0.014973943 0.013952436 0.012937507
        0.011940604 0.010972329 0.010041814 0.009156624 0.008322619 0.0075435378
        0.0068210266 0.006155072 0.005544407 0.004986863 0.0044796667 0.004019673
        0.003603552 0.0032279238 0.0028894562 0.0025849375 0.002311307 0.0020657247
        0.0018454334 0.0016483063 0.0014624925 0.0064931745 0.0070144073 0.0075673214
        0.008184698 0.008874756 0.0096455235 0.010504337 0.011457176 0.012507769
        0.013656324 0.014897685 0.016218362 0.017594565 0.018995501 0.02038994
        0.021752961 0.023072192 0.024349252 0.025595248 0.026822696 0.028029714
        0.029188778 0.030257838 0.031191265 0.0319562 0.032534823 0.032865472
        0.03290506 0.033565592 0.03383295 0.03278583 0.03147956 0.030021654
        0.028491827 0.026970062 0.025517108 0.024176177 0.022969283 0.021889638
        0.02089968 0.019953126 0.0190152 0.018064942 0.017092781 0.016098049
        0.015086334 0.014067129 0.013051857 0.012052323 0.011079567 0.01014318
        0.009251189 0.008409881 0.0076233447 0.0068934914 0.006220493 0.0056032035
        0.005039523 0.004526707 0.0040616128 0.0036408938 0.003261141 0.0029189873
        0.0026111829 0.0023346285 0.002086449 0.0018638464 0.0016646831 0.0014769947
        0.006571147 0.0070919273 0.007645194 0.008264165 0.008957313 0.009732913
        0.010598527 0.011560336 0.012622213 0.013784409 0.015041623 0.016379906
        0.017774574 0.019193672 0.020604802 0.021982215 0.023313344 0.024600307
        0.025855226 0.027091749 0.028308563 0.029477635 0.03055576 0.031495877
        0.032264322 0.032842945 0.033167936 0.033193912 0.033838913 0.03407974
        0.03299209 0.03164356 0.030145831 0.028581744 0.027033323 0.025562266
        0.02421184 0.02300349 0.021929178 0.020949341 0.020015504 0.019091008
        0.018153429 0.017192135 0.016205773 0.015199601 0.0141830705 0.013167789
        0.0121659 0.011188869 0.0102467425 0.009348005 0.008499379 0.007705319
        0.006968014 0.0062878337 0.005663765 0.005093787 0.0045751915 0.0041048448
        0.003679385 0.0032953767 0.0029494183 0.0026382222 0.0023586496 0.0021077895
        0.0018828026 0.0016815392 0.0014919195 0.0066515678 0.0071717035 0.007725178
        0.008345667 0.009041883 0.009822324 0.010694768 0.011665588 0.012738802
        0.013914707 0.015187873 0.01654388 0.017957155 0.019394543 0.020822462
        0.02221431 0.023557326 0.024854163 0.026117992 0.02736364 0.028590376
        0.029769648 0.03085706 0.031804062 0.032576185 0.033154935 0.033474278
        0.03348647 0.034115534 0.034329202 0.033200275 0.031808734 0.030270556
        0.028671712 0.027096286 0.025606887 0.024246823 0.023036936 0.02196793
        0.020998264 0.020077266 0.019166408 0.018241799 0.017291721 0.016314123
        0.015313898 0.014300433 0.013285494 0.012281542 0.01130045 0.010352717
        0.009447288 0.008591327 0.0077896654 0.0070447847 0.0063572684 0.0057262485
        0.005149793 0.0046252413 0.0041494714 0.0037191121 0.0033307034 0.0029808101
        0.0026661057 0.0023834123 0.0021297813 0.0019023302 0.0016988979 0.0015072862
        0.0067345384 0.0072538503 0.0078074085 0.008429368 0.0091286525 0.009913967
        0.010793286 0.011773166 0.01285777 0.014047453 0.015336661 0.016710512
        0.018142525 0.019598331 0.021043124 0.022449436 0.02380431 0.025110971
        0.026383681 0.027638491 0.028875278 0.030064952 0.031161884 0.032115992
        0.032891966 0.03347099 0.03378472 0.033782963 0.034395687 0.03458154
        0.033410538 0.03197521 0.03039589 0.028761752 0.02715893 0.025650935
        0.024281073 0.023069574 0.022005871 0.021046447 0.020138443 0.019241462
        0.01833014 0.01739166 0.01642324 0.0154293915 0.014419402 0.013405173
        0.01239946 0.011414534 0.010461335 0.009549269 0.008685953 0.007876605
        0.0071240123 0.0064289896 0.0057908273 0.005207696 0.0046769897 0.0041956077
        0.0037601728 0.003367203 0.0030132302 0.0026948894 0.002408962 0.0021524613
        0.0019224597 0.0017167844 0.0015231156 0.0068201614 0.0073384945 0.007892042
        0.008515456 0.009217843 0.010008085 0.010894334 0.011883324 0.012979368
        0.01418289 0.015488224 0.016880035 0.018330919 0.019805258 0.021267
        0.022687789 0.024054479 0.025370892 0.026652439 0.02791644 0.029163409
        0.030363696 0.031470396 0.032431845 0.033211876 0.03379133 0.034099508
        0.03408364 0.03467961 0.034836967 0.033623066 0.032143112 0.030521913
        0.028851893 0.027221248 0.025694368 0.024314543 0.02310136 0.022042977
        0.02109389 0.020199068 0.01931624 0.018418552 0.017492076 0.016533278
        0.015546254 0.01454017 0.013527035 0.01251988 0.011531359 0.010572841
        0.009654201 0.008783505 0.007966379 0.007205929 0.006503214 0.005857699
        0.0052676713 0.004730591 0.0042433855 0.0038026785 0.0034049682 0.003046755
        0.0027246359 0.0024353499 0.0021758706 0.0019432241 0.0017352251 0.0015394288
        0.0069085383 0.0074257753 0.007979262 0.0086041605 0.009309717 0.010104956
        0.010998194 0.011996337 0.0131038595 0.0143212695 0.015642807 0.017052686
        0.018522566 0.020015558 0.021494318 0.02292958 0.02430802 0.025634093
        0.026924415 0.028197631 0.029454911 0.030666033 0.03178277 0.03275181
        0.033536114 0.034116194 0.03441889 0.034388762 0.034967568 0.03509573
        0.033838052 0.032312583 0.030648714 0.028942173 0.027283233 0.025737157
        0.024347188 0.023132253 0.022079224 0.021140607 0.020259188 0.019390818
        0.018507147 0.017593114 0.016644405 0.015664676 0.014662947 0.013651306
        0.012643044 0.011651176 0.010687501 0.0097623505 0.008884258 0.008059258
        0.0072907945 0.006580186 0.0059270896 0.005329922 0.004786223 0.0042929584
        0.0038467587 0.003444107 0.0030814733 0.0027554166 0.002462633 0.0022000552
        0.0019646597 0.0017542483 0.0015562485 0.006999767 0.0075158523 0.008069292
        0.008695761 0.009404589 0.01020491 0.011105188 0.0121125085 0.013231525
        0.014462854 0.01580066 0.017228713 0.018717717 0.020229472 0.02172531
        0.023175031 0.024565136 0.025900755 0.027199768 0.02848221 0.029749937
        0.030972129 0.032099184 0.03307609 0.03386491 0.03444583 0.034743134
        0.03469861 0.03525984 0.035358086 0.03405571 0.032483786 0.030776396
        0.029032642 0.027344892 0.025779271 0.024378963 0.023162218 0.022114594
        0.02118661 0.020318853 0.019465288 0.018596051 0.017694926 0.016756801
        0.015784863 0.014787955 0.013778229 0.012769207 0.011774259 0.0108055975
        0.009874013 0.008988508 0.00815554 0.0073789014 0.0066601867 0.0059992606
        0.005394687 0.004844098 0.00434451 0.0038925686 0.0034847474 0.0031174892
        0.0027873153 0.0024908774 0.002225066 0.0019868056 0.0017738844 0.0015735978
        0.0070939385 0.0076089157 0.008162416 0.008790611 0.009502847 0.010308333
        0.0112156775 0.012232166 0.013362659 0.014607914 0.01596204 0.017408365
        0.018916622 0.020447252 0.021960223 0.02342437 0.024826033 0.026171062
        0.027478667 0.028770339 0.030048653 0.031282164 0.03241984 0.03340491
        0.03419851 0.034780506 0.035072543 0.035013493 0.03555673 0.03562432
        0.034276288 0.032656904 0.030905087 0.029123368 0.027406238 0.02582069
        0.02440983 0.023191212 0.022149073 0.02123192 0.020378126 0.019539753
        0.018685406 0.01779769 0.01687067 0.015907042 0.014915444 0.013908068
        0.012898653 0.011900902 0.010927439 0.009989509 0.009096586 0.008255559
        0.0074705826 0.00674354 0.0060745203 0.0054622493 0.004904471 0.0043982626
        0.0039402978 0.003527047 0.0031549302 0.0028204327 0.0025201617 0.0022509634
        0.0020097068 0.0017941662 0.0015915002 0.0071911355 0.007705205 0.008259009
        0.0088891685 0.00960497 0.010415678 0.011330066 0.012355658 0.013497566
        0.014756722 0.016127206 0.017591901 0.01911954 0.020669162 0.022199316
        0.023677845 0.025090935 0.026445212 0.027761292 0.029062187 0.030351233
        0.03159633 0.03274496 0.03373851 0.034537166 0.035120513 0.03540743
        0.035333745 0.035858583 0.035894763 0.03450005 0.03283215 0.031034928
        0.029214432 0.027467301 0.0258614 0.024439752 0.023219204 0.022182653
        0.021276563 0.02043708 0.019614333 0.018775372 0.0179016 0.016986238
        0.01603146 0.015045683 0.014041112 0.013031685 0.012031428 0.011053364
        0.010109191 0.009208857 0.008359691 0.007566217 0.0068306215 0.0061532315
        0.005532953 0.0049676546 0.0044544945 0.003990185 0.003571205 0.0031939577
        0.0028548958 0.0025505829 0.0022778187 0.0020334153 0.0018151295 0.00160998
        0.0072914246 0.007805042 0.008359583 0.008992037 0.009711556 0.0105274785
        0.011448803 0.012483356 0.013636556 0.014909554 0.016296418 0.017779583
        0.019326745 0.020895481 0.022442864 0.023935713 0.02536008 0.026723415
        0.028047828 0.029357936 0.030657865 0.03191484 0.03307477 0.03407714
        0.03488117 0.035466168 0.03574815 0.035659734 0.036165766 0.036169756
        0.034727305 0.033009764 0.031166097 0.029305942 0.027528126 0.025901398
        0.024468701 0.023246164 0.022215327 0.021320585 0.02049581 0.019689169
        0.018866135 0.018006884 0.017103761 0.016158404 0.015178977 0.014177683
        0.013168641 0.01216619 0.0111837415 0.010233445 0.009325725 0.008468354
        0.0076662353 0.0069218674 0.006235827 0.0056072148 0.005034041 0.004513561
        0.004042541 0.0036174834 0.0032347848 0.0028908718 0.0025822667 0.0023057237
        0.002057993 0.0018368146 0.0016290607 0.007394848 0.007908895 0.008464876
        0.009100022 0.009823344 0.010644347 0.011572369 0.012615634 0.013779935
        0.015066677 0.016469933 0.017971674 0.01953851 0.021126494 0.022691151
        0.024198249 0.025633711 0.02700589 0.028338473 0.029657776 0.030968755
        0.032237917 0.033409536 0.0344211 0.035230827 0.03581782 0.03609508
        0.03599186 0.036478695 0.036449704 0.034958396 0.033190027 0.0312988
        0.029398033 0.027588783 0.0259407 0.024496658 0.023272073 0.022247106
        0.021364037 0.020554421 0.019764427 0.018957913 0.0181138 0.017223535
        0.016288193 0.015315668 0.014318141 0.013309901 0.012305581 0.011318982
        0.010362698 0.009447636 0.008582016 0.007771126 0.007017782 0.00632282
        0.0056855455 0.0051041236 0.0045759217 0.004097781 0.003666241 0.0032777083
        0.0029285948 0.0026153887 0.002334802 0.0020835218 0.0018592689 0.0016487647
        0.0075014173 0.00801751 0.008575976 0.009214204 0.009941228 0.010766961
        0.011701257 0.012752853 0.013927982 0.015228333 0.016647989 0.018168429
        0.019755114 0.02136249 0.022944469 0.024465725 0.02591208 0.027292857
        0.028633425 0.029961895 0.03128411 0.032565802 0.03374952 0.03477068
        0.03558646 0.036175832 0.036448635 0.036330555 0.036797818 0.03673505
        0.03519371 0.033373255 0.031433288 0.029490871 0.02764936 0.025979334
        0.024523616 0.023296915 0.022278003 0.021406993 0.020613056 0.01984031
        0.01905096 0.018222649 0.0173459 0.016421195 0.015456148 0.0144628985
        0.013455887 0.012450041 0.011459539 0.010497423 0.009575085 0.008701198
        0.007881437 0.007118943 0.006414815 0.0057685655 0.0051785256 0.004642185
        0.004156474 0.0037179885 0.0033231648 0.002968418 0.0026502172 0.0023652415
        0.0021101192 0.001882554 0.0016691114 0.0076110954 0.008132191 0.008694534
        0.009336001 0.010066245 0.010896014 0.011835915 0.012895309 0.014080913
        0.01539471 0.016830778 0.01837006 0.019976798 0.021603733 0.023203086
        0.024738392 0.026195403 0.027584497 0.028932843 0.030270455 0.031604104
        0.03289871 0.03409499 0.035126176 0.035948392 0.036540583 0.03680924
        0.03667628 0.037123613 0.037026264 0.03543367 0.033559803 0.03156982
        0.029584648 0.027709972 0.026017347 0.024549574 0.023320682 0.022308052
        0.02144955 0.02067188 0.019917054 0.01914558 0.018333789 0.017471252
        0.016557844 0.015600874 0.014612428 0.01360709 0.012600073 0.011605928
        0.010638151 0.009708622 0.008826476 0.007997781 0.0072260043 0.0065125087
        0.0058570174 0.0052580247 0.004713147 0.0042194086 0.0037734762 0.003371832
        0.0030109172 0.002687206 0.0023973677 0.002137988 0.0019067661 0.001690114
        0.007723781 0.008255435 0.0088230455 0.009467168 0.010199461 0.011032099
        0.011976647 0.013043147 0.014238795 0.015565855 0.017018361 0.018576665
        0.020203693 0.021850374 0.023467144 0.025016377 0.026483772 0.027880866
        0.029236754 0.030583475 0.031928793 0.03323673 0.034446076 0.03548777
        0.03631683 0.036912344 0.037177235 0.037029423 0.03745651 0.03732378
        0.03567866 0.033749994 0.031708665 0.029679544 0.02777072 0.026054768
        0.024574516 0.023343354 0.02233727 0.021491805 0.020731086 0.019994935
        0.019242125 0.01844763 0.017600054 0.016698642 0.015750377 0.014767281
        0.013764077 0.012756254 0.011758739 0.010785482 0.009848863 0.008958491
        0.008120834 0.007339691 0.0066166897 0.0059517617 0.0053435615 0.004789824
        0.0042876634 0.0038338108 0.0034247972 0.0030571015 0.0027272236 0.002431853
        0.0021675706 0.0019321125 0.0017117737 0.007839282 0.008392473 0.008965065
        0.009609542 0.010341662 0.011175423 0.012123357 0.0131961135 0.014401313
        0.015741436 0.017210418 0.01878795 0.020435521 0.022102138 0.023736358
        0.025299344 0.0267768 0.028181523 0.029544678 0.030900467 0.032257713
        0.03357946 0.034802422 0.03585515 0.036691505 0.037290927 0.03755252
        0.037389945 0.037796523 0.037627652 0.03592872 0.03394385 0.0318498
        0.02977549 0.027831478 0.026091421 0.024598232 0.023364726 0.02236553
        0.021533733 0.02079076 0.020074155 0.01934089 0.018564556 0.017732756
        0.016844086 0.015905198 0.0149280345 0.0139274495 0.012919205 0.011918606
        0.010940062 0.009996469 0.0090979235 0.008251308 0.0074607613 0.006728185
        0.0060537197 0.0054361774 0.0048734057 0.004362595 0.0039005226 0.0034837462
        0.0031087566 0.0027720567 0.0024703415 0.0022001786 0.0019593535 0.0017340657
        0.007957293 0.008539366 0.009115919 0.0097588245 0.010489221 0.011323003
        0.01227358 0.013352137 0.014566653 0.015919792 0.017405352 0.019002307
        0.020670654 0.022357386 0.024009125 0.025585802 0.027073147 0.028485294
        0.029855568 0.031220423 0.032589782 0.033925645 0.035162583 0.03622668
        0.03707058 0.03767425 0.037932783 0.037755404 0.03814119 0.037935574
        0.0361819 0.034139875 0.03199223 0.029871983 0.027892191 0.026127601
        0.024621228 0.023385344 0.022393221 0.021575453 0.020850675 0.02015412
        0.01944093 0.018683292 0.017867787 0.01699235 0.01606328 0.015092444
        0.014094808 0.01308641 0.012082925 0.011099229 0.01014874 0.009242055
        0.008386482 0.007586506 0.006844309 0.006160248 0.0055332943 0.0049614073
        0.004441847 0.0039714295 0.0035467197 0.0031641973 0.0028203388 0.0025118117
        0.0022351393 0.0019881374 0.0017569065
      </DataArray>
    </PointData>
    <CellData>
    </CellData>
    <Points>
      <DataArray type="Float32" Name="Points" NumberOfComponents="3" format="ascii" RangeMin="1.1146583337052456" RangeMax="1.2815195933159111">
        0.70278496 0.0007391897 0.88994277 0.7037293 0.0014222929 0.88994396
        0.7047726 0.002159289 0.8899448 0.70592517 0.002954884 0.8899451
        0.707198 0.0038138826 0.8899448 0.70860314 0.00474107 0.8899437
        0.71015334 0.0057410453 0.88994175 0.7118623 0.006817995 0.8899387
        0.7137445 0.0079753995 0.8899343 0.715815 0.00921566 0.88992846
        0.7180893 0.010539656 0.8899209 0.7205827 0.011946235 0.88991165
        0.7233098 0.0134317 0.88990045 0.72628313 0.014989471 0.88988745
        0.72951275 0.016610255 0.8898727 0.7330057 0.018282577 0.88985664
        0.73676586 0.019993598 0.8898396 0.7407949 0.021729842 0.88982207
        0.74509245 0.023477515 0.88980484 0.74965674 0.025222225 0.88978875
        0.7544841 0.026948312 0.8897747 0.7595675 0.028637884 0.8897636
        0.7648943 0.030270826 0.88975656 0.7704459 0.031825934 0.8897547
        0.7761975 0.033282425 0.88975877 0.78211826 0.03462145 0.88976943
        0.78817415 0.035826676 0.8897869 0.7943194 0.036885113 0.8898109
        0.8005146 0.037792828 0.88984084 0.80706304 0.038591832 0.8898774
        0.8135519 0.039239157 0.8899171 0.81992143 0.03975594 0.88995737
        0.82613057 0.04016821 0.88999623 0.83214223 0.04050148 0.89003175
        0.83792967 0.040778335 0.8900626 0.84347355 0.041016392 0.89008784
        0.84876174 0.041227512 0.89010745 0.8537876 0.0414179 0.89012146
        0.85854894 0.041588847 0.89013064 0.86304545 0.04173804 0.8901357
        0.86727774 0.041861415 0.8901376 0.8712471 0.041954875 0.8901373
        0.8749561 0.042015385 0.89013565 0.8784088 0.042041514 0.8901333
        0.8816111 0.04203356 0.8901309 0.8845705 0.04199339 0.8901286
        0.8872959 0.041924153 0.89012694 0.8897976 0.04182987 0.89012593
        0.892087 0.041715026 0.8901256 0.89417607 0.041584283 0.89012593
        0.89607733 0.041442145 0.8901268 0.8978035 0.04129279 0.89012825
        0.8993673 0.04113992 0.8901301 0.9007813 0.04098668 0.89013225
        0.9020575 0.040835664 0.8901345 0.90320784 0.040688913 0.890137
        0.90424305 0.04054796 0.8901396 0.90517366 0.040413916 0.8901421
        0.9060093 0.04028751 0.8901445 0.906759 0.040169157 0.890147
        0.907431 0.04005904 0.89014924 0.9080329 0.03995713 0.8901514
        0.90857166 0.039863244 0.8901534 0.9090536 0.039777108 0.8901554
        0.90948457 0.03969836 0.8901571 0.90986973 0.039626583 0.8901587
        0.91021377 0.039561346 0.8901602 0.91052103 0.039502185 0.8901616
        0.9107954 0.039448645 0.8901628 0.7019962 0.0018161667 0.88993955
        0.7029632 0.0024847637 0.88993996 0.7040254 0.003212622 0.88993996
        0.7051948 0.0040024705 0.8899393 0.7064832 0.0048580198 0.889938
        0.7079032 0.0057834187 0.88993585 0.7094681 0.006782892 0.8899327
        0.71119195 0.007860414 0.8899283 0.71308947 0.009019362 0.88992244
        0.7151759 0.010262121 0.8899151 0.71746707 0.011589621 0.88990587
        0.7199784 0.013000812 0.8898947 0.72272444 0.014492117 0.8898816
        0.7257179 0.016057044 0.8898665 0.72896856 0.017686304 0.88984954
        0.7324834 0.019368295 0.88983107 0.73626614 0.021089913 0.8898116
        0.7403185 0.022837333 0.8897915 0.74464 0.024596354 0.88977164
        0.74922913 0.026352247 0.8897529 0.7540823 0.02808916 0.88973624
        0.75919265 0.029789189 0.8897226 0.7645476 0.031432312 0.8897131
        0.77012825 0.03299745 0.88970894 0.7759096 0.03446394 0.88971084
        0.78186065 0.03581298 0.88971955 0.7879469 0.037028633 0.8897352
        0.79412186 0.038098242 0.88975763 0.8003454 0.039018106 0.8897861
        0.8069219 0.039830856 0.8898213 0.81343544 0.040492497 0.8898597
        0.8198257 0.04102349 0.88989896 0.8260514 0.04144907 0.88993675
        0.8320757 0.04179395 0.8899715 0.8378723 0.042079985 0.8900016
        0.8434228 0.042324204 0.89002633 0.84871596 0.042538147 0.8900455
        0.85374653 0.042727977 0.89005935 0.8585134 0.042895317 0.89006853
        0.86301726 0.043038473 0.8900737 0.867259 0.043154147 0.89007586
        0.8712399 0.04323898 0.89007586 0.8749623 0.043290563 0.8900745
        0.87842983 0.043307986 0.8900725 0.88164794 0.043291926 0.8900705
        0.8846236 0.04324454 0.89006865 0.88736534 0.043169152 0.89006734
        0.8898832 0.043069895 0.89006656 0.8921882 0.04295132 0.8900665
        0.8942922 0.042818066 0.89006704 0.8962075 0.04267461 0.8900682
        0.89794683 0.042525038 0.8900697 0.89952284 0.042372968 0.8900717
        0.9009481 0.04222145 0.8900739 0.9022348 0.042072944 0.8900763
        0.9033946 0.04192939 0.8900788 0.90443856 0.04179223 0.8900813
        0.90537715 0.041662466 0.89008373 0.9062201 0.041540746 0.8900861
        0.9069764 0.041427422 0.89008844 0.9076545 0.041322596 0.8900906
        0.908262 0.041226182 0.8900926 0.9088059 0.041137964 0.89009446
        0.9092926 0.041057616 0.89009625 0.9097279 0.04098474 0.8900978
        0.91011703 0.040918898 0.8900992 0.91046476 0.040859606 0.89010054
        0.9107755 0.04080639 0.8901017 0.911053 0.040758763 0.8901027
        0.7012075 0.002893137 0.889935 0.7021929 0.0035530655 0.8899347
        0.7032728 0.004273623 0.8899339 0.70445883 0.005058052 0.88993233
        0.70576304 0.005909947 0.88993 0.7071983 0.006833213 0.8899267
        0.70877826 0.007831853 0.8899223 0.71051717 0.008909686 0.8899166
        0.7124301 0.010070007 0.8899094 0.71453273 0.011315183 0.8899004
        0.71684086 0.012646179 0.8898895 0.7193702 0.014062017 0.88987654
        0.72213537 0.015559212 0.8898614 0.72514904 0.01713133 0.8898442
        0.7284209 0.018769054 0.8898249 0.73195785 0.020460656 0.88980407
        0.73576343 0.02219278 0.889782 0.73983926 0.023951253 0.88975936
        0.744185 0.025721522 0.8897369 0.7487991 0.02748854 0.88971543
        0.75367826 0.029236272 0.8896961 0.75881577 0.030946793 0.88967985
        0.76419896 0.032600146 0.8896679 0.7698089 0.03417536 0.8896614
        0.7756202 0.03565185 0.8896611 0.78160167 0.037010923 0.88966775
        0.7877184 0.03823694 0.88968164 0.79392326 0.03931756 0.88970244
        0.8001754 0.040249232 0.88972944 0.80678016 0.041075233 0.8897632
        0.8133185 0.041750547 0.88980037 0.8197296 0.042294998 0.88983846
        0.8259721 0.042733107 0.88987535 0.8320091 0.04308885 0.88990915
        0.83781487 0.043383412 0.88993853 0.84337187 0.04363332 0.8899628
        0.84867007 0.04384982 0.8899816 0.85370535 0.044039108 0.88999534
        0.8584778 0.04420311 0.8900044 0.862989 0.044340722 0.8900097
        0.8672402 0.044449337 0.8900121 0.8712327 0.04452628 0.8900124
        0.87496847 0.044569716 0.8900114 0.87845093 0.044579215 0.8900098
        0.8816849 0.044555813 0.8900081 0.88467693 0.044501938 0.89000654
        0.88743526 0.04442109 0.8900055 0.8899694 0.04431751 0.8900051
        0.8922902 0.044195782 0.89000535 0.8944092 0.04406055 0.8900061
        0.8963387 0.04391624 0.8900074 0.8980914 0.043766867 0.8900091
        0.8996797 0.04361596 0.8900111 0.90111643 0.04346644 0.8900134
        0.90241355 0.043320686 0.8900158 0.90358293 0.043180507 0.8900182
        0.9046357 0.04304724 0.8900207 0.9055823 0.04292179 0.8900231
        0.9064326 0.042804707 0.89002544 0.9071956 0.042696252 0.8900276
        0.9078798 0.04259643 0.89002967 0.90849286 0.04250509 0.8900315
        0.9090418 0.042421922 0.89003325 0.9095331 0.042346533 0.89003485
        0.90997255 0.04227845 0.8900363 0.9103654 0.04221717 0.89003754
        0.9107166 0.042162146 0.8900387 0.91103035 0.04211286 0.89003974
        0.91131055 0.04206879 0.8900407 0.7004188 0.003970099 0.8899293
        0.70142037 0.004624609 0.88992816 0.7025166 0.0053399093 0.8899265
        0.70371866 0.0061199227 0.889924 0.7050385 0.00696854 0.8899207
        0.7064891 0.007889732 0.8899163 0.70808417 0.008887468 0.8899107
        0.70983833 0.009965516 0.88990366 0.7117669 0.011127138 0.88989496
        0.7138857 0.012374703 0.8898844 0.7162109 0.013709208 0.8898718
        0.71875834 0.015129745 0.88985693 0.7215427 0.01663289 0.8898398
        0.7245767 0.018212235 0.8898204 0.72787 0.019858427 0.8897989
        0.73142916 0.021559594 0.8897756 0.73525786 0.023302134 0.8897509
        0.73935735 0.025071563 0.8897257 0.74372745 0.026852978 0.88970053
        0.7483667 0.028631061 0.88967633 0.7532721 0.030389592 0.8896543
        0.75843686 0.032110624 0.88963544 0.7638485 0.033774238 0.88962096
        0.7694878 0.03535954 0.889612 0.7753293 0.036846034 0.88960946
        0.7813413 0.038215112 0.8896141 0.78748876 0.039451413 0.8896261
        0.79372376 0.04054285 0.8896453 0.80000466 0.041485995 0.8896707
        0.8066378 0.04232476 0.88970315 0.8132012 0.0430131 0.889739
        0.81963336 0.043570273 0.88977605 0.82589257 0.04402015 0.8898119
        0.8319423 0.04438603 0.88984483 0.83775735 0.044688497 0.88987356
        0.8433209 0.044943627 0.8898973 0.8486241 0.045162458 0.88991576
        0.85366404 0.04535121 0.88992923 0.85844207 0.045512132 0.88993835
        0.8629605 0.045644663 0.8899437 0.8672212 0.04574683 0.8899463
        0.87122524 0.04581656 0.88994694 0.8749745 0.045852583 0.8899462
        0.8784719 0.045854885 0.889945 0.88172185 0.04582485 0.88994354
        0.8847304 0.04576516 0.8899424 0.88750535 0.04567948 0.88994175
        0.8900559 0.045572136 0.8899416 0.8923926 0.045447767 0.889942
        0.8945268 0.045310996 0.889943 0.89647067 0.045166202 0.88994443
        0.89823675 0.045017343 0.8899462 0.8998376 0.04486782 0.8899483
        0.90128577 0.044720475 0.88995063 0.9025935 0.04457755 0.8899531
        0.90377253 0.04444075 0.88995546 0.90483415 0.04431129 0.8899579
        0.9057888 0.044189967 0.8899602 0.90664643 0.04407722 0.88996243
        0.9074161 0.043973207 0.8899645 0.9081063 0.043877847 0.8899664
        0.9087248 0.043790895 0.8899683 0.9092787 0.043711968 0.8899699
        0.9097744 0.043640614 0.8899714 0.9102179 0.043576308 0.8899727
        0.9106144 0.04351851 0.8899739 0.9109688 0.04346667 0.88997495
        0.9112854 0.043420244 0.8899759 0.91156816 0.043378722 0.88997674
        0.69963 0.005047052 0.88992226 0.7006464 0.005698237 0.88992035
        0.70175797 0.0064099943 0.88991785 0.70297533 0.0071867467 0.88991445
        0.70431036 0.008032756 0.8899101 0.7057761 0.008952213 0.8899046
        0.7073863 0.0099491915 0.8898978 0.7091558 0.011027512 0.8898894
        0.71110004 0.012190464 0.8898792 0.71323514 0.013440452 0.8898671
        0.7155775 0.014778522 0.88985276 0.71814305 0.016203826 0.889836
        0.7209467 0.017712988 0.8898168 0.72400117 0.019299615 0.8897952
        0.72731596 0.020954292 0.88977134 0.7308976 0.022664994 0.88974553
        0.73474944 0.024417885 0.88971835 0.7388728 0.026198171 0.8896904
        0.74326754 0.027990649 0.8896625 0.74793214 0.029779723 0.88963556
        0.7528638 0.03154903 0.8896108 0.75805604 0.033280574 0.8895893
        0.7634962 0.034954462 0.8895722 0.7691651 0.036549862 0.88956076
        0.7750369 0.038046338 0.889556 0.7810797 0.039425377 0.88955855
        0.7872581 0.040671855 0.8895686 0.7935234 0.0417739 0.8895861
        0.79983324 0.04272818 0.8896101 0.806495 0.043579195 0.88964105
        0.8130835 0.044279933 0.8896757 0.8195368 0.04484912 0.88971156
        0.82581294 0.045310024 0.8897465 0.83187544 0.045685343 0.88977855
        0.8376997 0.045995124 0.8898066 0.8432698 0.046255056 0.88982975
        0.84857804 0.04647599 0.88984793 0.8536226 0.04666423 0.88986117
        0.8584061 0.046822328 0.8898702 0.8629318 0.046950206 0.88987577
        0.8672018 0.04704649 0.8898785 0.8712175 0.04710966 0.8898794
        0.8749802 0.047138937 0.889879 0.8784926 0.04713472 0.8898781
        0.8817586 0.04709871 0.889877 0.8847837 0.047033817 0.8898762
        0.8875754 0.046943862 0.88987577 0.89014244 0.046833254 0.8898759
        0.89249516 0.046706673 0.8898765 0.8946447 0.04656873 0.8898777
        0.89660305 0.046423748 0.8898792 0.89838266 0.0462756 0.8898812
        0.89999604 0.046127606 0.8898834 0.9014558 0.04598248 0.8898857
        0.90277416 0.045842342 0.8898881 0.90396297 0.045708787 0.88989055
        0.9050334 0.045582905 0.8898929 0.90599614 0.04546538 0.88989514
        0.90686107 0.04535654 0.88989735 0.90763736 0.04525644 0.8898993
        0.90833354 0.045164924 0.88990116 0.9089575 0.045081668 0.88990283
        0.90951616 0.04500624 0.8899044 0.91001624 0.044938147 0.8899058
        0.91046363 0.044876836 0.88990706 0.9108636 0.044821758 0.88990813
        0.9112211 0.044772364 0.88990915 0.9115405 0.044728126 0.8899101
        0.9118258 0.044688553 0.8899109 0.6988413 0.0061239935 0.8899139
        0.6998716 0.006773359 0.8899113 0.7009975 0.0074829594 0.8899079
        0.70222956 0.008257557 0.8899036 0.7035794 0.009101743 0.88989824
        0.70506 0.010019968 0.8898916 0.7066852 0.011016499 0.8898836
        0.7084699 0.012095276 0.8898738 0.71042985 0.013259683 0.8898622
        0.7125813 0.014512192 0.8898484 0.7149407 0.015853923 0.8898323
        0.7175245 0.017284088 0.88981366 0.7203476 0.018799359 0.88979244
        0.7234226 0.020393332 0.88976854 0.726759 0.022056522 0.8897423
        0.7303632 0.023776747 0.889714 0.73423845 0.025539935 0.88968414
        0.7383859 0.027331004 0.8896535 0.7428053 0.029134456 0.8896228
        0.7474954 0.03093446 0.8895932 0.75245357 0.03271451 0.8895655
        0.7576733 0.034456555 0.8895413 0.7631422 0.036140714 0.88952166
        0.76884085 0.037746206 0.8895077 0.77474314 0.039252628 0.8895006
        0.78081685 0.040641565 0.889501 0.78702635 0.041898105 0.8895092
        0.79332215 0.043010533 0.88952494 0.7996612 0.043975595 0.88954735
        0.8063518 0.044838373 0.889577 0.81296563 0.045550883 0.8896103
        0.8194401 0.046131376 0.88964504 0.8257332 0.046602596 0.889679
        0.8318085 0.046986684 0.8897103 0.837642 0.047303215 0.8897376
        0.8432187 0.04756754 0.88976026 0.84853184 0.04779039 0.8897781
        0.85358095 0.04797814 0.8897912 0.8583699 0.048133638 0.8898002
        0.86290276 0.048257284 0.88980573 0.86718214 0.04834822 0.8898087
        0.87120926 0.04840543 0.8898098 0.87498546 0.048428603 0.8898098
        0.8785128 0.048418496 0.88980913 0.8817948 0.048377115 0.8898084
        0.8848366 0.04830758 0.8898079 0.8876451 0.048213843 0.8898077
        0.8902288 0.048100416 0.8898081 0.8925976 0.047971986 0.88980895
        0.89476264 0.047833152 0.88981026 0.89673555 0.04768819 0.88981193
        0.8985288 0.047540884 0.889814 0.9001549 0.047394454 0.8898162
        0.9016263 0.047251496 0.8898186 0.90295535 0.04711402 0.889821
        0.9041539 0.046983484 0.88982344 0.90523326 0.046860866 0.8898257
        0.90620404 0.046746735 0.88982797 0.90707624 0.04664132 0.88983005
        0.90785915 0.046544604 0.88983196 0.9085613 0.046456337 0.88983375
        0.9091905 0.046376165 0.8898354 0.909754 0.046303608 0.88983685
        0.91025835 0.046238147 0.8898382 0.91070956 0.04617923 0.88983935
        0.91111296 0.046126314 0.8898405 0.9114736 0.046078853 0.88984144
        0.9117957 0.046036337 0.8898423 0.9120834 0.04599829 0.88984305
        0.6980526 0.0072009224 0.8899043 0.6990961 0.007849634 0.88990086
        0.7002357 0.008558219 0.88989663 0.7014819 0.009331664 0.88989145
        0.7028461 0.010174827 0.889885 0.7043413 0.011092415 0.8898773
        0.70598125 0.012088913 0.889868 0.70778114 0.013168435 0.8898569
        0.7097566 0.014334501 0.8898438 0.7119243 0.015589694 0.88982844
        0.714301 0.016935224 0.8898105 0.71690303 0.018370375 0.88978994
        0.71974546 0.01989186 0.8897666 0.722841 0.021493262 0.88974047
        0.7261992 0.02316501 0.8897118 0.72982615 0.024894763 0.889681
        0.7337249 0.026668206 0.88964844 0.73789656 0.028469991 0.889615
        0.74234086 0.030284347 0.8895815 0.7470566 0.032095216 0.88954896
        0.75204134 0.033885963 0.8895186 0.7572889 0.035638485 0.88949156
        0.76278657 0.03733291 0.8894692 0.7685151 0.03894847 0.88945276
        0.77444804 0.040464792 0.88944334 0.78055286 0.041863557 0.88944155
        0.7867936 0.04313002 0.8894478 0.7931202 0.044252597 0.88946176
        0.79948854 0.045228086 0.8894827 0.80620813 0.04610213 0.8895108
        0.8128475 0.046825796 0.8895429 0.8193433 0.047416918 0.8895765
        0.8256534 0.04789776 0.88960946 0.8317415 0.048289973 0.88964
        0.83758426 0.048612714 0.8896666 0.8431674 0.04888106 0.88968873
        0.8484854 0.04910564 0.8897062 0.8535391 0.04929292 0.8897191
        0.85833335 0.049446058 0.88972807 0.8628733 0.04956586 0.88973373
        0.86716187 0.049651943 0.8897369 0.87120044 0.04970377 0.88973826
        0.87499005 0.049721424 0.88973844 0.8785324 0.04970602 0.88973814
        0.8818305 0.049659822 0.8897377 0.884889 0.049586143 0.8897374
        0.8877144 0.04948908 0.88973755 0.89031476 0.049373202 0.88973814
        0.89269984 0.04924323 0.8897392 0.89488035 0.04910373 0.8897407
        0.896868 0.04895892 0.88974255 0.89867496 0.048812512 0.88974464
        0.9003138 0.048667613 0.88974696 0.90179694 0.0485267 0.88974935
        0.90313673 0.04839168 0.8897518 0.9043451 0.048263878 0.8897542
        0.90543336 0.048144165 0.88975644 0.90641224 0.048033006 0.8897586
        0.9072917 0.04793055 0.8897607 0.9080812 0.047836695 0.8897625
        0.9087892 0.047751155 0.88976425 0.90942377 0.047673527 0.88976586
        0.90999204 0.04760332 0.8897673 0.91050065 0.047539998 0.8897686
        0.9109556 0.047483012 0.88976973 0.91136247 0.047431823 0.88977075
        0.91172606 0.047385905 0.8897717 0.91205084 0.047344763 0.8897726
        0.912341 0.047307923 0.8897733 0.69726384 0.008277838 0.8898934
        0.69832015 0.008926849 0.8898892 0.699473 0.009635381 0.8898841
        0.70073277 0.010408575 0.8898779 0.70211095 0.0112514915 0.8898705
        0.7036204 0.012169071 0.88986164 0.70527494 0.013166017 0.8898511
        0.7070897 0.014246648 0.88983864 0.70908076 0.015414648 0.88982403
        0.71126467 0.016672742 0.889807 0.71365845 0.018022249 0.8897873
        0.7162787 0.01946254 0.8897648 0.7191406 0.020990368 0.8897393
        0.7222568 0.022599299 0.88971084 0.7256368 0.024279667 0.8896798
        0.72928655 0.026018962 0.8896463 0.73320895 0.02780264 0.8896111
        0.737405 0.029615086 0.8895749 0.74187434 0.031440273 0.88953847
        0.7466158 0.033261947 0.88950306 0.7516273 0.035063352 0.8894698
        0.75690264 0.036826327 0.88944 0.76242936 0.03853099 0.88941497
        0.76818794 0.040156577 0.8893959 0.7741516 0.04168275 0.8893841
        0.78028774 0.04309125 0.8893801 0.78656 0.044367485 0.8893844
        0.7929175 0.04549997 0.88939667 0.79931545 0.046485532 0.889416
        0.8060641 0.047370333 0.8894426 0.8127291 0.048104554 0.8894734
        0.81924635 0.048705637 0.889506 0.82557344 0.049195435 0.88953793
        0.83167446 0.049595155 0.88956755 0.8375264 0.0499236 0.8895936
        0.843116 0.05019561 0.88961524 0.8484388 0.050421745 0.88963234
        0.8534969 0.050608594 0.8896451 0.8582964 0.050759584 0.889654
        0.86284333 0.05087591 0.88965976 0.86714107 0.05095762 0.88966304
        0.871191 0.05100459 0.88966465 0.874994 0.051017284 0.8896651
        0.87855124 0.050997127 0.88966507 0.8818654 0.05094662 0.8896649
        0.8849406 0.05086926 0.88966495 0.88778293 0.050769262 0.8896653
        0.8904001 0.050651256 0.8896661 0.89280146 0.050519973 0.8896674
        0.89499766 0.050379965 0.889669 0.8970001 0.050235394 0.88967097
        0.8988209 0.05008987 0.8896732 0.9004725 0.04994641 0.88967556
        0.90196747 0.049807385 0.88967794 0.9033181 0.049674563 0.8896804
        0.9045363 0.049549177 0.88968277 0.9056335 0.049431995 0.8896851
        0.9066205 0.04932339 0.8896872 0.9075073 0.049223445 0.8896892
        0.9083033 0.04913199 0.88969105 0.90901726 0.049048714 0.8896928
        0.90965706 0.04897318 0.88969433 0.9102301 0.048904885 0.8896957
        0.91074294 0.048843294 0.889697 0.9112017 0.048787866 0.88969815
        0.9116119 0.048738062 0.88969916 0.91197854 0.04869338 0.88970006
        0.9123061 0.048653323 0.8897009 0.9125986 0.048617445 0.8897016
        0.69647515 0.009354737 0.88988125 0.69754386 0.010004862 0.88987625
        0.69870955 0.010714177 0.8898702 0.6999825 0.011487927 0.88986313
        0.7013743 0.012331338 0.88985467 0.7028976 0.013249541 0.8898447
        0.7045665 0.014247459 0.88983285 0.706396 0.015329613 0.889819
        0.7084024 0.016499877 0.8898029 0.71060246 0.017761134 0.8897842
        0.7130133 0.019114833 0.8897627 0.7156517 0.020560449 0.88973814
        0.71853304 0.022094773 0.8897105 0.72167 0.023711348 0.8896798
        0.72507185 0.025400413 0.8896462 0.7287445 0.027149284 0.8896101
        0.73269075 0.028943187 0.88957214 0.73691124 0.03076625 0.88953304
        0.74140567 0.03260221 0.8894938 0.74617314 0.03443463 0.88945544
        0.7512114 0.036246635 0.88941926 0.7565147 0.038020033 0.8893866
        0.7620706 0.039734893 0.88935876 0.76785934 0.04137048 0.8893372
        0.773854 0.04290643 0.8893229 0.7800216 0.04432456 0.88931674
        0.78632545 0.04561041 0.88931894 0.79271406 0.046752542 0.88932943
        0.7991418 0.04774781 0.8893472 0.8059198 0.048642877 0.8893724
        0.81261057 0.04938706 0.8894019 0.8191493 0.049997464 0.8894333
        0.8254935 0.050495557 0.8894644 0.83160734 0.050902188 0.8894932
        0.83746845 0.051235847 0.88951856 0.84306437 0.051511187 0.8895397
        0.84839195 0.051738724 0.88955647 0.8534544 0.05192518 0.889569
        0.858259 0.052074227 0.88957787 0.8628128 0.05218743 0.8895837
        0.86711955 0.052265212 0.88958716 0.8711808 0.052307833 0.88958895
        0.87499696 0.05231608 0.88958967 0.8785691 0.05229167 0.8895899
        0.8818993 0.052237324 0.88959 0.8849913 0.052156698 0.88959026
        0.8878506 0.05205411 0.88959086 0.89048463 0.051934246 0.88959193
        0.8929024 0.05180185 0.88959336 0.8951143 0.051661443 0.88959515
        0.89713156 0.05151712 0.88959724 0.8989663 0.05137243 0.8895995
        0.9006309 0.051230267 0.88960195 0.90213776 0.05109291 0.88960445
        0.90349925 0.05096202 0.8896069 0.90472734 0.05083873 0.8896093
        0.90583354 0.050723705 0.8896116 0.90682864 0.050617263 0.88961375
        0.9077228 0.050519407 0.8896157 0.9085254 0.050429944 0.88961756
        0.90924525 0.05034852 0.88961923 0.90989035 0.05027469 0.8896208
        0.9104681 0.050207943 0.88962215 0.91098523 0.050147742 0.8896234
        0.9114478 0.05009356 0.8896246 0.9118614 0.05004487 0.88962555
        0.912231 0.050001167 0.88962644 0.91256124 0.049961977 0.88962734
        0.91285616 0.049926862 0.88962805 0.6956864 0.010431619 0.8898677
        0.6967673 0.011083574 0.88986194 0.6979455 0.011794413 0.8898551
        0.6992313 0.012569458 0.889847 0.7006363 0.013414055 0.8898375
        0.7021733 0.01433351 0.88982636 0.70385617 0.015332936 0.8898133
        0.7057003 0.016417064 0.88979805 0.7077219 0.01758996 0.88978034
        0.70993793 0.018854685 0.88975996 0.71236575 0.020212833 0.8897366
        0.7150223 0.021663982 0.88971007 0.71792305 0.023204973 0.8896802
        0.7210807 0.024829334 0.8896472 0.72450453 0.026527185 0.88961107
        0.7282002 0.028285675 0.88957226 0.7321703 0.030089807 0.88953155
        0.7364154 0.031923454 0.88948953 0.7409351 0.033770137 0.8894474
        0.74572855 0.035613243 0.889406 0.7507938 0.037435804 0.8893669
        0.75612515 0.039219573 0.88933134 0.7617103 0.0409446 0.88930076
        0.76752937 0.042590123 0.8892765 0.77355516 0.044135775 0.88925976
        0.7797544 0.045563422 0.8892513 0.78609014 0.046858706 0.88925153
        0.79251003 0.04801023 0.8892602 0.7989677 0.049014844 0.8892764
        0.8057753 0.049919683 0.8893001 0.81249183 0.050673235 0.8893283
        0.8190522 0.05129232 0.88935864 0.82541347 0.05179808 0.8893888
        0.83154017 0.05221105 0.8894168 0.83741033 0.05254946 0.88944155
        0.84301263 0.05282781 0.8894622 0.84834486 0.053056613 0.8894786
        0.8534115 0.053242702 0.88949096 0.8582212 0.05339001 0.8894998
        0.86278164 0.053500418 0.8895056 0.8670973 0.053574692 0.8895092
        0.8711696 0.05361343 0.88951117 0.874999 0.05361773 0.8895122
        0.87858593 0.05358953 0.88951266 0.88193214 0.053531777 0.889513
        0.8850408 0.053448252 0.88951355 0.88791716 0.053343374 0.8895144
        0.8905681 0.053221874 0.88951564 0.8930024 0.05308851 0.8895172
        0.89523005 0.052947763 0.88951916 0.89726233 0.05280368 0.8895214
        0.8991111 0.052659716 0.8895238 0.90078866 0.052518692 0.8895263
        0.9023075 0.05238277 0.8895288 0.9036799 0.052253522 0.8895313
        0.904918 0.052131996 0.8895337 0.9060333 0.05201878 0.88953596
        0.9070365 0.05191412 0.8895381 0.907938 0.051817983 0.88954014
        0.90874726 0.051730134 0.889542 0.90947306 0.05165021 0.88954365
        0.9101235 0.051577747 0.8895452 0.91070604 0.051512234 0.8895466
        0.9112274 0.051453143 0.8895479 0.9116938 0.051399946 0.88954896
        0.9121108 0.051352125 0.88955003 0.91248345 0.051309194 0.889551
        0.9128164 0.051270686 0.8895518 0.9131138 0.051236168 0.88955253
        0.69489765 0.0115084825 0.889853 0.6959905 0.012162917 0.8898464
        0.697181 0.012875953 0.8898386 0.6984794 0.013652966 0.8898296
        0.6998974 0.014499407 0.88981897 0.70144767 0.01542072 0.8898066
        0.7031444 0.016422205 0.88979226 0.7050028 0.017508777 0.88977563
        0.70703936 0.018684708 0.8897564 0.70927125 0.019953236 0.8897343
        0.711716 0.021316115 0.88970906 0.71439064 0.022773033 0.88968045
        0.7173108 0.02432089 0.88964844 0.72048914 0.02595318 0.889613
        0.72393495 0.02765993 0.88957435 0.7276537 0.029428102 0.88953286
        0.73164773 0.031242473 0.8894893 0.7359175 0.033086684 0.88944435
        0.7404626 0.03494404 0.8893992 0.7452821 0.036797773 0.8893548
        0.75037444 0.038630832 0.88931274 0.755734 0.040424928 0.88927424
        0.76134855 0.042160075 0.8892408 0.7671981 0.043815475 0.88921386
        0.7732551 0.045370746 0.8891946 0.7794862 0.04680779 0.8891838
        0.7858539 0.048112314 0.88918203 0.7923054 0.049272966 0.8891889
        0.79879326 0.050286558 0.8892034 0.80563045 0.05120067 0.88922566
        0.81237304 0.051963016 0.8892527 0.818955 0.052590158 0.88928187
        0.8253334 0.053102974 0.8893111 0.83147293 0.053521723 0.8893384
        0.83735216 0.053864434 0.88936245 0.8429607 0.0541455 0.8893826
        0.8482975 0.05437543 0.8893987 0.8533682 0.054561194 0.88941085
        0.8581827 0.05470696 0.8894196 0.8627498 0.054814886 0.8894255
        0.8670742 0.054886058 0.8894292 0.87115747 0.05492136 0.88943136
        0.8749999 0.054922152 0.88943255 0.8786016 0.05489061 0.8894333
        0.88196373 0.054829832 0.8894339 0.88508916 0.05474374 0.8894347
        0.8879825 0.054636832 0.8894357 0.8906504 0.05451389 0.8894372
        0.8931012 0.054379653 0.8894389 0.8953448 0.054238595 0.8894411
        0.89739215 0.05409469 0.8894434 0.89925504 0.05395133 0.8894459
        0.90094566 0.05381125 0.88944846 0.90247655 0.053676516 0.889451
        0.90386003 0.053548623 0.8894536 0.9051082 0.053428534 0.88945603
        0.90623254 0.053316783 0.88945836 0.907244 0.053213563 0.8894605
        0.90815294 0.0531188 0.88946253 0.90896887 0.053032238 0.88946444
        0.90970063 0.052953493 0.8894661 0.91035646 0.0528821 0.88946766
        0.9109438 0.052817557 0.8894691 0.9114695 0.05275933 0.88947034
        0.91193974 0.052706894 0.8894715 0.91236013 0.052659746 0.88947254
        0.9127359 0.05261741 0.8894735 0.9130716 0.05257942 0.88947433
        0.9133714 0.052545357 0.88947505 0.69410896 0.012585325 0.88983697
        0.69521356 0.013242835 0.88982946 0.69641614 0.013958691 0.8898208
        0.69772696 0.014738303 0.88981074 0.6991576 0.015587206 0.88979906
        0.70072097 0.016510973 0.8897856 0.7024312 0.017515056 0.8897699
        0.70430374 0.018604558 0.88975185 0.70635515 0.019783946 0.88973105
        0.7086027 0.02105664 0.8897072 0.71106416 0.022424558 0.8896801
        0.7137568 0.023887508 0.88964945 0.71669626 0.025442442 0.8896151
        0.71989536 0.027082836 0.8895772 0.7233632 0.028798604 0.88953596
        0.7271051 0.030576529 0.88949174 0.73112315 0.03240116 0.8894453
        0.73541766 0.03425592 0.88939744 0.7399882 0.03612391 0.88934916
        0.74483395 0.03798822 0.88930184 0.74995345 0.039831728 0.8892567
        0.75534135 0.041636094 0.88921523 0.7609854 0.0433813 0.8891789
        0.76686555 0.045046512 0.8891492 0.772954 0.04661131 0.88912743
        0.779217 0.048057605 0.8891144 0.785617 0.04937119 0.8891105
        0.7921002 0.050540682 0.88911545 0.7986184 0.051562887 0.88912845
        0.8054854 0.052485775 0.8891492 0.8122541 0.053256348 0.88917494
        0.81885785 0.05389094 0.8892031 0.82525337 0.054410208 0.8892313
        0.83140564 0.054834202 0.8892579 0.83729386 0.055180788 0.88928133
        0.84290856 0.055464283 0.88930106 0.84824973 0.055695217 0.8893168
        0.8533245 0.0558807 0.8893288 0.8581437 0.056025103 0.8893374
        0.8627172 0.05613084 0.8893434 0.8670502 0.056199286 0.8893472
        0.8711443 0.05623157 0.8893495 0.8749996 0.056229286 0.8893509
        0.8786159 0.056194797 0.88935184 0.88199395 0.056131363 0.8893527
        0.88513607 0.05604301 0.88935363 0.88804644 0.055934303 0.88935494
        0.8907313 0.05581006 0.88935655 0.8931987 0.055675026 0.8893585
        0.89545834 0.05553364 0.8893608 0.89752084 0.055389833 0.8893632
        0.8993979 0.05524693 0.88936585 0.90110177 0.05510757 0.88936853
        0.9026448 0.054973777 0.8893712 0.90403944 0.05484695 0.8893738
        0.9052977 0.054727998 0.8893763 0.90643126 0.054617386 0.8893786
        0.90745103 0.054515284 0.8893809 0.90836746 0.05442158 0.88938296
        0.9091901 0.054336004 0.8893848 0.90992796 0.05425816 0.88938653
        0.9105892 0.054187585 0.88938814 0.9111814 0.054123763 0.8893896
        0.9117114 0.054066177 0.8893909 0.9121855 0.054014318 0.889392
        0.9126094 0.053967673 0.8893931 0.91298825 0.053925768 0.88939404
        0.9133267 0.05388816 0.8893949 0.91362894 0.053854432 0.88939565
        0.6933202 0.013662146 0.8898196 0.69443655 0.014323294 0.8898113
        0.69565105 0.015042548 0.8898017 0.69697404 0.015825355 0.88979065
        0.6984172 0.01667731 0.8897779 0.6999934 0.017604101 0.8897631
        0.7017169 0.018611321 0.8897462 0.7036033 0.019704252 0.88972664
        0.70566934 0.020887533 0.8897042 0.7079324 0.022164777 0.88967866
        0.71041054 0.023538064 0.8896496 0.713121 0.025007322 0.88961685
        0.7160798 0.026569568 0.8895803 0.71929955 0.028218245 0.8895399
        0.7227894 0.029943166 0.88949597 0.7265544 0.031730928 0.889449
        0.73059654 0.033565868 0.8893996 0.734916 0.035431165 0.88934875
        0.739512 0.03730975 0.8892974 0.7443841 0.03918459 0.88924694
        0.7495308 0.041038483 0.8891988 0.7549471 0.04285307 0.88915426
        0.7606208 0.04460827 0.889115 0.7665317 0.046283215 0.88908255
        0.77265173 0.047857434 0.88905823 0.77894694 0.04931285 0.88904285
        0.78537935 0.050635286 0.8890368 0.79189444 0.05181334 0.88903993
        0.7984432 0.05284378 0.8890513 0.8053402 0.05377496 0.8890706
        0.8121351 0.05455319 0.88909507 0.8187606 0.055194624 0.8891221
        0.8251733 0.055719767 0.88914955 0.8313383 0.056148484 0.8891753
        0.83723545 0.05649853 0.8891982 0.84285617 0.056784187 0.8892174
        0.8482017 0.05701601 0.8892328 0.8532803 0.057201248 0.8892446
        0.85810405 0.05734446 0.8892532 0.8626838 0.057448313 0.88925916
        0.86702514 0.057514384 0.8892631 0.87112993 0.057544045 0.88926554
        0.874998 0.05753909 0.8892671 0.8786288 0.057502028 0.8892683
        0.8820227 0.057436265 0.88926935 0.88518137 0.05734591 0.8892705
        0.8881088 0.057235602 0.88927203 0.8908107 0.05711018 0.8892738
        0.8932948 0.056974385 0.88927597 0.89557046 0.056832645 0.8892784
        0.8976483 0.05668883 0.889281 0.89953965 0.05654621 0.8892837
        0.9012568 0.05640737 0.88928646 0.9028121 0.05627425 0.88928926
        0.90421796 0.05614821 0.8892919 0.90548646 0.056030083 0.88929445
        0.90662926 0.05592032 0.8892969 0.90765744 0.055819035 0.88929915
        0.90858144 0.055726096 0.8893013 0.9094109 0.05564124 0.8893032
        0.9101549 0.055564046 0.889305 0.9108216 0.055494048 0.8893066
        0.9114187 0.055430744 0.88930804 0.9119531 0.05537361 0.8893094
        0.9124311 0.055322144 0.8893106 0.91285855 0.05527584 0.88931173
        0.91324055 0.055234235 0.8893127 0.9135818 0.055196892 0.8893136
        0.91388655 0.055163387 0.88931435 0.6925315 0.014738944 0.889801
        0.6936595 0.015404266 0.8897918 0.6948858 0.016127473 0.88978124
        0.6962208 0.016914036 0.8897692 0.6976762 0.017769616 0.88975525
        0.699265 0.018699985 0.88973933 0.7010016 0.019710874 0.88972104
        0.7029017 0.02080772 0.88970006 0.7049821 0.021995347 0.889676
        0.70726055 0.023277542 0.8896486 0.7097551 0.024656545 0.8896176
        0.7124834 0.026132414 0.88958275 0.7154613 0.027702216 0.88954383
        0.7187018 0.029359382 0.889501 0.7222136 0.0310936 0.88945436
        0.7260018 0.032891296 0.88940454 0.73006815 0.034736574 0.88935214
        0.73441243 0.03661242 0.88929826 0.7390341 0.03850157 0.88924384
        0.74393255 0.040386878 0.88919026 0.7491066 0.042251103 0.8891389
        0.7545514 0.044075843 0.8890913 0.7602548 0.045840982 0.8890491
        0.7661966 0.04752558 0.8890139 0.7723484 0.04910911 0.88898695
        0.7786759 0.05057349 0.8889692 0.78514093 0.051904574 0.888961
        0.7916882 0.053090908 0.8889623 0.79826766 0.054129202 0.88897204
        0.8051948 0.055068184 0.88898987 0.812016 0.05585351 0.8890131
        0.81866336 0.0565012 0.88903916 0.8250932 0.05703163 0.8890657
        0.8312709 0.057464574 0.8890907 0.8371769 0.05781769 0.88911295
        0.8428036 0.058105238 0.8891317 0.8481533 0.058337834 0.88914686
        0.85323554 0.05852287 0.8891584 0.85806376 0.058665078 0.88916695
        0.8626495 0.0587673 0.8891729 0.8669991 0.05883135 0.8891769
        0.8711143 0.058858775 0.88917947 0.874995 0.058851507 0.8891812
        0.8786402 0.058812235 0.88918257 0.88204974 0.058744438 0.8891838
        0.88522506 0.058652338 0.88918525 0.88816947 0.0585406 0.8891869
        0.89088845 0.05841409 0.88918895 0.8933893 0.05827756 0.88919127
        0.8956811 0.05813539 0.88919383 0.8977742 0.05799144 0.8891966
        0.8996801 0.057848934 0.88919944 0.90141064 0.057710387 0.8892023
        0.9029783 0.057577696 0.88920516 0.9043955 0.05745216 0.88920796
        0.90567434 0.057334587 0.8892106 0.90682656 0.057225373 0.8892131
        0.9078632 0.05712462 0.8892154 0.9087949 0.057032187 0.8892176
        0.9096312 0.05694779 0.8892196 0.9103814 0.056871008 0.88922143
        0.91105366 0.056801375 0.8892231 0.9116557 0.056738403 0.88922465
        0.91219455 0.056681544 0.889226 0.9126766 0.056630317 0.8892273
        0.9131076 0.056584224 0.88922834 0.91349274 0.056542795 0.8892294
        0.91383684 0.0565056 0.8892303 0.91414416 0.05647222 0.88923115
        0.6917428 0.01581572 0.88978106 0.69288236 0.01648573 0.889771
        0.6941204 0.017213421 0.8897595 0.6954673 0.018004285 0.8897463
        0.69693476 0.018864034 0.8897313 0.69853604 0.019798525 0.8897141
        0.7002855 0.020813605 0.88969445 0.70219904 0.021914868 0.8896719
        0.70429367 0.023107294 0.8896463 0.70658726 0.02439485 0.8896171
        0.7090981 0.025779933 0.88958406 0.711844 0.027262721 0.88954705
        0.71484107 0.028840348 0.8895058 0.7181021 0.030506205 0.8894604
        0.72163594 0.032249883 0.8894111 0.72544736 0.034057613 0.8893584
        0.72953784 0.035913292 0.88930297 0.7339071 0.037799686 0.889246
        0.7385545 0.039699372 0.8891884 0.7434793 0.04159511 0.8891316
        0.74868083 0.043469608 0.8890771 0.75415426 0.045304436 0.88902646
        0.75988746 0.047079433 0.8889813 0.7658603 0.0487736 0.8889432
        0.772044 0.050366327 0.88891363 0.778404 0.051839523 0.8888934
        0.78490186 0.053179033 0.8888831 0.79148144 0.054373346 0.8888825
        0.7980918 0.05541912 0.8888906 0.80504924 0.056365408 0.88890696
        0.8118969 0.05715726 0.888929 0.81856614 0.05781063 0.888954
        0.82501316 0.058345802 0.8889797 0.83120346 0.058782473 0.88900393
        0.83711827 0.059138272 0.8890257 0.8427507 0.059427463 0.88904405
        0.8481045 0.059660744 0.8890588 0.8531903 0.059845608 0.8890702
        0.85802275 0.059986964 0.8890786 0.86261433 0.06008784 0.8890845
        0.8669719 0.060150184 0.8890886 0.87109745 0.060175717 0.8890913
        0.87499046 0.060166508 0.8890932 0.8786499 0.060125355 0.8890947
        0.8820751 0.060055826 0.8890962 0.8852669 0.059962187 0.8890978
        0.88822836 0.05984916 0.88909966 0.8909644 0.05972163 0.88910186
        0.893482 0.05958436 0.88910437 0.89579004 0.059441704 0.8891071
        0.8978986 0.05929749 0.88911 0.899819 0.059154898 0.889113
        0.9015631 0.059016418 0.88911605 0.9031433 0.058883898 0.889119
        0.90457195 0.058758598 0.8891219 0.90586126 0.058641285 0.88912463
        0.90702295 0.058532357 0.88912725 0.90806824 0.058431886 0.8891297
        0.9090076 0.058339708 0.8891319 0.90985096 0.058255542 0.889134
        0.9106074 0.05817896 0.8891359 0.9112853 0.058109496 0.88913757
        0.9118924 0.05804666 0.88913924 0.9124358 0.057989933 0.8891406
        0.91292185 0.057938803 0.8891419 0.9133565 0.057892784 0.8891431
        0.91374487 0.05785142 0.8891441 0.9140918 0.057814274 0.8891451
        0.91440177 0.05778092 0.889146 0.6909541 0.016892465 0.8897599
        0.69210523 0.017567672 0.88974893 0.6933549 0.018300368 0.88973635
        0.6947136 0.019096058 0.88972217 0.69619304 0.019960506 0.88970596
        0.69780654 0.020899648 0.88968754 0.6995686 0.021919439 0.88966644
        0.7014954 0.023025608 0.8896425 0.70360404 0.024223296 0.88961506
        0.7059126 0.025516633 0.88958406 0.7084396 0.02690817 0.8895491
        0.71120304 0.028398205 0.8895098 0.7142191 0.029983927 0.88946617
        0.7175007 0.03165871 0.8894182 0.72105646 0.033412006 0.8893661
        0.7248911 0.035229888 0.8893105 0.7290058 0.037096024 0.88925207
        0.7334001 0.03899298 0.88919187 0.73807317 0.04090318 0.88913107
        0.7430245 0.042809296 0.8890711 0.7482535 0.044694003 0.88901335
        0.7537556 0.046538856 0.8889595 0.75951886 0.04832364 0.88891137
        0.76552284 0.05002728 0.8888704 0.7717385 0.05162909 0.8888381
        0.77813125 0.053110924 0.8888155 0.78466207 0.05445864 0.8888031
        0.7912742 0.055660646 0.88880056 0.79791576 0.056713514 0.888807
        0.80490357 0.057666615 0.88882196 0.8117778 0.058464453 0.8888427
        0.8184689 0.05912292 0.8888668 0.82493305 0.059662275 0.8888915
        0.8311359 0.060102187 0.8889152 0.83705944 0.0604603 0.88893634
        0.8426977 0.060750894 0.8889542 0.8480553 0.060984757 0.8889687
        0.8531445 0.061169494 0.8889799 0.85798097 0.06131016 0.8889882
        0.8625782 0.061409928 0.8889941 0.86694354 0.061470896 0.8889982
        0.87107915 0.06149488 0.889001 0.87498444 0.061484076 0.8890031
        0.87865794 0.061441347 0.8890047 0.88209856 0.061370343 0.88900644
        0.88530684 0.06127537 0.88900816 0.8882853 0.06116119 0.88901025
        0.89103836 0.061032712 0.8890127 0.89357287 0.060894664 0.8890153
        0.8958972 0.06075144 0.88901824 0.89802134 0.060606815 0.88902134
        0.89995635 0.060463946 0.8890245 0.90171415 0.060325306 0.88902766
        0.90330696 0.060192697 0.88903075 0.9047472 0.06006737 0.8890338
        0.9060471 0.059950065 0.8890366 0.9072184 0.059841163 0.88903934
        0.9082724 0.059740707 0.88904184 0.9092197 0.059648555 0.8890442
        0.91007006 0.05956439 0.8890464 0.9108329 0.059487812 0.88904834
        0.9115165 0.059418343 0.8890502 0.91212875 0.059355482 0.8890518
        0.91267675 0.059298724 0.8890533 0.91316694 0.059247553 0.88905466
        0.9136052 0.059201498 0.88905585 0.9139969 0.059160084 0.889057
        0.9143468 0.059122898 0.88905793 0.9146593 0.059089504 0.8890588
        0.69016534 0.017969185 0.8897374 0.6913281 0.018650085 0.88972545
        0.6925894 0.019388292 0.889712 0.6939598 0.020189326 0.88969666
        0.6954511 0.021058997 0.88967925 0.6970766 0.022003306 0.88965946
        0.6988512 0.023028318 0.889637 0.700791 0.024139887 0.8896115
        0.7029134 0.0253433 0.8895824 0.70523673 0.026642848 0.8895495
        0.7077797 0.028041221 0.8895125 0.7105605 0.029538838 0.88947093
        0.71359545 0.031132946 0.88942486 0.71689755 0.032816876 0.88937426
        0.72047526 0.034579977 0.88931936 0.7243331 0.036408126 0.88926077
        0.72847205 0.03828478 0.88919926 0.7328914 0.040192313 0.8891359
        0.7375902 0.042113014 0.8890719 0.74256814 0.04402946 0.88900864
        0.7478247 0.045924317 0.88894767 0.7533556 0.047779124 0.8888907
        0.7591489 0.049573608 0.88883936 0.76518416 0.051286634 0.8887955
        0.77143204 0.052897386 0.88876057 0.7778576 0.054387707 0.8887355
        0.7844216 0.0557434 0.88872087 0.7910665 0.056952793 0.8887164
        0.7977394 0.058012374 0.8887212 0.80475783 0.058971796 0.88873476
        0.8116586 0.05977506 0.8887543 0.8183718 0.060438056 0.8887774
        0.824853 0.060981054 0.8888013 0.8310684 0.06142374 0.8888243
        0.8370005 0.061783794 0.88884485 0.8426443 0.062075563 0.8888624
        0.8480058 0.06230991 0.88887656 0.85309815 0.06249456 0.8888875
        0.8579384 0.06263469 0.8888957 0.86254114 0.062733606 0.8889016
        0.86691403 0.06279348 0.8889057 0.8710595 0.062816255 0.8889086
        0.87497675 0.062804185 0.88891083 0.87866414 0.06276018 0.8889126
        0.88212013 0.06268795 0.88891447 0.8853448 0.062591836 0.88891643
        0.8883402 0.062476628 0.8889187 0.89111036 0.06234722 0.88892126
        0.8936617 0.062208377 0.8889241 0.8960024 0.062064473 0.8889272
        0.8981422 0.061919283 0.88893044 0.900092 0.061775953 0.88893384
        0.9018636 0.061636917 0.8889372 0.90346915 0.061503988 0.8889404
        0.9049212 0.06137837 0.88894355 0.90623176 0.061260816 0.88894653
        0.9074128 0.06115168 0.8889494 0.9084757 0.061051007 0.888952
        0.9094309 0.060958643 0.88895446 0.9102885 0.060874287 0.8889567
        0.91105783 0.060797513 0.8889588 0.9117473 0.060727857 0.88896066
        0.9123647 0.060664818 0.8889624 0.9129174 0.060607888 0.888964
        0.9134118 0.060556564 0.8889654 0.91385376 0.060510352 0.8889667
        0.9142488 0.0604688 0.8889679 0.91460174 0.06043147 0.88896894
        0.91491693 0.060397945 0.88896984 0.68937665 0.019045874 0.88971364
        0.69055104 0.019732963 0.8897007 0.69182396 0.020477183 0.88968617
        0.6932059 0.021284075 0.8896697 0.6947089 0.02215948 0.8896511
        0.69634634 0.023109475 0.88963 0.69813323 0.02414021 0.8896061
        0.7000859 0.025257666 0.889579 0.7022219 0.026467273 0.88954824
        0.7045598 0.027773457 0.88951343 0.7071185 0.029179059 0.8894743
        0.70991653 0.030684603 0.8894305 0.7129703 0.032287385 0.88938195
        0.71629274 0.033980705 0.88932866 0.7198924 0.035753794 0.8892709
        0.7237734 0.037592337 0.88920933 0.72793657 0.039479587 0.88914466
        0.732381 0.04139772 0.889078 0.73710567 0.043328892 0.8890108
        0.7421102 0.045255624 0.8889442 0.7473944 0.04716057 0.88887995
        0.7529542 0.049025256 0.8888197 0.7587777 0.05082937 0.88876534
        0.76484436 0.052551668 0.8887185 0.77112454 0.05417125 0.8886808
        0.7775831 0.055669867 0.8886532 0.7841805 0.057033308 0.8886364
        0.7908584 0.05824978 0.88863003 0.7975628 0.059315685 0.88863325
        0.8046119 0.060280938 0.8886453 0.8115395 0.061089087 0.8886637
        0.8182746 0.06175604 0.88868576 0.82477295 0.06230214 0.88870895
        0.8310008 0.062747136 0.88873124 0.83694136 0.06310877 0.8887513
        0.84259063 0.06340149 0.8887685 0.84795576 0.063636236 0.8887823
        0.8530512 0.06382084 0.8887931 0.85789514 0.0639606 0.88880116
        0.86250305 0.06405888 0.88880694 0.8668833 0.06411797 0.8888111
        0.8710383 0.06413984 0.8888141 0.87496746 0.06412681 0.88881636
        0.8786685 0.06408183 0.8888183 0.8821397 0.06400862 0.8888203
        0.8853807 0.063911535 0.88882244 0.88839287 0.06379539 0.8888249
        0.89118016 0.06366509 0.8888276 0.89374846 0.06352542 0.8888307
        0.8961056 0.06338073 0.88883406 0.8982612 0.063234836 0.8888375
        0.9002259 0.06309083 0.888841 0.9020114 0.06295118 0.8888445
        0.9036299 0.06281767 0.88884795 0.9050937 0.06269152 0.8888512
        0.9064152 0.06257345 0.8888544 0.9076062 0.06246384 0.88885736
        0.908678 0.062362712 0.8888601 0.9096414 0.062269926 0.8888627
        0.9105063 0.062185165 0.8888651 0.9112822 0.062108025 0.88886726
        0.9119775 0.06203801 0.8888693 0.9126003 0.061974652 0.8888711
        0.9131577 0.06191741 0.88887274 0.91365635 0.0618658 0.88887423
        0.9141022 0.061819326 0.8888756 0.91450065 0.061777532 0.8888768
        0.9148566 0.06173998 0.88887787 0.91517454 0.061706264 0.8888789
        0.6885879 0.020122534 0.8896886 0.68977404 0.020816313 0.8896747
        0.6910585 0.021567049 0.88965905 0.692452 0.0223803 0.88964146
        0.69396657 0.023261948 0.8896216 0.6956158 0.024218133 0.88959914
        0.6974148 0.025255099 0.8895738 0.6993801 0.026378931 0.889545
        0.7015295 0.027595192 0.8895125 0.70388174 0.028908452 0.88947576
        0.7064561 0.030321678 0.8894345 0.7092712 0.031835496 0.8893884
        0.71234363 0.03344726 0.88933736 0.7156864 0.03515022 0.88928133
        0.71930784 0.036933478 0.8892207 0.72321206 0.038782544 0.88915604
        0.7273995 0.040680457 0.8890882 0.73186904 0.042609215 0.8890183
        0.73661953 0.044550844 0.88894767 0.74165076 0.046487816 0.88887775
        0.7469626 0.048402786 0.88881016 0.7525514 0.05027728 0.8887467
        0.75840515 0.052090928 0.88868916 0.76450336 0.053822406 0.88863933
        0.7708161 0.05545067 0.88859886 0.7773078 0.05695742 0.88856876
        0.7839388 0.058328368 0.88854975 0.7906498 0.059551608 0.8885415
        0.79738593 0.060623456 0.88854307 0.80446595 0.061594035 0.8885537
        0.8114203 0.062406514 0.88857096 0.81817746 0.06307687 0.88859206
        0.8246929 0.06362554 0.8886145 0.83093315 0.064072385 0.8886362
        0.8368821 0.064435266 0.8886558 0.84253675 0.0647287 0.8886725
        0.8479053 0.06496376 0.888686 0.8530036 0.06514836 0.88869655
        0.85785097 0.06528787 0.8887045 0.8624639 0.06538576 0.88871026
        0.8668513 0.06544436 0.8887144 0.8710157 0.06546565 0.8887174
        0.87495637 0.06545197 0.88871974 0.878671 0.065406285 0.8887218
        0.8821572 0.06533231 0.8887239 0.88541436 0.06523444 0.8887263
        0.8884434 0.06511745 0.8887289 0.89124775 0.0649863 0.8887319
        0.893833 0.06484574 0.8887352 0.8962067 0.06470018 0.88873863
        0.89837813 0.06455339 0.88874227 0.90035784 0.06440852 0.888746
        0.9021574 0.064268015 0.8887497 0.903789 0.06413369 0.88875335
        0.9052649 0.064006746 0.8887568 0.9065974 0.06388794 0.88876015
        0.9077984 0.063777596 0.8887633 0.90887934 0.0636758 0.8887662
        0.9098509 0.063582376 0.888769 0.9107233 0.06349702 0.8887714
        0.9115059 0.06341931 0.88877374 0.91220725 0.06334879 0.8887759
        0.9128354 0.06328495 0.88877773 0.9133977 0.06322727 0.88877946
        0.9139007 0.06317526 0.8887811 0.9143504 0.06312842 0.8887825
        0.91475236 0.063086286 0.88878375 0.9151114 0.06304844 0.888785
        0.91543216 0.06301443 0.888786 0.6877992 0.02119916 0.8896623
        0.68899703 0.02190013 0.88964736 0.69029313 0.022657888 0.8896306
        0.69169813 0.023478009 0.8896118 0.6932242 0.024366409 0.8895907
        0.6948851 0.025329292 0.88956684 0.696696 0.026372984 0.88953996
        0.6986737 0.027503682 0.88950956 0.7008363 0.028727064 0.8894752
        0.7032028 0.030047834 0.88943654 0.70579255 0.03146908 0.88939315
        0.7086245 0.032991532 0.8893447 0.71171546 0.034612574 0.88929105
        0.7150784 0.036325425 0.8892323 0.71872175 0.03811905 0.88916874
        0.7226491 0.039978776 0.88910097 0.72686076 0.04188743 0.88902986
        0.7313554 0.043826833 0.8889566 0.73613185 0.045778904 0.88888264
        0.7411898 0.04772607 0.8888093 0.7465294 0.049651 0.88873833
        0.75214714 0.05153523 0.8886715 0.7580313 0.053358324 0.8886108
        0.7641612 0.05509887 0.888558 0.77050656 0.05673569 0.88851476
        0.7770317 0.058250383 0.88848215 0.7836965 0.059628602 0.8884608
        0.7904408 0.06085829 0.8884506 0.79720885 0.061935686 0.8884506
        0.8043199 0.06291111 0.88845986 0.8113012 0.063727364 0.88847595
        0.8180804 0.064400546 0.8884961 0.8246129 0.06495126 0.88851786
        0.8308655 0.06539951 0.88853896 0.8368227 0.06576328 0.88855803
        0.8424825 0.06605723 0.88857436 0.84785444 0.06629251 0.88858765
        0.8529554 0.06647714 0.88859797 0.857806 0.066616565 0.8886058
        0.8624237 0.066714294 0.88861144 0.86681795 0.06677266 0.8886155
        0.8709915 0.06679368 0.8886185 0.87494355 0.06677966 0.888621
        0.87867147 0.06673355 0.8886231 0.88217264 0.06665904 0.8886254
        0.8854458 0.06656054 0.8886279 0.88849163 0.0664428 0.8886307
        0.891313 0.06631081 0.88863385 0.89391524 0.06616932 0.88863736
        0.89630556 0.06602276 0.88864106 0.89849293 0.065874934 0.88864493
        0.90048784 0.06572899 0.88864887 0.9023016 0.065587424 0.8886528
        0.9039464 0.06545203 0.8886566 0.9054345 0.06532405 0.8886603
        0.90677816 0.06520423 0.8886638 0.9079894 0.06509294 0.88866717
        0.90907955 0.06499024 0.8886702 0.9100596 0.064895965 0.8886731
        0.9109395 0.06480982 0.8886758 0.9117289 0.06473138 0.8886782
        0.9124364 0.064660184 0.8886804 0.91307014 0.06459572 0.8886824
        0.91363734 0.06453747 0.88868433 0.91414475 0.06448495 0.88868594
        0.9145984 0.06443763 0.8886875 0.91500396 0.06439507 0.88868886
        0.9153662 0.06435682 0.8886901 0.9156897 0.06432247 0.88869125
        0.6870105 0.022275753 0.88963467 0.68822014 0.02298443 0.88961864
        0.68952787 0.02374972 0.88960075 0.6909443 0.024577219 0.8895808
        0.69248176 0.02547288 0.8895584 0.69415414 0.026442967 0.8895331
        0.69597685 0.027493887 0.8895046 0.6979668 0.028631933 0.8894726
        0.7001424 0.029862905 0.8894364 0.7025228 0.031191621 0.8893957
        0.70512784 0.03262129 0.8893501 0.7079765 0.034152735 0.8892993
        0.7110859 0.03578336 0.889243 0.714469 0.03750635 0.8891815
        0.71813405 0.03931054 0.8891149 0.7220845 0.04118106 0.8890439
        0.7263205 0.043100536 0.8889696 0.73084027 0.045050614 0.888893
        0.73564255 0.04701311 0.8888156 0.74072725 0.04897042 0.8887388
        0.7460947 0.050905254 0.8886644 0.7517416 0.05279913 0.8885943
        0.7576563 0.054631587 0.8885303 0.76381797 0.05638109 0.88847446
        0.7701961 0.058026314 0.8884284 0.7767548 0.059548784 0.8883932
        0.7834535 0.060934022 0.8883697 0.7902314 0.062169854 0.8883575
        0.7970316 0.0632524 0.8883559 0.80417377 0.064232156 0.8883637
        0.8111821 0.06505163 0.88837874 0.8179834 0.06572709 0.88839805
        0.8245329 0.06627932 0.888419 0.83079773 0.06672852 0.88843954
        0.83676314 0.067092836 0.8884582 0.842428 0.067387074 0.88847417
        0.8478031 0.0676225 0.88848716 0.8529066 0.0678072 0.88849723
        0.8577603 0.06794669 0.88850486 0.86238253 0.068044476 0.88851047
        0.8667833 0.06810291 0.8885145 0.87096584 0.06812395 0.88851756
        0.87492895 0.068109885 0.88852 0.87867 0.06806361 0.88852227
        0.8821859 0.067988805 0.8885246 0.8854749 0.06788982 0.8885273
        0.88853747 0.06777144 0.88853025 0.8913759 0.06763862 0.88853365
        0.8939951 0.067496166 0.88853735 0.8964021 0.06734849 0.8885413
        0.8986056 0.06719945 0.8885454 0.90061575 0.067052245 0.8885495
        0.9024439 0.06690938 0.8885537 0.904102 0.066772684 0.88855773
        0.9056025 0.066643424 0.88856167 0.9069575 0.06652236 0.8885654
        0.9081791 0.06640988 0.888569 0.9092787 0.06630604 0.8885722
        0.91026723 0.0662107 0.8885753 0.91115487 0.06612357 0.8885781
        0.9119512 0.06604422 0.8885807 0.912665 0.06597218 0.88858306
        0.9133043 0.06590695 0.8885852 0.9138766 0.065848 0.8885871
        0.91438854 0.06579483 0.8885889 0.91484624 0.06574694 0.8885906
        0.91525537 0.065703854 0.888592 0.91562086 0.06566514 0.88859326
        0.9159473 0.06563036 0.8885945 0.6862218 0.023352314 0.8896058
        0.6874434 0.024069218 0.88958865 0.68876266 0.02484256 0.88956964
        0.69019055 0.025677953 0.88954836 0.6917393 0.026581392 0.8895246
        0.69342303 0.02755919 0.8894979 0.69525737 0.028617838 0.88946784
        0.6972594 0.029763719 0.88943404 0.6994478 0.031002743 0.889396
        0.701842 0.032339845 0.8893533 0.70446205 0.03377834 0.8893054
        0.7073273 0.035319127 0.8892521 0.71045494 0.036959656 0.88919324
        0.71385807 0.038693037 0.88912886 0.7175448 0.040507987 0.88905925
        0.7215184 0.042389438 0.8889851 0.7257786 0.04431981 0.88890743
        0.7303235 0.04628059 0.8888274 0.73515177 0.048253495 0.88874644
        0.7402632 0.050220907 0.8886662 0.7456586 0.052165568 0.8885884
        0.75133467 0.054069024 0.8885149 0.7572799 0.055910744 0.88844764
        0.7634735 0.057669092 0.8883887 0.76988465 0.059322596 0.8883397
        0.77647704 0.060852632 0.88830197 0.7832099 0.06224466 0.88827616
        0.7900216 0.06348631 0.88826215 0.7968541 0.0645736 0.88825893
        0.80402756 0.06555718 0.8882653 0.81106293 0.06637935 0.88827926
        0.8178864 0.067056514 0.88829774 0.82445294 0.06760973 0.888318
        0.83072996 0.06805942 0.888338 0.83670336 0.068423964 0.8883562
        0.84237325 0.06871828 0.8883718 0.8477514 0.06895376 0.8883845
        0.8528572 0.06913858 0.8883944 0.8577137 0.06927826 0.88840187
        0.8623403 0.069376335 0.88840735 0.86674744 0.0694351 0.88841134
        0.87093854 0.06945647 0.8884143 0.8749126 0.06944265 0.8884168
        0.87866646 0.069396496 0.8884192 0.8821969 0.06932161 0.8884216
        0.88550174 0.069222316 0.8884244 0.88858086 0.06910339 0.88842756
        0.89143634 0.068969764 0.88843113 0.8940726 0.06882629 0.88843507
        0.8964963 0.0686774 0.88843924 0.8987159 0.068527006 0.8884436
        0.9007415 0.06837834 0.888448 0.9025842 0.06823393 0.8884525
        0.90425587 0.068095684 0.8884568 0.9057688 0.06796488 0.888461
        0.90713537 0.06784233 0.88846487 0.90836746 0.067728415 0.8884686
        0.90947664 0.06762322 0.88847214 0.9104739 0.06752661 0.8884754
        0.9113694 0.0674383 0.8884784 0.9121728 0.06735784 0.88848114
        0.91289294 0.06728481 0.88848364 0.91353804 0.067218654 0.88848597
        0.9141154 0.06715887 0.88848805 0.91463196 0.06710494 0.8884899
        0.91509384 0.06705637 0.88849163 0.91550666 0.06701266 0.8884932
        0.91587543 0.06697339 0.8884946 0.9162049 0.06693811 0.88849586
        0.6854331 0.024428833 0.8895756 0.68666667 0.02515451 0.88955736
        0.68799764 0.02593644 0.88953716 0.68943685 0.026780253 0.88951457
        0.6909969 0.027691985 0.88948935 0.69269186 0.028678011 0.88946116
        0.69453764 0.02974489 0.8894295 0.69655156 0.030899094 0.8893939
        0.6987525 0.032146636 0.88935405 0.70116025 0.033492558 0.88930917
        0.7037952 0.034940273 0.88925904 0.70667684 0.036490764 0.8892033
        0.70982265 0.0381415 0.88914174 0.7132457 0.039885536 0.88907444
        0.716954 0.041711442 0.88900167 0.72095066 0.043603957 0.8889243
        0.7252351 0.0455453 0.88884324 0.7298052 0.047516808 0.8887598
        0.73465943 0.0495001 0.88867533 0.7397977 0.051477566 0.8885916
        0.745221 0.05343199 0.8885102 0.7509263 0.05534494 0.8884333
        0.7569023 0.05719584 0.8883627 0.763128 0.058962926 0.88830066
        0.76957214 0.06062455 0.88824874 0.77619845 0.062161982 0.8882085
        0.7829657 0.063560545 0.8881804 0.7898114 0.0648077 0.8881644
        0.7966764 0.06589933 0.8881596 0.80388135 0.06688624 0.8881647
        0.8109439 0.06771051 0.8881775 0.8177895 0.068388835 0.8881952
        0.82437295 0.0689425 0.8882149 0.8306621 0.06939225 0.8882344
        0.8366435 0.06975665 0.8882522 0.8423182 0.070050836 0.8882674
        0.84769917 0.070286304 0.8882798 0.8528071 0.07047127 0.88828945
        0.85766625 0.0706113 0.8882968 0.86229694 0.070709884 0.8883021
        0.86671025 0.07076926 0.888306 0.87090975 0.07079125 0.888309
        0.8748944 0.070778 0.88831145 0.8786609 0.07073223 0.88831383
        0.88220567 0.07065749 0.8883164 0.88552624 0.07055806 0.88831925
        0.8886218 0.070438676 0.8883226 0.8914943 0.0703043 0.88832635
        0.8941475 0.07015975 0.8883305 0.896588 0.070009544 0.888335
        0.8988239 0.06985763 0.8883396 0.9008651 0.06970728 0.88834435
        0.90272236 0.06956113 0.88834906 0.90440774 0.06942109 0.8883536
        0.90593344 0.0692885 0.88835806 0.9073117 0.0691642 0.8883623
        0.90855443 0.0690486 0.8883663 0.90967333 0.06894182 0.88837004
        0.9106794 0.068843715 0.88837343 0.91158295 0.06875401 0.88837665
        0.91239357 0.068672284 0.8883796 0.91312027 0.06859807 0.88838226
        0.9137712 0.06853085 0.8883847 0.91435385 0.06847009 0.8883869
        0.91487515 0.068415284 0.888389 0.91534126 0.06836592 0.8883908
        0.91575783 0.06832149 0.88839245 0.91613 0.06828157 0.88839394
        0.91646254 0.06824571 0.88839525 0.6846444 0.025505317 0.8895441
        0.6858901 0.026240326 0.88952476 0.68723273 0.027031388 0.88950324
        0.68868333 0.027884163 0.88947934 0.6902545 0.028804718 0.8894527
        0.6919606 0.02979949 0.88942295 0.6938176 0.030875107 0.8893897
        0.6958432 0.032038122 0.88935226 0.6980565 0.03329465 0.8893104
        0.70047766 0.034649823 0.8892635 0.70312726 0.036107156 0.88921106
        0.7060251 0.037667707 0.88915265 0.70918894 0.039328955 0.8890884
        0.71263176 0.04108389 0.8890181 0.71636164 0.042920947 0.88894224
        0.7203814 0.044824664 0.88886154 0.72469 0.04677706 0.8887771
        0.7292853 0.04875931 0.88869005 0.7341655 0.05075298 0.88860214
        0.7393307 0.052740447 0.88851476 0.7447819 0.05470456 0.8884299
        0.7505166 0.056626935 0.8883494 0.7565234 0.0584869 0.88827556
        0.76278126 0.060262617 0.8882103 0.7692587 0.061932232 0.8881555
        0.775919 0.06347686 0.8881126 0.78272086 0.064881705 0.8880822
        0.78960073 0.06613403 0.8880643 0.7964985 0.067229606 0.88805795
        0.803735 0.06821933 0.88806164 0.8108248 0.06904516 0.88807356
        0.8176926 0.069724046 0.88809043 0.824293 0.07027765 0.8881095
        0.8305942 0.07072699 0.8881285 0.83658344 0.07109094 0.8881459
        0.84226286 0.07138477 0.8881608 0.84764653 0.07162013 0.888173
        0.85275644 0.0718053 0.88818246 0.85761803 0.07194581 0.88818955
        0.86225253 0.07204514 0.8881947 0.86667174 0.0721054 0.8881985
        0.87087935 0.07212834 0.8882014 0.87487435 0.072115935 0.88820386
        0.87865335 0.07207084 0.8882062 0.8822123 0.0719965 0.88820887
        0.8855483 0.07189711 0.88821185 0.8886603 0.07177737 0.88821536
        0.89154965 0.07164225 0.88821936 0.89422 0.071496606 0.88822377
        0.8966773 0.071344994 0.8882284 0.8989296 0.0711914 0.8882333
        0.9009863 0.0710392 0.8882384 0.90285844 0.07089106 0.8882434
        0.9045577 0.07074898 0.8882483 0.9060962 0.070614345 0.88825303
        0.9074863 0.070488036 0.88825756 0.90874 0.07037051 0.8882618
        0.90986884 0.070261896 0.8882658 0.9108839 0.07016208 0.8882695
        0.91179556 0.07007077 0.8882729 0.91261363 0.06998758 0.888276
        0.91334695 0.06991201 0.8882789 0.91400385 0.06984356 0.88828146
        0.91459185 0.06978169 0.88828385 0.915118 0.06972587 0.88828605
        0.9155884 0.06967558 0.888288 0.9160089 0.06963034 0.88828975
        0.9163845 0.06958968 0.8882913 0.9167201 0.06955316 0.8882928
        0.68385565 0.026581759 0.8895114 0.6851136 0.027326686 0.8894908
        0.68646795 0.02812745 0.889468 0.68792987 0.02898974 0.88944274
        0.6895121 0.029919662 0.8894146 0.6912291 0.030923704 0.8893833
        0.69309723 0.03200857 0.88934827 0.6951344 0.03318089 0.88930905
        0.69735986 0.034446858 0.8892652 0.69979423 0.035811715 0.88921607
        0.7024582 0.037279066 0.8891612 0.7053722 0.03885002 0.8891003
        0.70855385 0.040522084 0.88903326 0.7120164 0.04228817 0.88895994
        0.71576774 0.04413657 0.8888809 0.7198104 0.046051618 0.88879687
        0.7241433 0.048015136 0.8887089 0.7287638 0.05000816 0.88861835
        0.73367006 0.05201217 0.88852674 0.73886216 0.054009594 0.8884358
        0.74434143 0.05598334 0.8883473 0.7501055 0.057915036 0.8882634
        0.7561432 0.05978399 0.88818616 0.76243335 0.061568223 0.8881177
        0.7689442 0.063245684 0.8880599 0.7756388 0.06479732 0.8880144
        0.7824754 0.0662082 0.8879817 0.78938967 0.067465365 0.88796186
        0.7963204 0.068564475 0.8879539 0.80358857 0.0695565 0.8879563
        0.8107058 0.07038332 0.8879672 0.8175958 0.07106221 0.8879834
        0.8242131 0.0716152 0.8880019 0.83052623 0.072063684 0.88802046
        0.83652323 0.07242682 0.88803756 0.8422072 0.072720096 0.88805217
        0.8475934 0.07295527 0.888064 0.8527052 0.07314067 0.88807327
        0.857569 0.073281825 0.8880801 0.8622071 0.0733821 0.8880851
        0.8666319 0.07344355 0.8880888 0.8708474 0.07346773 0.8880916
        0.8748526 0.0734565 0.88809395 0.8786437 0.07341237 0.8880964
        0.88221663 0.07333867 0.888099 0.88556796 0.073239505 0.8881021
        0.8886963 0.07311955 0.8881058 0.89160246 0.07298374 0.88811
        0.89428985 0.07283698 0.88811463 0.89676404 0.072683856 0.8881196
        0.8990328 0.07252844 0.8881248 0.9011053 0.07237417 0.8881302
        0.90299237 0.07222383 0.8881355 0.90470564 0.07207945 0.88814074
        0.9062572 0.07194252 0.8881458 0.90765935 0.07181394 0.88815063
        0.90892404 0.07169423 0.88815516 0.91006297 0.07158354 0.88815945
        0.9110872 0.071481764 0.88816345 0.9120072 0.07138864 0.888167
        0.9128328 0.07130377 0.8881704 0.9135729 0.071226664 0.88817346
        0.9142359 0.07115682 0.88817626 0.91482943 0.07109368 0.8881788
        0.91536045 0.07103672 0.88818115 0.9158353 0.07098539 0.88818324
        0.91625977 0.07093921 0.8881851 0.9166389 0.07089772 0.8881868
        0.9169777 0.070860445 0.88818836 0.68306696 0.02765816 0.8894773
        0.6843372 0.028413614 0.8894555 0.68570334 0.029224673 0.8894314
        0.6871765 0.030097047 0.8894047 0.6887697 0.031036893 0.88937503
        0.6904976 0.032050747 0.8893421 0.6923766 0.033145376 0.8893053
        0.69442505 0.03432749 0.8892642 0.69666255 0.035603363 0.8892183
        0.6991098 0.03697833 0.8891669 0.70178807 0.038456082 0.88910973
        0.70471793 0.040037792 0.8890462 0.7079173 0.041720964 0.8889762
        0.7113995 0.043498445 0.88889986 0.71517223 0.04535837 0.8888176
        0.7192379 0.04728488 0.88873017 0.723595 0.04925959 0.8886387
        0.7282407 0.051263392 0.8885445 0.733173 0.053277735 0.88844925
        0.73839206 0.05528505 0.8883546 0.7438994 0.05726835 0.88826257
        0.74969304 0.059209302 0.8881751 0.7557617 0.06108716 0.88809437
        0.7620843 0.062879786 0.88802266 0.7686287 0.064564936 0.887962
        0.7753577 0.0661234 0.8879138 0.7822293 0.06754006 0.8878788
        0.7891782 0.06880175 0.887857 0.796142 0.069903985 0.8878475
        0.8034421 0.07089777 0.8878487 0.81058675 0.07172502 0.8878586
        0.817499 0.07240333 0.88787407 0.8241332 0.07295516 0.8878921
        0.8304582 0.07340234 0.8879103 0.83646286 0.0737643 0.88792706
        0.8421513 0.07405681 0.88794136 0.84753996 0.07429172 0.887953
        0.8526533 0.0744774 0.8879619 0.85751915 0.07461932 0.88796854
        0.86216074 0.0747208 0.88797337 0.86659086 0.07478371 0.8879769
        0.87081397 0.07480948 0.88797957 0.874829 0.07479975 0.88798183
        0.87863207 0.07475688 0.8879842 0.8822187 0.07468408 0.8879869
        0.88558525 0.07458535 0.8879901 0.88872975 0.0744653 0.8879939
        0.89165276 0.07432886 0.8879983 0.89435714 0.07418096 0.8880032
        0.89684826 0.07402625 0.8880085 0.89913344 0.07386887 0.88801396
        0.9012219 0.073712364 0.8880197 0.90312403 0.073559575 0.88802534
        0.9048515 0.073412664 0.88803095 0.9064163 0.07327315 0.8880364
        0.9078306 0.07314204 0.88804156 0.90910655 0.07301987 0.88804644
        0.91025573 0.07290683 0.88805103 0.91128933 0.07280286 0.88805526
        0.91221786 0.07270768 0.88805914 0.91305107 0.07262093 0.8880628
        0.9137981 0.07254209 0.88806605 0.91446733 0.07247067 0.8880691
        0.9150665 0.072406106 0.88807184 0.91560256 0.07234784 0.8880743
        0.91608196 0.07229536 0.8880765 0.91651046 0.072248146 0.8880785
        0.91689324 0.072205715 0.88808036 0.9172353 0.07216759 0.88808197
        0.6822783 0.028734518 0.889442 0.68356097 0.029501138 0.8894189
        0.68493885 0.030323109 0.8893934 0.68642324 0.031206172 0.88936526
        0.68802726 0.032156512 0.889334 0.6897658 0.03318073 0.8892994
        0.69165564 0.034285642 0.88926077 0.69371516 0.035478037 0.88921773
        0.6959644 0.03676428 0.88916975 0.6984244 0.03814978 0.88911605
        0.7011168 0.03963831 0.8890564 0.70406234 0.04123111 0.8889902
        0.7072793 0.042925682 0.8889173 0.710781 0.044714797 0.8888379
        0.7145751 0.04658643 0.88875234 0.71866375 0.04852452 0.8886614
        0.7230451 0.050510485 0.8885663 0.72771597 0.052525084 0.8884685
        0.7326743 0.05454972 0.88836956 0.73792034 0.05656688 0.8882713
        0.7434559 0.05855966 0.8881755 0.7492791 0.060509786 0.8880844
        0.75537884 0.06239644 0.88800025 0.76173407 0.06419736 0.8879253
        0.76831216 0.065890074 0.8878616 0.7750758 0.06745516 0.88781077
        0.78198254 0.068877354 0.8877734 0.7889663 0.07014324 0.8877497
        0.7959634 0.07124817 0.88773865 0.80329555 0.07224321 0.88773865
        0.8104677 0.07307029 0.88774765 0.81740224 0.073747426 0.88776255
        0.82405335 0.07429757 0.8877801 0.83039016 0.07474296 0.8877979
        0.83640236 0.07510341 0.88781434 0.8420951 0.07539493 0.8878284
        0.847486 0.07562949 0.88783973 0.8526009 0.07581548 0.88784844
        0.85746855 0.075958334 0.8878549 0.8621133 0.07606125 0.88785946
        0.8665486 0.07612592 0.88786274 0.87077904 0.076153584 0.88786525
        0.87480366 0.07614569 0.8878674 0.8786185 0.076104425 0.8878697
        0.88221866 0.076032795 0.88787246 0.88560015 0.075934716 0.8878757
        0.88876075 0.07581473 0.8878796 0.89170045 0.07567775 0.8878842
        0.8944218 0.07552872 0.8878893 0.89692986 0.075372346 0.887895
        0.8992317 0.07521287 0.8879008 0.9013361 0.07505393 0.88790685
        0.9032535 0.07489848 0.887913 0.90499526 0.07474877 0.88791895
        0.9065734 0.0746064 0.88792473 0.9080002 0.07447247 0.8879303
        0.90928745 0.07434756 0.8879355 0.9104471 0.07423191 0.88794047
        0.91149026 0.074125476 0.887945 0.9124274 0.074028015 0.88794917
        0.91326845 0.07393914 0.88795304 0.91402256 0.073858365 0.8879566
        0.9146982 0.07378518 0.88795984 0.9153031 0.07371901 0.8879628
        0.9158443 0.07365929 0.88796544 0.9163283 0.07360551 0.8879678
        0.916761 0.073557116 0.88797003 0.9171475 0.07351363 0.88797194
        0.91749287 0.07347456 0.8879737 0.6814895 0.029810831 0.88940537
        0.6827848 0.030589303 0.88938093 0.6841745 0.031422835 0.88935405
        0.6856701 0.032317203 0.88932437 0.6872848 0.033278633 0.8892915
        0.68903387 0.034313772 0.88925517 0.69093424 0.0354295 0.8892147
        0.69300467 0.036632672 0.88916963 0.6952654 0.037929732 0.88911945
        0.697738 0.039326183 0.8890635 0.7004443 0.040825866 0.88900125
        0.7034054 0.04243008 0.88893235 0.70663977 0.044136338 0.88885653
        0.7101609 0.04593731 0.8887739 0.7139763 0.047820825 0.88868505
        0.71808785 0.04977061 0.8885906 0.7224934 0.05176789 0.8884919
        0.72718954 0.053793292 0.88839036 0.732174 0.05582819 0.88828766
        0.7374471 0.057855137 0.8881856 0.7430108 0.05985732 0.8880862
        0.74886364 0.061816532 0.8879914 0.7549947 0.063711904 0.88790375
        0.7613826 0.065521 0.8878255 0.7679946 0.06722113 0.88775885
        0.77479297 0.06879267 0.8877052 0.7817351 0.07022014 0.8876656
        0.7887539 0.07148988 0.88763994 0.7957846 0.07259711 0.88762736
        0.8031489 0.073592864 0.8876262 0.8103487 0.07441918 0.88763434
        0.8173055 0.07509455 0.88764864 0.8239735 0.07564243 0.88766575
        0.830322 0.07608556 0.8876832 0.83634174 0.07644415 0.8876994
        0.84203863 0.07673443 0.88771325 0.8474317 0.07696855 0.88772434
        0.8525478 0.077154905 0.8877328 0.8574172 0.077298865 0.887739
        0.8620649 0.07740345 0.8877433 0.8665051 0.0774702 0.8877464
        0.8707427 0.077500105 0.8877487 0.87477666 0.07749441 0.88775074
        0.8786029 0.07745506 0.88775295 0.88221645 0.077384904 0.8877556
        0.8856128 0.07728772 0.8877589 0.8887893 0.07716797 0.88776296
        0.8917456 0.07703053 0.88776773 0.894484 0.076880395 0.88777316
        0.89700896 0.07672231 0.88777906 0.8993274 0.076560624 0.8877853
        0.9014479 0.07639907 0.88779175 0.90338063 0.07624073 0.8877982
        0.9051369 0.07608796 0.8878046 0.9067286 0.07594247 0.8878108
        0.9081679 0.07580542 0.8878168 0.9094668 0.07567748 0.88782245
        0.9106371 0.075558916 0.8878277 0.91168994 0.07544975 0.8878326
        0.91263586 0.075349726 0.8878372 0.91348493 0.07525849 0.88784134
        0.91424626 0.07517555 0.88784516 0.91492844 0.07510039 0.8878486
        0.9155392 0.07503243 0.8878518 0.9160857 0.07497111 0.8878546
        0.9165744 0.074915856 0.8878572 0.9170114 0.07486616 0.8878595
        0.9174017 0.0748215 0.8878616 0.9177505 0.07478138 0.8878636
        0.68070084 0.030887097 0.8893674 0.68200874 0.031678144 0.8893416
        0.6834102 0.032523926 0.8893132 0.6849169 0.03343025 0.889282
        0.6865423 0.03440338 0.8892475 0.6883017 0.035450023 0.88920933
        0.69021237 0.0365771 0.88916695 0.69229347 0.037791546 0.8891198
        0.6945656 0.039099876 0.8890674 0.69705045 0.040507674 0.8890091
        0.69977045 0.04201887 0.8889443 0.702747 0.04363482 0.88887256
        0.70599866 0.045353025 0.88879377 0.7095391 0.047166083 0.888708
        0.71337575 0.04906164 0.8886156 0.7175102 0.05102323 0.8885177
        0.72194004 0.053031873 0.8884153 0.7266614 0.055068072 0.88831
        0.731672 0.05711319 0.88820356 0.73697215 0.059149865 0.8880977
        0.7425642 0.061161384 0.88799447 0.74844676 0.063129604 0.88789606
        0.7546091 0.06503361 0.88780487 0.76102984 0.06685077 0.8877233
        0.7676759 0.06855818 0.8876535 0.77450925 0.07013599 0.8875972
        0.781487 0.07156848 0.88755524 0.7885411 0.072841756 0.8875277
        0.79560554 0.07395085 0.88751364 0.8030021 0.074946776 0.88751125
        0.81022966 0.07577174 0.8875187 0.8172088 0.07644473 0.8875324
        0.8238936 0.07698978 0.88754916 0.8302539 0.07743017 0.88756645
        0.8362809 0.077786505 0.88758236 0.84198195 0.07807534 0.88759595
        0.847377 0.078308925 0.88760686 0.8524943 0.078495674 0.887615
        0.85736513 0.07864088 0.887621 0.8620156 0.07874741 0.88762504
        0.86646044 0.078816555 0.88762784 0.8707049 0.07884908 0.88762987
        0.874748 0.07884594 0.8876318 0.8785855 0.07880887 0.8876338
        0.8822121 0.07874051 0.8876364 0.8856231 0.07864448 0.88763976
        0.8888154 0.078525156 0.88764393 0.89178824 0.0783874 0.8876489
        0.8945435 0.07823619 0.88765454 0.8970855 0.07807636 0.8876608
        0.8994206 0.07791235 0.8876674 0.9015573 0.07774803 0.8876742
        0.9035055 0.07758657 0.8876812 0.9052764 0.07743048 0.88768804
        0.9068818 0.07728157 0.88769466 0.90833384 0.077141106 0.88770103
        0.90964454 0.07700982 0.8877071 0.9108256 0.07688805 0.8877128
        0.9118883 0.07677584 0.8877181 0.9128433 0.07667298 0.88772297
        0.91370046 0.07657912 0.88772744 0.9144692 0.07649376 0.88773155
        0.91515803 0.0764164 0.8877353 0.91577476 0.07634645 0.8877387
        0.9163267 0.07628332 0.8877418 0.9168203 0.07622645 0.8877446
        0.91726154 0.07617529 0.8877471 0.91765577 0.076129325 0.8877494
        0.9180081 0.07608803 0.88775146 0.67991215 0.031963322 0.88932824
        0.6812328 0.032767706 0.88930094 0.68264604 0.033626467 0.889271
        0.6841637 0.034545437 0.8892382 0.6857995 0.03553092 0.88920194
        0.687569 0.036589652 0.88916194 0.6894899 0.037728626 0.8891176
        0.6915815 0.03895483 0.88906837 0.6938647 0.04027487 0.8890137
        0.6963617 0.041694406 0.8889529 0.6990952 0.043217465 0.8888855
        0.7020869 0.04484545 0.88881093 0.7053559 0.046575863 0.8887291
        0.70891553 0.04840121 0.8886399 0.7127734 0.050308976 0.8885442
        0.7169308 0.052282464 0.8884426 0.7213848 0.054302506 0.8883365
        0.7261315 0.0563495 0.8882274 0.73116827 0.058404807 0.88811713
        0.7364956 0.06045113 0.88800746 0.742116 0.06247191 0.8879005
        0.7480284 0.064449064 0.8877983 0.75422215 0.06636159 0.8877036
        0.7606759 0.06818674 0.8876186 0.7673561 0.06990129 0.88754576
        0.77422464 0.071485184 0.8874867 0.7812382 0.07292247 0.8874424
        0.78832775 0.074198924 0.88741297 0.7954262 0.07530946 0.8873974
        0.80285525 0.07630501 0.8873939 0.81011057 0.07712802 0.88740057
        0.81711215 0.077798 0.88741386 0.82381374 0.07833964 0.8874303
        0.83018565 0.07877677 0.88744736 0.83621997 0.0791305 0.88746315
        0.84192497 0.07941764 0.8874765 0.8473219 0.079650596 0.8874872
        0.85244024 0.079837784 0.8874951 0.8573124 0.07998441 0.8875007
        0.8619654 0.08009313 0.88750446 0.8664147 0.08016501 0.88750696
        0.8706658 0.080200516 0.88750875 0.8747177 0.080200344 0.88751036
        0.87856627 0.08016593 0.88751227 0.8822058 0.08009971 0.88751477
        0.8856312 0.08000513 0.8875181 0.8888391 0.079886466 0.88752234
        0.8918285 0.079748526 0.8875275 0.89460063 0.07959632 0.8875334
        0.8971595 0.07943473 0.88754 0.8995114 0.07926831 0.887547
        0.9016643 0.07910104 0.8875543 0.9036281 0.078936264 0.8875617
        0.90541375 0.07877658 0.887569 0.907033 0.07862397 0.88757616
        0.908498 0.078479774 0.8875831 0.9098206 0.07834481 0.8875896
        0.91101265 0.0782195 0.8875957 0.9120854 0.07810393 0.88760144
        0.9130495 0.07799793 0.8876067 0.91391504 0.07790115 0.8876115
        0.9146913 0.077813126 0.887616 0.9153869 0.07773331 0.88762
        0.91600984 0.077661134 0.88762367 0.91656727 0.077595994 0.887627
        0.9170658 0.07753732 0.88763 0.9175115 0.07748453 0.8876327
        0.9179098 0.0774371 0.8876352 0.91826564 0.07739452 0.8876374
        0.67912346 0.03303949 0.88928777 0.6804569 0.03385805 0.889259
        0.68188184 0.034730576 0.88922745 0.6834104 0.035662923 0.88919294
        0.68505645 0.036661424 0.88915485 0.68683594 0.03773286 0.88911295
        0.6887667 0.03888427 0.8890666 0.6908685 0.040122718 0.8890152
        0.6931626 0.04145489 0.88895816 0.6956716 0.042886548 0.8888949
        0.69841844 0.044421796 0.8888248 0.70142525 0.046062104 0.88874733
        0.70471126 0.04780497 0.88866234 0.70829016 0.04964281 0.88856995
        0.7121692 0.051562924 0.88847065 0.7163494 0.053548396 0.8883654
        0.72082776 0.055579875 0.88825554 0.72559977 0.057637654 0.8881426
        0.73066276 0.059703086 0.8880284 0.7360173 0.061759006 0.88791484
        0.7416661 0.063788965 0.887804 0.7476084 0.06577496 0.8876981
        0.7538338 0.06769595 0.88759977 0.7603206 0.06952896 0.88751143
        0.7670352 0.07125053 0.8874355 0.773939 0.07284034 0.8873737
        0.7809886 0.07428217 0.887327 0.7881139 0.075561486 0.88729566
        0.79524654 0.07667303 0.8872786 0.8027082 0.07766766 0.8872741
        0.8099915 0.078488074 0.8872801 0.81701547 0.07915441 0.8872929
        0.82373387 0.07969203 0.8873092 0.83011734 0.08012541 0.887326
        0.8361589 0.08047612 0.8873417 0.84186774 0.080761306 0.88735485
        0.8472665 0.08099354 0.8873653 0.8523857 0.08118123 0.887373
        0.85725904 0.08132943 0.8873783 0.86191446 0.08144063 0.88738173
        0.86636794 0.081515595 0.8873839 0.8706254 0.08155449 0.8873853
        0.87468594 0.08155768 0.8873867 0.8785452 0.08152634 0.88738835
        0.88219744 0.08146263 0.88739073 0.88563716 0.08136983 0.887394
        0.8888606 0.081252076 0.8873983 0.89186627 0.08111413 0.88740367
        0.8946553 0.080961 0.8874098 0.8972311 0.080797665 0.8874167
        0.8995998 0.08062877 0.8874242 0.90176904 0.08045843 0.8874319
        0.90374845 0.08029012 0.88743985 0.905549 0.080126606 0.88744766
        0.9071823 0.07996997 0.88745534 0.9086603 0.079821706 0.88746274
        0.9099951 0.07968273 0.88746977 0.91119826 0.07955354 0.8874764
        0.9122812 0.07943427 0.8874825 0.9132547 0.07932478 0.8874882
        0.91412866 0.079224765 0.8874935 0.9149126 0.079133764 0.88749826
        0.9156152 0.079051234 0.8875026 0.9162443 0.07897658 0.8875066
        0.9168074 0.0789092 0.88751024 0.9173111 0.07884852 0.88751346
        0.9177613 0.07879392 0.8875164 0.91816366 0.07874487 0.88751906
        0.91852325 0.078700826 0.88752145 0.6783348 0.034115613 0.889246
        0.679681 0.034949254 0.8892156 0.6811176 0.03583638 0.8891824
        0.6826569 0.036782876 0.8891461 0.684313 0.0377951 0.8891062
        0.6861022 0.03887986 0.8890623 0.6880427 0.04004426 0.8890138
        0.6901545 0.041295424 0.8889602 0.6924593 0.042640146 0.8889008
        0.69497997 0.044084277 0.88883495 0.69773996 0.045632023 0.8887622
        0.7007618 0.047284927 0.88868177 0.7040648 0.049040478 0.8885936
        0.70766276 0.050890993 0.88849777 0.71156293 0.052823585 0.88839495
        0.7157661 0.054821122 0.88828593 0.72026867 0.056864068 0.8881722
        0.72506607 0.058932602 0.88805544 0.7301554 0.061008107 0.8879373
        0.7355372 0.06307354 0.8878198 0.74121445 0.06511261 0.8877051
        0.74718684 0.06710738 0.8875954 0.7534439 0.069036745 0.88749343
        0.759964 0.07087754 0.8874017 0.7667131 0.07260599 0.8873226
        0.77365243 0.07420154 0.887258 0.78073823 0.07564767 0.887209
        0.7878995 0.076929525 0.88717574 0.79506654 0.07804164 0.8871573
        0.80256104 0.07903477 0.8871518 0.8098723 0.07985197 0.88715714
        0.8169188 0.08051403 0.8871696 0.82365394 0.081047006 0.8871857
        0.83004904 0.081476085 0.8872025 0.83609766 0.08182337 0.887218
        0.84181035 0.08210635 0.8872311 0.84721076 0.082337745 0.8872413
        0.8523307 0.08252596 0.8872487 0.85720503 0.08267594 0.8872537
        0.8618626 0.0827899 0.88725674 0.8663202 0.08286832 0.8872585
        0.8705838 0.08291103 0.88725954 0.87465274 0.08291803 0.88726056
        0.8785226 0.08289018 0.887262 0.88218725 0.0828294 0.8872642
        0.88564104 0.08273872 0.8872675 0.8888799 0.08262217 0.88727176
        0.8919018 0.082484424 0.8872772 0.89470756 0.08233052 0.8872836
        0.89730036 0.08216547 0.8872909 0.89968574 0.08199406 0.88729876
        0.9018714 0.08182052 0.887307 0.90386665 0.08164848 0.8873154
        0.9056822 0.081480876 0.8873238 0.9073296 0.081319936 0.8873321
        0.90882087 0.081167266 0.88734 0.9101679 0.08102392 0.8873476
        0.9113824 0.08089046 0.88735473 0.9124757 0.08076711 0.8873614
        0.91345865 0.08065379 0.8873676 0.9143413 0.08055019 0.8873732
        0.9151331 0.08045587 0.88737845 0.9158428 0.080370314 0.88738316
        0.91647834 0.0802929 0.8873875 0.9170472 0.08022304 0.8873914
        0.91755605 0.080160104 0.8873949 0.918011 0.08010349 0.88739806
        0.9184175 0.08005264 0.8874009 0.91878086 0.080006965 0.88740355
        0.677546 0.035191678 0.8892029 0.6789051 0.03604139 0.8891708
        0.6803532 0.036944035 0.8891359 0.681903 0.037905514 0.88909775
        0.68356895 0.038932197 0.88905597 0.68536764 0.04003091 0.88901
        0.6873176 0.04120884 0.8889594 0.6894392 0.042473186 0.8889035
        0.69175446 0.043830838 0.8888416 0.6942867 0.045287777 0.8887732
        0.6970597 0.04684832 0.88869756 0.7000963 0.048514068 0.8886141
        0.7034162 0.050282523 0.88852274 0.7070333 0.05214588 0.8884235
        0.71095455 0.054091074 0.88831705 0.71518064 0.05610075 0.8882043
        0.7197076 0.058155164 0.8880867 0.72453046 0.06023442 0.8879659
        0.72964615 0.06231994 0.8878439 0.73505527 0.0643948 0.88772243
        0.74076116 0.06644291 0.88760376 0.74676365 0.06844639 0.88749033
        0.7530525 0.07038405 0.88738453 0.759606 0.07223253 0.88728935
        0.7663897 0.07396776 0.8872071 0.77336484 0.07556888 0.8871397
        0.7804871 0.07701908 0.8870883 0.7876845 0.078303136 0.8870532
        0.79488623 0.079415396 0.88703346 0.80241364 0.08040645 0.8870269
        0.80975306 0.081219785 0.8870317 0.81682205 0.081876874 0.88704395
        0.82357407 0.08240459 0.88705987 0.8299806 0.08282882 0.8870766
        0.8360363 0.08317225 0.8870921 0.84175277 0.08345274 0.88710505
        0.84715474 0.08368319 0.8871151 0.8522753 0.08387198 0.8871222
        0.85715044 0.084023915 0.8871268 0.8618101 0.08414094 0.8871295
        0.86627144 0.08422321 0.88713086 0.87054104 0.08427017 0.88713145
        0.87461823 0.08428147 0.8871321 0.8784984 0.08425759 0.88713324
        0.8821753 0.084200166 0.8871352 0.88564306 0.084111996 0.8871383
        0.88889706 0.08399697 0.88714266 0.89193517 0.083859675 0.8871482
        0.8947576 0.08370515 0.8871549 0.8973673 0.08353847 0.88716245
        0.89976954 0.08336452 0.8871708 0.90197164 0.08318768 0.8871795
        0.9039827 0.08301175 0.88718843 0.9058134 0.08283981 0.88719743
        0.90747505 0.082674265 0.8872063 0.90897965 0.08251684 0.8872149
        0.9103391 0.08236875 0.88722306 0.91156507 0.082230635 0.8872308
        0.91266894 0.0821028 0.887238 0.91366154 0.08198523 0.8872447
        0.914553 0.08187766 0.88725084 0.91535276 0.081779666 0.8872565
        0.9160696 0.08169073 0.8872616 0.91671175 0.081610255 0.88726634
        0.9172865 0.081537604 0.88727057 0.91780066 0.08147215 0.8872744
        0.9182604 0.081413284 0.88727784 0.91867125 0.08136041 0.88728094
        0.9190384 0.081312925 0.88728374 0.67675734 0.03626769 0.88915855
        0.67812914 0.03713457 0.88912475 0.67958856 0.038053744 0.889088
        0.68114865 0.039031092 0.8890479 0.68282413 0.040072996 0.8890041
        0.68463206 0.04118632 0.88895607 0.6865912 0.042378303 0.8889032
        0.6887223 0.043656256 0.8888449 0.6910479 0.0450272 0.8887806
        0.69359154 0.04649726 0.8887094 0.6963774 0.048070855 0.8886309
        0.69942874 0.049749687 0.8885445 0.70276546 0.05153124 0.8884498
        0.7064015 0.053407602 0.8883471 0.71034396 0.05536551 0.88823694
        0.714593 0.057387374 0.88812035 0.71914434 0.05945326 0.8879988
        0.7239927 0.0615432 0.88787407 0.7291349 0.06363866 0.887748
        0.73457146 0.065722875 0.88762254 0.74030596 0.067779936 0.8874999
        0.7463387 0.06979205 0.88738257 0.75265944 0.071737945 0.8872731
        0.7592465 0.07359403 0.88717437 0.7660652 0.07533592 0.88708895
        0.7730762 0.07694245 0.88701874 0.7802351 0.078396484 0.886965
        0.7874689 0.079682425 0.886928 0.7947055 0.08079439 0.88690686
        0.802266 0.081782795 0.8868995 0.80963373 0.08259159 0.88690376
        0.8167253 0.08324304 0.8869158 0.8234941 0.08376482 0.8869317
        0.8299122 0.084183626 0.8869485 0.8359749 0.084522754 0.886964
        0.84169495 0.08480046 0.8869769 0.8470984 0.085029826 0.88698673
        0.85221946 0.08521926 0.8869936 0.85709536 0.08537333 0.8869978
        0.8617569 0.08549375 0.887 0.8662219 0.08558029 0.88700086
        0.8704972 0.08563198 0.88700104 0.8745824 0.085648075 0.8870012
        0.8784727 0.08562867 0.88700193 0.88216174 0.08557508 0.88700366
        0.88564324 0.085489854 0.8870066 0.8889123 0.08537671 0.88701093
        0.89196646 0.08524014 0.8870166 0.89480555 0.0850852 0.88702345
        0.89743215 0.084917 0.8870314 0.8998512 0.08474054 0.8870401
        0.90206975 0.084560335 0.8870493 0.9040968 0.08438036 0.8870589
        0.9059426 0.084203854 0.8870685 0.9076187 0.0840334 0.88707805
        0.9091368 0.0838709 0.8870873 0.91050875 0.08371766 0.8870961
        0.9117464 0.083574474 0.88710445 0.912861 0.08344173 0.8871123
        0.91386336 0.08331947 0.88711953 0.9147637 0.0832075 0.8871262
        0.91557163 0.08310543 0.88713235 0.9162959 0.08301273 0.88713795
        0.9169447 0.082928814 0.887143 0.9175255 0.082853034 0.88714767
        0.91804504 0.08278477 0.88715184 0.91850966 0.082723364 0.8871556
        0.91892487 0.08266822 0.887159 0.919296 0.082618706 0.887162
        0.67596865 0.03734365 0.8891129 0.677353 0.038228925 0.8890772
        0.67882353 0.039165746 0.88903856 0.6803935 0.040159926 0.88899654
        0.6820783 0.041217845 0.88895065 0.6838951 0.042346414 0.88890046
        0.68586326 0.043552954 0.88884526 0.6880037 0.04484492 0.8887846
        0.6903394 0.046229493 0.8887176 0.6928943 0.047712933 0.88864374
        0.6956929 0.049299825 0.8885623 0.69875884 0.05099195 0.8884728
        0.7021123 0.052786782 0.88837475 0.7057674 0.054676294 0.8882685
        0.709731 0.056647014 0.8881545 0.714003 0.058681104 0.88803405
        0.7185789 0.06075845 0.8879086 0.72345287 0.062859006 0.8877798
        0.72862154 0.064964324 0.88764966 0.7340856 0.06705782 0.88752013
        0.739849 0.06912376 0.8873936 0.745912 0.07114445 0.8872723
        0.75226486 0.07309851 0.88715905 0.7588856 0.07496214 0.88705677
        0.76573926 0.076710574 0.8869681 0.77278644 0.07832237 0.88689506
        0.7799822 0.07978003 0.886839 0.78725266 0.081067525 0.88680017
        0.7945243 0.082178734 0.8867777 0.8021181 0.083163895 0.88676935
        0.8095142 0.0839675 0.8867733 0.81662846 0.08461258 0.8867852
        0.8234141 0.08512775 0.8868012 0.82984364 0.08554053 0.8868181
        0.8359133 0.085874885 0.88683367 0.84163696 0.0861495 0.8868465
        0.8470418 0.08637766 0.8868562 0.8521633 0.08656774 0.8868627
        0.85703987 0.08672418 0.88686657 0.8617031 0.086848326 0.8868683
        0.8661716 0.08693958 0.88686854 0.8704525 0.086996526 0.88686824
        0.87454545 0.08701794 0.8868679 0.8784457 0.08700357 0.8868682
        0.88214666 0.08695431 0.8868695 0.88564175 0.0868725 0.88687223
        0.8889258 0.08676164 0.8868765 0.8919959 0.08662615 0.88688225
        0.89485157 0.08647102 0.8868893 0.897495 0.08630146 0.88689756
        0.89993083 0.08612254 0.88690674 0.90216595 0.08593895 0.8869165
        0.90420896 0.0857548 0.88692665 0.9060701 0.08557355 0.88693696
        0.9077607 0.085397914 0.88694715 0.90929234 0.08522998 0.8869571
        0.910677 0.0850712 0.88696665 0.9119264 0.0849225 0.88697565
        0.91305184 0.08478439 0.88698417 0.9140641 0.084656976 0.8869921
        0.91497356 0.08454012 0.88699937 0.9157897 0.08443349 0.887006
        0.9165215 0.08433658 0.8870122 0.9171771 0.0842488 0.88701767
        0.917764 0.08416953 0.8870227 0.9182891 0.084098086 0.88702726
        0.91875875 0.084033825 0.8870314 0.9191784 0.08397612 0.8870351
        0.91955364 0.083924316 0.8870384 0.67517996 0.038419552 0.8890659
        0.67657655 0.03932464 0.8890283 0.67805773 0.040280353 0.8889876
        0.6796373 0.041292414 0.8889435 0.68133104 0.04236716 0.8888955
        0.68315655 0.043511588 0.888843 0.6851334 0.04473315 0.8887854
        0.68728304 0.04603949 0.88872224 0.68962866 0.04743796 0.8886527
        0.6921947 0.048935022 0.88857603 0.69500595 0.050535426 0.88849163
        0.69808644 0.052241024 0.8883988 0.7014566 0.054049306 0.88829744
        0.7051307 0.0559521 0.8881876 0.70911545 0.05793571 0.8880698
        0.71341056 0.059982054 0.8879455 0.718011 0.06207083 0.8878159
        0.7229107 0.064181946 0.88768303 0.728106 0.06629704 0.88754886
        0.73359776 0.06839972 0.8874153 0.73938996 0.07047446 0.88728464
        0.7454835 0.07250367 0.88715935 0.7518685 0.074465856 0.88704234
        0.75852317 0.076336935 0.8869365 0.76541203 0.07809184 0.8868445
        0.7724955 0.07970876 0.88676864 0.7797284 0.08116982 0.88671017
        0.78703576 0.08245855 0.8866695 0.7943427 0.083568566 0.8866458
        0.80196995 0.08454989 0.8866367 0.8093946 0.085347585 0.88664025
        0.81653154 0.08598558 0.8866522 0.82333404 0.086493425 0.8866683
        0.82977504 0.086899556 0.8866854 0.83585167 0.08722863 0.88670105
        0.84157884 0.08749983 0.8867139 0.84698504 0.08772662 0.88672346
        0.85210687 0.08791741 0.88672966 0.8569839 0.08807641 0.8867331
        0.8616488 0.08820467 0.88673425 0.8661206 0.08830111 0.88673395
        0.8704069 0.08836383 0.886733 0.8745075 0.08839117 0.88673204
        0.8784175 0.088382386 0.8867318 0.8821302 0.08833804 0.8867328
        0.8856388 0.08826017 0.88673526 0.8889377 0.088152036 0.8867393
        0.8920236 0.08801799 0.88674504 0.8948958 0.08786299 0.8867523
        0.89755607 0.08769227 0.8867609 0.90000874 0.087510996 0.8867705
        0.90226036 0.08732402 0.88678086 0.9043194 0.08713563 0.88679165
        0.906196 0.086949445 0.8868026 0.9079011 0.08676838 0.8868136
        0.90944654 0.08659469 0.88682425 0.910844 0.08642998 0.88683456
        0.9121052 0.08627534 0.8868444 0.9132416 0.08613136 0.8868536
        0.91426396 0.085998274 0.88686216 0.9151826 0.085876025 0.8868701
        0.91600716 0.085764304 0.8868774 0.91674656 0.08566266 0.8868841
        0.917409 0.085570544 0.8868902 0.9180022 0.0854873 0.88689566
        0.9185329 0.08541226 0.88690066 0.9190076 0.085344754 0.88690513
        0.91943187 0.08528413 0.8869092 0.9198112 0.085229725 0.8869128
        0.67439127 0.039495394 0.8890177 0.67579967 0.04042197 0.888978
        0.677291 0.041398 0.8889352 0.6788797 0.042429034 0.8888889
        0.680582 0.043521423 0.8888386 0.6824159 0.044682283 0.8887838
        0.6844013 0.045919277 0.8887238 0.68656 0.047240272 0.88865805
        0.68891543 0.048652865 0.88858575 0.69149244 0.050163753 0.8885063
        0.69431627 0.05177784 0.8884188 0.69741124 0.053497087 0.8883228
        0.70079815 0.055318967 0.8882179 0.7044912 0.05723516 0.8881043
        0.7084972 0.059231736 0.8879828 0.7128155 0.061290357 0.8878544
        0.7174406 0.06339052 0.8877208 0.72236615 0.065512106 0.88758385
        0.72758824 0.06763687 0.88744545 0.7331077 0.06974864 0.88730776
        0.7389289 0.07183212 0.88717306 0.74505305 0.0738698 0.8870438
        0.75147045 0.075840056 0.8869229 0.75815916 0.077718556 0.8868134
        0.7650834 0.07947982 0.88671815 0.7722033 0.081101745 0.88663936
        0.77947354 0.082566 0.88657856 0.786818 0.083855644 0.8865361
        0.79416054 0.08496404 0.88651115 0.8018215 0.08594089 0.8865013
        0.80927473 0.08673197 0.88650465 0.8164345 0.08736211 0.88651663
        0.8232539 0.08786191 0.886533 0.8297064 0.088260725 0.88655037
        0.83578986 0.088584006 0.8865662 0.84152055 0.088851415 0.88657916
        0.846928 0.08907669 0.8865885 0.8520502 0.08926821 0.8865945
        0.85692763 0.08943002 0.8865974 0.86159396 0.089562766 0.886598
        0.866069 0.08966489 0.88659704 0.87036055 0.08973399 0.8865953
        0.8744686 0.08976786 0.88659376 0.8783883 0.0897653 0.88659286
        0.88211256 0.089726485 0.8865934 0.8856345 0.08965309 0.8865955
        0.88894814 0.08954821 0.8865994 0.89204985 0.089416035 0.88660514
        0.8949385 0.089261495 0.88661253 0.89761555 0.08908985 0.8866214
        0.9000851 0.0889064 0.8866314 0.90235335 0.0887161 0.88664234
        0.9044285 0.08852343 0.8866537 0.90632045 0.0883322 0.88666546
        0.9080403 0.088145494 0.8866772 0.9095995 0.08796576 0.88668865
        0.91100985 0.08779476 0.8866998 0.91228306 0.08763372 0.8867104
        0.91343045 0.087483376 0.8867204 0.914463 0.08734408 0.8867298
        0.91539097 0.087215856 0.8867385 0.91622394 0.087098464 0.88674647
        0.9169711 0.086991504 0.8867538 0.91764057 0.08689445 0.8867604
        0.91824 0.086806685 0.8867665 0.9187765 0.08672753 0.886772
        0.9192564 0.08665631 0.8867769 0.9196853 0.08659236 0.88678133
        0.9200688 0.08653496 0.8867853 0.6736026 0.04057118 0.88896817
        0.675022 0.041521277 0.88892627 0.6765228 0.042519253 0.8888812
        0.67812014 0.04357042 0.88883257 0.6798307 0.04468122 0.8887799
        0.68167275 0.045859 0.88872266 0.6836665 0.04711174 0.88866025
        0.68583417 0.0484476 0.8885918 0.68819934 0.049874492 0.8885168
        0.6907873 0.05139935 0.88843435 0.69362366 0.05302727 0.8883438
        0.6967331 0.05476032 0.8882445 0.70013666 0.05659593 0.88813615
        0.7038488 0.058525633 0.88801885 0.7078761 0.060535226 0.8878934
        0.7122176 0.06260611 0.88776094 0.71686757 0.06471762 0.88762325
        0.72181904 0.06684957 0.8874821 0.72706807 0.068983905 0.88733953
        0.7326154 0.07110466 0.88719773 0.7384658 0.07319682 0.8870588
        0.7446207 0.07524292 0.8869255 0.7510705 0.077221215 0.88680077
        0.7577934 0.07910708 0.8866876 0.7647533 0.08087465 0.886589
        0.7719099 0.082501456 0.88650733 0.7792177 0.08396872 0.88644415
        0.7865995 0.08525897 0.8863999 0.79397786 0.086365275 0.8863737
        0.8016726 0.087337054 0.8863632 0.8091547 0.08812079 0.88636637
        0.81633735 0.088742286 0.8863785 0.8231737 0.08923326 0.8863953
        0.8296376 0.08962409 0.886413 0.83572805 0.089941 0.8864291
        0.84146214 0.09020424 0.8864421 0.8468709 0.0904278 0.8864515
        0.85199326 0.09062011 0.8864571 0.856871 0.09078495 0.88645947
        0.86153877 0.0909226 0.8864594 0.8660169 0.09103096 0.8864577
        0.8703136 0.09110706 0.88645524 0.874429 0.091148145 0.8864529
        0.8783581 0.09115248 0.8864514 0.88209397 0.09111984 0.8864513
        0.88562906 0.091051556 0.886453 0.8889574 0.09095047 0.8864566
        0.8920748 0.09082065 0.8864623 0.8949799 0.09066696 0.8864698
        0.8976738 0.09049472 0.8864789 0.9001602 0.09030929 0.88648933
        0.902445 0.0901158 0.8865008 0.9045363 0.08991889 0.88651294
        0.9064438 0.08972253 0.88652533 0.9081783 0.08953004 0.88653785
        0.9097515 0.089344 0.88655025 0.91117483 0.08916637 0.8865622
        0.91246015 0.088998534 0.88657373 0.9136187 0.08884135 0.88658464
        0.91466147 0.08869528 0.8865948 0.9155988 0.08856046 0.8866043
        0.91644037 0.088436745 0.8866131 0.91719526 0.0883238 0.8866211
        0.9178718 0.08822114 0.88662845 0.91847765 0.08812818 0.8866351
        0.91901994 0.08804426 0.88664114 0.919505 0.08796872 0.8866466
        0.9199386 0.08790088 0.8866515 0.9203264 0.08783998 0.8866559
        0.6728139 0.0416469 0.8889174 0.6742431 0.042623155 0.88887304
        0.67575246 0.043644927 0.88882554 0.6773579 0.044717368 0.8887745
        0.6790764 0.045847222 0.88871944 0.6809265 0.04704228 0.8886597
        0.6829286 0.04831095 0.8885947 0.68510514 0.049661815 0.88852364
        0.6874801 0.051103096 0.8884458 0.690079 0.052642033 0.8883604
        0.6929278 0.054283906 0.8882667 0.69605166 0.056030888 0.888164
        0.69947195 0.05788036 0.888052 0.7032032 0.059823666 0.8879309
        0.70725185 0.061846334 0.8878015 0.7116168 0.06392947 0.887665
        0.71629167 0.06605222 0.8875231 0.7212693 0.06819444 0.8873778
        0.72654545 0.07033821 0.887231 0.7321208 0.07246788 0.88708496
        0.73800045 0.074568644 0.8869419 0.74418616 0.07662314 0.8868045
        0.75066864 0.07860946 0.8866758 0.75742596 0.08050265 0.8865589
        0.7644216 0.082276456 0.88645697 0.77161515 0.083908044 0.8863724
        0.7789607 0.08537815 0.88630676 0.7863801 0.0866687 0.88626075
        0.7937945 0.087772466 0.88623345 0.80152327 0.08873854 0.88622236
        0.80903435 0.08951416 0.8862255 0.81624 0.090126224 0.8862379
        0.82309335 0.09060757 0.8862551 0.82956874 0.09098968 0.88627326
        0.83566606 0.09129963 0.8862898 0.84140366 0.09155828 0.88630295
        0.84681356 0.09177993 0.8863122 0.85193616 0.091973044 0.8863175
        0.8568142 0.09214119 0.88631934 0.8614833 0.09228419 0.88631856
        0.8659644 0.092399366 0.88631606 0.87026614 0.09248315 0.88631266
        0.87438875 0.09253215 0.8863095 0.87832725 0.09254412 0.88630724
        0.8820745 0.09251837 0.88630646 0.8856228 0.09245585 0.8863076
        0.88896567 0.092359185 0.88631094 0.89209884 0.09223225 0.8863164
        0.8950203 0.09207988 0.88632405 0.897731 0.09190739 0.88633335
        0.9002343 0.091720276 0.8863442 0.9025358 0.091523774 0.88635623
        0.9046433 0.0913227 0.886369 0.9065664 0.09112123 0.8863822
        0.9083158 0.09092285 0.8863956 0.9099029 0.09073034 0.8864088
        0.9113393 0.09054583 0.8864217 0.91263676 0.090370834 0.88643414
        0.91380656 0.09020636 0.88644594 0.91485965 0.09005301 0.8864571
        0.9158064 0.08991098 0.88646746 0.9166566 0.08978026 0.8864771
        0.9174193 0.08966058 0.886486 0.918103 0.0895515 0.8864941
        0.91871524 0.08945253 0.8865015 0.9192633 0.08936304 0.8865082
        0.9197536 0.08928238 0.88651425 0.92019194 0.08920989 0.8865197
        0.92058396 0.08914483 0.88652456 0.6720252 0.042722557 0.88886523
        0.67346215 0.043728616 0.88881826 0.6749791 0.044776186 0.8887682
        0.67659223 0.045870863 0.8887147 0.6783185 0.04702019 0.88865703
        0.6801766 0.048232686 0.88859475 0.68218714 0.049517337 0.88852715
        0.68437254 0.050883207 0.88845336 0.6867572 0.052338917 0.88837266
        0.68936706 0.053891987 0.8882842 0.6922284 0.055547915 0.8881872
        0.69536674 0.05730895 0.8880811 0.6988037 0.059172403 0.88796556
        0.70255417 0.061129406 0.8878406 0.7066243 0.06316517 0.8877071
        0.71101284 0.06526052 0.8875665 0.71571285 0.06739444 0.8874204
        0.7207168 0.0695468 0.8872708 0.72602016 0.07169989 0.88711977
        0.7316237 0.07383835 0.8869695 0.7375328 0.07594767 0.8868222
        0.74374956 0.078010544 0.88668066 0.7502648 0.08000488 0.8865479
        0.7570567 0.08190539 0.88642734 0.7640883 0.08368537 0.8863221
        0.771319 0.085321665 0.8862345 0.77870256 0.086794436 0.8861665
        0.7861598 0.08808501 0.88611877 0.79361045 0.0891858 0.88609034
        0.8013734 0.09014551 0.8860787 0.80891365 0.09091225 0.8860819
        0.81614244 0.091514036 0.88609475 0.8230129 0.09198493 0.8861125
        0.8294998 0.09235754 0.8861312 0.835604 0.092659906 0.8861481
        0.8413451 0.09291351 0.8861615 0.84675616 0.093133025 0.8861707
        0.8518789 0.093326956 0.8861757 0.85675716 0.093498684 0.88617694
        0.86142755 0.09364751 0.8861754 0.8659116 0.09377015 0.88617194
        0.8702183 0.093862325 0.88616765 0.874348 0.09392003 0.88616353
        0.87829584 0.09394044 0.8861603 0.8820544 0.093922324 0.88615876
        0.8856158 0.09386632 0.88615936 0.8889733 0.09377471 0.8861623
        0.8921221 0.09365127 0.8861676 0.89506006 0.09350074 0.88617516
        0.8977876 0.09332846 0.8861847 0.9003078 0.09313998 0.8861959
        0.902626 0.09294072 0.8862085 0.9047498 0.09273565 0.8862218
        0.9066886 0.092529155 0.88623583 0.90845287 0.09232489 0.8862501
        0.910054 0.092125826 0.88626426 0.9115037 0.09193425 0.8862781
        0.91281337 0.09175184 0.8862915 0.9139945 0.09157975 0.8863043
        0.915058 0.09141866 0.8863164 0.91601425 0.09126891 0.8863278
        0.9168731 0.09113053 0.88633835 0.91764367 0.09100335 0.8863482
        0.9183344 0.09088701 0.8863572 0.91895306 0.09078105 0.8863654
        0.9195069 0.09068493 0.8863729 0.92000234 0.09059804 0.8863797
        0.9204453 0.09051978 0.88638586 0.9208416 0.09044948 0.8863914
        0.6712365 0.043798156 0.8888118 0.6726777 0.044839587 0.8887618
        0.67420137 0.04591466 0.88870907 0.675822 0.047032043 0.88865286
        0.6775562 0.04820089 0.8885927 0.6794225 0.04943072 0.8885278
        0.6814415 0.050731227 0.88845754 0.6836359 0.052112006 0.888381
        0.68603045 0.053582102 0.8882974 0.68865126 0.055149335 0.88820577
        0.69152516 0.056819398 0.8881055 0.694678 0.058594596 0.8879959
        0.69813186 0.060472157 0.88787663 0.7019015 0.062442936 0.8877479
        0.7059933 0.06449182 0.8876103 0.7104055 0.066599354 0.8874655
        0.71513087 0.068744324 0.88731515 0.72016126 0.07090667 0.8871612
        0.7254921 0.073068924 0.8870059 0.73112404 0.07521609 0.8868513
        0.7370627 0.07733393 0.8866998 0.7433107 0.07940518 0.88655406
        0.749859 0.08140755 0.88641727 0.75668555 0.08331537 0.8862929
        0.7637533 0.0851015 0.88618416 0.7710213 0.08674243 0.8860937
        0.77844316 0.08821774 0.8860233 0.7859385 0.08950806 0.8859737
        0.7934256 0.09060541 0.88594425 0.8012231 0.09155812 0.88593227
        0.8087926 0.09231519 0.8859355 0.8160447 0.09290582 0.8859489
        0.8229322 0.09336538 0.8859674 0.8294307 0.09372769 0.88598675
        0.8355419 0.0940218 0.88600415 0.84128636 0.09426987 0.88601786
        0.8466987 0.09448699 0.88602704 0.8518216 0.09468178 0.8860317
        0.85670006 0.094857365 0.88603234 0.86137164 0.095012546 0.88602996
        0.86585855 0.09514334 0.8860255 0.8701701 0.095244706 0.8860201
        0.874307 0.09531196 0.8860149 0.87826407 0.095341645 0.88601065
        0.88203394 0.09533202 0.88600826 0.88560843 0.0952833 0.8860081
        0.8889805 0.09519751 0.8860106 0.892145 0.09507822 0.88601553
        0.8950994 0.0949301 0.886023 0.8978439 0.09475852 0.8860327
        0.9003811 0.09456911 0.88604426 0.9027161 0.094367415 0.8860573
        0.90485626 0.094158605 0.8860714 0.9068108 0.09394724 0.88608617
        0.90859014 0.09373718 0.88610125 0.9102055 0.093531586 0.8861164
        0.9116684 0.0933329 0.8861312 0.91299045 0.09314298 0.88614565
        0.914183 0.09296306 0.88615954 0.915257 0.09279399 0.8861727
        0.9162229 0.09263616 0.8861851 0.9170904 0.09248969 0.8861967
        0.91786885 0.09235443 0.88620746 0.9185667 0.09223009 0.8862175
        0.9191917 0.09211621 0.88622665 0.91975117 0.092012264 0.8862351
        0.92025167 0.09191765 0.8862428 0.92069906 0.09183177 0.8862498
        0.9210991 0.09175393 0.8862562
        <InformationKey name="L2_NORM_RANGE" location="vtkDataArray" length="2">
          <Value index="0">
            1.1146583337
          </Value>
          <Value index="1">
            1.2815195933
          </Value>
        </InformationKey>
      </DataArray>
    </Points>
  </Piece>
  </StructuredGrid>
</VTKFile>
