<?xml version="1.0"?>
<VTKFile type="StructuredGrid" version="0.1" byte_order="LittleEndian" header_type="UInt32" compressor="vtkZLibDataCompressor">
  <StructuredGrid WholeExtent="0 30 0 40 0 0">
  <Piece Extent="0 30 0 40 0 0">
    <PointData>
      <DataArray type="Float32" Name="orthogonality" format="ascii" RangeMin="6.110000336624968e-14" RangeMax="0.21060998737812042">
        0.19273627 0.19758502 0.20160358 0.20480487 0.2072429 0.20898536
        0.21009329 0.21060999 0.21055622 0.20992851 0.20869792 0.2068087
        0.20417833 0.20070115 0.19625995 0.19074751 0.18409465 0.17629415
        0.16740571 0.15753527 0.1467967 0.13527516 0.12300944 0.1099988
        0.096226394 0.08168702 0.066408634 0.050463628 0.033970203 0.017086525
        6.11e-14 0.18568154 0.19019233 0.19414566 0.19759181 0.20049863
        0.20284432 0.20461464 0.2057978 0.20637873 0.20633298 0.20562123
        0.20418441 0.20194143 0.19879152 0.1946251 0.18934427 0.18288966
        0.1752624 0.16652788 0.15679471 0.1461775 0.13476162 0.12258664
        0.10965331 0.09594692 0.08146451 0.06623615 0.050336067 0.033884067
        0.017039934 7.8655785e-06 0.18146437 0.18506786 0.18843165 0.19169548
        0.19472437 0.19739969 0.19962426 0.20132114 0.2024279 0.20288824
        0.20264317 0.20162313 0.19974314 0.19690365 0.19300021 0.18794282
        0.18168107 0.17422403 0.16564228 0.15604661 0.14555183 0.13424301
        0.12216008 0.10930517 0.09566562 0.08124075 0.06606281 0.050207898
        0.033797506 0.016993059 1.5905865e-05 0.1785125 0.18176706 0.18473199
        0.18770677 0.19059414 0.19328251 0.19565634 0.1976053 0.19902901
        0.19983642 0.19994062 0.1992522 0.19767387 0.19510058 0.19142808
        0.18657105 0.18048601 0.17318867 0.16475376 0.15529314 0.14492053
        0.13371967 0.121730074 0.10895476 0.095382914 0.081016175 0.065889
        0.050079476 0.0337108 0.016946081 2.4027227e-05 0.1762847 0.17937751
        0.18210453 0.18485132 0.18755843 0.19014542 0.1925127 0.1945482
        0.1961356 0.1971601 0.19750974 0.19707312 0.19573653 0.19338498
        0.18991072 0.18523031 0.17930542 0.17215706 0.16386294 0.15453476
        0.14428398 0.1331919 0.12129681 0.10860217 0.0950989 0.08079086
        0.065714814 0.04995088 0.033624038 0.016899109 3.21107e-05 0.17453165
        0.17753921 0.1801209 0.18270598 0.1852557 0.18771528 0.19000824
        0.1920363 0.19368425 0.19482717 0.19533598 0.19508025 0.19392943
        0.19175662 0.18844825 0.18392079 0.17813948 0.17112942 0.16297008
        0.15377173 0.14364238 0.13265981 0.12086034 0.10824745 0.09481356
        0.0805648 0.06554025 0.04982214 0.033537276 0.016852226 4.0048548e-05
        0.17311576 0.17607427 0.17856312 0.18103486 0.18345974 0.18579878
        0.18799493 0.1899673 0.1916109 0.19280113 0.19340049 0.19326483
        0.192249 0.19021426 0.18704034 0.18264249 0.1769884 0.17010608
        0.16207558 0.15300448 0.1429961 0.13212366 0.12042085 0.1078907
        0.09452699 0.080338046 0.06536536 0.049693316 0.033450585 0.016805511
        4.774918e-05 0.17195219 0.17488071 0.1773077 0.1796989 0.18202734
        0.18426235 0.18636025 0.18825567 0.1898566 0.19104506 0.19168217
        0.19161588 0.19069001 0.18875563 0.18568614 0.18139523 0.17585234
        0.16908744 0.16117996 0.15223356 0.1423456 0.13158387 0.11997862
        0.107532114 0.094239295 0.0801107 0.065190226 0.04956447 0.033364035
        0.016759038 5.5135948e-05 0.17098461 0.17389405 0.1762783 0.17861104
        0.18086508 0.18301336 0.18502036 0.18683235 0.18836977 0.1895239
        0.19015926 0.19012095 0.18924585 0.18737744 0.18438411 0.18017843
        0.17473128 0.16807385 0.16028379 0.15145953 0.14169145 0.13104084
        0.11953396 0.10717191 0.09395064 0.07988286 0.06501492 0.049435686
        0.033277694 0.016712872 6.21449e-05 0.17017369 0.17307065 0.1754245
        0.17771386 0.17991 0.18198675 0.18391286 0.1856426 0.18710656
        0.18820563 0.18881035 0.18876682 0.18790886 0.18607548 0.18313208
        0.17899111 0.17362502 0.16706555 0.15938754 0.15068303 0.14103419
        0.13049503 0.11908721 0.10681032 0.09366118 0.07965465 0.06483954
        0.049307026 0.033191625 0.016667072 6.8722686e-05 0.16949087 0.1723796
        0.1747113 0.17696773 0.17911822 0.18113588 0.18299122 0.18464336
        0.18603042 0.1870618 0.1876151 0.18754002 0.18667069 0.18484478
        0.18192725 0.17783184 0.17253305 0.16606264 0.15849169 0.1499046
        0.14037435 0.12994689 0.11863871 0.10644759 0.09337109 0.07942618
        0.06466418 0.049178567 0.033105887 0.016621688 7.482479e-05 0.16891482
        0.17179814 0.1741134 0.17634435 0.17845824 0.18042673 0.1822204
        0.18380079 0.1851111 0.18606757 0.18655463 0.18642725 0.18552247
        0.18367976 0.18076625 0.17669883 0.17145462 0.16506511 0.15759659
        0.14912477 0.13971251 0.12939689 0.118188806 0.10608396 0.093080536
        0.07919758 0.0644889 0.049050365 0.033020534 0.016576767 8.0414124e-05
        0.16842926 0.17130914 0.173612 0.17582287 0.17790693 0.17983401
        0.18157372 0.18308827 0.18432376 0.18520139 0.18561174 0.18541563
        0.18445513 0.18257433 0.17964529 0.17558995 0.1703888 0.16407281
        0.15670256 0.1483441 0.13904919 0.12884547 0.117737845 0.105719686
        0.09278968 0.07896894 0.06431381 0.048922487 0.03293561 0.016532343
        8.545988e-05 0.1680215 0.1708994 0.17319283 0.17538756 0.17744686
        0.17933856 0.18103065 0.1824847 0.18364795 0.1844448 0.1847708
        0.18449281 0.18345952 0.18152209 0.17856017 0.17450272 0.16933444
        0.16308548 0.15580988 0.14756304 0.13838488 0.12829308 0.11728616
        0.10535499 0.09249869 0.078740396 0.06413896 0.048794985 0.032851156
        0.016488453 8.993661e-05 0.16768162 0.17055863 0.17284483 0.1750264
        0.17706475 0.17892572 0.18057519 0.18197325 0.1830668 0.18378185
        0.18401772 0.18364714 0.18252653 0.18051636 0.17750639 0.17343445
        0.16829023 0.16210274 0.15491875 0.14678206 0.13772011 0.12774014
        0.11683408 0.10499011 0.09220772 0.078512035 0.06396443 0.04866791
        0.032767218 0.016445123 9.382356e-05 0.16740173 0.17027874 0.17255938
        0.17473 0.1767503 0.17858404 0.1801948 0.18154038 0.18256631
        0.18319881 0.18333979 0.18286756 0.18164712 0.1795503 0.17647919
        0.17238224 0.16725472 0.1611242 0.15402932 0.14600156 0.13705535
        0.1271871 0.116381936 0.104625285 0.091916926 0.078283966 0.06379029
        0.04854131 0.032683823 0.016402379 9.7104006e-05 0.16717559 0.17005329
        0.17232971 0.17449106 0.17649546 0.17830458 0.17987943 0.18117511
        0.18213478 0.18268372 0.18272546 0.18214354 0.1808124 0.17861694
        0.17547365 0.17134303 0.16622637 0.16014937 0.15314174 0.14522201
        0.13639107 0.12663436 0.115930036 0.10426073 0.09162646 0.07805628
        0.06361661 0.048415232 0.032601003 0.016360242 9.976486e-05 0.16699824
        0.16987726 0.17215046 0.17430384 0.17629392 0.17808025 0.1796211
        0.1808684 0.18176225 0.18222603 0.1821641 0.18146504 0.18001355
        0.1777092 0.17448469 0.17031367 0.16520359 0.15917769 0.15225612
        0.14444377 0.13572773 0.12608233 0.11547871 0.10389666 0.09133647
        0.07782909 0.063443445 0.04828971 0.03251879 0.01631873 0.000101796264
        0.1668658 0.16974668 0.17201748 0.17416385 0.1761407 0.17790538
        0.17941329 0.18061273 0.18144014 0.18181631 0.18164583 0.18082237
        0.17924182 0.17681998 0.17350717 0.16929096 0.16418475 0.15820868
        0.15137255 0.14366722 0.13506578 0.12553139 0.11502824 0.1035333
        0.09104708 0.07760247 0.06327085 0.04816478 0.032437194 0.016277853
        0.00010319131 0.16677529 0.16965854 0.17192762 0.17406765 0.17603193
        0.17777552 0.17925066 0.18040171 0.1811609 0.18144588 0.1811612
        0.18020603 0.17848851 0.1759421 0.1725359 0.16827165 0.1631682
        0.1572418 0.15049115 0.14289276 0.13440567 0.12498193 0.11457893
        0.10317085 0.090758435 0.07737651 0.063098885 0.048040483 0.03235625
        0.016237626 0.00010394586 0.16672456 0.16961066 0.17187853 0.17401268
        0.17596465 0.1776871 0.17912878 0.18022978 0.18091764 0.18110652
        0.18070106 0.17960663 0.17774488 0.17506838 0.17156571 0.16725256
        0.16215241 0.15627655 0.14961204 0.14212076 0.1337478 0.124434344
        0.11413107 0.1028095 0.09047067 0.07715128 0.06292759 0.04791684
        0.032275967 0.016198058 0.0001040583 0.16671218 0.1696016 0.17186867
        0.17399713 0.17593668 0.17763728 0.17904392 0.18009193 0.18070386
        0.18079028 0.18025628 0.17901464 0.17700213 0.17419162 0.17059149
        0.16623062 0.16113585 0.15531251 0.14873534 0.14135163 0.13309263
        0.12388899 0.11368494 0.10244947 0.09018391 0.07692688 0.06275702
        0.04779388 0.032196358 0.01615915 0.00010352956 0.1667374 0.1696306
        0.17189713 0.1740199 0.17594649 0.17762382 0.1789928 0.1799835
        0.18051319 0.180489 0.17981747 0.17842034 0.17625132 0.17330465
        0.16960824 0.16520284 0.16011713 0.15434927 0.14786124 0.1405857
        0.13244057 0.123346224 0.11324081 0.10209092 0.08989828 0.07670336
        0.06258722 0.04767163 0.032117438 0.01612091 0.00010236294 0.16680019
        0.16969761 0.17196375 0.17408052 0.1759931 0.17764498 0.1789724
        0.17989981 0.18033901 0.18019417 0.17937472 0.17781359 0.17548336
        0.17240034 0.16861111 0.1641665 0.15909503 0.15338655 0.14698994
        0.13982344 0.13179201 0.12280641 0.11279893 0.101734035 0.08961388
        0.07648081 0.06241821 0.047550105 0.03203921 0.016083336 0.000100564226
        0.1669012 0.16980329 0.17206906 0.17417921 0.17607611 0.17769933
        0.17897983 0.17983599 0.18017411 0.17989646 0.17891745 0.17718378
        0.17468897 0.17147164 0.16759552 0.16311902 0.15806848 0.15242417
        0.14612168 0.1390652 0.1311474 0.12226987 0.11235957 0.10137899
        0.08933082 0.076259285 0.062250048 0.047429323 0.031961687 0.016046423
        9.8141696e-05 0.1670419 0.16994907 0.17221427 0.17431675 0.17619555
        0.17778562 0.179012 0.17978649 0.18001032 0.1795854 0.17843395
        0.17651963 0.17385869 0.17051172 0.16655718 0.16205817 0.15703659
        0.15146206 0.14525677 0.13831143 0.13050713 0.12173695 0.111922964
        0.101025954 0.08904921 0.07603884 0.062082753 0.047309298 0.03188486
        0.016010169 9.510626e-05 0.16722462 0.17013727 0.17240147 0.17449464
        0.17635186 0.17790264 0.17906527 0.17974475 0.17983794 0.17924888
        0.17791127 0.17580914 0.17298298 0.16951397 0.16549219 0.16098209
        0.15599872 0.15050025 0.14439556 0.13756257 0.12987159 0.121207975
        0.11148935 0.10067507 0.088769145 0.07581953 0.061916348 0.047190033
        0.03180873 0.015974563 9.147168e-05 0.16745277 0.17037123 0.1726336
        0.17471507 0.17654583 0.17804892 0.17913511 0.17970246 0.17964512
        0.17887269 0.17733486 0.17503962 0.17205225 0.16847222 0.16439717
        0.15988925 0.15495454 0.14953895 0.14353848 0.13681906 0.1292412
        0.120683245 0.111058936 0.10032648 0.0884907 0.0756014 0.06175086
        0.04707154 0.031733293 0.01593959 8.725485e-05 0.16773112 0.17065556
        0.17291477 0.17498097 0.17677838 0.17822237 0.1792153 0.17964882
        0.17941704 0.17843992 0.17668845 0.17419766 0.17105712 0.16738081
        0.16326927 0.1587786 0.15390389 0.14857846 0.14268596 0.13608138
        0.12861633 0.12016306 0.110631935 0.099980325 0.088213965 0.07538449
        0.061586294 0.046953805 0.031658534 0.015905233 8.247618e-05 0.16806607
        0.17099647 0.17325035 0.17529607 0.17705038 0.17841955 0.17929694
        0.1795693 0.17913492 0.17793043 0.17595382 0.17326936 0.16998857
        0.16623482 0.16210634 0.15764953 0.15284696 0.14761926 0.14183857
        0.13534999 0.12799738 0.1196477 0.11020854 0.099636726 0.087939
        0.07516883 0.06142267 0.04683683 0.031584438 0.015871475 7.716021e-05
        0.16846631 0.17140225 0.17364733 0.17566483 0.17736207 0.17863466
        0.17936705 0.1794441 0.1787748 0.1773203 0.175111 0.17224066
        0.16883829 0.16503027 0.16090702 0.15650202 0.15178423 0.14666198
        0.14099686 0.13462536 0.12738472 0.11913743 0.109788924 0.09929578
        0.087665856 0.07495444 0.06125997 0.046720598 0.031510983 0.015838284
        7.13363e-05 0.16894364 0.17188394 0.17411478 0.17609231 0.17771214
        0.17885774 0.17940609 0.17924595 0.17830622 0.17658146 0.17413844
        0.17109782 0.16759914 0.16376434 0.15967077 0.15533651 0.15071644
        0.14570732 0.14016145 0.13390799 0.12677869 0.118632495 0.10937324
        0.098957576 0.08739458 0.07474134 0.0610982 0.046605084 0.031438135
        0.015805628 6.503965e-05 0.16951428 0.17245646 0.17466417 0.17658368
        0.17809586 0.17907156 0.17938451 0.17893723 0.17769077 0.17568167
        0.17301379 0.16982816 0.16626552 0.16243555 0.158398 0.154154
        0.14964463 0.14475615 0.13933301 0.13319835 0.12617962 0.1181331
        0.10896162 0.09862219 0.08712519 0.074529506 0.060937323 0.046490252
        0.031365857 0.015773466 5.8312755e-05 0.17020108 0.17314024 0.17531002
        0.17714262 0.17850128 0.1792462 0.17925744 0.17846659 0.17688109
        0.17458522 0.17171507 0.16842099 0.1648339 0.16104396 0.1570901
        0.15295604 0.14857005 0.14380942 0.13851218 0.1324969 0.1255878
        0.11763943 0.10855415 0.09828964 0.08685769 0.07431892 0.060777307
        0.046376057 0.031294093 0.01574174 5.1207393e-05 0.17103727 0.17396371
        0.17606977 0.17776768 0.17890176 0.17932995 0.17895712 0.17776518
        0.17582083 0.17325458 0.17022231 0.16686863 0.16330332 0.15959127
        0.15574929 0.15174454 0.14749415 0.1428681 0.13769962 0.131804
        0.12500346 0.117151596 0.10815088 0.097959936 0.08659205 0.07410954
        0.060618088 0.046262432 0.031222774 0.015710386 4.3787597e-05 0.17207362
        0.17496738 0.17696199 0.17844255 0.17924051 0.17923383 0.17838317
        0.17674406 0.17444652 0.1716535 0.16851996 0.16516757 0.16167559
        0.15808083 0.15437867 0.15052184 0.14641848 0.14193317 0.13689587
        0.13111997 0.12442673 0.11666963 0.10775178 0.09763301 0.086328164
        0.07390126 0.06045956 0.046149272 0.031151805 0.015679313 3.6134235e-05
        0.17339312 0.17620935 0.17799653 0.17911065 0.17939918 0.17880748
        0.17739218 0.17529494 0.17269278 0.16975154 0.16659912 0.16331914
        0.15995534 0.15651722 0.15298173 0.14929026 0.14534442 0.14100534
        0.13610126 0.13044488 0.12385756 0.11619341 0.10735668 0.09730868
        0.08606587 0.0736939 0.060301565 0.046036426 0.031081049 0.015648399
        2.8352546e-05 0.17514722 0.17776716 0.17913382 0.1796083 0.17913783
        0.1778071 0.17579275 0.17329822 0.17050114 0.16752902 0.16445903
        0.1613291 0.15814888 0.1549053 0.15156159 0.14805146 0.14427266
        0.14008468 0.13531551 0.12977831 0.12329545 0.115722425 0.106965125
        0.096986525 0.08580478 0.073487125 0.060143806 0.045923643 0.031010285
        0.015617462 2.058551e-05 0.1776694 0.17968832 0.18012726 0.17950174
        0.17799824 0.17587037 0.17335819 0.17064154 0.1678306 0.16497931
        0.16210505 0.1592044 0.1562612 0.15324758 0.15011878 0.14680472
        0.14320177 0.13916951 0.13453686 0.12911858 0.12273887 0.11525535
        0.10657593 0.09666554 0.08554405 0.07328023 0.059985686 0.04581043
        0.030939123 0.015586206 1.3039626e-05 0.18196937 0.18153882 0.18001173
        0.1778005 0.17524241 0.1725638 0.16988654 0.16725557 0.16467036
        0.16210957 0.15954526 0.15694913 0.15429242 0.1515414 0.1486491
        0.14554518 0.14212683 0.13825513 0.1337611 0.12846191 0.12218459
        0.114789404 0.106186785 0.09634378 0.08528206 0.073071875 0.059826113
        0.045695916 0.030866884 0.015554134 6.0328325e-06 0.19273627 0.18531436
        0.17942627 0.1748145 0.1711705 0.16819759 0.16565034 0.16334659
        0.1611603 0.15900713 0.15683044 0.15459038 0.15225469 0.14978966
        0.14714985 0.14426692 0.14104031 0.13733365 0.13298073 0.12780192
        0.12162744 0.11432071 0.10579488 0.09601929 0.08501746 0.07286111
        0.0596644 0.045579545 0.030793088 0.015520795 6.12e-14
      </DataArray>
      <DataArray type="Float32" Name="aspect_ratio" format="ascii" RangeMin="1.000779628753662" RangeMax="11.962586402893066">
        2.982844 2.4971337 2.1218598 1.804705 1.5364641 1.3094575
        1.1172588 1.0476989 1.2246509 1.429203 1.6649021 1.9354893
        2.2448144 2.5967078 2.994799 3.4422584 3.9414487 4.493464
        5.097569 5.7505646 6.446148 7.1743445 7.921119 8.668276
        9.393769 10.072519 10.677791 11.183067 11.564279 11.802076
        11.962586 2.9597726 2.484351 2.1149564 1.8013555 1.5351864
        1.3093364 1.1177443 1.0468534 1.2233407 1.4274077 1.662587
        1.9326044 2.2412956 2.5924833 2.9897997 3.436437 3.9347954
        4.486017 5.089406 5.7417817 6.4368315 7.1645517 7.9108744
        8.65758 9.38262 10.060926 10.665787 11.170713 11.551663
        11.789307 11.949714 2.9529867 2.4793956 2.11142 1.7991493
        1.5340667 1.3090103 1.1179421 1.046296 1.222341 1.4259225
        1.6605684 1.9299957 2.2380307 2.5884907 2.985015 3.4308164
        3.928334 4.4787545 5.08142 5.733166 6.42767 7.1549006
        7.9007564 8.646998 9.371571 10.04942 10.653858 11.158423
        11.5391 11.776578 11.936872 2.951349 2.477688 2.1099129
        1.7980207 1.5333894 1.308765 1.1180515 1.0458972 1.2215575
        1.4246863 1.6588125 1.9276506 2.2350228 2.5847466 2.98047
        3.4254308 3.9221056 4.4717245 5.073665 5.7247763 6.418726
        7.1454535 7.890828 8.636589 9.360677 10.038052 10.642047
        11.14623 11.52661 11.763902 11.924061 2.951832 2.4776518
        2.1096776 1.7977461 1.5332022 1.3087401 1.1182107 1.0455422
        1.2208866 1.423613 1.6572518 1.9255183 2.232235 2.5812237
        2.9761465 3.420268 3.9161031 4.4649243 5.0661416 5.716616
        6.4100037 7.1362176 7.8810964 8.62636 9.349946 10.026826
        10.630358 11.134136 11.514198 11.751279 11.91128 2.9533596
        2.478552 2.110236 1.7980828 1.533433 1.3089596 1.1184808
        1.0451616 1.2202523 1.4226294 1.6558212 1.9235431 2.2296207
        2.577884 2.9720125 3.4153008 3.9103038 4.4583344 5.0588326
        5.708669 6.401489 7.1271777 7.8715463 8.616296 9.339363
        10.015731 10.61878 11.122135 11.501857 11.738706 11.89853
        2.9554653 2.4800155 2.1113045 1.7988489 1.5339924 1.3094023
        1.1188802 1.0447193 1.2196048 1.4216805 1.6544665 1.9216754
        2.2271361 2.574689 2.968035 3.410501 3.9046826 4.4519324
        5.0517178 5.7009177 6.393164 7.1183176 7.862162 8.606383
        9.328915 10.004753 10.607304 11.110217 11.489581 11.726181
        11.88581 2.9579165 2.4818354 2.1127114 1.7999182 1.5348036
        1.3100349 1.1194059 1.0442001 1.2189144 1.4207275 1.6531453
        1.9198735 2.2247422 2.5716038 2.964183 3.405842 3.899217
        4.4456987 5.04478 5.6933455 6.3850136 7.109622 7.8529296
        8.596607 9.318587 9.993882 10.595919 11.098374 11.4773655
        11.7137 11.87312 2.9605854 2.4838905 2.1143494 1.8012047
        1.5358065 1.3108234 1.1200464 1.0436001 1.2181647 1.4197443
        1.6518254 1.9181025 2.2224052 2.5685976 2.9604294 3.4012997
        3.893886 4.4396157 5.038003 5.6859374 6.3770247 7.1010785
        7.843837 8.586956 9.308372 9.9831085 10.584616 11.0866
        11.465204 11.7012615 11.86046 2.9633958 2.4861062 2.1161492
        1.8026493 1.5369561 1.3117387 1.1207877 1.0429221 1.2173483
        1.4187137 1.6504829 1.9163351 2.2200966 2.5656426 2.9567492
        3.3968527 3.8886716 4.433667 5.031374 5.6786823 6.3691854
        7.092676 7.8348727 8.57742 9.298257 9.972422 10.573388
        11.074889 11.453095 11.688864 11.847831 2.9663017 2.488434
        2.118065 1.8042111 1.5382187 1.3127571 1.1216162 1.0421717
        1.216463 1.4176255 1.6491005 1.9145494 2.2177925 2.5627155
        2.9531207 3.392482 3.8835576 4.4278398 5.0248804 5.6715693
        6.361487 7.0844064 7.826029 8.567992 9.288236 9.961817
        10.56223 11.063237 11.441034 11.676504 11.835232 2.9692724
        2.4908416 2.120066 1.8058612 1.5395699 1.3138596 1.1225196
        1.0413553 1.2155094 1.416474 1.647666 1.9127278 2.2154727
        2.5597956 2.9495249 3.388171 3.8785295 4.422122 5.0185122
        5.6645894 6.35392 7.0762606 7.8172975 8.558662 9.278302
        9.951287 10.551137 11.05164 11.429019 11.664182 11.822662
        2.9722874 2.493307 2.12213 1.807579 1.5409912 1.3150313
        1.1234876 1.0404791 1.2144899 1.4152559 1.6461705 1.910857
        2.2131207 2.5568655 2.9459448 3.3839045 3.8735754 4.416503
        5.012261 5.657735 6.346478 7.0682325 7.808673 8.549428
        9.26845 9.940827 10.540104 11.040092 11.417046 11.6518955
        11.8101225 2.9753332 2.4958153 2.1242418 1.8093499 1.5424691
        1.316261 1.1245118 1.0395488 1.2134075 1.4139699 1.6446077
        1.9089261 2.2107227 2.55391 2.9423661 3.3796704 3.868684
        4.4109735 5.0061183 5.650998 6.3391542 7.0603156 7.8001485
        8.54028 9.258674 9.930433 10.529127 11.028594 11.405114
        11.639645 11.797613 2.9784002 2.4983554 2.126391 1.8111631
        1.5439938 1.3175402 1.1255858 1.0385692 1.2122649 1.4126153
        1.6429731 1.9069265 2.2082672 2.5509167 2.9387765 3.375457
        3.8638465 4.405526 5.0000777 5.6443734 6.3319426 7.0525045
        7.7917194 8.531217 9.24897 9.920101 10.518203 11.017141
        11.393222 11.627428 11.785133 2.9814813 2.5009196 2.1285694
        1.8130109 1.545558 1.3188622 1.1267043 1.037544 1.2110643
        1.411192 1.6412629 1.9048513 2.2057447 2.5478747 2.9351661
        3.371256 3.8590553 4.400154 4.9941335 5.637855 6.3248386
        7.0447946 7.783381 8.522232 9.239333 9.909827 10.507329
        11.005732 11.381368 11.615244 11.772683 2.984572 2.5035026
        2.1307719 1.8148881 1.5471565 1.3202227 1.127864 1.0364761
        1.2098075 1.4096997 1.6394742 1.9026947 2.2031474 2.5447757
        2.931526 3.3670597 3.8543034 4.394852 4.9882803 5.6314387
        6.3178377 7.0371814 7.775129 8.513323 9.229761 9.899609
        10.496502 10.994363 11.369549 11.603092 11.7602625 2.9876685
        2.5061002 2.1329944 1.8167908 1.5487858 1.3216187 1.1290624
        1.0353674 1.2084953 1.4081376 1.6376039 1.9004514 2.2004685
        2.5416121 2.9278495 3.362862 3.849586 4.389615 4.9825134
        5.6251197 6.3109345 7.02966 7.766959 8.504484 9.22025
        9.8894415 10.485721 10.983034 11.357765 11.590973 11.74787
        2.9907684 2.5087101 2.1352344 1.8187168 1.5504438 1.3230482
        1.1302983 1.0342183 1.2071277 1.406504 1.6356491 1.8981171
        2.1977026 2.5383785 2.924132 3.358659 3.8448997 4.38444
        4.9768295 5.618894 6.304126 7.022228 7.758868 8.495714
        9.210797 9.879323 10.47498 10.971742 11.346015 11.578884
        11.735509 2.99387 2.5113306 2.1374907 1.8206648 1.5521296
        1.3245109 1.1315715 1.0330288 1.2057037 1.4047972 1.6336063
        1.8956871 2.1948452 2.535071 2.9203699 3.3544476 3.8402414
        4.3793235 4.971225 5.6127577 6.2974076 7.014879 7.750852
        8.487008 9.201398 9.869252 10.464281 10.9604845 11.334297
        11.566827 11.723176 2.996972 2.5139608 2.1397629 1.8226349
        1.5538436 1.3260075 1.1328834 1.0317978 1.2042212 1.403014
        1.6314718 1.8931575 2.1918924 2.5316865 2.9165614 3.3502266
        3.83561 4.3742633 4.9656973 5.606708 6.2907767 7.007612
        7.7429075 8.478363 9.192051 9.859224 10.45362 10.949263
        11.322611 11.554798 11.710873 3.0000744 2.5166006 2.1420515
        1.824628 1.5555872 1.3275396 1.1342359 1.0305228 1.202677
        1.4011501 1.6292409 1.8905243 2.1888413 2.528224 2.9127061
        3.3459961 3.8310046 4.3692584 4.960244 5.600742 6.2842283
        7.000422 7.7350307 8.469775 9.182753 9.849238 10.442995
        10.938072 11.310955 11.5428 11.698599 3.0031762 2.5192506
        2.1443574 1.8266459 1.5573627 1.3291103 1.1356325 1.0292003
        1.2010665 1.3992007 1.6269088 1.8877835 2.1856904 2.524683
        2.9088056 3.3417575 3.826426 4.3643084 4.954863 5.594856
        6.27776 6.993305 7.7272186 8.461243 9.1735 9.839292
        10.432404 10.926912 11.299328 11.530829 11.686354 3.006278
        2.521912 2.1466832 1.8286917 1.5591742 1.3307241 1.1370782
        1.0278257 1.199384 1.3971592 1.62447 1.8849319 2.1824386
        2.5210655 2.9048622 3.337513 3.8218756 4.359412 4.949553
        5.5890465 6.271368 6.9862585 7.7194667 8.452762 9.164291
        9.829381 10.4218445 10.915782 11.287728 11.5188875 11.674137
        3.0093803 2.5245874 2.149032 1.8307701 1.561027 1.3323873
        1.1385794 1.0263926 1.1976218 1.3950182 1.6219183 1.8819661
        2.1790862 2.5173743 2.90088 3.3332665 3.8173554 4.3545704
        4.944311 5.583312 6.2650485 6.9792776 7.711772 8.444328
        9.155121 9.819504 10.411315 10.904679 11.276156 11.506973
        11.661949 3.0124846 2.5272796 2.151409 1.8328872 1.5629287
        1.3341081 1.1401446 1.0248929 1.1957711 1.3927693 1.6192477
        1.878884 2.1756349 2.5136142 2.8968651 3.3290226 3.8128679
        4.349783 4.939137 5.577649 6.258798 6.9723587 7.70413
        8.435939 9.145988 9.809657 10.400812 10.893601 11.26461
        11.495087 11.649791 3.0155923 2.5299933 2.1538203 1.8350513
        1.564889 1.3358973 1.141785 1.0233166 1.1938208 1.3904024
        1.6164516 1.8756839 2.1720884 2.5097916 2.8928242 3.3247871
        3.8084161 4.3450503 4.9340277 5.572054 6.252612 6.965497
        7.6965375 8.42759 9.136888 9.799839 10.390335 10.882548
        11.253088 11.483225 11.63766 3.0187066 2.5327346 2.1562748
        1.8372737 1.566921 1.3377694 1.1435148 1.0216514 1.1917582
        1.3879073 1.6135244 1.8723663 2.1684518 2.5059147 2.8887658
        3.3205662 3.8040037 4.3403735 4.9289823 5.566523 6.2464867
        6.9586887 7.6889887 8.419277 9.127817 9.790046 10.379879
        10.871516 11.241589 11.47139 11.625558 3.021831 2.5355122
        2.1587849 1.8395697 1.5690426 1.3397427 1.1453519 1.0198818
        1.1895683 1.3852724 1.6104615 1.8689336 2.1647334 2.501994
        2.8846993 3.3163667 3.799634 4.335752 4.923998 5.561053
        6.2404165 6.9519277 7.6814795 8.410995 9.118772 9.780273
        10.369443 10.860504 11.23011 11.4595785 11.613484 3.0249712
        2.5383382 2.1613674 1.84196 1.5712773 1.3418422 1.1473196
        1.0179896 1.1872346 1.382487 1.60726 1.8653909 2.1609433
        2.498041 2.8806353 3.3121958 3.79531 4.331186 4.9190717
        5.5556383 6.234396 6.9452085 7.674003 8.40274 9.109746
        9.770518 10.359023 10.849508 11.218652 11.447791 11.6014385
        3.0281353 2.54123 2.1640458 1.8444737 1.5736573 1.3441002
        1.1494468 1.0159528 1.1847391 1.3795414 1.6039201 1.861747
        2.157095 2.4940696 2.8765843 3.30806 3.7910345 4.326674
        4.9141994 5.5502744 6.228419 6.9385247 7.666554 8.394503
        9.100736 9.760775 10.348615 10.838527 11.2072115 11.436027
        11.58942 3.0313356 2.544212 2.1668537 1.8471516 1.5762274
        1.3465607 1.151771 1.013746 1.1820633 1.3764284 1.6004465
        1.858015 2.1532044 2.4900951 2.872558 3.3039658 3.7868092
        4.3222146 4.909377 5.544954 6.222477 6.9318676 7.6591234
        8.386279 9.091733 9.751038 10.338213 10.827555 11.1957855
        11.424283 11.577431 3.0345905 2.5473216 2.169841 1.8500528
        1.5790502 1.3492817 1.1543384 1.0113409 1.1791904 1.3731455
        1.5968494 1.8542122 2.1492908 2.4861329 2.868567 3.2999184
        3.782634 4.317803 4.9045973 5.539668 6.216562 6.925228
        7.651703 8.378059 9.082731 9.7413 10.327813 10.816588
        11.184371 11.4125595 11.565469 3.037928 2.550615 2.1730835
        1.853265 1.582215 1.3523417 1.157206 1.0087073 1.1761075
        1.3696978 1.5931467 1.8503612 2.145375 2.482199 2.86462
        3.2959208 3.778507 4.313434 4.8998513 5.5344067 6.210661
        6.918594 7.6442804 8.369833 9.07372 9.731553 10.317407
        10.805622 11.172965 11.400853 11.5535345 3.0413952 2.5541837
        2.1767004 1.8569225 1.5858508 1.3558444 1.1604409 1.0058181
        1.1728108 1.366101 1.5893639 1.8464891 2.1414788 2.4783075
        2.8607242 3.291973 3.774423 4.3090973 4.895127 5.5291553
        6.2047596 6.91195 7.636841 8.361585 9.064685 9.721786
        10.306984 10.794647 11.161561 11.389161 11.541627 3.045071
        2.5581818 2.1808898 1.8612374 1.5901458 1.3599241 1.1641148
        1.0026551 1.1693112 1.3623842 1.5855353 1.8426251 2.1376226
        2.4744692 2.8568811 3.2880697 3.7703707 4.3047786 4.890406
        5.523894 6.198836 6.9052744 7.629363 8.353294 9.05561
        9.71198 10.296533 10.783655 11.150152 11.377481 11.529748
        3.0491035 2.5628915 2.1860025 1.8665551 1.5953704 1.3647423
        1.1682913 1.0007796 1.1656412 1.3585911 1.5817009 1.8387982
        2.1338217 2.4706872 2.8530848 3.2841973 3.766331 4.3004537
        4.885661 5.518593 6.19286 6.898537 7.621817 8.344935
        9.046466 9.702115 10.286032 10.772628 11.138729 11.365807
        11.517896 3.0538125 2.5688877 2.1927004 1.8734456 1.601891
        1.3704604 1.172996 1.0044657 1.16186 1.3547777 1.5779009
        1.8350291 2.1300805 2.4669523 2.849315 3.2803273 3.7622688
        4.2960825 4.880848 5.5132055 6.1867833 6.8916883 7.6141553
        8.336459 9.037213 9.692151 10.275449 10.761541 11.127273
        11.354129 11.50607 3.0601065 2.5775287 2.2023149 1.8828055
        1.6101137 1.3771548 1.1781647 1.0083251 1.1580511 1.351002
        1.5741639 1.8313208 2.126381 2.463231 2.845526 3.2764046
        3.7581205 4.2915945 4.875891 5.507652 6.1805234 6.8846464
        7.6062965 8.32779 9.027778 9.682024 10.26473 10.750353
        11.115753 11.342433 11.494271 3.0717616 2.592702 2.217449
        1.8956877 1.6201622 1.3846145 1.1835666 1.0122044 1.1543204
        1.3473212 1.5705069 1.8276609 2.1226895 2.4594734 2.8416557
        3.2723556 3.7538042 4.2868996 4.8706937 5.50183 6.173976
        6.8773055 7.5981364 8.318828 9.018067 9.67165 10.253804
        10.739006 11.104134 11.330698 11.4825 3.110739 2.621597
        2.2384562 1.910483 1.630444 1.3917651 1.1885887 1.0157812
        1.1508867 1.3438934 1.5670536 1.8241546 2.1191037 2.4557767
        2.837804 3.268287 3.7494328 4.282119 4.865385 5.4958773
        6.1672826 6.8698096 7.5898194 8.309711 9.008212 9.661148
        10.242772 10.72758 11.092467 11.3189535 11.470757
      </DataArray>
      <DataArray type="Float32" Name="jacobian" format="ascii" RangeMin="0.0011355829192325473" RangeMax="0.041465550661087036">
        0.0011842732 0.0014057466 0.0016458485 0.001927006 0.0022558768 0.0026400588
        0.0030881779 0.0036099607 0.0042162687 0.004919085 0.0057314257 0.006667138
        0.0077405474 0.008965895 0.010356506 0.011923657 0.0136751095 0.015613385
        0.017733859 0.020022834 0.022455724 0.024995523 0.02759181 0.030180644
        0.032685746 0.035021346 0.037096847 0.038823128 0.040119898 0.04092325
        0.04146555 0.001195158 0.0014169058 0.0016570289 0.0019379244 0.0022663246
        0.0026498823 0.0030972562 0.003618178 0.0042234953 0.004925157 0.0057361284
        0.006670193 0.007741607 0.008964555 0.010352348 0.0119163105 0.013664332
        0.01559911 0.017716195 0.020002 0.02243195 0.024968974 0.027562572
        0.030148743 0.03265121 0.034984272 0.037057444 0.03878172 0.040076938
        0.040879283 0.041420933 0.0011988645 0.0014226134 0.0016644686 0.0019465477
        0.0022755899 0.002659313 0.003106458 0.0036268295 0.0042313193 0.004931891
        0.0057414942 0.0066738743 0.0077432385 0.008963729 0.010348651 0.0119093815
        0.013653936 0.015585182 0.01769884 0.019981422 0.022408372 0.024942568
        0.027533423 0.03011689 0.032616697 0.034947213 0.037018053 0.038740344
        0.04003403 0.040835395 0.04137642 0.0012001886 0.001425392 0.0016687787
        0.0019522839 0.0022824777 0.002666969 0.0031144554 0.0036347455 0.004238757
        0.0049384753 0.0057468563 0.0066776313 0.00774498 0.008963023 0.010345072
        0.011902567 0.013643648 0.015571349 0.01768155 0.01996087 0.02238477
        0.024916079 0.027504146 0.030084876 0.032582015 0.03490999 0.03697853
        0.03869888 0.039991096 0.04079155 0.04133201 0.001200482 0.0014266738
        0.0016712032 0.0019559541 0.0022873506 0.0026728485 0.0031210212 0.0036415998
        0.0042454666 0.0049446 0.0057519535 0.006681252 0.007746663 0.0089623025
        0.010341505 0.011895781 0.013633399 0.015557558 0.01766429 0.019940311
        0.022361115 0.024889488 0.027474718 0.030052684 0.032547142 0.03487259
        0.03693886 0.038657315 0.03994812 0.040747732 0.04128771 0.0012002417
        0.0014270974 0.0016724451 0.0019581856 0.0022906535 0.0026771764 0.0031261866
        0.0036472902 0.00425128 0.0049500796 0.0057566147 0.0066845943 0.0077481796
        0.008961491 0.010337899 0.0118889995 0.013623187 0.01554382 0.01764708
        0.019919785 0.02233745 0.024862839 0.027445193 0.030020362 0.03251213
        0.034835055 0.036899082 0.03861568 0.039905127 0.04070396 0.041243516
        0.0011996911 0.0014269873 0.0016729106 0.001959405 0.002292762 0.0026802209
        0.0031300897 0.0036518383 0.004256135 0.0049548093 0.005760724 0.006687553
        0.0077494434 0.008960527 0.01033422 0.0118822055 0.013613014 0.015530156
        0.017629957 0.019899333 0.022313828 0.02483619 0.027415626 0.029987967
        0.03247702 0.03479743 0.03685923 0.038574006 0.039862137 0.040660243
        0.041199423 0.0011989449 0.0014265254 0.0016728455 0.0019598987 0.0022939637
        0.0026822265 0.0031328998 0.003655326 0.004260038 0.004958742 0.005764208
        0.0066900486 0.007750384 0.008959356 0.010330428 0.011875381 0.013602877
        0.015516579 0.017612947 0.019878991 0.022290293 0.02480959 0.027386066
        0.029955545 0.032441873 0.034759756 0.03681934 0.038532317 0.03981917
        0.040616587 0.04115544 0.001198069 0.0014258212 0.0016724046 0.0019598606
        0.002294472 0.0026833976 0.0031347822 0.0036578611 0.004263034 0.0049618715
        0.005767025 0.0066920235 0.007750943 0.008957926 0.010326488 0.011868506
        0.013592773 0.015503099 0.017596073 0.01985879 0.02226688 0.024783077
        0.027356554 0.02992314 0.032406714 0.03472207 0.03677944 0.038490638
        0.03977624 0.040573 0.041111555 0.0011971032 0.0014249441 0.0016716903
        0.0019594247 0.002294444 0.0026838975 0.0031358849 0.003659556 0.004265189
        0.004964218 0.0057691606 0.0066934414 0.0077510756 0.008956197 0.010322368
        0.01186156 0.013582696 0.015489721 0.017579347 0.019838756 0.022243619
        0.024756685 0.027327124 0.029890783 0.032371584 0.034684397 0.036739558
        0.03844899 0.039733358 0.040529493 0.04106778 0.0011960733 0.0014239404
        0.001670772 0.001958686 0.0022939967 0.0026838554 0.003136334 0.0036605168
        0.0042665782 0.004965818 0.005770617 0.0066942805 0.0077507477 0.008954132
        0.010318036 0.011854523 0.013572635 0.015476447 0.01756278 0.019818902
        0.022220531 0.024730438 0.027297804 0.029858502 0.032336503 0.03464676
        0.036699716 0.038407385 0.03969054 0.040486068 0.041024107 0.0011949966
        0.0014228417 0.0016696985 0.0019577122 0.0022932172 0.0026833722 0.0031362348
        0.0036608407 0.004267276 0.0049667177 0.0057714107 0.0066945334 0.0077499365
        0.008951704 0.010313469 0.011847377 0.013562582 0.015463275 0.017546382
        0.019799246 0.022197636 0.02470436 0.027268618 0.02982632 0.032301497
        0.034609187 0.036659922 0.038365837 0.03964779 0.04044273 0.040980536
        0.001193885 0.0014216704 0.0016685047 0.001956554 0.0022921714 0.0026825278
        0.0031356746 0.0036606118 0.0042673526 0.004966967 0.0057715657 0.0066942014
        0.0077486285 0.0089488905 0.010308644 0.011840104 0.013552528 0.015450205
        0.017530154 0.019779792 0.022174949 0.024678465 0.027239585 0.029794259
        0.032266587 0.034571685 0.036620203 0.038324364 0.03960512 0.04039948
        0.040937074 0.001192747 0.0014204427 0.0016672162 0.0019552482 0.0022909099
        0.002681385 0.0031347245 0.0036599028 0.004266875 0.0049666143 0.0057711117
        0.0066932933 0.007746816 0.008945677 0.010303544 0.0118326945 0.013542465
        0.015437235 0.017514102 0.019760555 0.02215248 0.02465277 0.027210718
        0.029762331 0.03223178 0.034534276 0.03658056 0.038282964 0.03956253
        0.040356327 0.04089371 0.0011915888 0.0014191706 0.001665852 0.0019538233
        0.0022894714 0.0026799932 0.0031334423 0.0036587757 0.0042659007 0.0049657086
        0.0057700803 0.006691824 0.0077445004 0.0089420555 0.01029816 0.011825136
        0.013532388 0.015424364 0.01749823 0.019741537 0.022130236 0.024627283
        0.027182031 0.029730553 0.0321971 0.034496967 0.03654101 0.03824166
        0.039520033 0.04031327 0.040850453 0.0011904148 0.0014178631 0.0016644269
        0.001952301 0.0022878863 0.002678392 0.0031318758 0.0036572828 0.0042644814
        0.0049642934 0.005768503 0.0066898107 0.007741686 0.008938022 0.0102924835
        0.011817425 0.013522294 0.015411592 0.017482538 0.019722745 0.022108229
        0.024602018 0.027153537 0.029698934 0.032162547 0.034459773 0.036501564
        0.038200445 0.03947763 0.04027031 0.040807296 0.0011892284 0.0014165266
        0.0016629514 0.0019506977 0.002286178 0.0026766125 0.0031300634 0.0036554672
        0.0042626616 0.0049624094 0.0057664113 0.0066872737 0.007738382 0.008933579
        0.010286516 0.011809558 0.013512182 0.015398919 0.017467028 0.01970418
        0.02208646 0.024576979 0.027125241 0.029667487 0.03212814 0.034422703
        0.03646222 0.038159333 0.03943533 0.04022745 0.040764242 0.0011880321
        0.0014151664 0.0016614343 0.0019490266 0.0022843655 0.0026746795 0.0031280364
        0.0036533652 0.004260479 0.0049600923 0.0057638353 0.006684234 0.007734602
        0.008928733 0.010280258 0.011801538 0.013502053 0.015386347 0.017451704
        0.019685848 0.022064937 0.024552172 0.027097154 0.029636217 0.032093886
        0.034385763 0.036423 0.03811833 0.03939313 0.04018469 0.04072129
        0.0011868277 0.0014137864 0.0016598819 0.0019472975 0.0022824625 0.0026726131
        0.0031258196 0.0036510061 0.0042579654 0.004957373 0.0057608015 0.0066807126
        0.007730361 0.008923497 0.01027372 0.011793372 0.013491914 0.015373879
        0.017436568 0.019667748 0.022043664 0.024527604 0.02706928 0.029605132
        0.032059792 0.03434896 0.0363839 0.038077436 0.039351035 0.04014204
        0.04067844 0.0011856166 0.0014123893 0.0016582991 0.0019455181 0.002280481
        0.0026704285 0.003123433 0.0036484143 0.0042551477 0.004954278 0.005757335
        0.0066767326 0.007725679 0.008917885 0.010266916 0.011785071 0.013481772
        0.015361521 0.017421624 0.01964989 0.02202264 0.024503278 0.027041627
        0.02957424 0.032025862 0.0343123 0.036344927 0.038036663 0.039309055
        0.04009949 0.040635694 0.0011843996 0.0014109774 0.0016566896 0.0019436942
        0.002278429 0.0026681374 0.0031208922 0.0036456077 0.004252046 0.00495083
        0.0057534594 0.0066723153 0.007720576 0.008911919 0.010259863 0.011776649
        0.013471636 0.01534928 0.017406873 0.019632269 0.022001872 0.024479197
        0.027014198 0.029543547 0.031992104 0.034275796 0.03630609 0.037996013
        0.039267182 0.04005705 0.040593047 0.0011831775 0.0014095521 0.0016550559
        0.00194183 0.0022763128 0.0026657486 0.0031182084 0.003642601 0.0042486778
        0.004947047 0.005749194 0.0066674836 0.007715077 0.008905621 0.010252584
        0.011768127 0.013461523 0.015337164 0.017392324 0.01961489 0.02198136
        0.024455367 0.026986996 0.029513055 0.031958524 0.034239445 0.036267392
        0.037955485 0.039225426 0.040014714 0.0405505 0.0011819502 0.001408114
        0.0016533997 0.0019399282 0.0022741368 0.002663268 0.0031153893 0.0036394035
        0.004245055 0.0049429457 0.005744558 0.0066622603 0.007709209 0.008899023
        0.010245105 0.011759525 0.013451447 0.015325184 0.01737798 0.01959776
        0.021961106 0.024431787 0.026960028 0.029482773 0.03192513 0.034203257
        0.03622884 0.03791509 0.039183788 0.03997249 0.040508054 0.0011807181
        0.0014066634 0.0016517217 0.0019379901 0.002271903 0.0026606987 0.0031124393
        0.0036360212 0.0042411853 0.0049385363 0.005739569 0.0066566705 0.007703002
        0.008892157 0.010237462 0.011750871 0.013441428 0.015313351 0.017363848
        0.019580876 0.021941116 0.024408463 0.026933296 0.029452702 0.031891927
        0.034167238 0.03619043 0.037874825 0.039142273 0.039930373 0.04046571
        0.0011794803 0.0014052002 0.0016500218 0.0019360159 0.002269612 0.0026580412
        0.0031093592 0.0036324563 0.0042370735 0.004933829 0.0057342453 0.006650741
        0.007696493 0.008885062 0.010229689 0.011742196 0.013431488 0.015301678
        0.017349936 0.019564247 0.021921387 0.024385396 0.026906803 0.029422851
        0.031858914 0.034131393 0.036152184 0.0378347 0.039100878 0.03988837
        0.040423464 0.0011782364 0.0014037231 0.0016482987 0.0019340042 0.0022672613
        0.0026552933 0.0031061464 0.0036287066 0.0042327214 0.0049288324 0.005728605
        0.0066445027 0.0076897214 0.008877785 0.010221831 0.011733534 0.013421651
        0.015290183 0.017336251 0.019547874 0.021901928 0.02436259 0.026880557
        0.029393222 0.031826105 0.034095723 0.036114093 0.037794717 0.039059613
        0.039846476 0.040381316 0.0011769852 0.0014022306 0.0016465504 0.001931952
        0.0022648475 0.0026524495 0.0031027948 0.003624767 0.004228127 0.004923554
        0.0057226694 0.0066379923 0.007682735 0.008870374 0.01021393 0.011724921
        0.013411943 0.015278879 0.017322803 0.019531764 0.021882737 0.02434005
        0.026854558 0.029363822 0.0317935 0.034060244 0.03607617 0.03775488
        0.039018475 0.0398047 0.04033927 0.0011757249 0.0014007197 0.001644773
        0.0019298539 0.0022623632 0.0026495007 0.0030992941 0.0036206285 0.0042232885
        0.0049180035 0.0057164654 0.0066312524 0.007675588 0.008862888 0.010206042
        0.011716398 0.013402392 0.015267786 0.017309604 0.019515924 0.021863824
        0.024317779 0.026828816 0.029334657 0.031761114 0.034024954 0.036038417
        0.037715197 0.03897747 0.039763037 0.04029732 0.0011744528 0.0013991868
        0.001642961 0.0019277027 0.0022597983 0.0026464341 0.0030956299 0.0036162792
        0.0042182025 0.004912195 0.0057100267 0.0066243354 0.0076683443 0.00885539
        0.010198221 0.01170801 0.013393029 0.015256922 0.017296663 0.019500362
        0.021845192 0.024295785 0.026803335 0.029305737 0.03172895 0.03398987
        0.036000844 0.03767567 0.0389366 0.03972149 0.04025547 0.0011731657
        0.0013976259 0.0016411069 0.0019254873 0.0022571383 0.0026432315 0.0030917835
        0.0036117055 0.0042128684 0.0049061477 0.0057033985 0.0066173063 0.0076610763
        0.008847951 0.010190526 0.011699801 0.013383886 0.015246309 0.017283997
        0.019485084 0.02182685 0.024274074 0.026778128 0.029277071 0.031697016
        0.033954993 0.03596346 0.03763631 0.038895875 0.03968006 0.040213715
        0.0011718586 0.0013960291 0.001639199 0.0019231921 0.0022543622 0.0026398688
        0.003087731 0.0036068927 0.0042072926 0.004899896 0.005696641 0.0066102436
        0.0076538683 0.008840648 0.010183022 0.01169182 0.013374996 0.015235971
        0.01727162 0.019470107 0.02180881 0.02425266 0.026753202 0.029248672
        0.03166533 0.03392034 0.035926275 0.037597124 0.038855296 0.039638754
        0.04017206 0.0011705245 0.0013943848 0.0016372212 0.001920795 0.002251442
        0.0026363146 0.003083446 0.003601831 0.0042014923 0.004893492 0.005689834
        0.006603242 0.0076468154 0.008833565 0.010175776 0.011684116 0.0133663975
        0.015225932 0.017259551 0.019455444 0.021791086 0.024231557 0.026728578
        0.029220555 0.031633906 0.033885926 0.0358893 0.03755812 0.038814873
        0.039597575 0.0401305 0.0011691528 0.0013926757 0.0016351498 0.0019182643
        0.00224834 0.0026325304 0.0030789017 0.00359652 0.0041955067 0.0048870123
        0.0056830826 0.0065964153 0.007640024 0.008826791 0.010168857 0.011676744
        0.013358128 0.015216224 0.017247815 0.019441117 0.021773696 0.024210783
        0.026704272 0.029192742 0.031602766 0.033851773 0.03585256 0.037519313
        0.038774613 0.039556522 0.040089034 0.001167728 0.0013908762 0.0016329496
        0.0019155551 0.002245005 0.0026284708 0.003074077 0.0035909826 0.004189409
        0.0048805717 0.0056765215 0.0065898974 0.007633611 0.008820422 0.010162341
        0.01166976 0.013350233 0.015206881 0.017236443 0.019427154 0.021756671
        0.024190368 0.026680315 0.02916526 0.031571936 0.0338179 0.035816066
        0.037480723 0.03873453 0.039515603 0.040047668 0.0011662254 0.0013889462
        0.0016305668 0.001912602 0.0022413712 0.0026240915 0.003068974 0.0035852832
        0.0041833217 0.004874331 0.0056703193 0.0065838415 0.007627704 0.008814559
        0.010156307 0.011663226 0.013342764 0.0151979495 0.017225474 0.019413592
        0.021740047 0.024170352 0.026656747 0.029138153 0.031541456 0.033784345
        0.035779856 0.03744237 0.038694635 0.03947483 0.040006395 0.0011646043
        0.0013868201 0.0016279174 0.0019093121 0.0022373614 0.0026193655 0.0030636452
        0.0035795583 0.0041774428 0.0048685074 0.005664681 0.0065784208 0.007622442
        0.008809311 0.010150842 0.011657219 0.013335788 0.015189489 0.01721497
        0.019400494 0.021723885 0.024150794 0.02663363 0.029111478 0.03151138
        0.033751164 0.03574397 0.03740429 0.038654957 0.039434213 0.039965216
        0.0011627909 0.0013843845 0.0016248666 0.0019055599 0.0022329085 0.0026143305
        0.003058249 0.0035740598 0.004172065 0.004863384 0.0056598475 0.006573828
        0.007617976 0.008804802 0.010146054 0.0116518345 0.013329394 0.015181591
        0.017205019 0.019387947 0.021708276 0.024131788 0.026611052 0.029085325
        0.031481795 0.033718422 0.035708476 0.03736654 0.038615532 0.039393768
        0.039924134 0.0011606319 0.0013814295 0.0016212024 0.0019012087 0.0022280286
        0.0026091875 0.0030531348 0.0035692072 0.0041675963 0.0048593106 0.0056560975
        0.0065702815 0.0076144845 0.0088011855 0.010142085 0.011647212 0.013323727
        0.0151744 0.017195769 0.019376107 0.021693377 0.024113491 0.026589174
        0.029059842 0.03145284 0.033686258 0.035673477 0.037329193 0.038576413
        0.039353523 0.039883144 0.0011577129 0.0013775442 0.00161664 0.0018962428
        0.0022230253 0.0026044876 0.0030489613 0.0035656327 0.0041645686 0.0048567033
        0.005653755 0.0065680463 0.007612201 0.008798686 0.010139161 0.011643584
        0.013319027 0.015168167 0.017187482 0.019365238 0.021679463 0.02409618
        0.026568264 0.029035294 0.03142476 0.033654884 0.035639167 0.037292406
        0.038537707 0.039313532 0.039842248 0.001152399 0.0013720107 0.0016110946
        0.0018912413 0.0022189084 0.0026013597 0.00304674 0.0035641307 0.004163564
        0.004855986 0.005653148 0.006567403 0.007611391 0.00879757 0.010137561
        0.011641247 0.013315607 0.015163221 0.017180502 0.0193557 0.021666894
        0.024080215 0.026548682 0.029012026 0.031397875 0.03362459 0.03560578
        0.037256368 0.038499545 0.039273866 0.039801445 0.0011355829 0.0013602672
        0.0016034669 0.001886771 0.002216706 0.0026006836 0.0030470176 0.003564942
        0.004164611 0.0048570605 0.005654103 0.0065681324 0.007611802 0.008797558
        0.010136973 0.011639858 0.013313089 0.015159151 0.01717438 0.019347012
        0.02165517 0.024065088 0.02652992 0.028989542 0.031371728 0.03359496
        0.035572976 0.0372208 0.038461734 0.03923442 0.039760735
      </DataArray>
    </PointData>
    <CellData>
    </CellData>
    <Points>
      <DataArray type="Float32" Name="Points" NumberOfComponents="3" format="ascii" RangeMin="1.274164155511789" RangeMax="1.4625372925286326">
        0.9107954 0.039448645 0.8901628 0.91144997 0.039448526 0.89016014
        0.91221887 0.039448384 0.8901569 0.9131216 0.039448217 0.89015317
        0.9141808 0.03944802 0.8901487 0.9154228 0.03944779 0.89014345
        0.9168779 0.039447516 0.8901373 0.9185812 0.039447196 0.8901301
        0.92057264 0.039446827 0.89012176 0.9228981 0.0394464 0.8901121
        0.92560947 0.03944591 0.89010113 0.9287653 0.039445367 0.8900888
        0.9324309 0.039444756 0.8900751 0.9366786 0.03944409 0.89006
        0.94158727 0.03944336 0.89004356 0.94724184 0.03944257 0.8900257
        0.95373195 0.039441716 0.8900064 0.9611498 0.039440796 0.8899857
        0.96958756 0.039439794 0.8899631 0.97913325 0.03943868 0.88993794
        0.9898662 0.039437395 0.88990897 1.0018506 0.039435845 0.8898739
        1.0151294 0.039433874 0.88982946 1.0297172 0.039431263 0.8897706
        1.0455929 0.03942771 0.8896904 1.0626945 0.03942281 0.88957983
        1.080915 0.039416082 0.889428 1.1001011 0.03940697 0.8892224
        1.1200564 0.039394893 0.8889498 1.1405468 0.039379295 0.88859797
        1.1613114 0.039359733 0.8881565 0.911053 0.040758763 0.8901027
        0.91171193 0.040754598 0.8901002 0.9124847 0.040750965 0.89009714
        0.9133907 0.04074785 0.89009345 0.9144525 0.040745217 0.8900891
        0.9156965 0.04074303 0.8900839 0.917153 0.040741265 0.8900778
        0.9188569 0.04073989 0.8900707 0.9208485 0.040738888 0.8900624
        0.92317325 0.040738244 0.8900528 0.9258833 0.04073793 0.8900418
        0.92903686 0.040737934 0.8900295 0.93269926 0.040738232 0.8900158
        0.9369426 0.04073879 0.8900007 0.94184566 0.04073955 0.88998425
        0.9474932 0.04074045 0.8899664 0.9539746 0.040741395 0.8899472
        0.96138227 0.040742278 0.8899264 0.96980834 0.040742997 0.8899038
        0.97934103 0.04074343 0.88987863 0.99005973 0.040743466 0.88984954
        1.0020288 0.04074299 0.88981444 1.0152915 0.040741842 0.88977
        1.0298619 0.040739827 0.88971096 1.0457194 0.040736653 0.8896307
        1.0628018 0.040731937 0.88952005 1.0810021 0.040725205 0.8893682
        1.1001673 0.0407159 0.8891626 1.1201009 0.040703442 0.8888902
        1.1405692 0.04068727 0.8885386 1.1613114 0.040666945 0.8880976
        0.91131055 0.04206879 0.8900407 0.9119711 0.04206201 0.89003825
        0.91274583 0.042055752 0.89003533 0.913654 0.042050123 0.8900318
        0.91471803 0.042045206 0.8900275 0.915964 0.042041045 0.8900224
        0.9174221 0.04203766 0.89001644 0.9191272 0.042035047 0.89000934
        0.9211193 0.0420332 0.89000106 0.923444 0.04203211 0.8899915
        0.926153 0.042031754 0.8899806 0.92930484 0.042032104 0.8899683
        0.93296444 0.042033102 0.8899547 0.9372038 0.042034697 0.88993955
        0.9421016 0.04203677 0.8899231 0.94774234 0.042039193 0.8899053
        0.9542154 0.04204178 0.889886 0.9616132 0.042044334 0.8898652
        0.9700278 0.042046644 0.88984257 0.9795477 0.042048514 0.88981736
        0.9902523 0.042049784 0.88978827 1.0022063 0.0420503 0.8897531
        1.0154529 0.04204992 0.88970846 1.0300062 0.042048443 0.88964945
        1.0458455 0.04204561 0.88956904 1.0629088 0.042041045 0.88945836
        1.0810889 0.042034283 0.8893064 1.1002332 0.04202477 0.88910085
        1.1201453 0.042011917 0.88882864 1.1405915 0.041995164 0.88847727
        1.1613114 0.04197407 0.8880367 0.91156816 0.043378722 0.88997674
        0.91222924 0.043370057 0.8899744 0.9130049 0.043361787 0.88997155
        0.91391426 0.0433541 0.88996816 0.9149798 0.043347187 0.889964
        0.9162273 0.04334119 0.889959 0.9176868 0.043336198 0.889953
        0.9193931 0.043332282 0.88994604 0.9213859 0.043329477 0.8899378
        0.9237107 0.043327797 0.8899283 0.9264192 0.043327227 0.88991743
        0.92956954 0.043327738 0.88990515 0.9332267 0.043329272 0.8898915
        0.93746245 0.04333173 0.8898765 0.9423552 0.04333496 0.88986003
        0.9479894 0.043338746 0.88984215 0.9544544 0.043342836 0.8898229
        0.9618425 0.043346923 0.8898021 0.9702459 0.043350708 0.8897794
        0.9797532 0.04335391 0.8897541 0.990444 0.04335632 0.889725
        1.0023831 0.043357763 0.8896898 1.0156136 0.043358084 0.88964516
        1.0301499 0.043357104 0.889586 1.0459712 0.04335457 0.88950545
        1.0630153 0.043350123 0.88939476 1.0811756 0.04334331 0.88924277
        1.1002991 0.043333568 0.88903725 1.1201895 0.04332031 0.88876516
        1.1406138 0.043302964 0.8884141 1.1613114 0.043281104 0.88797396
        0.9118258 0.044688553 0.8899109 0.91248685 0.044678453 0.88990855
        0.9132627 0.044668596 0.88990587 0.91417277 0.04465923 0.8899025
        0.9152391 0.044650618 0.8898984 0.9164877 0.044642966 0.8898935
        0.9179483 0.04463647 0.88988763 0.91965556 0.044631265 0.8898807
        0.92164904 0.04462745 0.88987255 0.9239741 0.04462508 0.88986313
        0.9266822 0.044624176 0.8898523 0.9298313 0.04462472 0.88984007
        0.9334862 0.044626642 0.8898264 0.9377186 0.04462982 0.88981146
        0.94260657 0.04463405 0.889795 0.9482345 0.04463907 0.8897771
        0.95469165 0.044644516 0.8897578 0.9620702 0.04465001 0.889737
        0.9704626 0.04465515 0.8897143 0.9799575 0.044659585 0.889689
        0.99063474 0.04466305 0.8896598 1.0025591 0.04466534 0.88962454
        1.0157737 0.04466631 0.8895798 1.0302931 0.04466578 0.8895206
        1.0460964 0.04466351 0.88944 1.0631217 0.04465916 0.8893292
        1.081262 0.04465227 0.8891772 1.1003647 0.04464229 0.8889717
        1.1202337 0.044628613 0.8886997 1.140636 0.04461067 0.888349
        1.1613114 0.04458804 0.88790935 0.9120834 0.04599829 0.88984305
        0.9127442 0.04598705 0.88984084 0.91352004 0.045975916 0.88983816
        0.91443014 0.045965172 0.8898349 0.9154969 0.045955107 0.88983095
        0.916746 0.045946006 0.88982606 0.9182074 0.045938134 0.88982034
        0.9199154 0.0459317 0.8898135 0.9219094 0.045926873 0.8898054
        0.9242347 0.04592377 0.88979596 0.9269424 0.045922454 0.8897852
        0.9300904 0.04592292 0.889773 0.93374324 0.045925107 0.8897595
        0.9379723 0.045928877 0.88974446 0.9428558 0.04593398 0.889728
        0.9484776 0.04594009 0.8897102 0.9549271 0.045946777 0.8896909
        0.9622964 0.045953557 0.88967 0.97067803 0.045959946 0.8896473
        0.9801608 0.04596551 0.889622 0.9908245 0.04596995 0.8895927
        1.0027342 0.04597302 0.8895574 1.0159332 0.045974575 0.88951254
        1.0304358 0.045974452 0.88945323 1.0462214 0.04597241 0.8893726
        1.0632278 0.04596813 0.8892617 1.0813482 0.045961153 0.88910973
        1.1004301 0.045950912 0.8889042 1.1202778 0.045936815 0.88863236
        1.1406581 0.045918282 0.88828194 1.1613114 0.04589489 0.8878427
        0.912341 0.047307923 0.8897733 0.9130014 0.047295764 0.8897712
        0.91377693 0.047283586 0.8897686 0.9146869 0.047271688 0.8897653
        0.91575366 0.047260392 0.88976145 0.917003 0.047250036 0.8897567
        0.9184647 0.047240924 0.889751 0.9201731 0.047233347 0.88974416
        0.9221675 0.04722755 0.88973624 0.9244928 0.047223702 0.8897269
        0.92720014 0.047221918 0.88971615 0.9303471 0.047222227 0.88970405
        0.9339979 0.04722459 0.8896905 0.93822396 0.04722883 0.88967556
        0.9431029 0.047234695 0.8896591 0.9487189 0.04724178 0.8896413
        0.95516086 0.04724958 0.889622 0.9625211 0.047257528 0.8896012
        0.97089213 0.047265053 0.88957834 0.9803629 0.047271665 0.889553
        0.99101335 0.047276985 0.8895237 1.0029086 0.047280774 0.8894883
        1.0160921 0.047282867 0.8894434 1.030578 0.0472831 0.88938403
        1.0463458 0.047281265 0.88930327 1.0633335 0.047277033 0.8891923
        1.0814341 0.04726994 0.88904023 1.1004955 0.04725944 0.88883483
        1.1203218 0.047244918 0.8885631 1.1406802 0.047225785 0.8882129
        1.1613114 0.047201633 0.8877742 0.9125986 0.048617445 0.8897016
        0.9132585 0.04860453 0.8896996 0.9140336 0.04859149 0.889697
        0.91494316 0.048578635 0.8896939 0.91600966 0.048566297 0.88969004
        0.9172589 0.048554838 0.8896854 0.9187207 0.048544634 0.88967973
        0.92042917 0.048536014 0.889673 0.92242366 0.048529293 0.8896651
        0.9247489 0.04852471 0.8896558 0.9274558 0.048522435 0.88964516
        0.9306016 0.048522536 0.8896332 0.93425053 0.048524987 0.88961965
        0.93847346 0.048529625 0.8896047 0.9433481 0.048536137 0.8895883
        0.9489583 0.048544083 0.8895704 0.95539296 0.04855289 0.88955116
        0.9627443 0.048561897 0.8895303 0.9711049 0.04857046 0.88950753
        0.9805639 0.048578013 0.889482 0.9912013 0.048584145 0.8894527
        1.0030823 0.04858859 0.8894173 1.0162503 0.04859116 0.8893723
        1.0307198 0.04859172 0.8893128 1.0464699 0.048590053 0.889232
        1.0634389 0.048585843 0.88912094 1.0815198 0.048578635 0.8889689
        1.1005605 0.048567858 0.8887635 1.1203655 0.048552908 0.8884919
        1.1407022 0.048533183 0.888142 1.1613114 0.048508275 0.8877038
        0.91285616 0.049926862 0.88962805 0.9135155 0.04991332 0.889626
        0.9142901 0.049899563 0.8896235 0.91519916 0.049885895 0.8896204
        0.91626525 0.049872667 0.88961667 0.91751415 0.049860265 0.8896121
        0.9189757 0.04984909 0.88960654 0.92068404 0.04983953 0.88959986
        0.92267835 0.049831957 0.889592 0.9250033 0.049826674 0.8895828
        0.9277095 0.049823903 0.88957226 0.9308542 0.04982376 0.8895602
        0.9345012 0.049826242 0.8895468 0.93872106 0.04983119 0.8895319
        0.9435915 0.049838264 0.8895155 0.949196 0.049846973 0.8894977
        0.9556234 0.049856674 0.8894784 0.96296597 0.049866635 0.88945746
        0.9713164 0.049876135 0.8894347 0.98076373 0.049884547 0.8894092
        0.99138826 0.049891412 0.8893798 1.0032551 0.049896438 0.88934433
        1.0164078 0.049899448 0.8892993 1.030861 0.04990029 0.8892397
        1.0465937 0.04989877 0.88915884 1.0635439 0.04989456 0.8890477
        1.0816053 0.049887214 0.8888956 1.1006255 0.049876165 0.88869023
        1.1204093 0.049860775 0.88841885 1.1407243 0.04984047 0.8880692
        1.1613114 0.04981481 0.8876315 0.9131138 0.051236168 0.88955253
        0.9137725 0.0512221 0.88955057 0.9145465 0.051207744 0.88954806
        0.9154549 0.051193397 0.8895451 0.9165204 0.051179413 0.8895414
        0.91776884 0.051166188 0.88953686 0.91922987 0.051154163 0.8895314
        0.92093784 0.05114376 0.8895248 0.9229318 0.051135413 0.88951695
        0.9252562 0.05112947 0.8895079 0.92796165 0.051126212 0.8894974
        0.931105 0.051125813 0.8894854 0.93474996 0.051128283 0.889472
        0.9389669 0.051133472 0.88945717 0.94383305 0.051141027 0.88944083
        0.9494319 0.051150408 0.88942295 0.9558522 0.05116091 0.88940364
        0.9631862 0.051171727 0.8893828 0.97152656 0.051182065 0.8893599
        0.98096246 0.051191244 0.88933444 0.9915742 0.051198766 0.889305
        1.0034273 0.05120432 0.8892694 1.0165648 0.051207714 0.8892243
        1.0310017 0.0512088 0.8891646 1.0467169 0.051207397 0.8890837
        1.0636487 0.051203176 0.8889725 1.0816905 0.05119568 0.88882035
        1.1006904 0.051184345 0.8886151 1.1204529 0.05116853 0.8883438
        1.1407462 0.051147632 0.88799447 1.1613114 0.051121242 0.88755715
        0.9133714 0.052545357 0.88947505 0.91402954 0.052530855 0.88947314
        0.9148028 0.05251599 0.88947076 0.91571057 0.052501064 0.8894678
        0.91677535 0.05248644 0.88946414 0.9180231 0.05247251 0.88945967
        0.91948354 0.052459743 0.88945425 0.92119086 0.052448604 0.88944775
        0.9231842 0.05243955 0.88944006 0.9255079 0.052433003 0.88943094
        0.9282124 0.05242928 0.88942057 0.93135434 0.052428614 0.8894087
        0.93499714 0.05243105 0.8893953 0.93921095 0.052436426 0.88938046
        0.9440729 0.052444395 0.8893641 0.9496662 0.052454364 0.8893463
        0.9560795 0.052465566 0.88932705 0.963405 0.05247714 0.88930607
        0.9717355 0.052488226 0.88928324 0.9811601 0.05249809 0.8892577
        0.99175936 0.052506197 0.8892282 1.0035986 0.052512214 0.8891926
        1.0167212 0.052515946 0.8891474 1.0311419 0.052517246 0.88908774
        1.0468398 0.052515928 0.8890067 1.0637532 0.052511673 0.8888954
        1.0817755 0.052504025 0.8887433 1.100755 0.0524924 0.88853794
        1.1204964 0.052476157 0.8882668 1.140768 0.05245468 0.88791776
        1.1613114 0.052427556 0.887481 0.91362894 0.053854432 0.88939565
        0.9142865 0.05383956 0.8893938 0.91505903 0.053824272 0.8893914
        0.9159661 0.053808857 0.88938856 0.9170301 0.053793684 0.889385
        0.918277 0.05377916 0.8893806 0.9197367 0.053765748 0.8893752
        0.9214433 0.05375396 0.8893688 0.92343575 0.053744283 0.8893611
        0.92575854 0.05373718 0.88935214 0.9284619 0.053733036 0.8893418
        0.93160224 0.053732112 0.88932997 0.9352428 0.05373448 0.8893167
        0.9394535 0.05374001 0.88930184 0.94431114 0.053748325 0.8892855
        0.94989884 0.053758804 0.8892677 0.9563052 0.053770628 0.8892484
        0.9636224 0.053782865 0.8892275 0.9719431 0.053794608 0.8892046
        0.9813566 0.053805076 0.8891791 0.99194354 0.053813692 0.88914955
        1.0037692 0.05382011 0.88911384 1.0168769 0.053824134 0.8890686
        1.0312816 0.053825613 0.8890088 1.0469624 0.053824358 0.88892764
        1.0638573 0.053820055 0.8888164 1.0818603 0.05381224 0.8886642
        1.1008195 0.053800322 0.8884589 1.1205398 0.05378365 0.88818794
        1.1407899 0.0537616 0.8878392 1.1613114 0.053733762 0.88740283
        0.91388655 0.055163387 0.88931435 0.91454345 0.055148207 0.8893125
        0.9153153 0.055132564 0.88931024 0.9162215 0.055116743 0.8893073
        0.91728467 0.055101104 0.8893038 0.91853076 0.055086065 0.8892995
        0.91998947 0.05507211 0.88929415 0.9216951 0.055059753 0.8892878
        0.9236866 0.055049527 0.88928026 0.92600834 0.05504193 0.8892714
        0.9287103 0.055037405 0.889261 0.9318489 0.05503623 0.8892493
        0.93548703 0.05503853 0.88923603 0.9396945 0.05504418 0.8892213
        0.94454783 0.055052787 0.889205 0.95013 0.055063706 0.88918716
        0.95652944 0.055076063 0.8891679 0.96383834 0.05508888 0.8891469
        0.97214943 0.055101193 0.88912404 0.98155206 0.05511218 0.8890985
        0.99212676 0.055121236 0.8890689 1.0039389 0.055128004 0.8890332
        1.017032 0.05513227 0.88898784 1.0314208 0.05513389 0.888928
        1.0470845 0.055132676 0.8888468 1.0639613 0.05512831 0.8887354
        1.0819448 0.05512032 0.8885832 1.1008837 0.05510811 0.88837796
        1.120583 0.05509101 0.8881072 1.1408117 0.055068396 0.8877587
        1.1613114 0.05503985 0.8873228 0.91414416 0.05647222 0.88923115
        0.91480035 0.056456782 0.8892293 0.91557145 0.05644084 0.8892271
        0.9164769 0.056424677 0.8892243 0.9175392 0.056408655 0.8892208
        0.91878426 0.056393187 0.8892165 0.920242 0.056378756 0.8892113
        0.9219465 0.056365922 0.8892049 0.9239369 0.05635522 0.8891974
        0.9262573 0.056347203 0.8891886 0.92895776 0.056342322 0.88917834
        0.9320944 0.05634093 0.88916665 0.93573 0.056343157 0.8891535
        0.9399341 0.0563489 0.88913876 0.944783 0.05635776 0.8891225
        0.9503596 0.056369044 0.8891047 0.9567522 0.056381863 0.8890854
        0.9640529 0.056395173 0.8890645 0.97235453 0.05640797 0.8890416
        0.98174644 0.05641939 0.889016 0.99230903 0.056428824 0.8889864
        1.004108 0.05643588 0.8889506 1.0171865 0.056440346 0.88890517
        1.0315596 0.05644208 0.88884526 1.0472062 0.05644088 0.88876396
        1.0640647 0.056436427 0.88865256 1.0820292 0.056428257 0.8885003
        1.1009479 0.05641575 0.8882951 1.1206263 0.056398235 0.88802445
        1.1408334 0.056375064 0.88767624 1.1613114 0.05634582 0.8872408
        0.91440177 0.05778092 0.889146 0.9150573 0.057765283 0.8891442
        0.91582763 0.057749096 0.889142 0.91673225 0.057732653 0.88913924
        0.9177936 0.057716303 0.8891358 0.91903764 0.057700474 0.88913155
        0.92049426 0.057685666 0.88912636 0.92219764 0.057672415 0.88912016
        0.9241867 0.057661306 0.8891127 0.9265056 0.057652917 0.8891039
        0.92920434 0.057647746 0.88909376 0.93233883 0.05764616 0.88908213
        0.93597174 0.057648327 0.88906896 0.9401723 0.05765414 0.8890543
        0.94501674 0.057663206 0.889038 0.9505877 0.05767481 0.88902026
        0.9569735 0.05768801 0.88900095 0.9642662 0.05770173 0.8889801
        0.97255844 0.057714924 0.88895714 0.9819397 0.05772671 0.8889316
        0.9924905 0.057736445 0.8889019 1.0042762 0.057743724 0.88886607
        1.0173404 0.057748355 0.8888206 1.0316978 0.05775016 0.8887606
        1.0473275 0.05774896 0.88867927 1.064168 0.057744417 0.8885677
        1.0821133 0.057736047 0.88841546 1.1010118 0.057723247 0.88821036
        1.1206694 0.05770531 0.88793975 1.1408551 0.057681594 0.8875919
        1.1613114 0.057651665 0.88715696 0.9146593 0.059089504 0.8890588
        0.9153142 0.05907369 0.88905716 0.9160838 0.059057303 0.88905495
        0.91698754 0.059040632 0.8890522 0.9180479 0.059024025 0.8890489
        0.9192909 0.059007905 0.8890447 0.9207463 0.05899277 0.8890396
        0.9224484 0.058979183 0.8890334 0.92443603 0.058967747 0.889026
        0.92675334 0.05895905 0.8890173 0.92945015 0.05895363 0.8890072
        0.9325824 0.058951885 0.8889956 0.93621236 0.058953997 0.8889825
        0.94040924 0.05895988 0.8889679 0.9452491 0.05896911 0.88895166
        0.9508144 0.058980975 0.8889339 0.9571934 0.058994476 0.8889146
        0.964478 0.059008528 0.88889366 0.9727611 0.059022043 0.88887084
        0.9821319 0.059034113 0.88884515 0.99267095 0.05904409 0.8888155
        1.0044436 0.05905155 0.8887796 1.0174937 0.059056293 0.8887341
        1.0318354 0.059058145 0.88867396 1.0474484 0.059056904 0.88859254
        1.064271 0.059052255 0.888481 1.0821971 0.059043698 0.88832873
        1.1010755 0.059030596 0.88812363 1.1207123 0.05901224 0.88785326
        1.1408767 0.05898798 0.8875056 1.1613114 0.05895739 0.8870711
        0.91491693 0.060397945 0.88896984 0.91557115 0.060382005 0.8889681
        0.91633993 0.06036546 0.88896596 0.91724277 0.06034861 0.88896334
        0.9183022 0.06033179 0.88896 0.91954404 0.06031544 0.88895583
        0.9209983 0.06030006 0.88895077 0.9226989 0.060286198 0.8889446
        0.924685 0.060274497 0.88893735 0.9270005 0.060265556 0.8889287
        0.92969525 0.060259942 0.88891864 0.93282497 0.060258064 0.88890713
        0.93645185 0.060260136 0.8888941 0.940645 0.06026608 0.8888795
        0.9454801 0.060275454 0.8888633 0.9510397 0.060287513 0.88884556
        0.9574119 0.060301263 0.8888263 0.9646886 0.060315568 0.8888054
        0.9729625 0.06032932 0.88878244 0.982323 0.060341608 0.8887569
        0.9928505 0.060351748 0.8887271 1.0046104 0.060359336 0.8886912
        1.0176463 0.06036414 0.8886456 1.0319728 0.060366005 0.8885855
        1.0475689 0.060364727 0.88850397 1.0643736 0.06035996 0.8883923
        1.0822806 0.06035119 0.88824004 1.1011392 0.060337782 0.888035
        1.1207552 0.06031902 0.88776475 1.1408982 0.060294237 0.8874174
        1.1613114 0.06026298 0.88698334 0.91517454 0.061706264 0.8888789
        0.91582805 0.06169021 0.8888772 0.9165961 0.061673556 0.8888751
        0.91749805 0.06165657 0.88887244 0.91855645 0.061639596 0.88886917
        0.9197971 0.06162307 0.88886505 0.92125005 0.06160748 0.88886005
        0.9229492 0.06159343 0.888854 0.9249336 0.061581522 0.88884676
        0.9272472 0.0615724 0.8888382 0.9299397 0.06156664 0.88882816
        0.9330667 0.061564676 0.8888167 0.9366904 0.061566733 0.8888037
        0.94087946 0.061572727 0.8887892 0.94570976 0.061582204 0.888773
        0.9512636 0.061594427 0.8887553 0.95762897 0.06160835 0.88873607
        0.9648978 0.06162283 0.88871515 0.9731628 0.061636742 0.88869226
        0.98251307 0.061649162 0.88866657 0.9930292 0.061659418 0.8886368
        1.0047765 0.06166707 0.8886009 1.0177983 0.061671905 0.8885553
        1.0321094 0.06167376 0.888495 1.0476891 0.06167241 0.8884134
        1.0644759 0.0616675 0.8883018 1.0823641 0.06165852 0.88814944
        1.1012026 0.06164482 0.88794446 1.1207979 0.061625652 0.88767433
        1.1409198 0.061600346 0.88732725 1.1613114 0.06156845 0.8868937
        0.91543216 0.06301443 0.888786 0.91608495 0.06299832 0.88878435
        0.91685224 0.06298158 0.8887823 0.9177533 0.06296449 0.8887797
        0.9188106 0.06294741 0.8887764 0.92005014 0.06293076 0.8887724
        0.9215017 0.06291504 0.8887674 0.92319936 0.062900856 0.8887614
        0.9251819 0.06288881 0.8887542 0.9274935 0.062879555 0.88874567
        0.9301836 0.062873706 0.8887358 0.9333077 0.062871695 0.8887244
        0.9369279 0.06287376 0.8887114 0.9411128 0.0628798 0.88869685
        0.94593817 0.06288937 0.88868076 0.9514861 0.06290169 0.8886631
        0.95784473 0.06291572 0.88864386 0.9651058 0.06293031 0.88862294
        0.97336185 0.0629443 0.88860005 0.98270214 0.062956795 0.8885744
        0.993207 0.062967084 0.8885446 1.0049417 0.06297476 0.8885087
        1.0179497 0.06297959 0.88846296 1.0322456 0.06298139 0.88840264
        1.0478089 0.062979944 0.888321 1.0645779 0.06297489 0.8882093
        1.0824472 0.06296569 0.88805693 1.1012659 0.06295169 0.88785195
        1.1208405 0.06293212 0.887582 1.1409413 0.06290631 0.8872352
        1.1613114 0.06287378 0.88680214 0.9156897 0.06432247 0.88869125
        0.9163419 0.06430631 0.8886896 0.91710836 0.06428952 0.8886876
        0.9180085 0.06427238 0.888685 0.9190648 0.06425524 0.88868177
        0.9203031 0.06423851 0.8886778 0.9217532 0.064222716 0.8886729
        0.9234493 0.06420843 0.8886669 0.92543 0.06419632 0.8886597
        0.9277394 0.06418701 0.88865125 0.93042684 0.06418112 0.88864136
        0.9335479 0.064179115 0.88863003 0.9371644 0.0641812 0.88861716
        0.94134504 0.06418728 0.8886026 0.94616526 0.06419692 0.8885865
        0.95170736 0.0642093 0.88856894 0.95805913 0.06422338 0.88854975
        0.9653124 0.06423799 0.8885288 0.97355974 0.064252 0.88850594
        0.9828901 0.06426448 0.88848025 0.9933839 0.06427474 0.8884505
        1.0051062 0.064282395 0.8884145 1.0181006 0.06428717 0.8883687
        1.0323814 0.0642889 0.88830835 1.0479282 0.064287335 0.8882267
        1.0646796 0.06428212 0.88811487 1.0825301 0.0642727 0.88796246
        1.101329 0.0642584 0.8877576 1.1208831 0.06423844 0.8874877
        1.1409626 0.06421213 0.8871413 1.1613114 0.06417897 0.8867086
        0.9159473 0.06563036 0.8885945 0.9165988 0.065614186 0.8885929
        0.9173645 0.06559738 0.88859093 0.91826373 0.06558022 0.88858837
        0.9193189 0.06556305 0.8885852 0.920556 0.0655463 0.8885812
        0.9220047 0.06553048 0.8885763 0.923699 0.06551618 0.88857037
        0.9256778 0.06550405 0.8885633 0.92798483 0.06549476 0.8885549
        0.93066955 0.06548889 0.88854504 0.93378735 0.06548691 0.8885338
        0.93740004 0.06548904 0.88852084 0.9415761 0.06549517 0.8885065
        0.94639117 0.06550484 0.88849044 0.9519272 0.06551724 0.8884728
        0.9582722 0.0655313 0.8884536 0.9655178 0.06554586 0.8884328
        0.97375643 0.06555981 0.88840985 0.9830771 0.06557222 0.8883842
        0.9935599 0.0655824 0.8883545 1.00527 0.06558997 0.88831836
        1.0182508 0.06559464 0.8882726 1.0325167 0.06559627 0.88821214
        1.0480472 0.06559458 0.88813037 1.0647811 0.06558919 0.88801855
        1.0826128 0.06557954 0.88786614 1.1013919 0.06556494 0.8876613
        1.1209255 0.06554459 0.88739157 1.1409839 0.06551778 0.8870454
        1.1613114 0.06548403 0.8866132 0.9162049 0.06693811 0.88849586
        0.91685575 0.06692194 0.88849425 0.91762066 0.06690514 0.88849235
        0.91851896 0.066888 0.88848984 0.91957307 0.066870846 0.8884867
        0.92080885 0.06685412 0.88848275 0.92225605 0.06683834 0.88847786
        0.92394865 0.06682408 0.88847196 0.9259253 0.066812 0.8884649
        0.92822987 0.06680276 0.8884565 0.9309117 0.066796966 0.88844675
        0.93402606 0.066795066 0.8884355 0.9376347 0.06679727 0.88842267
        0.94180614 0.066803455 0.88840824 0.94661576 0.06681314 0.88839227
        0.95214576 0.066825494 0.88837475 0.958484 0.06683947 0.8883556
        0.96572196 0.066853926 0.88833475 0.97395205 0.06686773 0.88831186
        0.9832631 0.066879995 0.8882862 0.99373513 0.06689005 0.88825643
        1.0054332 0.066897474 0.8882203 1.0184004 0.06690203 0.8881745
        1.0326515 0.06690352 0.88811404 1.0481658 0.06690168 0.88803214
        1.0648822 0.0668961 0.88792026 1.0826952 0.06688622 0.88776785
        1.1014547 0.066871315 0.88756305 1.1209679 0.06685059 0.88729346
        1.1410053 0.06682328 0.8869476 1.1613114 0.06678894 0.88651586
        0.91646254 0.06824571 0.88839525 0.91711265 0.06822957 0.8883937
        0.9178768 0.068212815 0.8883918 0.9187741 0.06819572 0.88838935
        0.91982716 0.06817864 0.8883862 0.92106164 0.06816198 0.88838226
        0.9225073 0.06814628 0.8883774 0.92419803 0.06813211 0.8883716
        0.92617255 0.06812015 0.88836455 0.92847455 0.06811104 0.88835627
        0.93115324 0.06810538 0.88834655 0.934264 0.0681036 0.8883353
        0.9378684 0.0681059 0.88832253 0.94203496 0.06811213 0.88830817
        0.9468391 0.0681218 0.8882922 0.952363 0.06813407 0.88827467
        0.95869446 0.068147905 0.8882556 0.96592486 0.068162166 0.8882348
        0.9741465 0.06817576 0.88821197 0.9834481 0.06818782 0.8881863
        0.9939094 0.06819767 0.8881565 1.0055956 0.06820491 0.88812035
        1.0185494 0.0682093 0.88807446 1.0327858 0.06821062 0.88801396
        1.048284 0.068208605 0.88793206 1.0649829 0.06820283 0.8878201
        1.0827775 0.06819272 0.8876676 1.1015174 0.068177514 0.88746285
        1.1210101 0.06815641 0.8871935 1.1410265 0.06812864 0.88684785
        1.1613114 0.06809371 0.88641655 0.9167201 0.06955316 0.8882928
        0.9173696 0.06953708 0.88829124 0.9181329 0.06952039 0.88828933
        0.9190293 0.06950339 0.8882869 0.92008126 0.0694864 0.8882838
        0.9213144 0.06946986 0.88827986 0.92275846 0.069454305 0.88827515
        0.9244473 0.0694403 0.8882693 0.92641956 0.06942851 0.88826233
        0.9287188 0.069419585 0.888254 0.9313943 0.06941411 0.88824433
        0.9345012 0.0694125 0.8882331 0.9381011 0.06941491 0.88822037
        0.94226265 0.069421194 0.88820606 0.94706124 0.06943081 0.88819015
        0.95257896 0.06944295 0.8881727 0.9589036 0.069456585 0.8881536
        0.96612656 0.06947058 0.88813287 0.97433984 0.0694839 0.88811004
        0.9836321 0.06949567 0.8880844 0.9940829 0.06950527 0.8880546
        1.0057572 0.06951228 0.8880184 1.018698 0.06951646 0.88797253
        1.0329196 0.06951759 0.8879119 1.0484018 0.069515385 0.88782996
        1.0650835 0.0695094 0.88771796 1.0828595 0.069499046 0.88756555
        1.1015799 0.06948354 0.8873608 1.1210521 0.06946206 0.8870916
        1.1410477 0.06943382 0.8867462 1.1613114 0.06939833 0.8863154
        0.9169777 0.070860445 0.88818836 0.9176265 0.070844464 0.8881869
        0.918389 0.07082788 0.88818496 0.9192845 0.07081099 0.8881825
        0.9203353 0.07079414 0.8881794 0.9215671 0.07077779 0.8881756
        0.9230095 0.07076242 0.88817084 0.9246964 0.070748635 0.88816506
        0.9266662 0.070737086 0.8881581 0.9289626 0.070728414 0.8881498
        0.9316346 0.070723176 0.88814014 0.93473744 0.070721775 0.888129
        0.9383328 0.07072432 0.8881163 0.94248915 0.070730634 0.88810205
        0.947282 0.07074018 0.88808614 0.9527936 0.070752144 0.8880687
        0.95911145 0.07076549 0.8880497 0.966327 0.07077916 0.888029
        0.9745321 0.07079213 0.8880062 0.98381513 0.07080355 0.8879806
        0.9942556 0.07081284 0.88795084 1.0059181 0.07081957 0.88791466
        1.0188458 0.070823506 0.8878687 1.033053 0.07082442 0.8878081
        1.0485194 0.07082201 0.88772595 1.0651838 0.0708158 0.88761395
        1.0829413 0.07080519 0.8874615 1.1016421 0.07078939 0.8872568
        1.1210942 0.070767544 0.88698775 1.1410689 0.07073885 0.8866427
        1.1613114 0.0707028 0.8862123 0.9172353 0.07216759 0.88808197
        0.9178834 0.0721517 0.88808054 0.91864514 0.07213526 0.88807863
        0.9195397 0.072118536 0.88807625 0.92058927 0.072101876 0.88807315
        0.9218197 0.07208574 0.88806933 0.92326045 0.07207062 0.88806456
        0.92494524 0.07205713 0.88805884 0.92691255 0.072045885 0.88805187
        0.9292059 0.07203753 0.88804364 0.9318743 0.0720326 0.888034
        0.93497294 0.07203144 0.8880229 0.93856347 0.072034135 0.88801026
        0.94271445 0.072040476 0.887996 0.9475016 0.07204991 0.88798016
        0.95300686 0.07206162 0.88796276 0.95931804 0.07207464 0.88794386
        0.96652627 0.07208791 0.88792324 0.9747233 0.072100446 0.8879005
        0.98399717 0.07211146 0.88787484 0.99442744 0.07212036 0.8878451
        1.0060785 0.07212678 0.88780886 1.0189931 0.072130434 0.8877629
        1.033186 0.0721311 0.8877022 1.0486364 0.07212846 0.88762015
        1.0652837 0.07212203 0.88750803 1.0830228 0.07211117 0.8873555
        1.1017042 0.07209506 0.8871509 1.1211361 0.07207285 0.88688195
        1.14109 0.07204372 0.8865372 1.1613114 0.07200712 0.88610727
        0.91749287 0.07347456 0.8879737 0.91814035 0.07345882 0.8879723
        0.91890126 0.07344253 0.8879704 0.9197948 0.07342601 0.887968
        0.92084324 0.073409595 0.88796496 0.92207223 0.07339373 0.88796115
        0.9235112 0.073378935 0.88795644 0.92519385 0.0733658 0.88795066
        0.92715853 0.07335495 0.88794374 0.92944866 0.07334697 0.8879355
        0.93211323 0.07334239 0.8879259 0.9352074 0.0733415 0.88791484
        0.938793 0.07334436 0.8879022 0.94293857 0.073350705 0.887888
        0.9477198 0.07335999 0.8878722 0.9532189 0.07337141 0.8878549
        0.9595234 0.07338401 0.887836 0.96672434 0.0733968 0.8878154
        0.97491336 0.07340884 0.8877927 0.9841783 0.073419385 0.8877672
        0.99459845 0.07342787 0.8877374 1.0062381 0.073433906 0.8877012
        1.0191399 0.07343725 0.8876552 1.0333184 0.07343765 0.88759446
        1.0487531 0.07343476 0.88751227 1.0653833 0.07342808 0.88740015
        1.0831041 0.073416956 0.8872476 1.1017663 0.07340055 0.88704306
        1.1211779 0.073377974 0.8867743 1.141111 0.07334841 0.8864297
        1.1613114 0.07331128 0.88600034 0.9177505 0.07478138 0.8878636
        0.91839725 0.0747658 0.8878621 0.9191573 0.07474973 0.88786024
        0.92004997 0.07473344 0.88785785 0.92109716 0.07471731 0.8878548
        0.9223247 0.074701786 0.887851 0.92376184 0.07468738 0.8878463
        0.9254422 0.07467467 0.88784057 0.9274041 0.07466428 0.88783365
        0.92969084 0.074656755 0.8878255 0.9323514 0.074652575 0.8878159
        0.93544096 0.074651994 0.8878048 0.93902135 0.07465501 0.8877922
        0.94316137 0.074661344 0.88777804 0.9479367 0.07467043 0.88776237
        0.9534295 0.07468148 0.8877451 0.9597274 0.074693605 0.88772625
        0.9669212 0.07470585 0.88770574 0.97510237 0.07471733 0.88768303
        0.98435855 0.07472733 0.8876575 0.99476874 0.074735336 0.8876278
        1.006397 0.074740954 0.8875916 1.0192862 0.07474396 0.8875455
        1.0334505 0.074744046 0.8874847 1.0488696 0.074740894 0.88740253
        1.0654826 0.07473396 0.88729036 1.0831853 0.074722566 0.8871379
        1.1018281 0.074705854 0.8869333 1.1212196 0.07468293 0.8866647
        1.141132 0.07465293 0.8863205 1.1613114 0.074615285 0.8858915
        0.9180081 0.07608803 0.88775146 0.91865414 0.076072656 0.88774997
        0.91941345 0.07605683 0.8877481 0.920305 0.07604083 0.8877458
        0.921351 0.076025054 0.88774276 0.922577 0.07600993 0.88773894
        0.92401224 0.07599598 0.88773423 0.92569023 0.075983785 0.8877285
        0.92764914 0.07597392 0.88772154 0.9299323 0.07596692 0.88771343
        0.9325886 0.07596319 0.8877038 0.93567336 0.07596294 0.88769275
        0.9392485 0.075966105 0.8876802 0.9433828 0.07597239 0.8876661
        0.9481522 0.075981215 0.88765043 0.95363885 0.075991854 0.88763326
        0.9599302 0.076003425 0.88761455 0.96711695 0.07601503 0.88759404
        0.97529036 0.07602587 0.88757145 0.98453784 0.07603528 0.88754594
        0.9949382 0.07604275 0.88751626 1.0065553 0.07604792 0.8874801
        1.0194318 0.07605053 0.88743395 1.0335821 0.076050304 0.88737315
        1.0489856 0.07604686 0.8872909 1.0655818 0.07603966 0.88717866
        1.0832661 0.07602798 0.88702613 1.1018897 0.07601097 0.8868217
        1.1212612 0.0759877 0.88655317 1.141153 0.07595728 0.88620925
        1.1613114 0.07591912 0.8857807 0.91826564 0.07739452 0.8876374
        0.9189111 0.077379376 0.88763595 0.9196695 0.077363834 0.88763416
        0.92056006 0.07734818 0.8876318 0.9216048 0.077332824 0.8876287
        0.92282915 0.07731818 0.8876249 0.92426234 0.07730478 0.8876202
        0.92593783 0.07729318 0.8876145 0.9278936 0.077283934 0.8876076
        0.9301729 0.07727752 0.88759935 0.9328248 0.07727428 0.88758975
        0.93590456 0.07727437 0.8875787 0.9394743 0.077277675 0.8875662
        0.9436029 0.07728387 0.88755214 0.94836634 0.07729238 0.8875366
        0.9538468 0.077302516 0.8875195 0.9601317 0.07731345 0.8875008
        0.96731156 0.077324376 0.88748044 0.97547734 0.07733451 0.88745785
        0.98471624 0.07734325 0.88743246 0.9951069 0.07735013 0.8874028
        1.0067129 0.077354796 0.88736653 1.019577 0.07735699 0.88732046
        1.0337132 0.0773564 0.8872596 1.0491012 0.07735266 0.88717735
        1.0656805 0.07734518 0.88706505 1.0833468 0.07733322 0.8869125
        1.1019512 0.07731591 0.8867081 1.1213027 0.077292286 0.88643974
        1.1411738 0.07726146 0.88609606 1.1613114 0.0772228 0.885668
        0.91852325 0.078700826 0.88752145 0.919168 0.07868597 0.88752
        0.9199256 0.07867077 0.88751817 0.92081505 0.07865553 0.8875158
        0.9218585 0.078640655 0.88751274 0.9230811 0.07862658 0.8875089
        0.92451215 0.07861382 0.88750416 0.9261849 0.0786029 0.88749844
        0.9281373 0.07859436 0.8874915 0.9304126 0.0785886 0.8874833
        0.9330598 0.07858589 0.88747376 0.93613446 0.078586325 0.88746274
        0.93969864 0.07858974 0.8874502 0.94382155 0.07859579 0.8874362
        0.9485791 0.07860392 0.8874208 0.95405346 0.07861348 0.8874037
        0.960332 0.0786237 0.88738513 0.967505 0.078633845 0.88736486
        0.9756633 0.07864322 0.8873424 0.9848938 0.078651235 0.887317
        0.99527484 0.07865746 0.8872873 1.00687 0.07866159 0.88725114
        1.0197216 0.07866333 0.88720506 1.0338439 0.078662366 0.88714415
        1.0492165 0.0786583 0.88706183 1.0657791 0.07865052 0.8869495
        1.0834273 0.078638285 0.88679695 1.1020126 0.078620665 0.88659257
        1.1213441 0.078596696 0.8863244 1.1411947 0.078565456 0.885981
        1.1613114 0.0785263 0.88555336 0.91878086 0.080006965 0.88740355
        0.9194249 0.07999244 0.8874021 0.9201816 0.07997765 0.8874003
        0.92107 0.079962894 0.8873979 0.922112 0.0799486 0.88739485
        0.9233328 0.079935186 0.88739103 0.92476153 0.07992317 0.8873862
        0.9264313 0.07991305 0.8873804 0.9283801 0.07990529 0.8873735
        0.9306511 0.079900235 0.8873653 0.9332935 0.07989808 0.88735574
        0.93636286 0.07989884 0.8873448 0.9399215 0.07990233 0.8873323
        0.9440386 0.07990816 0.8873184 0.9487903 0.079915844 0.88730294
        0.95425874 0.07992473 0.88728595 0.960531 0.07993417 0.88726753
        0.9676973 0.07994346 0.8872473 0.97584826 0.07995199 0.8872249
        0.98507047 0.07995922 0.88719964 0.99544203 0.07996477 0.88717
        1.0070264 0.0799683 0.88713384 1.0198658 0.07996954 0.88708776
        1.0339742 0.079968184 0.8870268 1.0493315 0.07996377 0.8869444
        1.0658773 0.07995569 0.88683206 1.0835075 0.07994316 0.8866795
        1.1020738 0.07992523 0.88647515 1.1213853 0.07990091 0.88620716
        1.1412156 0.07986928 0.885864 1.1613114 0.07982964 0.88543683
        0.9190384 0.081312925 0.88728374 0.9196817 0.0812988 0.8872823
        0.9204376 0.08128448 0.8872804 0.9213248 0.08127031 0.887278
        0.92236525 0.081256695 0.8872749 0.9235841 0.08124407 0.88727105
        0.92501026 0.08123292 0.8872663 0.92667687 0.0812237 0.88726044
        0.92862177 0.081216805 0.8872535 0.93088835 0.08121251 0.8872453
        0.93352574 0.08121092 0.8872357 0.9365897 0.081211984 0.8872248
        0.94014275 0.08121547 0.88721234 0.9442542 0.081221014 0.88719845
        0.9490001 0.081228144 0.88718307 0.95446265 0.081236295 0.88716626
        0.96072876 0.081244856 0.8871479 0.9678886 0.08125322 0.8871278
        0.97603226 0.08126083 0.8871055 0.9852463 0.08126723 0.88708025
        0.99560857 0.08127203 0.88705075 1.0071821 0.08127493 0.88701457
        1.0200093 0.08127566 0.8869685 1.0341041 0.08127387 0.88690746
        1.0494461 0.08126909 0.886825 1.0659753 0.08126069 0.8867127
        1.0835876 0.08124785 0.8865601 1.102135 0.08122961 0.8863558
        1.1214266 0.08120495 0.8860879 1.1412363 0.08117291 0.8857451
        1.1613114 0.081132814 0.88531834 0.919296 0.082618706 0.887162
        0.91993856 0.08260506 0.8871606 0.92069346 0.08259131 0.8871587
        0.9215794 0.08257783 0.88715625 0.9226182 0.082565024 0.8871531
        0.9238349 0.082553335 0.8871492 0.9252583 0.08254318 0.8871444
        0.92692137 0.08253499 0.8871385 0.92886215 0.08252904 0.88713145
        0.931124 0.08252554 0.8871232 0.9337562 0.08252449 0.88711363
        0.9368148 0.0825258 0.8871027 0.9403623 0.08252921 0.8870903
        0.94446814 0.08253437 0.88707656 0.94920844 0.08254085 0.88706136
        0.9546652 0.082548164 0.8870446 0.96092534 0.08255576 0.8870263
        0.96807873 0.08256313 0.88700634 0.9762153 0.082569756 0.88698417
        0.98542136 0.08257525 0.886959 0.9957743 0.082579255 0.88692945
        1.0073373 0.08258148 0.8868934 1.0201524 0.082581654 0.88684726
        1.0342335 0.08257941 0.8867863 1.0495604 0.08257425 0.8867038
        1.066073 0.08256551 0.8865914 1.0836675 0.08255236 0.88643885
        1.1021959 0.0825338 0.88623464 1.1214677 0.082508795 0.88596684
        1.141257 0.08247637 0.8856243 1.1613114 0.0824358 0.885198
        0.91955364 0.083924316 0.8870384 0.9201954 0.083911225 0.88703686
        0.9209492 0.08389819 0.88703495 0.9218338 0.08388554 0.88703245
        0.92287076 0.08387372 0.8870293 0.92408496 0.08386311 0.8870253
        0.9255052 0.08385412 0.8870204 0.9271645 0.08384705 0.8870145
        0.9291009 0.08384213 0.8870075 0.93135774 0.08383942 0.88699913
        0.93398476 0.083838865 0.8869896 0.93703794 0.08384034 0.8869787
        0.94058 0.083843574 0.8869664 0.9446804 0.083848245 0.8869527
        0.9494152 0.08385398 0.8869375 0.9548664 0.08386035 0.8869209
        0.9611207 0.0838669 0.88690275 0.96826786 0.08387318 0.8868829
        0.97639745 0.08387876 0.88686085 0.9855956 0.083883286 0.88683575
        0.99593943 0.08388645 0.88680637 1.007492 0.08388797 0.88677025
        1.020295 0.08388755 0.8867241 1.0343626 0.08388482 0.88666314
        1.0496744 0.083879255 0.8865806 1.0661705 0.08387017 0.8864682
        1.0837471 0.083856694 0.8863156 1.1022565 0.083837815 0.8861115
        1.1215087 0.08381246 0.8858438 1.1412777 0.08377964 0.88550156
        1.1613114 0.08373862 0.8850757 0.9198112 0.085229725 0.8869128
        0.9204521 0.08521734 0.88691133 0.9212048 0.08520517 0.8869093
        0.9220878 0.08519356 0.88690674 0.9231226 0.08518291 0.88690346
        0.924334 0.08517361 0.8868994 0.92575073 0.08516593 0.88689446
        0.92740583 0.08516012 0.88688844 0.9293375 0.08515623 0.88688135
        0.93158937 0.08515428 0.886873 0.93421113 0.08515415 0.88686347
        0.937259 0.08515567 0.8868526 0.9407958 0.08515861 0.8868404
        0.9448909 0.08516267 0.88682675 0.9496204 0.08516754 0.88681173
        0.9550662 0.08517287 0.8867953 0.9613149 0.08517828 0.8867772
        0.9684559 0.08518339 0.88675755 0.9765787 0.08518786 0.88673556
        0.985769 0.08519136 0.88671064 0.9961039 0.085193634 0.8866812
        1.0076461 0.085194394 0.8866452 1.0204371 0.08519335 0.88659906
        1.0344912 0.0851901 0.886538 1.049788 0.08518411 0.88645554
        1.0662676 0.08517466 0.886343 1.0838265 0.085160844 0.8861905
        1.1023171 0.08514163 0.8859864 1.1215496 0.08511593 0.8857189
        1.1412982 0.08508273 0.88537693 1.1613114 0.08504125 0.8849515
        0.9200688 0.08653496 0.8867853 0.9207088 0.08652347 0.8867838
        0.9214601 0.08651238 0.8867817 0.92234117 0.08650207 0.886779
        0.9233734 0.08649289 0.8867757 0.9245815 0.0864851 0.8867715
        0.9259943 0.08647892 0.8867664 0.9276449 0.08647441 0.8867603
        0.9295717 0.08647156 0.88675314 0.9318185 0.08647029 0.88674486
        0.9344352 0.08647045 0.8867353 0.93747795 0.08647187 0.8867245
        0.94100964 0.08647436 0.8867124 0.9450997 0.08647767 0.88669884
        0.94982415 0.08648156 0.886684 0.95526475 0.086485736 0.8866676
        0.9615079 0.0864899 0.8866498 0.96864295 0.086493775 0.8866302
        0.976759 0.08649706 0.88660836 0.9859417 0.08649948 0.8865835
        0.9962677 0.08650081 0.8865541 1.0077995 0.08650077 0.8865182
        1.0205787 0.08649907 0.88647205 1.0346195 0.08649528 0.886411
        1.0499012 0.08648884 0.88632846 1.0663645 0.086479 0.8862159
        1.0839058 0.08646483 0.8860634 1.1023777 0.08644528 0.8858594
        1.1215904 0.086419225 0.88559204 1.1413188 0.08638562 0.88525033
        1.1613114 0.0863437 0.8848253 0.9203264 0.08783998 0.8866559
        0.9209652 0.08782969 0.88665426 0.9217148 0.08782005 0.88665205
        0.9225935 0.0878114 0.8866493 0.9236225 0.087804005 0.8866458
        0.9248268 0.08779801 0.88664144 0.92623514 0.08779343 0.88663626
        0.927881 0.08779024 0.88663006 0.9298029 0.087788336 0.88662285
        0.93204474 0.0877876 0.88661456 0.93465656 0.08778787 0.886605
        0.93769455 0.087789014 0.8865943 0.9412214 0.087790884 0.88658226
        0.9453068 0.0877933 0.8865689 0.9500264 0.08779607 0.8865541
        0.9554619 0.087798975 0.88653797 0.9616998 0.08780182 0.8865203
        0.96882904 0.08780436 0.88650084 0.97693855 0.08780639 0.8864792
        0.98611367 0.08780768 0.8864544 0.9964308 0.087808006 0.8864252
        1.0079525 0.08780712 0.8863892 1.02072 0.08780473 0.8863431
        1.0347472 0.087800354 0.8862821 1.0500143 0.08779344 0.8861995
        1.0664612 0.087783195 0.886087 1.0839849 0.08776866 0.8859344
        1.102438 0.08774875 0.88573045 1.121631 0.08772233 0.88546324
        1.1413393 0.08768834 0.8851218 1.1613114 0.08764595 0.8846973
        0.92058396 0.08914483 0.88652456 0.9212212 0.089136206 0.88652277
        0.9219684 0.089128576 0.88652045 0.9228438 0.08912213 0.88651747
        0.9238689 0.08911692 0.88651377 0.9250687 0.08911291 0.8865093
        0.92647237 0.089109965 0.886504 0.92811346 0.089107975 0.8864977
        0.93003064 0.08910682 0.88649046 0.9322679 0.089106366 0.8864821
        0.9348752 0.08910654 0.8864727 0.9379087 0.0891072 0.88646203
        0.94143116 0.089108266 0.8864502 0.945512 0.089109614 0.88643694
        0.950227 0.08911111 0.88642234 0.95565784 0.08911265 0.8864063
        0.9618906 0.08911406 0.88638884 0.9690141 0.08911519 0.8863696
        0.97711724 0.08911588 0.886348 0.98628485 0.08911596 0.8863234
        0.99659336 0.089115255 0.8862942 1.0081049 0.08911348 0.8862583
        1.0208607 0.089110345 0.8862122 1.0348748 0.08910537 0.8861512
        1.0501269 0.08909794 0.8860686 1.0665575 0.08908726 0.88595605
        1.0840636 0.08907234 0.88580346 1.102498 0.08905206 0.8855996
        1.1216717 0.08902527 0.8853326 1.1413598 0.088990875 0.8849914
        1.1613114 0.08894802 0.8845673 0.9208416 0.09044948 0.8863914
        0.92147607 0.09044355 0.8863893 0.92221946 0.09043892 0.8863867
        0.92309034 0.09043535 0.8863834 0.9241107 0.09043264 0.88637954
        0.9253057 0.0904306 0.8863749 0.9267048 0.090429105 0.88636947
        0.9283415 0.09042803 0.88636315 0.93025446 0.0904273 0.8863559
        0.93248767 0.09042685 0.8863476 0.9350909 0.09042661 0.88633823
        0.93812037 0.09042655 0.88632774 0.94163877 0.090426594 0.88631594
        0.9457155 0.09042669 0.8863029 0.9504262 0.09042679 0.8862885
        0.95585245 0.09042681 0.8862727 0.9620803 0.09042668 0.8862554
        0.96919835 0.090426326 0.88623625 0.97729516 0.0904256 0.8862149
        0.98645544 0.090424426 0.88619035 0.99675536 0.0904226 0.8861613
        1.0082568 0.090419896 0.88612545 1.021001 0.09041597 0.88607943
        1.0350019 0.09041035 0.8860184 1.0502393 0.09040238 0.8859358
        1.0666537 0.09039123 0.8858232 1.0841423 0.09037589 0.88567066
        1.1025581 0.090355225 0.8854669 1.1217122 0.09032804 0.88519996
        1.1413802 0.09029322 0.8848591 1.1613114 0.090249896 0.8844355
        0.9210991 0.09175393 0.8862562 0.92172676 0.09175366 0.8862536
        0.922464 0.09175335 0.88625056 0.9233296 0.091752976 0.88624704
        0.92434525 0.09175255 0.8862429 0.9255361 0.09175206 0.88623816
        0.9269313 0.09175149 0.8862327 0.9285645 0.09175084 0.88622636
        0.930474 0.09175009 0.88621914 0.93270373 0.09174924 0.8862109
        0.93530357 0.09174828 0.8862017 0.9383295 0.09174721 0.8861913
        0.9418443 0.091746 0.8861797 0.9459172 0.091744676 0.8861668
        0.9506239 0.0917432 0.8861526 0.95604587 0.09174159 0.886137
        0.96226895 0.09173982 0.8861199 0.96938163 0.09173786 0.886101
        0.97747225 0.09173566 0.8860798 0.9866254 0.091733135 0.8860554
        0.9969167 0.09173014 0.88602644 1.0084082 0.09172644 0.8859907
        1.0211409 0.09172168 0.8859447 1.0351286 0.09171536 0.8858836
        1.0503514 0.091706805 0.885801 1.0667496 0.09169515 0.8856885
        1.0842208 0.09167936 0.88553596 1.102618 0.091658264 0.88533217
        1.1217526 0.09163065 0.88506544 1.1414006 0.09159539 0.8847249
        1.1613114 0.09155157 0.88430166
        <InformationKey name="L2_NORM_RANGE" location="vtkDataArray" length="2">
          <Value index="0">
            1.2741641555
          </Value>
          <Value index="1">
            1.4625372925
          </Value>
        </InformationKey>
      </DataArray>
    </Points>
  </Piece>
  </StructuredGrid>
</VTKFile>
