<?xml version="1.0"?>
<VTKFile type="StructuredGrid" version="0.1" byte_order="LittleEndian" header_type="UInt32" compressor="vtkZLibDataCompressor">
  <StructuredGrid WholeExtent="0 30 0 40 0 0">
  <Piece Extent="0 30 0 40 0 0">
    <PointData>
      <DataArray type="Float32" Name="orthogonality" format="ascii" RangeMin="0" RangeMax="0.06043834239244461">
        0.05955567 0.058812663 0.058166515 0.05759698 0.05707835 0.056584585
        0.05609237 0.055581912 0.05503643 0.05444118 0.05378258 0.053047497
        0.05222257 0.051293362 0.050243262 0.04905215 0.04769525 0.046142858
        0.0443615 0.042316675 0.03997665 0.03731619 0.03431936 0.030981092
        0.027307712 0.023317035 0.019038327 0.014512056 0.009789176 0.004929634
        0 0.05801729 0.058035474 0.0578917 0.057632495 0.057289593
        0.056884144 0.056427043 0.055921018 0.055363107 0.05474669 0.05406283
        0.05330098 0.052449208 0.051493865 0.050418768 0.04920409 0.04782529
        0.0462529 0.044453613 0.042393055 0.040039476 0.037367515 0.034361023
        0.031014645 0.02733442 0.023337893 0.019054096 0.014523303 0.009796311
        0.0049329665 3.0752577e-07 0.057287112 0.05756634 0.057642512 0.0575778
        0.05738327 0.05707711 0.056677457 0.056197762 0.055645127 0.055020735
        0.05432108 0.053539164 0.052665275 0.051687118 0.050589375 0.049352776
        0.047953222 0.046361573 0.04454483 0.04246881 0.040101822 0.037418447
        0.03440234 0.031047892 0.027360858 0.023358518 0.019069668 0.014534387
        0.009803316 0.0049361973 6.884495e-07 0.05682223 0.057178903 0.05735857
        0.057418704 0.057347897 0.057146918 0.056825276 0.056395795 0.055869788
        0.055254307 0.05455136 0.053758327 0.052868623 0.05187208 0.050754778
        0.049498387 0.04807948 0.046469454 0.044635735 0.042544458 0.040164117
        0.0374693 0.03444354 0.031080985 0.027387131 0.023378981 0.019085094
        0.014545347 0.00981022 0.004939356 1.1163689e-06 0.056485277 0.05687234
        0.057102323 0.057236023 0.057252906 0.057140805 0.056897357 0.056528073
        0.056042273 0.055448905 0.05475373 0.053958118 0.053058904 0.052048508
        0.050914846 0.049640875 0.048204083 0.046576586 0.044726387 0.042620074
        0.040226433 0.03752015 0.034484684 0.03111399 0.027413294 0.023399333
        0.019100418 0.014556221 0.009817061 0.0049424698 1.5690471e-06 0.05622511
        0.056626376 0.05688304 0.057060603 0.057136793 0.057093173 0.056918412
        0.056609496 0.056170233 0.055607833 0.054929283 0.054138698 0.05323596
        0.0522162 0.05106942 0.049780138 0.048326977 0.046682946 0.04481679
        0.042695675 0.040288795 0.037571028 0.03452581 0.03114694 0.02743938
        0.023419602 0.019115668 0.014567034 0.009823858 0.0049455576 2.0311875e-06
        0.05601686 0.05642542 0.056697365 0.05690209 0.057018332 0.057025626
        0.05690741 0.05665372 0.05626197 0.0557354 0.055079885 0.054300655
        0.053399842 0.05237501 0.051218342 0.049916036 0.04844806 0.04678847
        0.0449069 0.042771235 0.040351197 0.037621934 0.03456693 0.031179847
        0.027465405 0.023439808 0.019130858 0.014577804 0.009830627 0.0049486323
        2.4918616e-06 0.055846326 0.05625881 0.05654002 0.05676226 0.05690599
        0.056950796 0.056877706 0.056672003 0.056325417 0.05583635 0.055207957
        0.05444502 0.05355085 0.05252495 0.051361494 0.05004845 0.048567217
        0.046893064 0.04499665 0.042846713 0.04041361 0.037672855 0.034608044
        0.031212717 0.027491378 0.023459958 0.019146001 0.014588539 0.009837376
        0.004951703 2.9428782e-06 0.05570458 0.056119192 0.05640626 0.0566402
        0.0568032 0.056875776 0.056838218 0.056673024 0.056367517 0.055915397
        0.055316243 0.054573156 0.053689547 0.052666154 0.051498853 0.050177287
        0.04868436 0.04699665 0.04508597 0.042922053 0.040475994 0.03772377
        0.03464913 0.031245545 0.0275173 0.023480056 0.019161103 0.014599245
        0.009844113 0.0049547763 3.377878e-06 0.05558563 0.056001358 0.056292243
        0.056534246 0.056711063 0.056804396 0.056794748 0.05666322 0.05639406
        0.05597692 0.055407587 0.054686658 0.05381669 0.052798923 0.05163048
        0.05030251 0.048799407 0.04709914 0.04517479 0.042997196 0.040538315
        0.037774652 0.03469018 0.031278323 0.027543167 0.023500105 0.019176167
        0.014609929 0.009850845 0.0049578575 3.7918023e-06 0.055485263 0.055901524
        0.05619495 0.056442656 0.056629587 0.056738645 0.05675098 0.056647226
        0.056409683 0.056024794 0.055484753 0.054787237 0.053933207 0.052923676
        0.051756516 0.05042413 0.04891231 0.047200464 0.04526304 0.04307209
        0.040600523 0.03782547 0.034731172 0.031311043 0.027568977 0.023520106
        0.019191194 0.014620594 0.0098575745 0.004960952 4.180558e-06 0.055400435
        0.055816874 0.056112025 0.05636386 0.05655834 0.05667947 0.056709237
        0.05662836 0.05641804 0.05606235 0.055550333 0.054876637 0.054040127
        0.053040948 0.051877197 0.0505422 0.049023047 0.04730057 0.04535066
        0.043146674 0.040662576 0.037876192 0.034772087 0.031343695 0.027594727
        0.023540057 0.019206189 0.0146312425 0.009864305 0.004964062 4.5407965e-06
        0.055328872 0.05574529 0.056041628 0.056296505 0.056496732 0.056627266
        0.05667096 0.056608956 0.056421958 0.056092385 0.05560668 0.05495658
        0.05413854 0.053151347 0.051992808 0.050656833 0.049131624 0.047399417
        0.045437586 0.04322089 0.040724423 0.037926786 0.034812905 0.03137626
        0.027620405 0.023559954 0.019221148 0.014641875 0.009871039 0.004967191
        4.869761e-06 0.05526887 0.055685144 0.05598231 0.056239486 0.05644416
        0.056582112 0.05663705 0.056590673 0.056423616 0.056117237 0.055655904
        0.055028703 0.054229576 0.053255547 0.052103706 0.05076817 0.049238063
        0.047496963 0.045523763 0.04329468 0.040786024 0.037977215 0.0348536
        0.031408735 0.027646009 0.023579797 0.019236073 0.014652493 0.009877779
        0.00497034 5.1651737e-06 0.055219118 0.05563519 0.055932947 0.056191888
        0.056400064 0.05654396 0.056608055 0.056574695 0.056424703 0.056138825
        0.05569985 0.055094544 0.05431435 0.05335427 0.052210286 0.050876394
        0.04934242 0.047593195 0.045609143 0.043367993 0.040847328 0.038027447
        0.034894153 0.031441092 0.027671527 0.02359958 0.019250961 0.014663098
        0.009884524 0.004973512 5.425158e-06 0.055178627 0.055594478 0.05589266
        0.056152992 0.056363977 0.056512695 0.05658433 0.05656188 0.05642653
        0.05615874 0.055740148 0.055155534 0.05439396 0.053448256 0.05231299
        0.05098172 0.04944476 0.047688108 0.045693688 0.04344078 0.04090829
        0.03807744 0.034934532 0.031473327 0.027696954 0.023619298 0.01926581
        0.01467369 0.009891278 0.004976708 5.648175e-06 0.05514665 0.055562276
        0.05586078 0.056122232 0.056335505 0.0564882 0.05656611 0.056552883
        0.05643014 0.056178313 0.055778217 0.05521299 0.054469466 0.053538255
        0.052412275 0.051084384 0.049545176 0.047781695 0.04577735 0.043512985
        0.040968858 0.038127165 0.03497472 0.031505417 0.027722277 0.023638947
        0.019280622 0.014684266 0.0098980395 0.0049799285 5.832981e-06 0.05512263
        0.055538043 0.055836808 0.056099184 0.056314368 0.056470387 0.056553584
        0.05654821 0.05643639 0.056198664 0.055815317 0.05526812 0.054541886
        0.053625014 0.05250862 0.051184643 0.049643766 0.04787397 0.045860097
        0.04358456 0.04102899 0.03817658 0.03501468 0.03153735 0.02774749
        0.023658521 0.019295389 0.014694829 0.009904808 0.0049831746 5.9785907e-06
        0.05510617 0.055521403 0.05582039 0.05608356 0.05630037 0.056459207
        0.05654692 0.05654831 0.056445997 0.056220766 0.055852562 0.055322044
        0.0546122 0.053709276 0.05260251 0.051282763 0.049740646 0.04796495
        0.045941897 0.043655455 0.041088644 0.03822565 0.0350544 0.031569105
        0.02777258 0.023678018 0.019310111 0.014705374 0.009911586 0.004986447
        6.0842553e-06 0.05509702 0.055512108 0.05581131 0.05607518 0.056293402
        0.05645469 0.0565463 0.056553572 0.05645961 0.05624549 0.055890966
        0.055375796 0.05468133 0.053791765 0.052694444 0.051379032 0.04983593
        0.04805465 0.04602272 0.04372563 0.041147765 0.03827434 0.035093844
        0.031600665 0.027797535 0.023697427 0.019324785 0.014715901 0.00991837
        0.0049897446 6.1494416e-06 0.05509506 0.055510044 0.055809464 0.056073986
        0.05629347 0.056456912 0.05655196 0.056564398 0.05647783 0.056273635
        0.055931468 0.05543035 0.054750163 0.05387319 0.0527849 0.051473718
        0.049929745 0.048143096 0.04610254 0.043795027 0.04120631 0.038322613
        0.035132986 0.031632017 0.027822347 0.023716744 0.019339407 0.014726409
        0.0099251615 0.004993068 6.173821e-06 0.055100285 0.055515207 0.055814873
        0.056080017 0.056300666 0.056466054 0.056564167 0.05658122 0.056501254
        0.05630596 0.055974957 0.05548662 0.054819547 0.05395422 0.05287435
        0.051567104 0.050022215 0.048230313 0.046181325 0.043863606 0.041264236
        0.038370423 0.035171803 0.03166314 0.027847005 0.023735961 0.019353973
        0.014736894 0.009931958 0.004996417 6.157264e-06 0.0551128 0.055527728
        0.055827674 0.056093443 0.05631519 0.05648238 0.05658329 0.05660452
        0.056530505 0.05634323 0.056022286 0.055545498 0.054890282 0.054035522
        0.05296325 0.05165945 0.05011345 0.048316322 0.046259046 0.04393132
        0.04132149 0.03841774 0.035210263 0.031694014 0.027871497 0.023755074
        0.019368479 0.014747355 0.009938759 0.0049997913 6.0998373e-06 0.055132855
        0.055547837 0.05584812 0.056114536 0.05633737 0.05650627 0.05660978
        0.056634847 0.056566253 0.056386232 0.05607432 0.055607837 0.054963157
        0.054117706 0.053052034 0.05175101 0.05020357 0.048401143 0.04633568
        0.043998122 0.041378036 0.038464528 0.035248343 0.031724624 0.02789581
        0.023774073 0.01938292 0.014757791 0.009945562 0.005003189 6.001805e-06
        0.05516081 0.055575922 0.05587661 0.056143723 0.056367654 0.05653822
        0.056644212 0.056672867 0.05660926 0.056435797 0.056131933 0.055674493
        0.055038914 0.05420137 0.053141106 0.051842026 0.050292674 0.04848479
        0.04641119 0.044063967 0.04143382 0.038510747 0.035286013 0.031754952
        0.027919935 0.02379295 0.019397294 0.014768195 0.009952366 0.00500661
        5.86364e-06 0.055197176 0.055612497 0.055913683 0.05618157 0.056406654
        0.0565789 0.056687314 0.056719378 0.05666039 0.056492843 0.056196038
        0.05574631 0.055118278 0.054287057 0.053230837 0.051932696 0.050380845
        0.048567273 0.046485547 0.0441288 0.041488793 0.038556356 0.035323247
        0.031784974 0.027943857 0.023811702 0.019411592 0.0147785675 0.00995917
        0.005010052 5.686033e-06 0.055242646 0.05565827 0.055960067 0.056228835
        0.05645516 0.056629155 0.056739997 0.056775354 0.056720655 0.05655838
        0.05626759 0.05582413 0.05520193 0.05437528 0.053321563 0.05202321
        0.050468158 0.04864859 0.046558708 0.044192582 0.041542917 0.03860132
        0.03536002 0.03181468 0.027967567 0.023830317 0.019425813 0.014788903
        0.009965969 0.005013515 5.4699126e-06 0.055298105 0.05571414 0.0560167
        0.0562865 0.05651422 0.05669008 0.0568034 0.056841977 0.05679125
        0.056633554 0.056347616 0.055908814 0.055290528 0.054466497 0.053413562
        0.052113716 0.05055466 0.048728723 0.046630632 0.044255253 0.04159614
        0.038645603 0.035396297 0.031844046 0.027991049 0.023848789 0.019439949
        0.0147992 0.009972763 0.005016995 5.216471e-06 0.055364706 0.05578129
        0.0560848 0.056355838 0.056585148 0.056763057 0.05687898 0.056920715
        0.056873597 0.056719657 0.056437213 0.05600121 0.055384677 0.054561105
        0.05350707 0.052204315 0.05064038 0.048807655 0.046701275 0.04431676
        0.041648414 0.038689163 0.035432056 0.03187305 0.028014295 0.023867108
        0.019453995 0.014809452 0.009979547 0.0050204913 4.9271953e-06 0.055443913
        0.05586122 0.056165945 0.05643849 0.05666968 0.056849893 0.056968566
        0.057013385 0.056969386 0.05681816 0.056537542 0.05610215 0.055484932
        0.054659426 0.05360226 0.05229508 0.05072531 0.048885345 0.046770576
        0.04437705 0.04169969 0.038731962 0.03546727 0.03190168 0.028037287
        0.023885265 0.019467944 0.014819656 0.009986319 0.005024001 4.6039127e-06
        0.05553763 0.055955883 0.056262176 0.056536607 0.056770053 0.056952912
        0.057074506 0.057122234 0.057080638 0.05693071 0.05664982 0.056212444
        0.05559176 0.054761704 0.05369922 0.052386034 0.050809436 0.048961744
        0.046838485 0.044436064 0.041749917 0.03877397 0.035501912 0.031929914
        0.028060015 0.023903253 0.019481791 0.014829805 0.0099930735 0.005027521
        4.248845e-06 0.05564833 0.056067847 0.05637619 0.05665303 0.056889255
        0.05707516 0.05719981 0.057250064 0.05720974 0.057059146 0.056775287
        0.05633282 0.055705518 0.05486808 0.05379799 0.052477136 0.050892692
        0.049036782 0.04690492 0.044493742 0.041799046 0.038815137 0.03553595
        0.03195773 0.028082468 0.023921063 0.01949553 0.014839897 0.009999807
        0.005031048 3.8646845e-06 0.055779308 0.05620052 0.056511614 0.0567916
        0.057031285 0.057220712 0.05734839 0.05740035 0.05735949 0.057205454
        0.05691517 0.056463894 0.05582644 0.054978576 0.053898495 0.052568305
        0.05097499 0.04911038 0.046969824 0.04455002 0.04184703 0.038855433
        0.03556936 0.03198511 0.028104628 0.023938682 0.019509152 0.014849924
        0.010006515 0.0050345776 3.4546913e-06 0.05593503 0.056358583 0.05667347
        0.056957647 0.05720168 0.05739505 0.057525318 0.057577368 0.05753309
        0.057371706 0.057070576 0.0566061 0.055954576 0.055093072 0.054000586
        0.052659392 0.051056214 0.049182437 0.0470331 0.044604834 0.041893817
        0.03889482 0.03560211 0.03201204 0.028126482 0.023956103 0.019522648
        0.014859879 0.010013192 0.005038105 3.0228243e-06 0.05612175 0.05654866
        0.056868933 0.057158813 0.057408255 0.05760567 0.05773719 0.057786293
        0.057734065 0.057559915 0.05724237 0.056759607 0.056089755 0.055211306
        0.054104004 0.0527502 0.051136207 0.04925284 0.04709467 0.044658117
        0.04193935 0.038933255 0.035634182 0.032038495 0.028148018 0.023973316
        0.019536013 0.014869757 0.010019831 0.0050416244 2.5739278e-06 0.056348637
        0.05678057 0.0571088 0.057406526 0.05766239 0.05786296 0.05799247
        0.058033153 0.05796605 0.057771802 0.057431024 0.056924228 0.056231555
        0.055332836 0.054208398 0.05284047 0.05121479 0.04932146 0.047154438
        0.044709794 0.041983586 0.038970705 0.035665542 0.032064456 0.02816922
        0.023990305 0.019549234 0.014879548 0.010026425 0.00504513 2.1139906e-06
        0.056629915 0.057069875 0.05741035 0.057718746 0.05798108 0.058181237
        0.058301687 0.058324534 0.058232352 0.058008444 0.057636395 0.057099324
        0.05637925 0.055457056 0.054313317 0.052929893 0.051291764 0.04938816
        0.047212314 0.044759806 0.042026475 0.039007135 0.035696167 0.032089908
        0.028190076 0.024007065 0.019562304 0.014889244 0.010032966 0.005048613
        1.6505379e-06 0.056989707 0.05744371 0.057803717 0.058125228 0.058390033
        0.058579694 0.058677 0.058666673 0.058535174 0.058269806 0.0578575
        0.057283714 0.05653182 0.055583194 0.05441823 0.053018123 0.051366903
        0.049452804 0.0472682 0.044808093 0.042067975 0.039042514 0.035726037
        0.032114834 0.028210573 0.024023581 0.019575212 0.014898836 0.010039443
        0.005052064 1.1932261e-06 0.05747493 0.057957064 0.05834733 0.058677327
        0.058927186 0.059081808 0.05913013 0.05906359 0.058874443 0.058554173
        0.05809232 0.05747566 0.056687955 0.05571035 0.054522555 0.053104807
        0.051440004 0.049515266 0.04732203 0.044854604 0.042108055 0.039076827
        0.03575514 0.032139227 0.028230704 0.02403985 0.019587953 0.014908314
        0.010045847 0.0050554713 7.5474003e-07 0.058199845 0.0587516 0.05916607
        0.059460875 0.05964062 0.059708685 0.059666604 0.059513584 0.059246078
        0.058857404 0.058337495 0.057672713 0.056845997 0.055837452 0.05462564
        0.053189553 0.051510837 0.049575422 0.04737373 0.044899303 0.042146694
        0.03911006 0.035783466 0.032163076 0.028250461 0.02405586 0.019600514
        0.014917667 0.010052164 0.00505882 3.5165647e-07 0.05955567 0.059957735
        0.060235187 0.060392566 0.060438342 0.06038076 0.06022507 0.059972353
        0.059619375 0.059158772 0.058579285 0.057865918 0.05700023 0.055960994
        0.05472547 0.05327136 0.05157906 0.049633313 0.047423534 0.044942465
        0.04218414 0.039142393 0.035811126 0.032186437 0.028269865 0.024071611
        0.019612882 0.014926877 0.010058375 0.005062091 0
      </DataArray>
      <DataArray type="Float32" Name="aspect_ratio" format="ascii" RangeMin="1.0362566709518433" RangeMax="12.389933586120605">
        3.0181699 2.5297027 2.1513343 1.830253 1.5578811 1.326893
        1.1310421 1.0362567 1.2131767 1.4184097 1.6557592 1.9292653
        2.2431042 2.601436 3.0081832 3.46673 3.9795344 4.5476446
        5.1701393 5.8435082 6.561026 7.3121924 8.082345 8.852565
        9.600006 10.298758 10.921272 11.440309 11.831217 12.074275
        12.239055 3.0141788 2.5263622 2.1486452 1.8281701 1.5562986
        1.3256986 1.1301396 1.0369937 1.2139504 1.4192269 1.6566274
        1.9301925 2.2440996 2.60251 3.0093484 3.468002 3.980932
        4.5491896 5.171855 5.845417 6.5631466 7.314538 8.084921
        8.855369 9.603026 10.301977 10.9246645 11.443841 11.83485
        12.077965 12.242779 3.012356 2.5242178 2.146545 1.8263389
        1.554803 1.3245211 1.1292297 1.0377456 1.2147417 1.4200617
        1.6575117 1.9311337 2.2451065 2.6035929 3.0105195 3.4692774
        3.98233 4.5507326 5.1735663 5.8473196 6.56526 7.316875
        8.087487 8.858162 9.606038 10.305188 10.92805 11.447368
        11.83848 12.081654 12.246506 3.0110507 2.522759 2.145048
        1.8249234 1.5535522 1.3234711 1.1283793 1.0384712 1.2155201
        1.4208914 1.6583949 1.9320753 2.2461133 2.6046743 3.0116875
        3.470547 3.98372 4.5522647 5.1752644 5.8492064 6.5673547
        7.3191915 8.090034 8.860935 9.60903 10.308382 10.93142
        11.450884 11.842103 12.08534 12.250236 3.0099263 2.5215871
        2.1438677 1.8237832 1.5525024 1.322549 1.1276011 1.0391585
        1.2162749 1.4217082 1.6592722 1.9330148 2.24712 2.6057558
        3.0128548 3.4718146 3.9851062 4.553791 5.1769543 5.851083
        6.569437 7.3214946 8.092564 8.863694 9.612008 10.311563
        10.93478 11.4543915 11.84572 12.0890255 12.253967 3.008885
        2.5205598 2.1428633 1.8228176 1.5516 1.3217348 1.1268928
        1.039803 1.2169995 1.4225063 1.6601396 1.9339503 2.248126
        2.6068385 3.014024 3.4730835 3.9864929 4.5553164 5.1786413
        5.8529544 6.571513 7.32379 8.095086 8.866444 9.614976
        10.314734 10.938132 11.457893 11.849336 12.0927105 12.257701
        3.0078886 2.519615 2.1419637 1.8219646 1.5508026 1.3210064
        1.1262462 1.0404055 1.2176913 1.4232817 1.660993 1.934879
        2.2491302 2.6079223 3.0151956 3.4743557 3.9878821 4.5568438
        5.1803293 5.8548255 6.5735874 7.3260818 8.097604 8.869187
        9.617939 10.317902 10.941481 11.461393 11.852949 12.0963955
        12.261437 3.006919 2.518721 2.1411312 1.8211869 1.55008
        1.320344 1.1256516 1.0409691 1.2183499 1.4240317 1.6618296
        1.9357979 2.2501304 2.6090062 3.0163696 3.4756315 3.9892757
        4.558375 5.18202 5.856698 6.5756617 7.3283725 8.100119
        8.871928 9.620899 10.321066 10.944827 11.464891 11.856563
        12.100082 12.265177 3.005966 2.5178604 2.140343 1.8204612
        1.5494114 1.3197323 1.1250997 1.0414985 1.2189767 1.4247556
        1.662647 1.936705 2.2511246 2.6100883 3.0175455 3.476911
        3.9906738 4.559911 5.1837153 5.8585744 6.577738 7.3306637
        8.102633 8.874667 9.623857 10.324227 10.948171 11.468389
        11.860176 12.10377 12.268918 3.0050242 2.5170224 2.139586
        1.8197724 1.5487827 1.3191595 1.1245824 1.0419981 1.2195743
        1.4254537 1.6634443 1.9375981 2.252111 2.611168 3.018722
        3.4781938 3.9920769 4.561452 5.1854157 5.8604546 6.579818
        7.3329573 8.105149 8.877407 9.626814 10.327389 10.951515
        11.471886 11.8637905 12.107459 12.272662 3.00409 2.5162003
        2.138851 1.8191104 1.5481837 1.318617 1.124093 1.0424726
        1.2201456 1.4261271 1.6642208 1.938476 2.2530878 2.612243
        3.0198987 3.4794796 3.9934847 4.562999 5.187122 5.8623405
        6.5819016 7.3352537 8.107667 8.880148 9.629772 10.33055
        10.954859 11.475383 11.867406 12.111151 12.276408 3.003161
        2.51539 2.138132 1.8184686 1.5476073 1.318098 1.1236264
        1.0429258 1.2206936 1.4267775 1.664977 1.9393378 2.2540536
        2.6133122 3.0210738 3.4807675 3.9948971 4.564552 5.188834
        5.864232 6.5839906 7.337554 8.110188 8.88289 9.6327305
        10.333713 10.958203 11.478881 11.871022 12.114843 12.280156
        3.0022354 2.5145879 2.1374257 1.817842 1.5470484 1.3175975
        1.1231781 1.0433611 1.2212211 1.4274067 1.6657135 1.9401835
        2.255008 2.6143749 3.0222468 3.4820569 3.9963138 4.566111
        5.1905537 5.8661304 6.5860853 7.339859 8.112712 8.885634
        9.635692 10.336876 10.96155 11.482381 11.87464 12.118538
        12.283908 3.0013125 2.5137925 2.1367283 1.8172271 1.5465032
        1.317112 1.1227448 1.0437814 1.2217308 1.4280167 1.6664313
        1.941013 2.2559502 2.6154299 3.0234168 3.4833472 3.9977345
        4.567676 5.1922793 5.8680353 6.588186 7.342169 8.115239
        8.888383 9.638654 10.340041 10.964896 11.485882 11.87826
        12.122235 12.287661 3.0003917 2.513002 2.1360383 1.8166215
        1.5459689 1.3166385 1.1223239 1.044189 1.2222251 1.4286094
        1.6671317 1.9418266 2.2568798 2.6164768 3.0245829 3.484638
        3.9991589 4.569247 5.1940126 5.8699474 6.590293 7.3444843
        8.117771 8.891133 9.64162 10.343209 10.9682455 11.489385
        11.881882 12.125935 12.291417 2.9994721 2.5122154 2.1353538
        1.8160232 1.5454433 1.3161745 1.1219132 1.0445861 1.222706
        1.4291867 1.6678159 1.942625 2.2577968 2.6175148 3.025745
        3.4859288 4.0005865 4.570823 5.1957526 5.871867 6.592407
        7.346806 8.120308 8.893888 9.6445875 10.346378 10.971597
        11.492889 11.885505 12.129636 12.295176 2.9985535 2.5114317
        2.1346738 1.8154308 1.5449246 1.3157187 1.121511 1.044974
        1.2231753 1.4297502 1.6684852 1.9434091 2.2587016 2.618544
        3.0269022 3.487219 4.0020175 4.572406 5.1974998 5.873794
        6.5945287 7.3491335 8.12285 8.896647 9.647559 10.349551
        10.97495 11.496397 11.889131 12.133339 12.298936 2.9976356
        2.5106502 2.1339977 1.814843 1.5444118 1.3152692 1.1211159
        1.0453544 1.2236345 1.4303014 1.6691409 1.9441795 2.2595942
        2.6195645 3.0280547 3.4885085 4.0034513 4.5739937 5.1992545
        5.875729 6.5966573 7.351468 8.125398 8.899411 9.650535
        10.352726 10.978306 11.499906 11.892759 12.137045 12.302699
        2.9967184 2.509871 2.1333241 1.8142592 1.5439037 1.3148254
        1.1207268 1.0457281 1.2240849 1.4308419 1.6697843 1.9449373
        2.2604756 2.6205764 3.0292022 3.4897974 4.004888 4.5755873
        5.2010164 5.8776717 6.5987935 7.353809 8.127952 8.902179
        9.653513 10.355905 10.981665 11.503418 11.896389 12.140754
        12.306465 2.9958014 2.509093 2.1326532 1.8136786 1.5433996
        1.3143861 1.1203429 1.0460963 1.2245277 1.4313726 1.6704165
        1.9456835 2.2613463 2.6215796 3.030345 3.491085 4.0063276
        4.5771866 5.202786 5.8796225 6.600938 7.356157 8.13051
        8.904952 9.656496 10.359086 10.985026 11.506932 11.9000225
        12.1444645 12.310233 2.9948852 2.5083168 2.1319845 1.8131008
        1.5428989 1.3139508 1.1199632 1.0464597 1.2249639 1.4318948
        1.6710385 1.9464189 2.2622068 2.6225753 3.031483 3.4923723
        4.00777 4.578792 5.2045627 5.881582 6.6030903 7.3585124
        8.133077 8.90773 9.659484 10.362272 10.988391 11.510449
        11.903658 12.148178 12.314004 2.993969 2.5075414 2.1313171
        1.8125252 1.542401 1.3135189 1.1195873 1.0468189 1.2253941
        1.4324094 1.6716515 1.9471445 2.2630584 2.6235638 3.032617
        3.493659 4.0092154 4.580403 5.206347 5.883549 6.605251
        7.360875 8.135649 8.910514 9.662476 10.365461 10.991759
        11.513969 11.907296 12.151894 12.317777 2.9930534 2.5067673
        2.1306517 1.8119516 1.5419055 1.3130898 1.1192148 1.0471745
        1.2258193 1.4329172 1.6722565 1.9478616 2.2639017 2.6245456
        3.0337477 3.4949455 4.010664 4.58202 5.2081394 5.885525
        6.6074195 7.363246 8.138227 8.913303 9.665472 10.368654
        10.995131 11.517492 11.910937 12.155612 12.321552 2.9921384
        2.5059943 2.1299875 1.8113798 1.5414122 1.3126633 1.1188452
        1.0475267 1.2262399 1.4334192 1.6728544 1.9485708 2.2647378
        2.6255221 3.0348754 3.4962325 4.0121164 4.5836434 5.20994
        5.88751 6.609597 7.3656244 8.140813 8.916099 9.668474
        10.371852 10.998506 11.521019 11.91458 12.159333 12.32533
        2.991224 2.5052226 2.1293247 1.8108097 1.540921 1.3122393
        1.1184783 1.0478761 1.2266566 1.433916 1.673446 1.9492737
        2.2655678 2.6264942 3.0360012 3.4975207 4.013573 4.5852733
        5.211748 5.8895035 6.611783 7.368011 8.143406 8.9189005
        9.671481 10.375054 11.001884 11.524549 11.918227 12.163056
        12.32911 2.9903107 2.5044518 2.1286633 1.8102412 1.5404316
        1.3118173 1.1181136 1.048223 1.2270696 1.4344082 1.6740326
        1.9499712 2.2663932 2.627463 3.037126 3.4988105 4.015034
        4.58691 5.213565 5.891506 6.6139784 7.3704057 8.146006
        8.921708 9.674494 10.378261 11.005267 11.528082 11.921877
        12.166783 12.332893 2.9893982 2.5036826 2.1280034 1.8096744
        1.5399442 1.3113974 1.1177514 1.0485675 1.2274796 1.4348966
        1.6746149 1.9506645 2.2672153 2.62843 3.0382512 3.5001032
        4.0165005 4.588554 5.2153907 5.893518 6.616183 7.3728094
        8.148614 8.924523 9.677511 10.381473 11.008655 11.531618
        11.92553 12.170512 12.3366785 2.9884877 2.5029154 2.127345
        1.8091093 1.5394585 1.3109796 1.1173912 1.04891 1.2278869
        1.435382 1.6751941 1.9513552 2.2680354 2.6293964 3.0393777
        3.5013998 4.017973 4.5902057 5.2172256 5.8955398 6.6183968
        7.3752213 8.15123 8.927344 9.680535 10.384689 11.012047
        11.535159 11.929187 12.174245 12.3404665 2.9875793 2.5021505
        2.1266892 1.8085463 1.538975 1.3105639 1.117033 1.0492507
        1.2282922 1.4358654 1.6757716 1.9520447 2.2688556 2.6303644
        3.0405076 3.502701 4.019452 4.591866 5.21907 5.897571
        6.6206207 7.377643 8.153853 8.930173 9.683566 10.387912
        11.015443 11.538704 11.932846 12.177979 12.344257 2.9866743
        2.5013888 2.1260357 1.8079858 1.5384939 1.3101504 1.1166769
        1.0495898 1.2286959 1.4363475 1.6763486 1.952735 2.2696776
        2.6313357 3.041642 3.5040088 4.020939 4.5935354 5.220924
        5.8996134 6.622854 7.3800735 8.1564865 8.93301 9.686604
        10.39114 11.018845 11.542253 11.936509 12.181718 12.34805
        2.9857736 2.500631 2.125386 1.8074284 1.5380155 1.3097392
        1.1163226 1.0499276 1.2290988 1.4368298 1.6769271 1.9534279
        2.2705038 2.632312 3.0427825 3.505324 4.0224347 4.595215
        5.222789 5.9016657 6.6250987 7.3825145 8.159128 8.935854
        9.689648 10.394374 11.022251 11.545806 11.940176 12.185458
        12.351845 2.9848788 2.4998794 2.124741 1.806875 1.5375404
        1.3093308 1.1159703 1.0502647 1.2295022 1.437314 1.6775091
        1.9541261 2.2713366 2.633296 3.043932 3.5066483 4.02394
        4.5969048 5.2246647 5.90373 6.6273537 7.384966 8.161779
        8.938707 9.692699 10.397615 11.025663 11.549365 11.943848
        12.189202 12.355643 2.983993 2.4991357 2.1241026 1.806327
        1.5370696 1.3089252 1.1156192 1.050602 1.2299074 1.4378023
        1.6780975 1.9548324 2.2721786 2.6342902 3.0450916 3.5079834
        4.025457 4.598606 5.2265525 5.9058056 6.629621 7.387428
        8.164441 8.94157 9.69576 10.400864 11.029082 11.552928
        11.947523 12.19295 12.359443 2.9831204 2.4984038 2.1234736
        1.8057863 1.5366037 1.3085223 1.1152688 1.0509409 1.2303169
        1.4382977 1.6786954 1.9555504 2.2730334 2.6352973 3.046264
        3.5093312 4.026986 4.6003203 5.228453 5.907894 6.6319003
        7.389902 8.167113 8.944443 9.69883 10.40412 11.032508
        11.556498 11.951202 12.196701 12.363246 2.9822671 2.497689
        2.122858 1.8052552 1.5361439 1.3081219 1.1149175 1.0512837
        1.2307339 1.4388041 1.6793073 1.9562838 2.273904 2.63632
        3.0474515 3.5106936 4.0285296 4.602049 5.2303677 5.909997
        6.634193 7.392389 8.169798 8.947326 9.701909 10.407386
        11.035942 11.560074 11.954887 12.200456 12.367051 2.9814448
        2.4970005 2.1222618 1.804737 1.5356905 1.3077221 1.1145622
        1.0516344 1.2311633 1.4393268 1.679938 1.9570372 2.2747948
        2.637362 3.0486572 3.5120728 4.0300894 4.6037927 5.232298
        5.9121146 6.636501 7.3948903 8.172496 8.950222 9.705
        10.410661 11.039384 11.563657 11.958578 12.204215 12.370858
        2.9806738 2.4963527 2.121694 1.804235 1.5352423 1.3073183
        1.1141971 1.0519991 1.2316118 1.4398724 1.6805936 1.9578159
        2.2757099 2.6384265 3.0498836 3.5134714 4.0316677 4.6055546
        5.234246 5.9142494 6.6388254 7.3974075 8.17521 8.953133
        9.708103 10.413948 11.042836 11.567247 11.9622755 12.207977
        12.374668 2.979996 2.4957724 2.1211674 1.80375 1.5347922
        1.3069003 1.1138117 1.0523874 1.2320892 1.4404495 1.6812812
        1.9586256 2.2766538 2.6395178 3.0511346 3.5148926 4.033267
        4.607337 5.236213 5.9164042 6.6411695 7.399944 8.177941
        8.95606 9.711223 10.417249 11.0463 11.570848 11.96598
        12.211745 12.378481 2.9795122 2.495306 2.1206934 1.8032715
        1.5343193 1.3064461 1.1133883 1.0528132 1.2326072 1.4410678
        1.6820087 1.9594727 2.2776322 2.6406403 3.052414 3.5163403
        4.0348916 4.6091437 5.238205 5.918583 6.6435366 7.402503
        8.180695 8.959008 9.714361 10.420567 11.049779 11.574462
        11.969692 12.215519 12.382297 2.9795358 2.4950235 2.1202538
        1.802748 1.5337707 1.3059146 1.1128995 1.0532944 1.2331797
        1.4417374 1.6827832 1.9603621 2.2786486 2.641797 3.0537245
        3.5178165 4.036543 4.610976 5.240222 5.9207864 6.645929
        7.405086 8.183472 8.961979 9.717521 10.423903 11.053273
        11.578087 11.973414 12.219298 12.386113 2.981416 2.4954705
        2.120013 1.8022071 1.5331403 1.3052993 1.112344 1.0538292
        1.2338022 1.4424522 1.6835979 1.9612868 2.279696 2.642981
        3.0550592 3.5193148 4.038214 4.6128273 5.2422566 5.9230065
        6.648337 7.407685 8.186263 8.964962 9.720692 10.42725
        11.056777 11.58172 11.977143 12.223082 12.389934
      </DataArray>
      <DataArray type="Float32" Name="jacobian" format="ascii" RangeMin="0.0011906585423275828" RangeMax="0.04444555565714836">
        0.0011906585 0.0014226739 0.0016747209 0.0019700716 0.0023157897 0.0027199325
        0.0031916257 0.0037411188 0.0043798094 0.0051202145 0.005975869 0.006961113
        0.008090739 0.009379456 0.010841113 0.012487652 0.014327742 0.016365077
        0.018596364 0.021009093 0.023579258 0.026269337 0.02902688 0.031784188
        0.034459524 0.03696023 0.039187834 0.041045032 0.04244379 0.043313663
        0.04390432 0.0011923433 0.0014238538 0.0016755033 0.0019705687 0.0023161059
        0.002720158 0.0031918352 0.0037413745 0.0043801637 0.0051207147 0.0059765577
        0.006962032 0.008091932 0.009380969 0.010842999 0.012489979 0.014330588
        0.016368534 0.018600533 0.021014068 0.02358513 0.026276167 0.029034706
        0.031793013 0.034469325 0.036970943 0.039199367 0.041057255 0.04245655
        0.043326776 0.04391768 0.0011931153 0.0014245663 0.0016761565 0.0019711487
        0.0023166162 0.00272062 0.0031922837 0.0037418518 0.0043807155 0.0051213875
        0.0059773964 0.0069630817 0.008093239 0.009382582 0.010844978 0.0124923885
        0.014333512 0.016372066 0.01860477 0.021019114 0.023591068 0.026283065
        0.029042596 0.0318019 0.034479186 0.03698171 0.039210945 0.04106952
        0.042469334 0.043339908 0.04393105 0.0011936643 0.0014251884 0.0016768179
        0.0019718285 0.0023172987 0.002721299 0.0031929675 0.0037425624 0.004381486
        0.0051222583 0.005978412 0.0069642887 0.008094686 0.009384323 0.010847071
        0.012494908 0.01433654 0.0163757 0.018609116 0.021024268 0.023597116
        0.02629007 0.029050594 0.031810895 0.03448914 0.03699256 0.039222598
        0.04108184 0.042482167 0.043353066 0.043944426 0.0011941331 0.0014257445
        0.0016774437 0.0019725182 0.002318042 0.0027220866 0.0031937952 0.003743437
        0.0043824264 0.0051232935 0.0059795803 0.0069656335 0.008096256 0.009386173
        0.010849265 0.01249752 0.014339658 0.016379423 0.018613547 0.021029508
        0.023603253 0.026297165 0.02905868 0.031819973 0.034499172 0.037003487
        0.039234314 0.04109421 0.042495035 0.043366242 0.043957815 0.0011945638
        0.0014262602 0.001678037 0.001973193 0.002318798 0.0027229202 0.003194702
        0.0037444169 0.0043834876 0.0051244553 0.0059808716 0.0069670933 0.008097931
        0.009388117 0.010851542 0.012500207 0.014342845 0.016383212 0.018618044
        0.021034816 0.023609456 0.026304325 0.02906683 0.03182911 0.034509264
        0.037014462 0.03924607 0.04110662 0.042507928 0.04337944 0.043971207
        0.0011949736 0.001426751 0.0016786064 0.00197385 0.0023195494 0.002723769
        0.0031956485 0.0037454606 0.004384632 0.0051257117 0.0059822616 0.006968648
        0.008099693 0.009390138 0.0108538885 0.012502956 0.01434609 0.016387057
        0.018622596 0.021040177 0.023615712 0.026311541 0.029075034 0.031838298
        0.034519404 0.03702548 0.03925787 0.041119058 0.042520847 0.043392655
        0.043984614 0.0011953703 0.0014272257 0.0016791589 0.0019744916 0.002320291
        0.002724619 0.003196612 0.0037465405 0.004385831 0.0051270365 0.005983727
        0.00697028 0.008101528 0.009392227 0.010856294 0.012505759 0.014349384
        0.016390948 0.018627193 0.021045584 0.023622017 0.026318802 0.02908328
        0.03184753 0.03452958 0.037036538 0.039269697 0.041131523 0.042533785
        0.043405883 0.043998025 0.0011957588 0.0014276895 0.0016796998 0.0019751217
        0.0023210226 0.002725464 0.0031975803 0.0037476383 0.004387063 0.005128408
        0.0059852493 0.0069719725 0.008103423 0.009394371 0.010858751 0.0125086075
        0.014352721 0.01639488 0.01863183 0.021051032 0.023628362 0.026326101
        0.029091567 0.031856798 0.034539796 0.03704762 0.03928155 0.04114401
        0.04254674 0.043419123 0.044011448 0.0011961415 0.0014281459 0.0016802321
        0.0019757424 0.0023217455 0.0027263025 0.003198547 0.0037487433 0.0043883133
        0.00512981 0.005986811 0.006973711 0.008105366 0.009396562 0.010861251
        0.012511496 0.014356096 0.016398849 0.018636506 0.021056518 0.023634743
        0.026333438 0.029099887 0.0318661 0.034550037 0.037058733 0.039293427
        0.04115652 0.042559717 0.043432374 0.044024877 0.0011965202 0.0014285969
        0.0016807584 0.0019763564 0.0023224608 0.002727134 0.003199509 0.0037498488
        0.004389572 0.0051312293 0.0059883995 0.0069754827 0.008107346 0.00939879
        0.010863787 0.01251442 0.014359505 0.016402852 0.018641217 0.021062037
        0.023641158 0.026340809 0.029108241 0.03187543 0.034560308 0.037069872
        0.03930533 0.041169044 0.042572703 0.04344564 0.044038314 0.001196896
        0.0014290441 0.0016812802 0.0019769648 0.0023231697 0.0027279586 0.003200465
        0.0037509503 0.0043908316 0.005132656 0.0059900037 0.006977276 0.008109351
        0.009401046 0.010866351 0.012517372 0.014362942 0.016406884 0.018645957
        0.02106759 0.023647606 0.02634821 0.029116625 0.03188479 0.034570605
        0.037081033 0.03931725 0.041181587 0.042585704 0.043458916 0.044051763
        0.0011972697 0.0014294883 0.0016817985 0.001977569 0.0023238733 0.0027287772
        0.0032014141 0.0037520458 0.0043920875 0.0051340843 0.0059916135 0.0069790813
        0.0081113735 0.009403322 0.010868939 0.012520349 0.014366406 0.016410945
        0.018650727 0.021073172 0.023654085 0.026355643 0.029125035 0.031894173
        0.034580924 0.037092213 0.039329186 0.04119415 0.04259872 0.0434722
        0.04406522 0.0011976418 0.0014299303 0.001682314 0.0019781697 0.0023245725
        0.0027295898 0.0032023562 0.0037531336 0.004393336 0.005135507 0.0059932224
        0.00698089 0.008113404 0.00940561 0.010871541 0.012523345 0.014369893
        0.016415032 0.018655526 0.021078784 0.023660593 0.026363103 0.029133474
        0.031903584 0.034591265 0.037103415 0.039341144 0.04120672 0.042611748
        0.0434855 0.04407868 0.0011980127 0.0014303705 0.0016828271 0.0019787673
        0.0023252678 0.0027303968 0.003203291 0.0037542125 0.004394575 0.00513692
        0.005994824 0.006982695 0.008115435 0.009407904 0.010874154 0.012526356
        0.014373398 0.016419142 0.018660352 0.021084424 0.023667129 0.02637059
        0.029141936 0.031913016 0.034601625 0.037114635 0.039353117 0.04121931
        0.04262479 0.043498807 0.044092156 0.0011983827 0.0014308093 0.0016833385
        0.0019793625 0.002325959 0.0027311984 0.0032042183 0.0037552817 0.004395802
        0.005138321 0.005996413 0.00698449 0.00811746 0.009410197 0.010876771
        0.012529377 0.014376922 0.016423276 0.018665202 0.021090092 0.023673695
        0.026378104 0.029150426 0.03192247 0.034612007 0.037125874 0.0393651
        0.04123191 0.042637844 0.043512125 0.044105638 0.001198752 0.0014312469
        0.0016838481 0.0019799548 0.0023266466 0.0027319945 0.0032051378 0.0037563401
        0.0043970156 0.0051397057 0.0059979856 0.0069862693 0.008119471 0.009412482
        0.010879388 0.012532405 0.014380458 0.016427428 0.018670077 0.021095788
        0.023680286 0.026385646 0.029158939 0.031931948 0.03462241 0.03713713
        0.039377104 0.041244525 0.042650905 0.043525454 0.044119127 0.0011991205
        0.0014316833 0.0016843561 0.001980545 0.0023273304 0.002732785 0.0032060489
        0.003757387 0.004398214 0.005141072 0.005999537 0.0069880276 0.008121465
        0.009414755 0.010882 0.012535436 0.014384006 0.016431598 0.018674975
        0.021101508 0.023686904 0.026393212 0.029167475 0.031941444 0.034632828
        0.037148397 0.039389122 0.041257154 0.04266398 0.04353879 0.044132628
        0.0011994888 0.0014321188 0.0016848627 0.0019811327 0.0023280105 0.0027335696
        0.0032069513 0.0037584212 0.0043993955 0.005142417 0.0060010646 0.006989761
        0.008123437 0.00941701 0.010884603 0.0125384675 0.014387564 0.016435787
        0.018679898 0.021107256 0.02369355 0.026400805 0.029176034 0.03195096
        0.034643266 0.037159685 0.03940115 0.041269794 0.042677063 0.043552138
        0.044146135 0.0011998564 0.0014325533 0.0016853674 0.0019817175 0.0023286862
        0.0027343475 0.0032078438 0.0037594414 0.004400558 0.005143738 0.006002564
        0.006991464 0.008125381 0.009419243 0.010887192 0.012541496 0.014391129
        0.016439991 0.018684842 0.021113029 0.02370022 0.026408419 0.029184613
        0.0319605 0.034653723 0.037170984 0.039413195 0.04128244 0.04269016
        0.043565493 0.04415965 0.0012002237 0.0014329868 0.0016858706 0.0019822996
        0.0023293572 0.0027351184 0.0032087255 0.003760446 0.004401699 0.005145032
        0.0060040317 0.006993134 0.008127292 0.009421449 0.010889764 0.01254452
        0.0143947005 0.016444212 0.01868981 0.021118827 0.023706917 0.02641606
        0.029193217 0.031970058 0.03466419 0.037182298 0.03942525 0.041295104
        0.042703267 0.04357886 0.044173177 0.0012005905 0.0014334193 0.0016863717
        0.0019828784 0.0023300229 0.0027358807 0.0032095946 0.0037614333 0.0044028168
        0.0051462958 0.0060054646 0.0069947666 0.008129167 0.0094236275 0.010892318
        0.012547537 0.014398277 0.016448447 0.018694798 0.02112465 0.023713639
        0.026423724 0.029201841 0.03197963 0.034674678 0.037193626 0.03943732
        0.041307777 0.04271638 0.043592237 0.04418671 0.001200957 0.0014338505
        0.0016868706 0.0019834533 0.0023306827 0.0027366336 0.00321045 0.0037624005
        0.0044039073 0.0051475265 0.006006858 0.0069963573 0.008131004 0.009425772
        0.010894849 0.012550545 0.014401857 0.016452696 0.018699806 0.021130497
        0.023720386 0.026431412 0.029210484 0.03198922 0.03468518 0.037204966
        0.039449397 0.041320458 0.042729504 0.04360562 0.044200256 0.0012013229
        0.0014342804 0.001687367 0.001984024 0.002331335 0.0027373757 0.0032112892
        0.003763345 0.0044049686 0.00514872 0.0060082087 0.0069979033 0.008132798
        0.009427882 0.010897358 0.012553543 0.014405441 0.01645696 0.018704835
        0.021136368 0.023727158 0.026439121 0.029219149 0.03199883 0.034695692
        0.03721632 0.039461486 0.04133315 0.04274264 0.043619014 0.04421381
        0.0012016883 0.0014347086 0.0016878602 0.0019845893 0.002331979 0.0027381047
        0.0032121094 0.0037642638 0.0044059954 0.0051498716 0.006009512 0.0069993995
        0.008134546 0.009429955 0.010899841 0.01255653 0.014409026 0.016461236
        0.018709887 0.021142265 0.023733953 0.026446853 0.02922783 0.032008454
        0.03470622 0.037227683 0.039473582 0.041345853 0.042755783 0.043632414
        0.04422737 0.0012020529 0.0014351349 0.0016883498 0.001985148 0.0023326129
        0.0027388185 0.0032129076 0.0037651523 0.0044069835 0.0051509766 0.0060107633
        0.0070008435 0.0081362445 0.009431989 0.010902299 0.012559505 0.0144126145
        0.016465526 0.018714957 0.021148184 0.023740772 0.026454607 0.029236533
        0.032018095 0.034716763 0.037239056 0.039485693 0.04135856 0.042768933
        0.043645825 0.04424094 0.0012024167 0.0014355587 0.0016888349 0.0019856994
        0.0023332348 0.002739514 0.00321368 0.0037660059 0.0044079274 0.0051520295
        0.0060119582 0.0070022307 0.008137894 0.009433983 0.01090473 0.0125624705
        0.014416206 0.016469829 0.01872005 0.021154126 0.023747616 0.02646238
        0.029245252 0.032027747 0.034727313 0.03725044 0.039497808 0.04137128
        0.04278209 0.043659244 0.04425452 0.0012027795 0.0014359795 0.0016893143
        0.0019862412 0.0023338415 0.0027401876 0.0032144214 0.0037668187 0.004408821
        0.0051530246 0.0060130917 0.0070035583 0.00813949 0.009435936 0.010907137
        0.012565426 0.014419801 0.016474146 0.01872516 0.021160092 0.02375448
        0.026470175 0.029253986 0.032037415 0.034737878 0.037261833 0.03950993
        0.041384004 0.042795256 0.04367267 0.04426811 0.0012031407 0.0014363965
        0.0016897866 0.0019867714 0.0023344303 0.0027408344 0.003215126 0.0037675838
        0.004409657 0.005153955 0.006014158 0.0070048226 0.008141032 0.009437849
        0.010909517 0.012568371 0.014423399 0.016478479 0.018730292 0.02116608
        0.023761366 0.026477987 0.029262736 0.032047093 0.034748446 0.037273232
        0.03952206 0.041396733 0.04280843 0.043686107 0.044281706 0.0012035
        0.0014368086 0.00169025 0.0019872866 0.0023349964 0.0027414483 0.0032157863
        0.0037682927 0.004410427 0.005154813 0.0060151527 0.0070060217 0.008142521
        0.009439723 0.010911875 0.012571309 0.014427003 0.016482824 0.018735444
        0.02117209 0.023768272 0.026485816 0.0292715 0.03205678 0.034759026
        0.03728464 0.039534196 0.04140947 0.04282161 0.043699548 0.04429531
        0.0012038568 0.0014372143 0.0016907019 0.0019877832 0.0023355337 0.002742022
        0.003216393 0.0037689356 0.0044111214 0.005155592 0.0060160705 0.0070071532
        0.008143956 0.009441559 0.010914212 0.01257424 0.014430612 0.016487185
        0.018740615 0.021178119 0.023775198 0.026493661 0.029280275 0.03206648
        0.034769613 0.03729605 0.039546337 0.04142221 0.042834792 0.043713
        0.044308923 0.0012042102 0.0014376116 0.0016911388 0.0019882554 0.0023360348
        0.002742545 0.0032169344 0.0037695004 0.00441173 0.0051562847 0.006016908
        0.0070082163 0.008145338 0.00944336 0.01091653 0.012577166 0.014434229
        0.016491558 0.018745806 0.021184169 0.023782142 0.026501521 0.029289061
        0.03207618 0.0347802 0.03730746 0.039558478 0.041434955 0.042847984
        0.043726455 0.044322547 0.0012045589 0.0014379977 0.0016915556 0.0019886955
        0.0023364888 0.0027430046 0.003217396 0.0037699735 0.0044122413 0.005156883
        0.0060176626 0.007009212 0.008146671 0.009445129 0.010918832 0.012580089
        0.014437852 0.016495949 0.018751012 0.021190235 0.023789098 0.026509391
        0.029297853 0.032085888 0.03479079 0.037318874 0.039570622 0.041447703
        0.04286118 0.04373992 0.04433618 0.0012049007 0.0014383679 0.0016919448
        0.0019890927 0.0023368816 0.0027433832 0.0032177605 0.003770339 0.004412644
        0.005157381 0.0060183317 0.007010142 0.008147958 0.00944687 0.010921121
        0.012583013 0.014441485 0.016500352 0.018756235 0.021196317 0.023796067
        0.026517268 0.02930665 0.032095596 0.034801383 0.037330285 0.039582763
        0.04146045 0.042874373 0.04375339 0.044349823 0.0012052328 0.0014387155
        0.0016922953 0.0019894305 0.0023371922 0.0027436584 0.0032180059 0.0037705803
        0.004412928 0.005157775 0.0060189175 0.0070110103 0.008149203 0.009448587
        0.0109234005 0.012585937 0.014445125 0.016504766 0.018761473 0.02120241
        0.023803044 0.026525151 0.029315446 0.0321053 0.034811966 0.03734169
        0.0395949 0.041473195 0.042887572 0.043766864 0.044363473 0.0012055498
        0.0014390297 0.0016925895 0.001989685 0.0023373917 0.0027438006 0.0032181072
        0.0037706792 0.0044130846 0.005158064 0.0060194237 0.0070118234 0.008150414
        0.009450286 0.010925673 0.012588863 0.014448773 0.016509192 0.018766718
        0.02120851 0.023810025 0.02653303 0.029324235 0.032114998 0.03482254
        0.037353087 0.03960703 0.04148593 0.04290077 0.04378034 0.04437713
        0.0012058424 0.0014392915 0.0016927979 0.001989818 0.0023374395 0.0027437725
        0.0032180368 0.0037706215 0.00441311 0.0051582516 0.0060198577 0.0070125884
        0.008151596 0.00945197 0.010927942 0.01259179 0.014452426 0.016513623
        0.018771969 0.02121461 0.023817 0.026540902 0.029333012 0.032124676
        0.034833096 0.037364468 0.039619148 0.041498665 0.042913966 0.04379382
        0.044390798 0.001206092 0.0014394651 0.0016928684 0.001989769 0.0023372774
        0.0027435303 0.0032177696 0.003770399 0.004413008 0.005158349 0.006020231
        0.0070133163 0.008152757 0.009453643 0.010930205 0.012594718 0.014456079
        0.016518053 0.018777214 0.0212207 0.023823962 0.026548753 0.029341767
        0.032134328 0.034843627 0.037375826 0.039631244 0.04151138 0.04292715
        0.0438073 0.044404473 0.0012062541 0.0014394738 0.0016927029 0.0019894417
        0.002336832 0.0027430318 0.0032172923 0.0037700178 0.0044127954 0.0051583727
        0.006020559 0.007014017 0.008153901 0.009455307 0.010932462 0.012597638
        0.014459724 0.01652247 0.018782444 0.021226771 0.023830896 0.02655657
        0.029350482 0.032143943 0.034854118 0.037387144 0.03964331 0.041524075
        0.042940326 0.043820783 0.04441816 0.0012061938 0.0014391207 0.0016921075
        0.001988698 0.0023360339 0.0027422633 0.0032166247 0.0037695123 0.0044125062
        0.005158353 0.0060208645 0.0070147067 0.008155042 0.009456968 0.010934716
        0.012600552 0.0144633595 0.016526876 0.018787652 0.021232812 0.023837794
        0.026564347 0.029359153 0.032153513 0.034864567 0.037398424 0.039655343
        0.041536745 0.042953484 0.043834258 0.044431854 0.0012053367 0.0014381391
        0.0016910712 0.0019876773 0.002335086 0.002741434 0.0032159535 0.0037690361
        0.0044122636 0.0051583867 0.006021223 0.0070154467 0.008156227 0.009458668
        0.010937002 0.012603493 0.014467015 0.016531294 0.01879287 0.021238856
        0.023844687 0.026572114 0.02936781 0.032163065 0.034874998 0.037409693
        0.03966736 0.041549407 0.04296664 0.04384774 0.044445556
      </DataArray>
    </PointData>
    <CellData>
    </CellData>
    <Points>
      <DataArray type="Float32" Name="Points" NumberOfComponents="3" format="ascii" RangeMin="1.144914622546927" RangeMax="1.3206351668511573">
        0.85107565 -0.019684877 0.7686208 0.85163456 -0.019684864 0.76862025
        0.8522923 -0.019684846 0.76861954 0.8530659 -0.019684823 0.7686187
        0.85397536 -0.019684795 0.7686176 0.85504377 -0.01968476 0.7686162
        0.85629797 -0.019684713 0.7686144 0.8577688 -0.019684656 0.76861215
        0.8594919 -0.019684583 0.7686093 0.86150795 -0.01968449 0.76860565
        0.8638633 -0.019684372 0.76860106 0.8666102 -0.019684229 0.76859546
        0.8698074 -0.019684052 0.76858854 0.87351996 -0.019683845 0.7685805
        0.87781906 -0.019683614 0.76857144 0.8827818 -0.019683365 0.7685617
        0.8884897 -0.019683102 0.76855147 0.8950273 -0.01968283 0.76854086
        0.9024792 -0.01968256 0.7685303 0.910927 -0.019682297 0.76852006
        0.9204447 -0.019682053 0.7685105 0.9310933 -0.019681836 0.76850206
        0.94291437 -0.019681651 0.76849484 0.955924 -0.0196815 0.7684889
        0.9701058 -0.01968137 0.7684838 0.985406 -0.019681238 0.7684787
        1.0017288 -0.019681066 0.76847196 1.0189358 -0.019680798 0.76846147
        1.0368483 -0.019680366 0.76844466 1.0552526 -0.019679701 0.76841867
        1.0739093 -0.019678727 0.76838064 0.851007 -0.018533973 0.76864946
        0.85156655 -0.018533247 0.7686489 0.8522249 -0.018532658 0.76864827
        0.8529991 -0.018532189 0.76864743 0.85390913 -0.018531822 0.7686463
        0.85497814 -0.018531539 0.7686449 0.8562329 -0.018531324 0.76864314
        0.85770434 -0.018531168 0.7686409 0.8594281 -0.018531058 0.768638
        0.8614449 -0.018530989 0.7686344 0.863801 -0.018530948 0.76862985
        0.86654884 -0.018530926 0.7686242 0.86974704 -0.018530916 0.76861733
        0.87346065 -0.01853091 0.7686093 0.877761 -0.01853091 0.7686002
        0.8827251 -0.018530909 0.76859045 0.88843465 -0.0185309 0.7685802
        0.894974 -0.01853088 0.7685696 0.902428 -0.018530846 0.768559
        0.9108782 -0.018530795 0.76854867 0.92039865 -0.018530736 0.76853913
        0.93105024 -0.018530676 0.76853067 0.9428748 -0.01853062 0.76852345
        0.9558883 -0.018530572 0.7685175 0.9700744 -0.018530523 0.7685124
        0.9853791 -0.018530456 0.7685073 1.0017068 -0.018530335 0.76850057
        1.0189191 -0.01853011 0.7684901 1.036837 -0.01852972 0.76847327
        1.0552468 -0.0185291 0.7684473 1.0739093 -0.01852818 0.76840925
        0.8509383 -0.017383028 0.76867646 0.8514982 -0.017381914 0.76867586
        0.852157 -0.017380917 0.76867527 0.85293174 -0.017380055 0.7686744
        0.8538424 -0.017379338 0.7686733 0.8549119 -0.017378768 0.76867193
        0.8561673 -0.017378334 0.7686702 0.85763943 -0.017378023 0.76866794
        0.8593639 -0.017377825 0.7686651 0.8613815 -0.01737773 0.76866144
        0.8637385 -0.017377721 0.7686569 0.8664872 -0.017377788 0.7686513
        0.86968637 -0.017377913 0.7686444 0.87340117 -0.017378082 0.76863635
        0.8777028 -0.017378287 0.7686272 0.8826683 -0.017378515 0.76861745
        0.88837945 -0.017378744 0.7686072 0.89492065 -0.01737896 0.7685966
        0.9023767 -0.017379148 0.768586 0.9108293 -0.017379303 0.76857567
        0.92035246 -0.017379422 0.7685661 0.9310072 -0.017379511 0.7685576
        0.9428352 -0.017379578 0.7685504 0.95585257 -0.017379627 0.76854444
        0.97004294 -0.017379655 0.76853937 0.9853523 -0.017379645 0.7685342
        1.0016849 -0.017379573 0.76852745 1.0189024 -0.017379388 0.76851696
        1.0368258 -0.017379036 0.76850015 1.0552412 -0.017378459 0.76847416
        1.0739093 -0.017377594 0.76843613 0.8508696 -0.016232042 0.7687017
        0.85142976 -0.016230673 0.76870114 0.8520889 -0.016229384 0.7687005
        0.8528641 -0.01622821 0.76869965 0.8537752 -0.01622719 0.7686986
        0.8548454 -0.016226334 0.7686972 0.8561014 -0.016225662 0.7686955
        0.8575742 -0.016225168 0.76869327 0.8592995 -0.016224848 0.7686904
        0.8613178 -0.016224692 0.7686868 0.86367565 -0.01622468 0.76868224
        0.86642534 -0.016224802 0.76867664 0.86962557 -0.01622503 0.7686698
        0.8733415 -0.016225355 0.7686617 0.8776444 -0.016225744 0.76865256
        0.8826114 -0.016226182 0.7686428 0.88832414 -0.016226633 0.7686325
        0.8948672 -0.01622707 0.7686218 0.9023254 -0.01622747 0.7686112
        0.9107804 -0.016227817 0.7686009 0.92030627 -0.016228104 0.76859134
        0.93096405 -0.016228337 0.76858276 0.9427956 -0.01622852 0.76857555
        0.9558168 -0.01622866 0.7685696 0.9700114 -0.01622876 0.7685645
        0.98532534 -0.016228806 0.7685594 1.001663 -0.016228776 0.7685526
        1.0188856 -0.01622863 0.7685422 1.0368145 -0.016228316 0.76852536
        1.0552355 -0.01622778 0.7684993 1.0739093 -0.016226966 0.7684613
        0.85080093 -0.01508102 0.76872516 0.85136133 -0.015079463 0.7687247
        0.85202074 -0.015077953 0.768724 0.85279626 -0.015076536 0.7687232
        0.85370785 -0.015075254 0.7687221 0.8547785 -0.015074151 0.76872075
        0.8560352 -0.015073246 0.7687191 0.8575087 -0.01507256 0.7687168
        0.8592347 -0.015072096 0.76871395 0.86125386 -0.01507185 0.7687104
        0.8636126 -0.01507181 0.76870584 0.8663633 -0.015071957 0.76870024
        0.8695646 -0.01507227 0.7686933 0.87328166 -0.01507272 0.7686853
        0.8775859 -0.015073277 0.7686761 0.88255435 -0.015073904 0.7686663
        0.88826877 -0.015074562 0.768656 0.89481366 -0.0150752105 0.76864535
        0.90227395 -0.01507581 0.76863474 0.9107314 -0.01507634 0.7686244
        0.92026 -0.015076788 0.76861477 0.9309209 -0.015077155 0.76860625
        0.94275594 -0.015077447 0.76859903 0.955781 -0.015077674 0.7685931
        0.9699799 -0.015077841 0.768588 0.98529845 -0.01507794 0.7685828
        1.0016409 -0.01507795 0.768576 1.0188689 -0.01507784 0.7685656
        1.0368031 -0.015077561 0.7685488 1.0552298 -0.015077064 0.76852274
        1.0739093 -0.015076303 0.7684847 0.8507322 -0.013929963 0.7687469
        0.85129285 -0.01392826 0.76874644 0.8519525 -0.013926578 0.76874584
        0.85272837 -0.013924964 0.76874495 0.8536403 -0.013923471 0.76874393
        0.85471153 -0.013922145 0.76874256 0.8559688 -0.013921027 0.7687409
        0.8574429 -0.013920152 0.7687386 0.85916966 -0.013919536 0.7687358
        0.86118966 -0.013919186 0.7687322 0.86354935 -0.0139190955 0.7687277
        0.866301 -0.013919249 0.76872206 0.86950344 -0.013919622 0.7687152
        0.8732217 -0.013920179 0.76870716 0.87752724 -0.013920881 0.76869804
        0.8824972 -0.013921685 0.76868814 0.8882133 -0.013922536 0.76867783
        0.89476 -0.013923377 0.76866716 0.90222245 -0.013924167 0.7686565
        0.91068226 -0.013924871 0.7686462 0.9202137 -0.0139254695 0.7686365
        0.93087775 -0.013925963 0.768628 0.9427162 -0.013926358 0.7686208
        0.95574516 -0.013926668 0.7686148 0.9699483 -0.013926898 0.7686097
        0.9852715 -0.013927046 0.7686045 1.001619 -0.0139270965 0.7685978
        1.0188521 -0.013927018 0.7685873 1.0367919 -0.013926773 0.7685705
        1.0552241 -0.013926315 0.7685445 1.0739093 -0.013925605 0.7685064
        0.85066354 -0.012778875 0.768767 0.85122436 -0.012777055 0.76876646
        0.85188425 -0.012775234 0.76876587 0.8526604 -0.012773461 0.7687651
        0.8535727 -0.012771787 0.768764 0.8546444 -0.012770271 0.7687627
        0.8559022 -0.012768963 0.7687609 0.857377 -0.012767908 0.7687588
        0.85910445 -0.012767141 0.768756 0.8611253 -0.012766679 0.76875234
        0.8634859 -0.012766525 0.76874787 0.86623853 -0.012766667 0.7687422
        0.8694421 -0.012767078 0.76873535 0.8731616 -0.012767725 0.76872724
        0.87746847 -0.012768557 0.7687181 0.8824399 -0.012769519 0.7687083
        0.88815767 -0.0127705475 0.7686979 0.8947063 -0.012771574 0.76868725
        0.9021709 -0.012772542 0.7686766 0.91063315 -0.012773409 0.7686662
        0.9201673 -0.01277415 0.7686566 0.9308345 -0.012774764 0.768648
        0.9426764 -0.012775257 0.76864076 0.9557093 -0.012775644 0.7686348
        0.9699167 -0.012775932 0.7686297 0.9852445 -0.012776126 0.76862454
        1.0015969 -0.012776213 0.7686178 1.0188354 -0.012776168 0.7686073
        1.0367806 -0.012775955 0.7685905 1.0552185 -0.012775537 0.7685645
        1.0739093 -0.012774876 0.76852643 0.8505949 -0.011627759 0.7687853
        0.8511558 -0.011625842 0.7687848 0.851816 -0.011623909 0.7687842
        0.8525924 -0.011622001 0.7687834 0.85350513 -0.011620178 0.7687824
        0.8545772 -0.011618498 0.768781 0.8558355 -0.011617021 0.76877934
        0.8573109 -0.011615803 0.76877713 0.85903907 -0.011614891 0.76877433
        0.86106074 -0.011614314 0.76877075 0.8634222 -0.011614087 0.7687663
        0.86617595 -0.011614203 0.7687606 0.8693806 -0.011614641 0.76875377
        0.8731013 -0.011615359 0.76874566 0.8774096 -0.0116163045 0.76873654
        0.8823825 -0.011617411 0.76872665 0.88810194 -0.011618603 0.7687163
        0.8946525 -0.0116198 0.76870567 0.9021192 -0.011620934 0.7686949
        0.9105839 -0.011621954 0.76868457 0.9201209 -0.011622831 0.7686749
        0.93079114 -0.011623558 0.7686663 0.94263667 -0.011624143 0.76865906
        0.9556734 -0.011624602 0.7686531 0.9698851 -0.011624948 0.768648
        0.9852175 -0.011625185 0.7686428 1.001575 -0.011625305 0.76863605
        1.0188186 -0.01162529 0.7686256 1.0367693 -0.011625108 0.7686088
        1.0552127 -0.011624727 0.76858276 1.0739093 -0.011624118 0.7685447
        0.85052615 -0.010476615 0.7688019 0.85108733 -0.010474619 0.76880145
        0.8517477 -0.01047259 0.76880085 0.8525244 -0.010470573 0.7688
        0.8534374 -0.010468624 0.768799 0.8545099 -0.010466803 0.76879764
        0.8557687 -0.010465178 0.76879597 0.85724473 -0.010463811 0.76879376
        0.85897356 -0.010462763 0.768791 0.86099607 -0.010462075 0.76878744
        0.86335844 -0.01046177 0.7687829 0.8661132 -0.010461852 0.7687773
        0.8693189 -0.010462303 0.76877046 0.8730409 -0.010463079 0.76876235
        0.87735057 -0.010464124 0.7687532 0.882325 -0.010465361 0.76874334
        0.88804615 -0.010466702 0.76873296 0.8945986 -0.010468057 0.76872224
        0.9020675 -0.010469346 0.7687115 0.9105347 -0.01047051 0.76870114
        0.92007434 -0.010471515 0.76869154 0.9307478 -0.010472348 0.7686829
        0.94259685 -0.010473019 0.7686756 0.9556375 -0.010473546 0.76866966
        0.96985346 -0.010473943 0.76866454 0.9851906 -0.01047422 0.7686594
        1.0015529 -0.010474374 0.7686527 1.0188018 -0.010474387 0.7686421
        1.036758 -0.010474237 0.7686253 1.055207 -0.010473893 0.76859933
        1.0739093 -0.010473335 0.7685612 0.8504575 -0.009325449 0.7688168
        0.85101885 -0.009323386 0.7688163 0.8516794 -0.009321276 0.7688157
        0.8524564 -0.009319166 0.7688149 0.8533697 -0.009317109 0.7688139
        0.8544426 -0.009315168 0.7688126 0.8557018 -0.009313414 0.76881087
        0.85717845 -0.009311916 0.76880866 0.858908 -0.009310742 0.7688059
        0.8609312 -0.0093099475 0.76880234 0.8632945 -0.009309565 0.7687979
        0.86605024 -0.009309608 0.7687923 0.86925715 -0.009310061 0.7687854
        0.87298036 -0.009310885 0.7687773 0.8772914 -0.009312016 0.76876813
        0.88226736 -0.009313369 0.76875824 0.8879902 -0.009314848 0.76874787
        0.8945446 -0.009316349 0.76873714 0.9020157 -0.009317782 0.7687264
        0.9104853 -0.00931908 0.76871604 0.9200278 -0.009320201 0.7687064
        0.9307044 -0.0093211355 0.7686978 0.942557 -0.009321887 0.76869047
        0.9556015 -0.009322477 0.76868445 0.9698218 -0.009322923 0.7686794
        0.9851635 -0.0093232365 0.7686742 1.0015309 -0.00932342 0.76866746
        1.018785 -0.009323461 0.768657 1.0367466 -0.009323341 0.7686402
        1.0552013 -0.009323035 0.7686142 1.0739093 -0.009322529 0.768576
        0.8503888 -0.008174261 0.76883 0.8509503 -0.008172141 0.76882946
        0.85161114 -0.008169965 0.76882887 0.8523883 -0.008167775 0.7688281
        0.853302 -0.008165627 0.7688271 0.85437524 -0.0081635825 0.7688257
        0.8556349 -0.008161716 0.76882404 0.85711205 -0.008160102 0.7688219
        0.85884225 -0.008158816 0.7688191 0.8608663 -0.008157921 0.7688156
        0.86323047 -0.008157463 0.7688111 0.8659872 -0.008157464 0.7688055
        0.8691952 -0.008157914 0.76879865 0.8729197 -0.008158775 0.7687905
        0.8772321 -0.00815998 0.76878136 0.8822096 -0.008161438 0.76877147
        0.88793415 -0.0081630405 0.76876104 0.8944905 -0.008164676 0.7687503
        0.9019638 -0.008166242 0.7687396 0.9104359 -0.008167664 0.76872915
        0.91998124 -0.008168896 0.7687195 0.93066096 -0.008169921 0.7687109
        0.94251704 -0.008170748 0.7687036 0.9555655 -0.008171396 0.76869756
        0.9697901 -0.008171887 0.7686925 0.9851365 -0.008172236 0.7686873
        1.0015088 -0.008172447 0.7686806 1.0187682 -0.008172515 0.76867014
        1.0367353 -0.008172424 0.76865333 1.0551956 -0.008172155 0.7686273
        1.0739093 -0.008171701 0.76858914 0.8503201 -0.0070230556 0.76884145
        0.8508818 -0.0070208875 0.76884097 0.85154283 -0.007018654 0.7688403
        0.8523203 -0.0070163975 0.76883954 0.85323423 -0.0070141708 0.7688385
        0.85430783 -0.0070120385 0.7688372 0.855568 -0.0070100753 0.76883554
        0.85704565 -0.00700836 0.76883334 0.8587765 -0.007006974 0.76883054
        0.8608013 -0.0070059886 0.768827 0.86316633 -0.007005459 0.76882255
        0.865924 -0.0070054163 0.768817 0.8691332 -0.007005858 0.7688101
        0.8728589 -0.007006748 0.768802 0.87717265 -0.007008016 0.7687928
        0.8821518 -0.007009567 0.7687829 0.887878 -0.0070112827 0.7687725
        0.8944363 -0.00701304 0.76876175 0.9019118 -0.007014729 0.768751
        0.9103864 -0.0070162653 0.7687406 0.9199346 -0.007017598 0.76873094
        0.93061745 -0.0070187086 0.7687223 0.9424771 -0.007019605 0.768715
        0.9555295 -0.007020307 0.76870894 0.96975833 -0.0070208395 0.7687039
        0.9851094 -0.0070212204 0.7686987 1.0014867 -0.007021458 0.76869196
        1.0187514 -0.007021551 0.76868147 1.0367239 -0.007021488 0.76866466
        1.0551898 -0.007021258 0.7686387 1.0739093 -0.007020855 0.7686005
        0.85025144 -0.0058718333 0.76885116 0.85081327 -0.0058696247 0.7688507
        0.8514745 -0.0058673434 0.76885 0.85225224 -0.00586503 0.76884925
        0.85316646 -0.005862738 0.76884824 0.8542404 -0.0058605312 0.7688469
        0.855501 -0.005858485 0.76884526 0.8569792 -0.0058566816 0.76884305
        0.85871065 -0.005855207 0.7688403 0.8607362 -0.00585414 0.7688368
        0.8631021 -0.005853545 0.7688323 0.86586076 -0.00585346 0.7688267
        0.869071 -0.005853891 0.76881987 0.87279797 -0.0058548036 0.7688118
        0.87711316 -0.005856128 0.7688026 0.8820938 -0.0058577606 0.7687927
        0.8878218 -0.005859577 0.76878226 0.894382 -0.0058614444 0.76877147
        0.9018597 -0.005863245 0.76876074 0.9103368 -0.0058648856 0.7687503
        0.9198878 -0.005866311 0.76874065 0.9305739 -0.0058675 0.76873195
        0.9424371 -0.005868459 0.7687247 0.95549345 -0.005869211 0.76871866
        0.9697266 -0.005869781 0.76871353 0.9850823 -0.0058701914 0.76870835
        1.0014646 -0.005870454 0.7687016 1.0187346 -0.005870571 0.7686912
        1.0367125 -0.005870537 0.7686744 1.0551841 -0.0058703437 0.7686483
        1.0739093 -0.005869993 0.7686102 0.8501828 -0.004720598 0.76885915
        0.8507448 -0.0047183554 0.7688587 0.8514062 -0.004716033 0.768858
        0.8521842 -0.0047136727 0.76885724 0.8530987 -0.0047113253 0.7688562
        0.854173 -0.0047090556 0.7688549 0.855434 -0.004706939 0.76885325
        0.85691273 -0.0047050607 0.7688511 0.8586448 -0.0047035096 0.7688483
        0.860671 -0.0047023715 0.7688448 0.8630377 -0.0047017173 0.7688403
        0.8657974 -0.0047015934 0.76883477 0.8690087 -0.0047020116 0.7688279
        0.87273693 -0.004702942 0.7688198 0.8770535 -0.0047043134 0.76881063
        0.8820357 -0.0047060186 0.76880074 0.88776547 -0.004707925 0.76879025
        0.89432764 -0.004709892 0.7687795 0.90180755 -0.004711793 0.7687687
        0.9102872 -0.004713528 0.7687583 0.919841 -0.0047150366 0.7687485
        0.9305303 -0.0047162967 0.76873994 0.94239706 -0.004717313 0.7687326
        0.9554573 -0.00471811 0.7687266 0.96969485 -0.004718715 0.76872146
        0.9850552 -0.0047191526 0.76871634 1.0014424 -0.0047194376 0.76870954
        1.0187176 -0.0047195773 0.7686991 1.0367012 -0.004719571 0.7686823
        1.0551784 -0.0047194157 0.76865625 1.0739093 -0.0047191177 0.7686181
        0.85011405 -0.0035693515 0.7688654 0.85067624 -0.003567081 0.76886487
        0.8513379 -0.0035647254 0.76886433 0.8521161 -0.0035623251 0.7688635
        0.8530309 -0.0035599319 0.7688625 0.8541056 -0.0035576099 0.7688612
        0.855367 -0.0035554348 0.76885957 0.8568462 -0.0035534932 0.76885736
        0.85857886 -0.0035518776 0.7688546 0.8606058 -0.003550678 0.7688511
        0.86297333 -0.003549972 0.76884663 0.8657339 -0.0035498133 0.7688411
        0.8689464 -0.0035502191 0.76883423 0.8726758 -0.0035511635 0.7688261
        0.8769938 -0.0035525751 0.76881695 0.8819775 -0.0035543435 0.768807
        0.887709 -0.0035563293 0.76879656 0.89427316 -0.0035583845 0.7687858
        0.9017553 -0.0035603743 0.768775 0.9102375 -0.003562194 0.76876456
        0.91979414 -0.0035637787 0.76875484 0.9304866 -0.0035651021 0.7687462
        0.942357 -0.0035661703 0.7687388 0.9554212 -0.0035670076 0.7687328
        0.969663 -0.0035676437 0.76872766 0.9850281 -0.003568105 0.76872253
        1.0014204 -0.0035684116 0.76871574 1.0187008 -0.0035685732 0.7687053
        1.0366899 -0.0035685943 0.7686885 1.0551727 -0.0035684768 0.76866245
        1.0739093 -0.0035682323 0.7686243 0.8500454 -0.0024180973 0.76886994
        0.85060775 -0.0024158037 0.76886946 0.8512696 -0.002413421 0.7688688
        0.85204804 -0.0024109886 0.7688681 0.85296315 -0.0024085578 0.7688671
        0.8540382 -0.0024061927 0.76886576 0.8553 -0.0024039694 0.7688641
        0.8567797 -0.002401976 0.76886195 0.85851294 -0.0024003068 0.7688592
        0.8605405 -0.002399056 0.7688557 0.86290884 -0.0023983065 0.7688512
        0.8656704 -0.0023981177 0.7688457 0.8688839 -0.0023985126 0.7688388
        0.87261456 -0.0023994683 0.7688307 0.8769339 -0.0024009144 0.7688215
        0.8819192 -0.002402737 0.7688116 0.88765246 -0.0024047918 0.7688011
        0.8942186 -0.0024069243 0.76879036 0.90170294 -0.002408993 0.7687796
        0.91018766 -0.0024108875 0.7687691 0.91974723 -0.0024125385 0.7687593
        0.9304429 -0.0024139183 0.76875067 0.9423169 -0.0024150324 0.76874334
        0.9553851 -0.0024159052 0.7687373 0.9696312 -0.002416569 0.7687322
        0.9850009 -0.0024170524 0.768727 1.0013982 -0.0024173784 0.76872027
        1.0186839 -0.0024175611 0.76870984 1.0366784 -0.0024176093 0.76869303
        1.055167 -0.0024175292 0.7686669 1.0739093 -0.0024173388 0.7686288
        0.84997666 -0.0012668374 0.76887274 0.85053927 -0.0012645256 0.76887226
        0.8512013 -0.0012621211 0.76887167 0.85198 -0.0012596634 0.76887083
        0.8528954 -0.001257203 0.7688699 0.8539707 -0.001254804 0.76886857
        0.85523295 -0.0012525428 0.76886696 0.8567131 -0.0012505081 0.7688648
        0.8584469 -0.0012487961 0.768862 0.8604752 -0.0012475041 0.76885855
        0.86284435 -0.0012467193 0.7688541 0.8656068 -0.001246506 0.76884854
        0.8688214 -0.0012468917 0.7688417 0.8725532 -0.0012478575 0.7688336
        0.8768739 -0.0012493328 0.7688244 0.8818608 -0.0012512017 0.76881444
        0.8875958 -0.0012533155 0.76880395 0.8941639 -0.0012555144 0.76879317
        0.90165055 -0.0012576511 0.7687824 0.91013783 -0.0012596102 0.7687718
        0.9197002 -0.0012613189 0.7687621 0.9303992 -0.0012627478 0.7687534
        0.9422767 -0.0012639017 0.7687461 0.95534885 -0.0012648059 0.76874006
        0.9695993 -0.0012654937 0.76873493 0.9849737 -0.0012659966 0.76872975
        1.001376 -0.0012663403 0.768723 1.0186671 -0.001266543 0.7687126
        1.036667 -0.0012666177 0.7686958 1.0551612 -0.0012665759 0.7686697
        1.0739093 -0.0012664399 0.7686315 0.849908 -0.00011557434 0.7688739
        0.8504707 -0.00011324885 0.7688734 0.851133 -0.00011082818 0.76887274
        0.8519119 -0.000108351254 0.76887196 0.8528276 -0.0001058687 0.76887095
        0.8539033 -0.00010344408 0.7688697 0.8551659 -0.00010115431 0.768868
        0.85664654 -9.908847e-05 0.7688659 0.8583809 -9.734428e-05 0.76886314
        0.86040986 -9.6021075e-05 0.7688597 0.86277974 -9.520941e-05 0.7688552
        0.8655431 -9.497754e-05 0.7688497 0.86875874 -9.535713e-05 0.7688428
        0.8724918 -9.633172e-05 0.7688347 0.8768138 -9.783184e-05 0.76882553
        0.88180226 -9.973954e-05 0.7688155 0.887539 -0.00010190278 0.7688051
        0.89410913 -0.00010415739 0.7687943 0.90159804 -0.000106351246 0.76878345
        0.9100879 -0.00010836481 0.76877296 0.9196532 -0.0001101225 0.7687632
        0.93035537 -0.00011159313 0.76875454 0.9422365 -0.0001127809 0.76874715
        0.9553126 -0.00011371173 0.76874113 0.9695674 -0.00011442015 0.768736
        0.98494655 -0.00011494002 0.7687308 1.0013539 -0.00011529984 0.7687241
        1.0186502 -0.00011552168 0.76871365 1.0366557 -0.00011562263 0.76869684
        1.0551555 -0.00011561896 0.7686708 1.0739093 -0.00011553807 0.7686326
        0.8498393 0.0010356891 0.7688732 0.85040224 0.001038024 0.76887274
        0.8510647 0.0010404558 0.76887214 0.85184383 0.0010429459 0.76887137
        0.85275984 0.0010454438 0.7688703 0.8538358 0.0010478859 0.76886904
        0.85509884 0.0010501953 0.7688674 0.85657996 0.0010522825 0.7688653
        0.8583149 0.0010540488 0.76886255 0.8603444 0.0010553933 0.768859
        0.8627151 0.0010562231 0.7688546 0.8654794 0.001056467 0.7688491
        0.86869603 0.0010560903 0.7688422 0.87243026 0.0010551071 0.7688341
        0.8767537 0.0010535864 0.76882493 0.8817436 0.001051647 0.7688149
        0.88748217 0.0010494438 0.76880443 0.8940543 0.0010471441 0.76879364
        0.90154546 0.0010449038 0.76878285 0.9100378 0.0010428458 0.7687723
        0.91960603 0.001041048 0.7687625 0.9303115 0.0010395432 0.7687539
        0.94219625 0.0010383275 0.7687465 0.95527637 0.0010373747 0.7687405
        0.9695355 0.001036649 0.7687353 0.98491937 0.0010361146 0.76873016
        1.0013316 0.0010357404 0.7687234 1.0186332 0.0010355004 0.76871294
        1.0366442 0.0010353735 0.7686962 1.0551498 0.0010353388 0.7686701
        1.0739093 0.001035364 0.7686319 0.8497706 0.0021869503 0.76887083
        0.8503337 0.0021892905 0.76887035 0.8509963 0.0021917287 0.76886976
        0.85177577 0.002194226 0.768869 0.852692 0.0021967327 0.768868
        0.8537684 0.0021991844 0.7688667 0.8550318 0.0022015048 0.76886505
        0.8565134 0.0022036037 0.7688629 0.85824883 0.0022053823 0.7688602
        0.860279 0.002206738 0.7688567 0.86265045 0.0022075775 0.7688523
        0.8654156 0.0022078266 0.76884675 0.8686332 0.0022074492 0.76883996
        0.87236863 0.0022064575 0.76883185 0.8766934 0.0022049195 0.7688226
        0.8816849 0.0022029558 0.7688126 0.8874252 0.0022007215 0.7688021
        0.89399934 0.0021983874 0.76879126 0.9014928 0.0021961115 0.76878047
        0.90998775 0.002194019 0.76877 0.9195589 0.0021921901 0.76876014
        0.9302676 0.0021906584 0.76875144 0.94215596 0.0021894206 0.7687441
        0.9552401 0.0021884507 0.76873803 0.9695036 0.0021877114 0.7687329
        0.98489213 0.0021871652 0.7687277 1.0013094 0.002186778 0.768721
        1.0186163 0.002186521 0.76871055 1.0366329 0.0021863682 0.76869375
        1.0551441 0.0021862949 0.7686677 1.0739093 0.0021862637 0.76862943
        0.84970194 0.0033382068 0.7688668 0.8502652 0.0033405486 0.7688663
        0.850928 0.003342988 0.76886564 0.8517077 0.0033454874 0.7688649
        0.85262424 0.0033479955 0.7688639 0.85370094 0.0033504495 0.76886266
        0.85496473 0.0033527722 0.768861 0.85644674 0.0033548735 0.76885885
        0.8581827 0.003356654 0.76885617 0.8602136 0.0033580118 0.76885265
        0.8625857 0.003358852 0.76884824 0.86535174 0.0033590999 0.76884276
        0.8685704 0.0033587173 0.7688359 0.87230694 0.003357717 0.7688278
        0.87663305 0.0033561655 0.76881856 0.88162607 0.0033541836 0.76880854
        0.8873681 0.0033519277 0.7687981 0.89394426 0.0033495696 0.76878726
        0.90143996 0.0033472688 0.76877636 0.90993756 0.0033451524 0.76876587
        0.9195116 0.0033433011 0.76875603 0.9302236 0.0033417505 0.7687473
        0.9421156 0.003340497 0.76874 0.9552037 0.0033395141 0.7687339
        0.96947163 0.0033387642 0.7687288 0.98486483 0.0033382084 0.7687236
        1.0012872 0.0033378103 0.7687169 1.0185994 0.0033375367 0.76870644
        1.0366215 0.003337359 0.76868963 1.0551382 0.0033372464 0.7686636
        1.0739093 0.0033371586 0.7686253 0.8496333 0.0044894563 0.768861
        0.85019666 0.004491795 0.7688605 0.8508597 0.004494231 0.76885986
        0.8516396 0.004496726 0.7688591 0.85255647 0.00449923 0.76885813
        0.85363346 0.004501679 0.7688568 0.8548976 0.004503995 0.7688552
        0.8563801 0.0045060897 0.76885307 0.8581166 0.004507863 0.7688504
        0.8601481 0.0045092124 0.76884687 0.86252093 0.004510044 0.76884246
        0.8652878 0.004510284 0.768837 0.86850744 0.0045098932 0.7688301
        0.87224513 0.004508883 0.768822 0.87657255 0.0045073214 0.76881284
        0.8815671 0.004505328 0.7688028 0.8873109 0.0045030597 0.7687923
        0.8938891 0.004500688 0.7687815 0.90138716 0.0044983733 0.7687706
        0.9098873 0.0044962424 0.76876 0.9194643 0.0044943783 0.76875025
        0.93017954 0.0044928156 0.7687415 0.9420752 0.0044915527 0.76873416
        0.95516735 0.004490562 0.7687281 0.9694396 0.004489805 0.76872295
        0.98483753 0.0044892426 0.76871777 1.0012649 0.0044888346 0.76871103
        1.0185825 0.004488546 0.7687006 1.03661 0.004488343 0.7686838
        1.0551325 0.0044881916 0.7686577 1.0739093 0.004488046 0.7686195
        0.84956455 0.0056406953 0.7688535 0.8501282 0.005643027 0.76885295
        0.8507914 0.005645455 0.76885235 0.85157156 0.0056479406 0.7688516
        0.85248864 0.0056504332 0.7688506 0.853566 0.005652869 0.7688494
        0.85483056 0.005655171 0.7688477 0.85631347 0.0056572487 0.76884556
        0.85805047 0.0056590047 0.7688429 0.86008257 0.005660337 0.7688394
        0.86245614 0.0056611514 0.768835 0.8652238 0.0056613763 0.76882946
        0.8684444 0.0056609726 0.76882267 0.87218326 0.005659953 0.76881456
        0.876512 0.0056583844 0.7688053 0.88150805 0.005656386 0.7687953
        0.88725364 0.0056541148 0.76878476 0.8938339 0.0056517404 0.768774
        0.90133417 0.0056494214 0.76876307 0.909837 0.0056472872 0.7687525
        0.9194169 0.0056454185 0.7687427 0.9301355 0.005643852 0.768734
        0.9420348 0.005642585 0.7687266 0.95513093 0.0056415913 0.7687205
        0.96940756 0.0056408313 0.7687153 0.98481023 0.005640264 0.76871014
        1.0012426 0.0056398488 0.76870346 1.0185655 0.005639545 0.76869303
        1.0365986 0.0056393174 0.7686762 1.0551268 0.005639127 0.7686502
        1.0739093 0.0056389235 0.7686119 0.8494959 0.0067919223 0.7688442
        0.8500596 0.006794243 0.7688437 0.8507231 0.006796657 0.76884305
        0.8515035 0.006799128 0.76884234 0.85242087 0.006801602 0.7688414
        0.8534985 0.006804017 0.7688401 0.85476345 0.006806295 0.76883847
        0.85624677 0.006808347 0.7688363 0.85798436 0.0068100756 0.76883364
        0.860017 0.0068113804 0.7688302 0.8623913 0.00681217 0.76882577
        0.86515975 0.0068123727 0.7688203 0.86838126 0.006811953 0.76881343
        0.8721213 0.0068109236 0.7688054 0.8764513 0.0068093515 0.76879615
        0.8814489 0.006807355 0.7687861 0.88719624 0.0068050893 0.7687756
        0.8937785 0.0068027223 0.7687647 0.9012811 0.0068004113 0.7687538
        0.9097866 0.0067982837 0.7687432 0.91936946 0.0067964196 0.7687334
        0.9300913 0.006794857 0.7687247 0.9419943 0.006793592 0.7687173
        0.95509446 0.0067926003 0.7687112 0.9693755 0.0067918412 0.768706
        0.98478293 0.0067912713 0.7687009 1.0012203 0.0067908494 0.76869416
        1.0185485 0.006790533 0.76868373 1.0365871 0.0067902813 0.7686669
        1.0551211 0.006790051 0.7686408 1.0739093 0.0067897877 0.76860255
        0.84942716 0.007943134 0.7688332 0.84999114 0.007945439 0.76883274
        0.8506548 0.007947835 0.76883215 0.8514354 0.007950284 0.7688314
        0.85235304 0.007952733 0.7688304 0.85343105 0.007955118 0.7688291
        0.85469633 0.007957364 0.76882744 0.85618013 0.007959381 0.7688254
        0.85791814 0.007961071 0.7688227 0.8599514 0.007962339 0.7688192
        0.8623264 0.007963094 0.76881486 0.8650956 0.007963269 0.7688094
        0.86831814 0.007962829 0.7688025 0.87205917 0.00796179 0.7687944
        0.8763905 0.007960218 0.7687852 0.8813897 0.0079582315 0.76877517
        0.8871388 0.007955981 0.7687646 0.893723 0.007953633 0.7687537
        0.901228 0.00795134 0.76874286 0.9097361 0.007949229 0.76873225
        0.91932195 0.00794738 0.7687224 0.9300471 0.007945828 0.7687137
        0.9419538 0.007944571 0.76870626 0.955058 0.0079435855 0.7687002
        0.9693434 0.00794283 0.768695 0.9847556 0.007942261 0.7686899
        1.001198 0.007941835 0.76868314 1.0185316 0.007941506 0.7686727
        1.0365757 0.007941229 0.7686559 1.0551152 0.007940959 0.76862985
        1.0739093 0.007940637 0.7685916 0.8493585 0.009094328 0.76882046
        0.8499226 0.009096612 0.76882005 0.8505865 0.009098984 0.76881945
        0.85136735 0.009101405 0.7688187 0.8522852 0.009103822 0.76881766
        0.8533635 0.00910617 0.7688164 0.8546292 0.009108373 0.7688148
        0.85611343 0.009110344 0.7688127 0.857852 0.0091119865 0.76881003
        0.85988575 0.009113208 0.7688066 0.8622614 0.00911392 0.76880217
        0.8650315 0.009114061 0.7687967 0.86825484 0.009113599 0.7687899
        0.871997 0.00911255 0.76878184 0.87632966 0.009110982 0.76877254
        0.8813303 0.009109011 0.76876247 0.88708115 0.009106786 0.7687519
        0.89366746 0.009104467 0.768741 0.9011748 0.009102204 0.7687301
        0.9096855 0.0091001205 0.76871955 0.9192744 0.009098294 0.7687097
        0.93000287 0.009096761 0.76870096 0.9419132 0.009095521 0.76869357
        0.9550215 0.009094545 0.7686874 0.9693113 0.009093797 0.7686823
        0.98472816 0.009093231 0.7686771 1.0011758 0.009092801 0.7686704
        1.0185145 0.009092461 0.76865995 1.0365642 0.0090921605 0.76864314
        1.0551095 0.00909185 0.76861703 1.0739093 0.0090914685 0.76857877
        0.84928983 0.010245502 0.76880604 0.8498541 0.01024776 0.7688056
        0.85051817 0.010250103 0.768805 0.8512992 0.010252489 0.76880425
        0.85221744 0.010254864 0.7688033 0.85329604 0.010257165 0.768802
        0.8545621 0.010259316 0.7688004 0.85604674 0.01026123 0.7687983
        0.85778576 0.010262815 0.7687956 0.8598201 0.010263979 0.7687922
        0.8621964 0.010264642 0.76878786 0.86496717 0.010264741 0.7687823
        0.8681915 0.010264254 0.7687756 0.8719348 0.010263197 0.7687674
        0.8762687 0.010261639 0.7687582 0.8812708 0.010259693 0.7687481
        0.88702345 0.010257502 0.76873755 0.89361185 0.010255222 0.76872665
        0.9011215 0.010253001 0.76871574 0.9096349 0.010250956 0.7687051
        0.9192267 0.010249162 0.7686953 0.9299586 0.010247655 0.7686865
        0.9418726 0.010246434 0.7686791 0.9549849 0.010245475 0.768673
        0.96927917 0.010244737 0.7686678 0.9847008 0.010244178 0.76866263
        1.0011533 0.010243747 0.7686559 1.0184975 0.010243396 0.76864547
        1.0365528 0.010243073 0.7686287 1.0551037 0.010242723 0.7686026
        1.0739093 0.010242281 0.7685643 0.8492211 0.011396653 0.76878995
        0.84978557 0.011398881 0.76878947 0.85044986 0.011401186 0.7687888
        0.85123116 0.011403528 0.7687881 0.8521496 0.0114058545 0.76878715
        0.8532285 0.011408099 0.7687859 0.8544949 0.011410187 0.7687842
        0.85598 0.011412034 0.7687822 0.8577195 0.01141355 0.7687795
        0.8597544 0.011414647 0.76877606 0.8621313 0.011415251 0.7687717
        0.86490285 0.011415306 0.7687663 0.86812806 0.0114147905 0.7687595
        0.87187237 0.011413728 0.7687513 0.8762076 0.011412185 0.7687421
        0.8812112 0.01141027 0.768732 0.88696563 0.011408125 0.76872146
        0.89355606 0.011405898 0.7687105 0.9010681 0.011403728 0.7686996
        0.90958416 0.011401731 0.768689 0.91917896 0.011399979 0.7686791
        0.92991424 0.011398506 0.7686703 0.94183195 0.011397312 0.76866287
        0.9549483 0.011396374 0.7686568 0.969247 0.01139565 0.76865166
        0.9846734 0.011395099 0.7686465 1.001131 0.011394669 0.76863974
        1.0184805 0.011394308 0.7686293 1.0365413 0.011393962 0.7686125
        1.0550979 0.011393571 0.76858646 1.0739093 0.011393068 0.76854813
        0.84915245 0.012547779 0.76877207 0.8497171 0.012549968 0.7687716
        0.8503815 0.012552231 0.768771 0.8511631 0.01255452 0.7687702
        0.8520818 0.012556787 0.76876926 0.85316104 0.012558965 0.768768
        0.85442775 0.0125609785 0.7687664 0.8559132 0.012562747 0.7687643
        0.85765314 0.012564181 0.7687617 0.8596886 0.012565202 0.76875824
        0.86206615 0.012565739 0.7687539 0.8648384 0.012565744 0.7687484
        0.8680645 0.012565202 0.76874167 0.8718099 0.012564136 0.76873356
        0.8761464 0.012562615 0.76872426 0.8811515 0.012560741 0.7687142
        0.8869077 0.012558652 0.7687036 0.8935002 0.012556487 0.7686927
        0.9010146 0.012554381 0.7686817 0.9095333 0.012552442 0.7686711
        0.9191312 0.012550742 0.7686612 0.9298698 0.012549313 0.76865244
        0.94179124 0.012548152 0.768645 0.9549117 0.012547238 0.76863885
        0.9692148 0.012546533 0.7686337 0.98464596 0.012545992 0.7686286
        1.0011086 0.012545564 0.76862186 1.0184635 0.012545196 0.76861143
        1.0365298 0.012544827 0.7685946 1.0550922 0.012544396 0.7685685
        1.0739093 0.012543831 0.76853025 0.8490838 0.013698876 0.76875246
        0.84964854 0.013701022 0.768752 0.8503132 0.01370323 0.7687514
        0.85109496 0.013705459 0.7687506 0.85201395 0.013707656 0.76874965
        0.8530935 0.013709756 0.76874846 0.8543606 0.013711681 0.76874685
        0.8558464 0.013713358 0.76874477 0.8575868 0.013714701 0.76874214
        0.8596228 0.013715636 0.7687387 0.8620009 0.0137161 0.76873434
        0.8647739 0.013716053 0.7687289 0.86800086 0.013715483 0.7687221
        0.8717473 0.013714418 0.7687141 0.87608504 0.013712923 0.7687047
        0.8810917 0.013711101 0.76869464 0.8868497 0.01370908 0.768684
        0.89344424 0.01370699 0.7686731 0.90096104 0.013704959 0.76866215
        0.9094825 0.013703089 0.76865155 0.91908336 0.013701449 0.7686416
        0.9298253 0.013700068 0.7686328 0.94175047 0.013698948 0.7686254
        0.95487505 0.013698066 0.76861924 0.96918255 0.013697382 0.7686141
        0.9846185 0.013696854 0.7686089 1.0010864 0.013696432 0.7686022
        1.0184464 0.013696056 0.76859176 1.0365183 0.013695664 0.76857495
        1.0550864 0.0136951925 0.7685489 1.0739093 0.013694566 0.7685106
        0.84901506 0.014849943 0.7687311 0.84958005 0.014852036 0.7687307
        0.8502449 0.014854183 0.7687301 0.8510269 0.014856339 0.7687293
        0.8519461 0.0148584545 0.7687284 0.8530259 0.014860461 0.7687271
        0.85429335 0.014862288 0.7687255 0.8557796 0.014863857 0.7687235
        0.8575204 0.014865097 0.7687208 0.85955685 0.014865936 0.76871747
        0.86193556 0.014866321 0.76871306 0.8647093 0.01486622 0.76870763
        0.86793715 0.014865625 0.7687009 0.87168455 0.014864566 0.7686928
        0.8760236 0.014863106 0.7686835 0.88103175 0.014861347 0.76867336
        0.8867915 0.014859403 0.76866275 0.8933882 0.0148574 0.76865184
        0.90090734 0.014855456 0.7686408 0.9094315 0.0148536675 0.7686302
        0.91903543 0.014852098 0.7686203 0.9297808 0.014850775 0.7686115
        0.9417097 0.014849699 0.76860404 0.95483834 0.014848851 0.7685979
        0.9691503 0.014848193 0.7685927 0.98459095 0.014847682 0.7685875
        1.001064 0.0148472665 0.7685808 1.0184294 0.014846883 0.7685704
        1.0365068 0.014846471 0.7685536 1.0550807 0.014845958 0.76852757
        1.0739093 0.01484527 0.76848924 0.8489464 0.016000977 0.7687081
        0.8495115 0.016003007 0.76870763 0.8501766 0.016005082 0.76870704
        0.85095876 0.016007153 0.7687063 0.8518782 0.01600917 0.7687053
        0.8529584 0.01601107 0.7687041 0.8542261 0.016012782 0.7687025
        0.85571265 0.016014233 0.7687004 0.8574539 0.016015356 0.76869786
        0.8594908 0.016016092 0.76869446 0.86187017 0.016016394 0.7686901
        0.8646446 0.016016236 0.7686847 0.86787325 0.016015619 0.76867795
        0.8716217 0.016014574 0.76866984 0.875962 0.01601316 0.76866055
        0.8809717 0.016011473 0.7686504 0.8867333 0.016009621 0.7686398
        0.893332 0.016007716 0.76862884 0.9008536 0.016005872 0.7686178
        0.9093805 0.016004175 0.76860714 0.91898745 0.016002683 0.76859725
        0.9297362 0.016001426 0.7685884 0.94166887 0.016000403 0.768581
        0.9548016 0.015999595 0.76857483 0.969118 0.015998965 0.76856965
        0.98456347 0.015998475 0.76856446 1.0010414 0.015998065 0.7685577
        1.0184122 0.015997678 0.76854736 1.0364953 0.015997244 0.76853055
        1.0550748 0.015996693 0.76850444 1.0739093 0.01599594 0.7684661
        0.8488777 0.017151974 0.7686833 0.849443 0.017153932 0.76868284
        0.8501082 0.01715592 0.76868224 0.85089064 0.017157892 0.7686815
        0.8518104 0.017159797 0.7686806 0.85289073 0.017161572 0.7686793
        0.85415876 0.01716315 0.7686778 0.85564566 0.017164469 0.76867574
        0.8573873 0.017165463 0.7686731 0.8594247 0.017166087 0.7686697
        0.8618046 0.017166303 0.76866543 0.86457974 0.017166091 0.76866
        0.86780924 0.017165458 0.7686532 0.8715588 0.017164433 0.7686451
        0.8759003 0.017163077 0.7686358 0.8809115 0.017161475 0.76862574
        0.88667494 0.017159726 0.76861507 0.89327574 0.017157935 0.7686041
        0.90079975 0.0171562 0.7685931 0.90932935 0.017154608 0.7685824
        0.9189394 0.017153203 0.76857245 0.92969155 0.017152019 0.7685636
        0.941628 0.017151054 0.7685561 0.95476484 0.017150292 0.76855
        0.9690857 0.017149696 0.76854485 0.98453593 0.017149227 0.76853967
        1.001019 0.017148828 0.76853293 1.0183952 0.017148437 0.76852256
        1.0364838 0.017147982 0.76850575 1.055069 0.01714739 0.76847965
        1.0739093 0.017146574 0.7684413 0.848809 0.018302936 0.7686568
        0.8493745 0.018304804 0.7686564 0.8500399 0.01830669 0.7686558
        0.8508225 0.018308545 0.76865506 0.85174245 0.018310318 0.7686541
        0.8528231 0.01831195 0.76865286 0.8540914 0.018313378 0.7686513
        0.85557866 0.018314544 0.76864934 0.85732067 0.018315403 0.76864666
        0.8593585 0.018315908 0.7686433 0.8617389 0.018316034 0.768639
        0.8645147 0.018315775 0.7686336 0.8677451 0.018315133 0.76862687
        0.87149566 0.018314142 0.7686187 0.87583846 0.018312853 0.7686094
        0.88085127 0.01831135 0.76859933 0.8866164 0.018309718 0.7685886
        0.89321935 0.01830805 0.76857764 0.9007458 0.018306443 0.7685666
        0.90927815 0.018304959 0.7685559 0.9188913 0.018303655 0.768546
        0.9296469 0.018302552 0.7685371 0.9415871 0.01830165 0.76852965
        0.95472807 0.01830094 0.76852345 0.9690533 0.01830038 0.76851827
        0.9845084 0.018299937 0.76851314 1.0009966 0.01829955 0.76850647
        1.0183781 0.018299157 0.76849604 1.0364723 0.018298684 0.7684792
        1.0550632 0.01829805 0.7684531 1.0739093 0.018297173 0.7684148
        0.84874034 0.019453853 0.7686286 0.8493059 0.019455617 0.7686281
        0.84997153 0.019457381 0.7686276 0.8507544 0.019459099 0.7686268
        0.8516745 0.019460717 0.7686259 0.85275537 0.019462181 0.76862466
        0.85402393 0.019463439 0.7686232 0.8555115 0.019464443 0.76862115
        0.85725385 0.01946515 0.7686185 0.85929215 0.019465534 0.7686152
        0.86167306 0.019465577 0.7686109 0.86444956 0.019465273 0.7686055
        0.8676808 0.019464634 0.76859874 0.8714324 0.019463686 0.7685906
        0.87577647 0.019462481 0.76858133 0.8807908 0.01946109 0.76857114
        0.8865578 0.019459592 0.76856047 0.8931629 0.019458065 0.7685495
        0.90069175 0.01945659 0.7685384 0.9092269 0.019455232 0.76852775
        0.91884315 0.019454036 0.76851773 0.92960215 0.01945302 0.7685089
        0.9415461 0.019452192 0.7685014 0.95469123 0.019451534 0.7684952
        0.96902096 0.019451017 0.7684901 0.9844808 0.0194506 0.7684849
        1.000974 0.019450227 0.76847816 1.018361 0.019449834 0.7684678
        1.0364608 0.019449342 0.768451 1.0550574 0.01944867 0.76842487
        1.0739093 0.019447725 0.7683865 0.8486716 0.020604728 0.7685987
        0.8492374 0.020606365 0.7685982 0.84990317 0.020607982 0.76859766
        0.85068613 0.020609533 0.76859695 0.8516065 0.020610968 0.768596
        0.8526876 0.02061224 0.7685948 0.8539564 0.020613307 0.76859325
        0.8554442 0.020614132 0.7685912 0.85718685 0.020614684 0.76858866
        0.8592256 0.020614948 0.7685853 0.8616071 0.02061491 0.76858103
        0.86438423 0.020614574 0.7685756 0.8676163 0.020613952 0.76856893
        0.871369 0.020613063 0.76856077 0.87571436 0.020611955 0.76855147
        0.8807303 0.020610692 0.7685413 0.8864991 0.02060934 0.7685306
        0.89310634 0.020607967 0.7685196 0.9006376 0.020606639 0.76850855
        0.9091756 0.020605419 0.7684978 0.91879493 0.020604338 0.7684878
        0.9295574 0.020603422 0.76847893 0.94150513 0.02060267 0.7684714
        0.95465434 0.020602072 0.7684653 0.9689886 0.0206016 0.7684601
        0.9844532 0.020601215 0.7684549 1.0009516 0.02060086 0.7684482
        1.0183439 0.020600466 0.7684378 1.0364492 0.020599958 0.768421
        1.0550516 0.020599244 0.7683949 1.0739093 0.020598236 0.76835656
        0.84860295 0.021755558 0.76856697 0.84916884 0.021757038 0.76856655
        0.84983474 0.021758473 0.768566 0.8506179 0.021759823 0.7685653
        0.8515384 0.021761043 0.76856434 0.85261965 0.021762095 0.76856315
        0.8538887 0.02176295 0.76856166 0.8553767 0.021763584 0.76855963
        0.85711974 0.021763977 0.7685571 0.8591588 0.021764124 0.76855373
        0.86154085 0.02176402 0.7685495 0.8643187 0.021763666 0.7685441
        0.8675516 0.021763071 0.76853734 0.8713054 0.021762263 0.7685293
        0.8756521 0.02176127 0.76851994 0.88066953 0.02176015 0.76850975
        0.8864403 0.02175896 0.768499 0.89304966 0.021757755 0.768488
        0.90058345 0.021756591 0.7684769 0.90912414 0.021755515 0.7684662
        0.9187466 0.021754563 0.76845616 0.9295125 0.02175375 0.7684473
        0.94146407 0.021753084 0.76843977 0.95461744 0.021752551 0.7684336
        0.9689562 0.021752128 0.7684284 0.9844256 0.021751778 0.7684232
        1.0009291 0.021751441 0.76841646 1.0183268 0.02175105 0.7684061
        1.0364376 0.021750525 0.76838934 1.0550458 0.021749774 0.76836324
        1.0739093 0.021748703 0.76832485 0.8485343 0.022906339 0.7685336
        0.8491003 0.02290762 0.7685332 0.8497663 0.022908827 0.7685326
        0.8505496 0.02290993 0.7685319 0.8514702 0.022910897 0.768531
        0.8525516 0.022911698 0.76852983 0.85382074 0.022912322 0.76852834
        0.855309 0.022912757 0.7685264 0.8570523 0.022912996 0.76852375
        0.8590919 0.022913037 0.7685205 0.86147445 0.02291288 0.7685162
        0.864253 0.022912528 0.7685108 0.8674868 0.022911988 0.76850414
        0.8712416 0.022911275 0.768496 0.87558967 0.022910416 0.7684866
        0.88060874 0.02290946 0.7684765 0.8863813 0.022908447 0.7684657
        0.89299285 0.022907425 0.7684547 0.90052915 0.022906434 0.7684436
        0.90907264 0.022905517 0.7684328 0.91869825 0.022904702 0.7684228
        0.9294676 0.022904003 0.7684139 0.94142294 0.02290343 0.76840633
        0.9545805 0.022902967 0.7684002 0.9689237 0.022902599 0.768395
        0.984398 0.022902284 0.7683898 1.0009066 0.022901969 0.7683831
        1.0183096 0.022901583 0.76837265 1.0364262 0.022901041 0.7683559
        1.05504 0.022900252 0.7683298 1.0739093 0.02289912 0.7682914
        0.84846556 0.02405707 0.7684985 0.8490317 0.024058085 0.76849806
        0.84969777 0.024059001 0.7684975 0.8504811 0.024059799 0.7684968
        0.85140175 0.02406046 0.7684959 0.8524832 0.024060983 0.7684948
        0.85375255 0.024061365 0.7684933 0.855241 0.024061609 0.7684913
        0.8569847 0.024061706 0.76848876 0.85902464 0.024061663 0.7684855
        0.86140776 0.024061475 0.7684812 0.86418706 0.024061149 0.76847583
        0.86742175 0.024060683 0.76846915 0.87117773 0.02406009 0.76846105
        0.8755271 0.024059387 0.7684517 0.88054776 0.02405861 0.76844144
        0.88632226 0.024057798 0.7684307 0.892936 0.024056973 0.7684196
        0.9004747 0.024056172 0.7684085 0.9090211 0.024055423 0.76839775
        0.91864985 0.024054755 0.7683877 0.9294227 0.024054177 0.7683788
        0.9413819 0.0240537 0.7683712 0.95454353 0.024053315 0.768365
        0.9688912 0.024053006 0.76835984 0.9843703 0.024052732 0.76835465
        1.000884 0.024052441 0.768348 1.0182924 0.024052063 0.76833755
        1.0364146 0.024051506 0.76832074 1.0550342 0.024050679 0.76829463
        1.0739093 0.024049487 0.76825625 0.8483969 0.025207745 0.76846164
        0.84896296 0.02520838 0.7684612 0.849629 0.0252089 0.7684607
        0.8504123 0.025209315 0.76846004 0.85133296 0.025209637 0.76845914
        0.8524145 0.02520987 0.768458 0.85368395 0.025210015 0.7684565
        0.8551727 0.025210084 0.7684546 0.85691667 0.025210066 0.76845205
        0.85895705 0.02520997 0.76844877 0.8613408 0.025209785 0.76844454
        0.86412084 0.02520951 0.7684392 0.8673565 0.025209147 0.76843244
        0.8711136 0.025208699 0.76842433 0.8754644 0.025208173 0.768415
        0.88048667 0.0252076 0.7684048 0.886263 0.025206996 0.768394
        0.892879 0.025206385 0.76838285 0.90042025 0.025205785 0.7683717
        0.90896946 0.025205221 0.7683609 0.91860133 0.02520471 0.76835084
        0.9293777 0.025204264 0.76834196 0.9413407 0.025203891 0.7683344
        0.9545065 0.025203591 0.7683282 0.9688587 0.025203342 0.768323
        0.98434263 0.025203114 0.7683178 1.0008615 0.025202852 0.7683111
        1.0182753 0.025202485 0.76830065 1.0364031 0.025201917 0.7682839
        1.0550283 0.025201054 0.7682578 1.0739093 0.025199799 0.76821935
        0.84832823 0.026358366 0.768423 0.848894 0.026358353 0.76842266
        0.84955984 0.026358336 0.7684222 0.850343 0.026358314 0.76842153
        0.8512637 0.026358284 0.7684207 0.8523453 0.026358247 0.76841956
        0.8536149 0.026358197 0.7684181 0.8551039 0.02635813 0.76841617
        0.85684824 0.026358044 0.7684136 0.85888916 0.02635793 0.7684103
        0.8612736 0.026357785 0.76840615 0.8640544 0.026357602 0.7684008
        0.86729103 0.026357371 0.76839405 0.8710493 0.026357092 0.76838595
        0.8754015 0.026356772 0.7683765 0.8804254 0.02635642 0.7683663
        0.8862037 0.026356049 0.7683555 0.8928219 0.026355667 0.7683444
        0.9003657 0.026355285 0.7683332 0.9089177 0.026354913 0.7683224
        0.9185528 0.026354568 0.76831234 0.9293326 0.02635426 0.7683034
        0.94129944 0.026354 0.76829576 0.95446944 0.026353788 0.76828957
        0.9688262 0.026353609 0.7682844 0.9843149 0.02635343 0.7682792
        1.0008389 0.0263532 0.76827246 1.0182581 0.026352843 0.7682621
        1.0363915 0.026352268 0.7682453 1.0550225 0.026351372 0.7682192
        1.0739093 0.026350055 0.7681807
        <InformationKey name="L2_NORM_RANGE" location="vtkDataArray" length="2">
          <Value index="0">
            1.1449146225
          </Value>
          <Value index="1">
            1.3206351669
          </Value>
        </InformationKey>
      </DataArray>
    </Points>
  </Piece>
  </StructuredGrid>
</VTKFile>
