<?xml version="1.0"?>
<VTKFile type="StructuredGrid" version="0.1" byte_order="LittleEndian" header_type="UInt32" compressor="vtkZLibDataCompressor">
  <StructuredGrid WholeExtent="0 30 0 40 0 0">
  <Piece Extent="0 30 0 40 0 0">
    <PointData>
      <DataArray type="Float32" Name="orthogonality" format="ascii" RangeMin="0" RangeMax="0.999997079372406">
        0.99823564 0.99911165 0.99782115 0.993491 0.9848436 0.96844393
        0.93706244 0.87946296 0.7830788 0.6379584 0.4496486 0.26526445
        0.14113101 0.080649294 0.05765679 0.050714605 0.048954796 0.048187047
        0.047158655 0.045598928 0.04348683 0.040847503 0.03771172 0.03411219
        0.030085806 0.025676098 0.020934975 0.015923493 0.010711548 0.0053764344
        0 0.99726516 0.99862576 0.9963974 0.99081844 0.9800532
        0.95968294 0.92206925 0.8575333 0.756833 0.6131278 0.43296614
        0.25839296 0.13963003 0.08082663 0.05816868 0.05120688 0.049352437
        0.048489682 0.047383547 0.045764733 0.043609686 0.0409405 0.037785083
        0.034173515 0.030140307 0.025726829 0.020983078 0.015968468 0.010751546
        0.0054085506 2.0212923e-05 0.9967409 0.99830407 0.9953425 0.98829097
        0.97404295 0.947075 0.90063953 0.8288105 0.72585595 0.5861901
        0.41576344 0.25144792 0.13818765 0.081144854 0.05885283 0.051872063
        0.04991283 0.048943013 0.047747895 0.046060007 0.043853194 0.041146357
        0.037964396 0.03433468 0.030289259 0.025867319 0.021116927 0.01609585
        0.010871303 0.005518475 0.000116675736 0.99752563 0.9979258 0.9940896
        0.9848184 0.9656363 0.9308759 0.87647873 0.80007255 0.697185
        0.56226987 0.40073556 0.24545184 0.1371595 0.08178054 0.05983722
        0.052816216 0.050726462 0.049624633 0.048318144 0.046541553 0.04426586
        0.041506514 0.03828521 0.034626458 0.030559763 0.02612204 0.021359362
        0.016327797 0.011093162 0.0057295407 0.00031405163 0.99916613 0.9976008
        0.9926127 0.9801967 0.95494115 0.9125543 0.8523152 0.77358836
        0.6716806 0.54099333 0.38674316 0.23892921 0.13502021 0.08132986
        0.05990243 0.053005848 0.050925367 0.049807277 0.048484832 0.046698146
        0.044418488 0.041660503 0.038444974 0.03479553 0.030740859 0.026317138
        0.021569835 0.016554587 0.011337036 0.0059913932 0.0005929846 0.9999971
        0.9971469 0.98966914 0.9711312 0.936884 0.88681537 0.8231454
        0.74482906 0.6462664 0.52184266 0.37636405 0.23669319 0.13712575
        0.08469357 0.06323512 0.055935528 0.05340422 0.051884826 0.050229374
        0.048173085 0.04567761 0.042748444 0.0393986 0.03564529 0.03151203
        0.027030986 0.022244781 0.017207522 0.011984941 0.0066535184 0.0012772325
        0.9998475 0.99636704 0.9853194 0.96039855 0.9193812 0.8647582
        0.79940987 0.72209257 0.6272848 0.5096154 0.37315124 0.24137783
        0.14549243 0.0934274 0.07101798 0.06248692 0.05880411 0.056305468
        0.053843714 0.051130027 0.048099626 0.044734787 0.04102903 0.0369833
        0.032607485 0.027922219 0.022960262 0.01776711 0.01240076 0.006930356
        0.0014123326 0.99990445 0.99465317 0.9787541 0.94768244 0.900964
        0.8415367 0.77227306 0.6928928 0.5993231 0.48713148 0.35981578
        0.23734945 0.14704794 0.09691873 0.07465182 0.065666534 0.06142383
        0.058417913 0.055534165 0.052478187 0.04917192 0.04558479 0.04169927
        0.037507012 0.03301003 0.02822228 0.023170821 0.01789622 0.012452158
        0.0069038644 0.0013053823 0.9999174 0.9905119 0.9690926 0.9311484
        0.8767425 0.80938506 0.73343694 0.65056103 0.5580674 0.45207298
        0.33526894 0.2240312 0.14138868 0.09486678 0.07391709 0.06531899
        0.06116075 0.058164485 0.055281695 0.05223176 0.04893722 0.04536577
        0.041498046 0.03732408 0.032844484 0.028072026 0.023032743 0.017766373
        0.012325933 0.00677609 0.001171845 0.99872655 0.98404425 0.9564063
        0.9103586 0.84664124 0.7704596 0.6884048 0.6035279 0.51357824
        0.41469997 0.3087078 0.20882608 0.13421018 0.09172369 0.072393596
        0.06437246 0.06042736 0.05753712 0.05473132 0.051748414 0.048514724
        0.044998575 0.041180696 0.037051067 0.03261022 0.027870791 0.022858713
        0.017613648 0.01218858 0.0066481703 0.0010488076 0.9961539 0.9755895
        0.94061434 0.88517326 0.8114066 0.72713494 0.6409333 0.556099
        0.4700275 0.378671 0.28309917 0.19396827 0.12712225 0.08867096
        0.070987806 0.06354408 0.059798513 0.0569982 0.0542547 0.051326178
        0.048142582 0.044672586 0.04089675 0.036804818 0.032397054 0.027685855
        0.022696925 0.017469745 0.012057187 0.006523812 0.00092730985 0.99184775
        0.9644584 0.92073655 0.8543294 0.7699252 0.6786767 0.59036
        0.5074082 0.4263823 0.34297866 0.25765726 0.17894271 0.119778834
        0.085447386 0.06949177 0.06266649 0.059139505 0.05643951 0.053765096
        0.05089575 0.047765635 0.04434413 0.04061191 0.036558695 0.032184687
        0.027502183 0.022536794 0.017327929 0.011928416 0.0064027905 0.0008100679
        0.9855178 0.9500679 0.8957338 0.81675094 0.7218175 0.62547296
        0.5373229 0.4579829 0.38299155 0.3078525 0.23257715 0.16393614
        0.11232616 0.08215204 0.06797385 0.061790563 0.058490098 0.05589273
        0.053287853 0.05047738 0.047400016 0.044026006 0.04033625 0.03632056
        0.03197914 0.027324276 0.022381542 0.017190315 0.011803413 0.006285365
        0.00069650577 0.9765982 0.93137974 0.864028 0.7710168 0.66653657
        0.5676248 0.4820158 0.40787902 0.33978346 0.27317706 0.20778488
        0.14893585 0.10476921 0.078781806 0.066424586 0.060905717 0.057840914
        0.05535011 0.052816723 0.050066072 0.047041748 0.04371507 0.040067323
        0.036088523 0.031779006 0.02715113 0.022230502 0.017056536 0.011682079
        0.0061716875 0.0005870133 0.96416646 0.9068044 0.82346344 0.71557665
        0.60374355 0.5054142 0.42474726 0.3572597 0.29679897 0.23894243
        0.183288 0.13398278 0.09714895 0.07535998 0.06485471 0.06001732
        0.05719532 0.05481416 0.05235369 0.049663424 0.04669213 0.04341239
        0.039806 0.035863314 0.031584896 0.026983254 0.022084111 0.016926967
        0.011564743 0.006062049 0.00048185096 0.94657314 0.87375546 0.77104235
        0.64876455 0.53327686 0.43919185 0.36581385 0.30626643 0.25406775
        0.20513627 0.15909164 0.11911231 0.089501575 0.07190681 0.06327288
        0.05912918 0.05655549 0.054286454 0.051900037 0.049270507 0.04635209
        0.043118767 0.039552998 0.035645574 0.031397387 0.026821192 0.021942887
        0.01680211 0.011451894 0.005956941 0.00038151405 0.92077386 0.82795227
        0.7027529 0.5690582 0.45532635 0.36948368 0.3055936 0.25509694
        0.21166992 0.17179058 0.1352335 0.10437999 0.08187647 0.068452515
        0.0616956 0.058251362 0.055928674 0.053772718 0.051460426 0.048891176
        0.046024814 0.042836867 0.039310545 0.035437185 0.031218091 0.026666319
        0.021808013 0.016682992 0.011344439 0.0058571636 0.0002867095 0.8808318
        0.7621914 0.6136372 0.4755491 0.37062642 0.29707092 0.2445958
        0.2040384 0.16975719 0.1389954 0.11179372 0.0898692 0.07434221
        0.06504183 0.060150914 0.05740328 0.055329714 0.05328488 0.051044602
        0.048533432 0.045716897 0.04257213 0.039083157 0.035241902 0.03105013
        0.026521249 0.021681676 0.016571442 0.0112438975 0.0057639675 0.00019844275
        0.8143388 0.66452336 0.49874 0.36876705 0.28073633 0.22312622
        0.18355624 0.1535377 0.12860492 0.10693704 0.08892339 0.075712994
        0.06700307 0.061746947 0.058688708 0.056622006 0.054787833 0.052846584
        0.050671868 0.048213072 0.045441296 0.042335194 0.03887957 0.035066906
        0.030899405 0.02639081 0.021567805 0.016470624 0.011152765 0.005679259
        0.000118066106 0.6935035 0.5171146 0.3560206 0.2518053 0.18836753
        0.14939295 0.12356877 0.10430034 0.08868603 0.07595403 0.066887975
        0.062128466 0.06002683 0.058690216 0.057399444 0.055977624 0.054359153
        0.052503385 0.05037936 0.04796042 0.045222767 0.042146277 0.038716275
        0.034925625 0.030776797 0.02628376 0.02147336 0.016385948 0.011075092
        0.0056058527 4.723005e-05 0.45811945 0.3026412 0.19129775 0.13097847
        0.097394645 0.07817577 0.06608039 0.057283744 0.050663643 0.04653257
        0.04606877 0.049425047 0.05365778 0.05605864 0.056427673 0.055584792
        0.054136194 0.052330453 0.050228264 0.04782528 0.045101833 0.0420383
        0.038619965 0.03483959 0.030699564 0.026213765 0.021408945 0.016325366
        0.011016469 0.0055471845 1.2683833e-05 0.046482213 0.028562421 0.017640978
        0.012278097 0.010300291 0.010539534 0.011558195 0.012682291 0.01461217
        0.018714221 0.026523087 0.03768578 0.047985297 0.053930268 0.055836435
        0.055493936 0.054159444 0.05236037 0.050244782 0.04782867 0.04509529
        0.042024612 0.038601153 0.034816988 0.03067394 0.026185406 0.021377726
        0.016290784 0.010977672 0.005502959 6.30001e-05 0.38859805 0.25106242
        0.15643229 0.10607302 0.076431535 0.05683536 0.042774905 0.03174868
        0.021244477 0.008862897 0.007253239 0.026205834 0.042504344 0.051922824
        0.055322718 0.055459466 0.054228257 0.05242876 0.050294086 0.047859907
        0.045112208 0.04203047 0.03859839 0.034807343 0.030658552 0.02616493
        0.021352392 0.01626044 0.010941795 0.0054606567 0.000112107984 0.6525081
        0.4766226 0.3233993 0.2269337 0.16710858 0.12784067 0.10011681
        0.07856748 0.058917247 0.03773587 0.012868326 0.014183219 0.036634844
        0.04959441 0.05453537 0.05519664 0.05411001 0.052345082 0.05021994
        0.04779077 0.045047283 0.041969355 0.038540605 0.034752313 0.030605637
        0.026113417 0.021301508 0.016209338 0.010889507 0.005406054 0.0001694145
        0.7884619 0.63415176 0.47022924 0.34521645 0.26003635 0.2020197
        0.16046825 0.12794016 0.09860482 0.06806255 0.03392383 0.0016031805
        0.030393226 0.04696578 0.05349145 0.054718543 0.053814705 0.052116986
        0.05002811 0.047625545 0.044903602 0.04184338 0.038429115 0.03465257
        0.030515308 0.026030516 0.021224324 0.01613636 0.010819339 0.0053373394
        0.00023707275 0.8627391 0.73903185 0.589532 0.45414734 0.3512167
        0.27703848 0.22238934 0.17893037 0.13966185 0.0993602 0.055520143
        0.011208226 0.02403595 0.044231784 0.052341256 0.054144412 0.053438567
        0.051822614 0.049782183 0.047415935 0.044723187 0.041686635 0.0382915
        0.034530316 0.030405315 0.025930237 0.021131663 0.016049571 0.010736914
        0.005257899 0.00031382556 0.90720195 0.80967015 0.68243575 0.55004567
        0.4376542 0.35101086 0.2847176 0.23080319 0.18159817 0.13126713
        0.077359274 0.02400413 0.017749544 0.041526247 0.0511837 0.053551193
        0.053043347 0.051512133 0.04952305 0.047195323 0.04453327 0.041521344
        0.038145863 0.03440027 0.030287566 0.025822138 0.021031102 0.015954845
        0.010646603 0.005170746 0.00039793903 0.93599755 0.8588585 0.7536931
        0.631996 0.5175445 0.4226421 0.34667274 0.2831086 0.22414503
        0.16359143 0.09926887 0.036631368 0.011647378 0.038924683 0.050070893
        0.05297798 0.052660044 0.051210694 0.049271267 0.04698054 0.04434767
        0.04135884 0.038001515 0.03427008 0.030168338 0.025711361 0.020926822
        0.015855547 0.010551069 0.0050779167 0.00048796204 0.95582664 0.89439774
        0.80836695 0.7007141 0.58996314 0.491055 0.40773115 0.3355902
        0.26718825 0.19625996 0.121161126 0.048996568 0.0057977573 0.036467705
        0.049027544 0.052441962 0.052301943 0.050929047 0.04903566 0.046778876
        0.04417241 0.04120414 0.03786264 0.034143247 0.030050572 0.025600385
        0.020820927 0.015753467 0.010451835 0.0049807085 0.000582805 0.97008795
        0.9209387 0.85063076 0.75761896 0.65452254 0.55558443 0.4674692
        0.388066 0.3106784 0.22925067 0.1429816 0.061028298 0.00025160352
        0.034182046 0.048067536 0.051951747 0.051975377 0.05067224 0.048820376
        0.046593767 0.044010356 0.041059624 0.037731245 0.034021467 0.02993572
        0.02549046 0.020714505 0.01564956 0.01034975 0.004879884 0.0006817788
        0.9806129 0.94132787 0.88371336 0.8044418 0.7113256 0.61584485
        0.5256532 0.44052523 0.35472232 0.26266816 0.16476315 0.07271252
        0.0049810605 0.032064084 0.047181655 0.051497802 0.051672153 0.05043364
        0.048620123 0.046421025 0.04385823 0.040922765 0.037605394 0.033903312
        0.029822765 0.025380924 0.0206072 0.015543749 0.01024499 0.0047758617
        0.00078423 0.98831314 0.9572043 0.9098104 0.8425858 0.7603077
        0.67104745 0.58155066 0.4925062 0.39906096 0.29633188 0.18632174
        0.08388092 0.009784777 0.03018628 0.04641922 0.051117003 0.05142122
        0.050236333 0.0484534 0.046275456 0.04372784 0.04080294 0.0374925
        0.033794567 0.029716162 0.025275122 0.020501412 0.015437619 0.010138423
        0.004668852 0.000890571 0.993992 0.96995056 0.931009 0.874122
        0.8027643 0.7219575 0.6360053 0.54508275 0.44482204 0.33119532
        0.20830432 0.09493581 0.014442259 0.028328415 0.045604207 0.050668024
        0.051109053 0.049989227 0.04824723 0.046098743 0.043572735 0.04066333
        0.037363593 0.033672713 0.029598719 0.025160324 0.02038822 0.015325554
        0.010027386 0.004558916 0.0009981521 0.9972085 0.979264 0.9475087
        0.89875156 0.8365174 0.7644333 0.6840233 0.59344274 0.48784018
        0.36386344 0.22809188 0.103987075 0.017622685 0.027468547 0.045492712
        0.050751455 0.051217504 0.050079796 0.048312988 0.046140626 0.043592647
        0.04066298 0.037344467 0.033636216 0.029546259 0.025093362 0.020308262
        0.015234106 0.009925843 0.004448413 0.0011156487 0.9975631 0.98338
        0.9590717 0.9169241 0.86021644 0.7932561 0.71656805 0.62635547
        0.5165369 0.38383582 0.23713832 0.1045783 0.01446876 0.031401522
        0.049142905 0.05386897 0.053804766 0.052204534 0.05004977 0.047554962
        0.0447388 0.04158523 0.038078826 0.03421191 0.029986953 0.025418084
        0.020532135 0.015368843 0.009980059 0.004427747 0.001207438 0.9947374
        0.98428386 0.967637 0.93386686 0.883102 0.8188014 0.74204946
        0.6491674 0.53379095 0.39260185 0.23639236 0.09748709 0.005601665
        0.039665874 0.056214012 0.05976752 0.05868624 0.05623518 0.05337667
        0.050300974 0.04700463 0.043452937 0.039615102 0.035470832 0.031012174
        0.02624461 0.021187667 0.015874753 0.010352019 0.004675997 0.0010782229
        0.98554325 0.98431116 0.97413635 0.94997734 0.90852183 0.8494008
        0.7735681 0.67847186 0.5579796 0.40856022 0.24263549 0.096789315
        0.0022901844 0.043288764 0.059490684 0.06259855 0.06110424 0.058297534
        0.055139516 0.051813148 0.048307355 0.044580918 0.040597748 0.036333382
        0.031776674 0.026930785 0.021813687 0.01645799 0.01090981 0.0052265385
        0.000524216 0.97685134 0.98375136 0.976824 0.9587591 0.9257332
        0.8741237 0.80234444 0.7076462 0.5840388 0.42771852 0.25264907
        0.099886276 0.0024777935 0.04386167 0.06018428 0.063268565 0.061721634
        0.058859516 0.05564951 0.05227566 0.048726793 0.04496147 0.040943503
        0.036648463 0.03206536 0.027197644 0.022063658 0.01669646 0.011142644
        0.0054600933 0.00028447175 0.97314143 0.9835553 0.978901 0.9654109
        0.94013125 0.8975533 0.832392 0.73973405 0.6131534 0.448658
        0.26249266 0.101701565 0.0013197906 0.045533024 0.06175242 0.06464636
        0.06291788 0.059895724 0.056546755 0.053052418 0.049398873 0.045542423
        0.041445065 0.037080955 0.032438032 0.02751892 0.022341354 0.016937874
        0.0113546 0.00564888 0.00011391922 0.9759507 0.9837933 0.9804765
        0.9700795 0.9509408 0.91739523 0.8612183 0.7735067 0.64550906
        0.47247896 0.27364323 0.103801295 0.0002961266 0.047006324 0.06309519
        0.065808736 0.06392066 0.060760606 0.057291713 0.053692512 0.04994693
        0.046009492 0.04184083 0.03741404 0.032716304 0.027749673 0.022531463
        0.017093858 0.011482603 0.0057545896 2.5609566e-05 0.9815453 0.98540926
        0.9831429 0.9745421 0.9589796 0.93141294 0.8827383 0.8012851
        0.6747573 0.49550974 0.28473186 0.10590945 0.0006147937 0.048295986
        0.064239874 0.06678452 0.0647551 0.06147511 0.057902157 0.0542117
        0.050385628 0.04637696 0.042145163 0.037662502 0.03291554 0.027905937
        0.022650717 0.01718184 0.011544796 0.005796133 0
      </DataArray>
      <DataArray type="Float32" Name="aspect_ratio" format="ascii" RangeMin="1.0089282989501953" RangeMax="63.104087829589844">
        1.9765254 2.5715213 2.4313009 2.1565492 2.0564528 2.1825032
        2.5847845 3.3496745 4.576392 6.315937 8.422616 10.499919
        12.379282 14.253932 16.287659 18.542038 21.038324 23.783373
        26.773453 29.99282 33.41128 36.981693 40.63808 44.29498
        47.848633 51.18058 54.163807 56.671345 58.58655 59.813816
        60.696865 2.072672 2.5565677 2.3447528 2.1455297 2.1322498
        2.33638 2.8155682 3.6624756 4.9758987 6.801239 9.001962
        11.21401 13.257406 15.287331 17.459042 19.840017 22.455845
        25.313244 28.404924 31.709505 35.18996 38.791687 42.44118
        46.046 49.496746 52.67146 55.44257 57.686073 59.292076
        60.175323 60.692814 2.3442292 2.5662389 2.2824914 2.132587
        2.1957295 2.4939125 3.0848384 4.0521116 5.4817057 7.411653
        9.720372 12.0820875 14.308616 16.515598 18.847223 21.376028
        24.131653 27.120155 30.32986 33.732716 37.2837 40.919575
        44.55816 48.09907 51.42657 54.41491 56.93615 58.869984
        60.114536 60.59667 60.68876 2.8794885 2.5325408 2.2195094
        2.136026 2.2819614 2.6765587 3.37389 4.449075 5.981191
        8.005605 10.416092 12.921459 15.326619 17.709175 20.200615
        22.877764 25.774418 28.896204 32.227207 35.73276 39.359818
        43.036335 46.67116 50.155518 53.366722 56.174488 58.449677
        60.074825 60.955307 61.029465 60.684696 4.147657 2.4400735
        2.1959534 2.2255957 2.5043023 3.05377 3.9291384 5.209077
        6.9769673 9.269063 11.982881 14.832609 17.600597 20.33341
        23.15775 26.15822 29.372787 32.80367 36.4252 40.188423
        44.022675 47.83582 51.515053 54.92964 57.936333 60.387577
        62.142315 63.07825 63.104088 62.169674 60.680634 5.0475802
        2.2793896 2.0844674 2.141296 2.4195173 2.930931 3.720488
        4.860148 6.4264393 8.457643 10.887668 13.502819 16.108309
        18.710274 21.408497 24.284779 27.382277 30.709707 34.24811
        37.955475 41.76821 45.600998 49.34701 52.87998 56.058796
        58.735104 60.76353 62.01381 62.383244 61.807556 60.67665
        3.2239 2.1017106 1.9157143 1.8932924 2.003284 2.2642064
        2.7149382 3.4087043 4.403675 5.7408447 7.4073257 9.29567
        11.270822 13.306358 15.46149 17.80427 20.381784 23.216589
        26.310272 29.646446 33.19106 36.891037 40.672844 44.442265
        48.086246 51.47736 54.481068 56.965504 58.812878 59.931095
        60.672504 2.169049 1.9292355 1.7998202 1.7605984 1.8190421
        1.998298 2.33089 2.8598886 3.634326 4.6958947 6.0567174
        7.6602306 9.399575 11.228554 13.183766 15.327524 17.710468
        20.362179 23.293095 26.497133 29.951756 33.616116 37.428925
        41.307205 45.146927 48.82616 52.211098 55.164883 57.55856
        59.28294 60.668236 1.9115566 1.8250185 1.73009 1.7077378
        1.7833123 1.9780157 2.318537 2.840252 3.585747 4.5975714
        5.9028573 7.4710197 9.204084 11.037523 12.992736 15.130394
        17.504398 20.147095 23.070498 26.269455 29.722137 33.38834
        37.207344 41.096638 44.95251 48.653122 52.06449 55.04928
        57.47776 59.239704 60.663948 1.8677293 1.7564085 1.6664608
        1.663695 1.7650706 1.987962 2.354041 2.8916197 3.63738
        4.6345224 5.9222064 7.4895096 9.244578 11.107379 13.086143
        15.240222 17.626457 20.279276 23.211311 26.417213 29.87461
        33.542667 37.360035 41.243656 45.089424 48.775337 52.167545
        55.129173 57.531303 59.26479 60.65967 1.7612053 1.6714597
        1.5974354 1.6148028 1.7393633 1.9859686 2.3718357 2.9194527
        3.6611211 4.6410503 5.9085417 7.4691424 9.2372875 11.120796
        13.116106 15.280857 17.67435 20.33295 23.270012 26.480194
        29.940868 33.610847 37.428425 41.31022 45.151882 48.831303
        52.214672 55.165363 57.554874 59.27467 60.655396 1.6648098
        1.584898 1.526176 1.5646634 1.7135559 1.9848676 2.3912656
        2.9502895 3.6910956 4.659265 5.912727 7.470504 9.252506
        11.156693 13.169136 15.345711 17.747824 20.413523 23.356724
        26.571993 30.036346 33.708153 37.525257 41.403893 45.239418
        48.90959 52.28067 55.216335 57.588623 59.289738 60.651123
        1.5582261 1.4922298 1.4510925 1.511822 1.685775 1.9816935
        2.4078062 2.9777768 3.7187228 4.677828 5.920352 7.4763746
        9.270625 11.193224 13.221268 15.408873 17.819191 20.491726
        23.440865 26.661062 30.128979 33.80256 37.619217 41.4948
        45.32439 48.985603 52.344772 55.265854 57.621407 59.304337
        60.646854 1.4460922 1.3945554 1.372728 1.4575747 1.6580747
        1.9789292 2.424347 3.005305 3.7478433 4.70091 5.935998
        7.49217 9.2981825 11.237902 13.280795 15.479313 17.89805
        20.57772 23.533072 26.758396 30.229969 33.905285 37.7213
        41.59346 45.41655 49.068047 52.414345 55.319702 57.6572
        59.32049 60.642593 1.3265506 1.2916712 1.291721 1.4032656
        1.63186 1.9776622 2.4417715 3.0336943 3.7791646 4.728962
        5.9598455 7.5180697 9.335607 11.29136 13.348454 15.557845
        17.985281 20.67246 23.634367 26.865072 30.340437 34.017467
        37.832645 41.70099 45.51696 49.15789 52.490234 55.37855
        57.69648 59.33845 60.638332 1.1997684 1.1843292 1.2097636
        1.3511652 1.6091963 1.9796197 2.4617543 3.0647607 3.8146532
        4.7640333 5.9940686 7.556628 9.386047 11.357291 13.428365
        15.648949 18.085697 20.781057 23.750124 26.98667 30.466087
        34.144848 37.958908 41.82281 45.63068 49.25967 52.576294
        55.44544 57.74135 59.35929 60.634083 1.0660168 1.0739939
        1.1295341 1.3040986 1.592291 1.986574 2.4860377 3.1004272
        3.8564417 4.8084316 6.0412025 7.6108265 9.45312 11.43991
        13.525224 15.75774 18.204796 20.909359 23.886484 27.129564
        30.613438 34.293976 38.106533 41.96513 45.76348 49.378555
        52.67692 55.523834 57.7942 59.38424 60.629833 1.0793302
        1.0379243 1.0549377 1.2654291 1.583555 2.0005186 2.516676
        3.143022 3.9071813 4.865132 6.1046185 7.6846323 9.541556
        11.544673 13.645104 15.89083 18.349678 21.064901 24.051365
        27.301956 30.790865 34.473255 38.283787 42.13586 45.922737
        49.52114 52.79772 55.61814 57.85808 59.41485 60.625595
        1.2757546 1.1661427 1.0089283 1.2387651 1.5853375 2.0234096
        2.5557399 3.194928 3.969621 4.9372663 6.1879044 7.782252
        9.656314 11.67727 13.794324 16.05508 18.527693 21.255476
        24.252924 27.512285 31.006964 34.69129 38.499104 42.343082
        46.115932 49.69411 52.94435 55.732803 57.936047 59.45268
        60.62136 1.5522829 1.3088459 1.0591385 1.2270118 1.5988773
        2.0559297 2.6038208 3.256789 4.0444746 5.025589 6.291831
        7.904503 9.798315 11.838734 13.974 16.251665 18.740055
        21.48231 24.492388 27.761751 31.262892 34.949173 38.753483
        42.58767 46.34382 49.89808 53.11728 55.868134 58.028286
        59.49781 60.61713 1.907302 1.4391465 1.0890316 1.2289495
        1.6201695 2.0923975 2.653827 3.3200605 4.1215663 5.117976
        6.4018507 8.033922 9.946994 12.005576 14.158018 16.452084
        18.956043 21.712656 24.735233 28.014421 31.521793 35.209743
        39.01023 42.834274 46.573357 50.103333 53.291153 56.00411
        58.120903 59.543106 60.612907 2.1489196 1.5030546 1.0983908
        1.2332861 1.6328635 2.1120214 2.6803253 3.3542216 4.164652
        5.1714664 6.466775 8.1095 10.03087 12.096442 14.256198
        16.558182 19.070179 21.834389 24.863613 28.14801 31.658636
        35.34737 39.145668 42.964127 46.693905 50.21074 53.381653
        56.0743 58.16796 59.565052 60.60868 1.9712658 1.4584384
        1.0928015 1.2290927 1.6224844 2.0967793 2.6613798 3.3329704
        4.142498 5.1490536 6.4425936 8.078959 9.988957 12.042175
        14.192061 16.486847 18.993261 21.75281 24.778135 28.05952
        31.568275 35.25656 39.056126 42.87782 46.613026 50.137596
        53.31858 56.02349 58.13136 59.544167 60.604454 1.6177236
        1.3377237 1.0677234 1.224896 1.6003321 2.0607338 2.6140544
        3.2766736 4.079184 5.0791645 6.3630466 7.9824147 9.868244
        11.896296 14.024919 16.30254 18.794422 21.541246 24.5557
        27.828594 31.331978 35.018826 38.821682 42.65213 46.402107
        49.947773 53.156147 55.894333 58.040527 59.4955 60.600227
        1.3295064 1.197407 1.0214605 1.2333841 1.5844334 2.0267336
        2.5663009 3.2189164 4.014662 5.009208 6.2845726 7.886943
        9.747123 11.747948 13.853582 16.112806 18.58922 21.322517
        24.325367 27.589119 31.0866 34.771637 38.57764 42.416958
        46.182125 49.749638 52.9865 55.759384 57.945625 59.444717
        60.596004 1.1239626 1.0684373 1.0386331 1.2568976 1.5802705
        2.002318 2.5275376 3.1711464 3.9627059 4.9556985 6.2269197
        7.815951 9.65283 11.628079 13.712423 15.955172 18.418104
        21.139742 24.132586 27.388391 30.880627 34.563854 38.372215
        42.218723 45.99643 49.582134 52.84284 55.64487 57.86483
        59.401154 60.591785 1.0241456 1.0418596 1.1093861 1.2926441
        1.586844 1.9871391 2.4976442 3.133399 3.923561 4.9191427
        6.190785 7.7701335 9.585983 11.53733 13.602196 15.830531
        18.282124 20.994123 23.978706 27.227896 30.715668 34.397182
        38.207172 42.059196 45.846752 49.44688 52.726597 55.55196
        57.798992 59.365253 60.58757 1.1532738 1.1482025 1.1858966
        1.3368205 1.6016409 1.9790878 2.4744308 3.1032653 3.8946059
        4.8966866 6.172871 7.7453966 9.541562 11.469914 13.516511
        15.731976 18.17389 20.877844 23.855549 27.09918 30.58312
        34.263004 38.074066 41.930313 45.7256 49.33719 52.632114
        55.47621 57.74504 59.335457 60.583363 1.2763364 1.2524449
        1.26417 1.3857328 1.6218361 1.9757044 2.4553533 3.0779667
        3.8728378 4.8850837 6.1694407 7.7370944 9.5138855 11.419301
        13.448158 15.651688 18.085024 20.782011 23.753778 26.992575
        30.473103 34.15141 37.963146 41.822712 45.62427 49.245274
        52.552773 55.412426 57.699394 59.309933 60.579163 1.3949234
        1.3539633 1.3419334 1.4366286 1.6451886 1.9751921 2.4387128
        3.0557835 3.8565814 4.882743 6.178754 7.7429028 9.499927
        11.381957 13.393238 15.585441 18.010983 20.701786 23.6683
        26.902777 30.380184 34.056927 37.86902 41.7312 45.53791
        49.16677 52.48485 55.35766 57.660007 59.28763 60.574966
        1.5056385 1.4513401 1.41739 1.486582 1.668334 1.9740044
        2.4206095 3.0323813 3.8411314 4.8845773 6.1949754 7.755661
        9.491108 11.348172 13.3411 15.521721 17.93944 20.624102
        23.585411 26.815596 30.28989 33.96504 37.777424 41.64212
        45.453835 49.09034 52.418736 55.304356 57.62167 59.26589
        60.570774 1.6263974 1.5492184 1.4924078 1.5368776 1.693147
        1.9753822 2.405829 3.0142272 3.8349853 4.9014688 6.231322
        7.7904716 9.504269 11.336602 13.312177 15.482616 17.894
        20.57391 23.53119 26.757948 30.229578 33.90308 37.715107
        41.58099 45.395653 49.037006 52.372173 55.2664 57.593914
        59.24955 60.56659 1.6944419 1.6322973 1.5619367 1.5805031
        1.70761 1.961459 2.3703482 2.9710796 3.8016093 4.890097
        6.236518 7.7870517 9.470443 11.270557 13.222726 15.377766
        17.778126 20.44912 23.398872 26.619593 30.087112 33.758957
        37.572308 41.442978 45.26626 48.920246 52.272026 55.18653
        57.5374 59.218613 60.56241 1.9526979 1.7537458 1.6450502
        1.6414378 1.7496547 1.989956 2.3961852 3.012204 3.8800051
        5.0219812 6.4164753 7.9850287 9.660819 11.450728 13.401312
        15.5621805 17.97161 20.65192 23.6096 26.83589 30.305864
        33.97636 37.783947 41.643917 45.451225 49.083897 52.409225
        55.292698 57.60884 59.252808 60.558235 2.893453 1.9636576
        1.8175855 1.8406951 2.0072048 2.3341358 2.8607714 3.6392105
        4.71746 6.110849 7.7636037 9.552487 11.408822 13.3688
        15.494666 17.835245 20.422213 23.270018 26.37654 29.723429
        33.27519 36.977436 40.755527 44.514492 48.14105 51.508247
        54.48283 56.935005 58.749725 59.83804 60.554047 4.3688283
        2.20748 2.0976985 2.229203 2.5744994 3.1447575 3.9861174
        5.1643906 6.737294 8.70596 10.951067 13.268236 15.5844755
        17.982372 20.548588 23.331583 26.352522 29.610796 33.08562
        36.73659 40.50319 44.30397 48.036617 51.57986 54.797966
        57.548077 59.69021 61.09911 61.676598 61.362537 60.549763
        3.6160698 2.3783255 2.2340322 2.3392174 2.6865447 3.2941382
        4.2088566 5.5008974 7.235076 9.40397 11.838493 14.280641
        16.676754 19.150793 21.801752 24.673895 27.781485 31.117874
        34.656933 38.353024 42.140343 45.932266 49.62179 53.08396
        56.180935 58.769855 60.713284 61.891266 62.213543 61.630127
        60.545395 2.5770817 2.4039083 2.2008958 2.1956809 2.4156644
        2.8833911 3.6446955 4.7674704 6.317781 8.287189 10.488315
        12.652738 14.758275 16.953608 19.33793 21.949808 24.80169
        27.890688 31.199049 34.6929 38.320744 42.01212 45.67729
        49.208595 52.484097 55.37384 57.748566 59.49026 60.503426
        60.725365 60.541054 2.1209884 2.3968506 2.2313442 2.1632135
        2.2995236 2.6758013 3.3456225 4.3843913 5.8659744 7.77967
        9.90177 11.931713 13.880411 15.930315 18.18423 20.675192
        23.412275 26.393154 29.60361 33.015167 36.582848 40.243336
        43.91418 47.494553 50.86818 53.90882 56.488205 58.485996
        59.800713 60.36014 60.5367 1.8810323 2.350605 2.2582147
        2.145855 2.2044823 2.4878354 3.057671 4.0014644 5.406529
        7.2625017 9.304648 11.196934 12.988276 14.894735 17.020718
        19.393354 22.018631 24.89499 28.011824 31.346004 34.85892
        38.494167 42.17621 45.81059 49.286144 52.47972 55.263386
        57.513874 59.12324 60.00946 60.53234 1.7885182 2.3248572
        2.2990177 2.122268 2.1011949 2.3130655 2.8156013 3.6938112
        5.040922 6.849333 8.819607 10.58498 12.234242 14.014256
        16.02905 18.299467 20.828259 23.614279 26.64991 29.916601
        33.38123 36.993366 40.68352 44.362823 47.92463 51.248577
        54.207172 56.67472 58.537792 59.705917 60.527977
      </DataArray>
      <DataArray type="Float32" Name="jacobian" format="ascii" RangeMin="-1.4641578673035838e-05" RangeMax="0.00907258503139019">
        1.21665835e-05 9.461201e-06 2.1685219e-05 5.836332e-05 0.0001286938 0.00024027527
        0.00039125688 0.0005654022 0.00074112805 0.0009088025 0.0010768963 0.0012655957
        0.0014893909 0.001750868 0.0020511032 0.0023924862 0.0027772477 0.003206501
        0.0036797002 0.0041941414 0.004744465 0.005322212 0.00591553 0.0065091406
        0.007084657 0.0076213405 0.008097315 0.008491172 0.008783827 0.008960365
        0.009072585 1.285026e-05 1.2832247e-05 3.394505e-05 7.992298e-05 0.00015249716
        0.00025188466 0.00037552815 0.0005164394 0.0006650232 0.0008165892 0.0009770488
        0.0011603569 0.0013761339 0.0016258146 0.0019110485 0.0022352706 0.0026017642
        0.0030125987 0.003468165 0.003966782 0.004504241 0.005073349 0.0056635635
        0.0062608547 0.0068478924 0.0074046566 0.00790951 0.008340698 0.008678146
        0.008905344 0.00907198 1.25798615e-05 1.6441474e-05 4.6726538e-05 0.00010013454
        0.0001718333 0.0002583286 0.000358483 0.0004718105 0.000596501 0.00073184964
        0.00088252465 0.0010577413 0.0012631809 0.0014993385 0.0017682331 0.0020740563
        0.0024209362 0.0028117842 0.003247889 0.0037286042 0.004250934 0.0048090573
        0.0053939084 0.005992931 0.0065901303 0.007166523 0.0077010435 0.008171901
        0.00855829 0.00884225 0.009071373 1.0985903e-05 2.2513726e-05 6.253369e-05
        0.00011922307 0.0001843287 0.00025605538 0.00033745266 0.00043199176 0.00054063933
        0.0006640344 0.0008062122 0.0009736918 0.0011695893 0.0013936418 0.0016480136
        0.0019373841 0.0022664843 0.0026388606 0.0030565152 0.0035196668 0.0040263813
        0.0045721005 0.0051491843 0.0057465932 0.006349825 0.006941222 0.0075007114
        0.008007002 0.008439158 0.008778392 0.009070766 6.5150634e-06 3.1592357e-05
        7.841404e-05 0.00012956982 0.00017976167 0.00023248742 0.0002940274 0.0003687034
        0.00045801743 0.00056319014 0.0006878543 0.0008366931 0.0010110588 0.0012101879
        0.0014362338 0.0016940541 0.0019887588 0.0023244987 0.002704176 0.0031292955
        0.0035996803 0.0041130544 0.004664605 0.0052466304 0.0058483863 0.006456236
        0.007054181 0.0076248287 0.008150767 0.008616272 0.009070157 -6.0221385e-07
        4.7395555e-05 9.977394e-05 0.00014989964 0.00019866225 0.00025263047 0.00031823115
        0.00039888997 0.0004957484 0.0006103335 0.0007466969 0.0009091879 0.0010981184
        0.0013118415 0.0015522068 0.0018242073 0.0021330642 0.0024827782 0.0028758342
        0.0033131111 0.0037936436 0.004314243 0.0048690974 0.005449481 0.006043676
        0.0066372096 0.00721349 0.0077548516 0.00824399 0.008665679 0.009069556
        -1.1467324e-05 7.022312e-05 0.00012680188 0.00018493422 0.0002511006 0.00033321485
        0.0004361961 0.0005611044 0.0007070735 0.00087510503 0.0010703127 0.0012973773
        0.0015544192 0.0018368957 0.0021457286 0.0024864795 0.002864591 0.0032831335
        0.003742542 0.004240736 0.0047730277 0.005331853 0.0059065083 0.006483074
        0.007044633 0.007571886 0.00804418 0.0084409285 0.008743271 0.008935791
        0.009068935 -1.4641579e-05 9.2842645e-05 0.00015409691 0.00021724874 0.00029316708
        0.00039025323 0.0005128119 0.0006614443 0.00083535805 0.0010362084 0.0012699463
        0.001540326 0.0018416445 0.0021654007 0.0025113414 0.0028858774 0.0032951925
        0.0037421435 0.0042261393 0.004743588 0.00528804 0.005850073 0.00641718
        0.006973853 0.0075019947 0.007981728 0.008392602 0.00871513 0.008932495
        0.009032195 0.009068298 1.4006731e-05 0.00012054858 0.0001809983 0.0002430335
        0.00031725227 0.0004103842 0.00052633975 0.00066737214 0.00083543005 0.0010344615
        0.0012715472 0.0015498282 0.0018607136 0.0021925159 0.0025438068 0.002921588
        0.003332945 0.003781252 0.004266078 0.0047838176 0.0053279498 0.005888976
        0.0064543253 0.00700845 0.007533248 0.008008874 0.008414957 0.008732131
        0.008943743 0.00903749 0.009067659 5.296276e-05 0.00015139149 0.00020715152
        0.0002655735 0.00033508922 0.00042097678 0.00052721717 0.0006574832 0.0008157868
        0.0010079206 0.0012421109 0.0015214483 0.0018354016 0.0021697157 0.0025217792
        0.0028989306 0.0033090042 0.0037559038 0.004239479 0.004756281 0.005299905
        0.0058609527 0.006426941 0.0069823884 0.007509226 0.007987601 0.008397081
        0.008718193 0.008934123 0.009032372 0.00906702 8.9512054e-05 0.00018017669
        0.00023117622 0.0002853818 0.00034996762 0.00042963054 0.000528566 0.00065121386
        0.0008027391 0.000990205 0.0012228733 0.0015039945 0.0018215118 0.0021589082
        0.0025124361 0.0028896946 0.0032991858 0.003745281 0.0042280597 0.0047441847
        0.0052873218 0.0058481344 0.0064141937 0.006970061 0.0074976943 0.007977244
        0.008388254 0.008711194 0.00892917 0.009029577 0.009066382 0.00012526808
        0.00020744032 0.00025266717 0.0003018362 0.00036119195 0.0004350634 0.0005276864
        0.0006438705 0.00078950357 0.000972599 0.0012033273 0.0014852367 0.0018051692
        0.0021447265 0.0024991122 0.0028760894 0.0032847293 0.003729821 0.0042116623
        0.004727033 0.0052696806 0.005830343 0.006396655 0.0069532306 0.0074820565
        0.007963285 0.008376425 0.0087018795 0.008922649 0.009025994 0.0090657445
        0.00015939106 0.00023233518 0.00027121126 0.00031513086 0.00036963492 0.00043860704
        0.0005260925 0.00063704036 0.000777823 0.00095718564 0.001186077 0.0014683887
        0.0017901531 0.0021314078 0.0024864122 0.002863031 0.0032708193 0.0037149314
        0.0041958606 0.004710494 0.0052526593 0.0058131632 0.006379705 0.006936948
        0.0074669104 0.007949747 0.008364937 0.008692817 0.008916288 0.009022487
        0.009065107 0.00019143583 0.00025439486 0.00028656053 0.0003253939 0.0003756421
        0.00044051305 0.0005237315 0.00063030556 0.0007669582 0.0009429982 0.0011700183
        0.0014522542 0.0017751661 0.002117532 0.0024727918 0.002848864 0.0032557023
        0.0036987767 0.004178756 0.0046926304 0.0052343085 0.0057946704 0.006361481
        0.006919458 0.0074506514 0.007935219 0.008352611 0.008683096 0.008909473
        0.009018749 0.009064471 0.00022103517 0.00027318214 0.00029865347 0.00033293862
        0.00037965685 0.00044113916 0.00052079017 0.00062367384 0.0007567771 0.00092983537
        0.001154957 0.0014366895 0.0017601064 0.0021030086 0.0024581535 0.0028334777
        0.0032392556 0.003681222 0.0041602016 0.004673286 0.005214465 0.0057746954
        0.006341813 0.0069005927 0.007433119 0.0079195555 0.008339321 0.008672616
        0.0089021325 0.0090147415 0.009063835 0.00024778311 0.0002883731 0.00030754303
        0.00033804562 0.0003819296 0.00044058848 0.00051720464 0.00061691756 0.0007469077
        0.00091722194 0.0011403604 0.001421133 0.0017443792 0.0020871914 0.0024417918
        0.0028161102 0.0032206657 0.0036614083 0.0041393023 0.0046515367 0.0051921904
        0.0057523036 0.006319789 0.0068794833 0.007413511 0.007902043 0.008324467
        0.008660909 0.008893946 0.009010301 0.0090632 0.00027125375 0.0002997435
        0.0003133494 0.00034093362 0.00038257605 0.0004388421 0.0005128297 0.00060976535
        0.0007369614 0.00090467447 0.0011256799 0.0014049909 0.001727342 0.002069378
        0.002422939 0.0027959307 0.0031990432 0.0036383942 0.004115071 0.004626365
        0.005166449 0.0057264585 0.0062943925 0.006855159 0.007390928 0.00788188
        0.00830737 0.008647443 0.008884549 0.009005245 0.009062566 0.0002909167
        0.00030713 0.00031618573 0.00034170394 0.0003815628 0.00043575375 0.000507419
        0.00060186547 0.00072647823 0.0008916344 0.0011102733 0.0013875474 0.0017082056
        0.0020486983 0.0024006434 0.0027719087 0.0031732845 0.0036110093 0.004086282
        0.0045965007 0.005135947 0.005695864 0.0062643527 0.0068264036 0.007364241
        0.00785806 0.008287178 0.008631551 0.008873482 0.008999337 0.009061932
        0.0003060584 0.00031039247 0.00031615602 0.0003403761 0.0003787781 0.000431131
        0.00050070864 0.0005928715 0.00071502227 0.0008775769 0.0010935345 0.0013681247
        0.0016862219 0.0020243311 0.0023740067 0.0027430702 0.0031423424 0.0035781402
        0.004051764 0.0045607276 0.005099439 0.0056592687 0.0062284367 0.006792033
        0.007332348 0.007829595 0.008263054 0.008612572 0.00886029 0.008992348
        0.009061299 0.00031573867 0.00030955792 0.00031357244 0.0003371084 0.00037428192
        0.00042500938 0.0004927178 0.00058277923 0.00070256455 0.0008624587 0.0010754277
        0.0013467196 0.0016614323 0.001996353 0.002343125 0.0027095177 0.0031063189
        0.0035398833 0.0040116054 0.0045191254 0.0050569945 0.0056167287 0.006186687
        0.006752076 0.0072952644 0.00779649 0.008234991 0.008590499 0.008844962
        0.008984268 0.009060667 0.00031941215 0.0003058342 0.0003097761 0.00033300507
        0.00036920208 0.00041864035 0.00048484743 0.0005731675 0.00069091114 0.0008483901
        0.0010584737 0.0013263713 0.0016374397 0.0019688923 0.0023125776 0.0026762194
        0.003070527 0.0035018558 0.003971676 0.0044777486 0.005014764 0.0055743856
        0.006145111 0.006712263 0.007258291 0.0077634603 0.008206969 0.008568439
        0.00882963 0.008976178 0.009060035 0.0003196245 0.0003036405 0.000308198
        0.00033134042 0.00036711627 0.0004160104 0.0004815688 0.0005691092 0.00068590505
        0.0008422156 0.0010508167 0.0013168075 0.0016256653 0.0019549595 0.0022967758
        0.0026588303 0.0030517457 0.00348184 0.003950607 0.0044558663 0.004992383
        0.0055518993 0.0061229877 0.0066910363 0.0072385357 0.0077457665 0.008191906
        0.008556514 0.008821252 0.008971618 0.009059404 0.00032099136 0.00030714192
        0.00031137333 0.0003347214 0.0003709701 0.00042042587 0.0004865997 0.0005748289
        0.0006924141 0.0008496318 0.0010592154 0.0013260624 0.0016354941 0.001965208
        0.0023075042 0.0026701498 0.0030636997 0.0034943921 0.0039636595 0.004469274
        0.0050059576 0.005565408 0.0061361575 0.006703558 0.0072500743 0.0077559752
        0.008200445 0.008563072 0.00882557 0.00897351 0.009058773 0.00031981824
        0.00031306627 0.00031741662 0.00034123487 0.0003786112 0.00042947993 0.0004972388
        0.0005872522 0.0007068768 0.00086643524 0.0010786258 0.0013480595 0.0016597403
        0.0019914142 0.0023356308 0.0027002462 0.0030957367 0.003528215 0.003998991
        0.0045057177 0.0050429944 0.0056023975 0.0061723413 0.006738078 0.0072820024
        0.0077843545 0.008224347 0.008581653 0.008838142 0.008979594 0.00905814
        0.00031266286 0.00031634705 0.00032260615 0.00034732433 0.00038616348 0.00043887267
        0.00050867716 0.00060092396 0.00072299485 0.00088521896 0.0011001978 0.0013721983
        0.0016859468 0.0020193905 0.002365446 0.0027320574 0.0031295684 0.003563924
        0.0040362896 0.004544186 0.005082083 0.0056414274 0.0062105097 0.0067744786
        0.0073156557 0.007814254 0.008249515 0.008601211 0.008851374 0.008986007
        0.009057509 0.00029974675 0.0003152201 0.00032515067 0.00035150477 0.0003921252
        0.0004469665 0.0005190999 0.00061380106 0.0007384166 0.0009032097 0.0011205968
        0.0013944645 0.0017093915 0.0020437692 0.0023910229 0.0027591626 0.0031583293
        0.003594259 0.0040679644 0.004576844 0.0051152566 0.005674537 0.0062428727
        0.0068053226 0.0073441486 0.007839542 0.008270772 0.008617697 0.008862486
        0.008991339 0.009056878 0.00028204347 0.0003094918 0.00032449228 0.00035343747
        0.0003963051 0.00045362161 0.0005283947 0.0006257884 0.0007530427 0.0009202714
        0.0011396165 0.001414565 0.0017297069 0.0020641342 0.0024119138 0.0027810896
        0.0031815271 0.0036187114 0.0040934957 0.00460317 0.0051419963 0.0057012206
        0.006268946 0.0068301605 0.007367077 0.007859869 0.008287831 0.00863089
        0.008871334 0.008995517 0.009056248 0.0002603439 0.00029928217 0.00032037336
        0.00035297082 0.00039875164 0.00045902323 0.00053685496 0.00063727546 0.0007673415
        0.00093692914 0.0011578249 0.0014331181 0.0017475856 0.0020812696 0.002428995
        0.0027987994 0.0032001985 0.003638386 0.004114048 0.004624372 0.0051635406
        0.0057227253 0.0062899594 0.006850173 0.00738554 0.007876221 0.00830153
        0.0086414525 0.008878372 0.008998776 0.009055619 0.000235261 0.00028480552
        0.00031258722 0.0003498793 0.00039944865 0.00046335824 0.0005448353 0.00064875797
        0.00078191754 0.00095386297 0.0011759594 0.0014509296 0.0017639297 0.0020961931
        0.002443396 0.002813522 0.0032156627 0.0036546816 0.0041310857 0.0046419655
        0.0051814322 0.0057405937 0.0063074254 0.0068668076 0.0074008796 0.007889793
        0.008312879 0.008650174 0.008884144 0.00900139 0.0090549905 0.00020713275
        0.00026635136 0.00030093375 0.00034373743 0.0003980969 0.00046655737 0.0005524775
        0.00066054054 0.0007971753 0.0009715149 0.0011944606 0.0014684408 0.0017792142
        0.0021094403 0.0024557193 0.0028259186 0.0032286337 0.0036683579 0.0041454085
        0.00465678 0.00519652 0.0057556797 0.006322183 0.0068808678 0.0074138446
        0.007901256 0.0083224485 0.008657504 0.008888961 0.009003517 0.009054363
        0.00017650203 0.00024436956 0.0002854346 0.00033422344 0.00039445245 0.00046872432
        0.00056027423 0.00067343685 0.00081415055 0.0009910603 0.0012146056 0.0014870467
        0.0017949895 0.002122736 0.0024678544 0.0028380246 0.0032412738 0.0036816858
        0.0041593737 0.004671232 0.0052112425 0.0057704016 0.006336583 0.0068945824
        0.007426482 0.007912418 0.008331754 0.008664617 0.00889362 0.0090055615
        0.009053735 0.00014309828 0.00021945035 0.00026611122 0.00032052374 0.00038716683
        0.00046839434 0.0005668319 0.00068607397 0.00083132635 0.0010106622 0.0012341081
        0.0015039735 0.0018080499 0.0021325294 0.0024759648 0.0028457534 0.0032492743
        0.0036901694 0.0041683423 0.004680596 0.0052208593 0.0057800873 0.0063461144
        0.0069037043 0.0074349167 0.007919878 0.008337965 0.0086693335 0.008896652
        0.009006787 0.009053109 0.000108013046 0.00019174378 0.00024364349 0.0003034203
        0.00037741623 0.0004679638 0.0005763334 0.00070441986 0.00085617986 0.0010391234
        0.0012631171 0.0015308235 0.0018314655 0.0021532453 0.0024956746 0.002865785
        0.0032702424 0.0037121975 0.0041913013 0.004704223 0.0052447994 0.0058039017
        0.0063692927 0.0069256774 0.007455082 0.007937632 0.00835274 0.008680644
        0.008904134 0.009010234 0.009052482 7.2737734e-05 0.00016442845 0.0002183098
        0.00028004326 0.0003580217 0.00045516016 0.0005712554 0.0007057748 0.00086080894
        0.0010430625 0.0012622842 0.0015220026 0.0018136959 0.0021280516 0.0024654772
        0.0028324297 0.0032347678 0.0036751903 0.0041532195 0.0046655536 0.005206113
        0.005765861 0.0063326405 0.006891215 0.007423634 0.007910003 0.008329664
        0.008662735 0.008891834 0.009003776 0.0090518575 4.3313597e-05 0.00013390848
        0.00018592445 0.00023968809 0.00030504225 0.00038665909 0.0004853055 0.00060051493
        0.0007335296 0.00088942563 0.0010763627 0.0012986625 0.0015516974 0.0018298967
        0.00213462 0.0024715632 0.0028459989 0.0032608737 0.003716647 0.0042113764
        0.0047405735 0.005296897 0.005869863 0.0064457357 0.0070077176 0.0075365333
        0.00801144 0.008411631 0.008717917 0.008914468 0.009051231 2.567753e-05
        9.8093915e-05 0.00014935972 0.00019147138 0.00023514114 0.0002879255 0.00035346774
        0.00043328037 0.0005288209 0.00064336153 0.00078246515 0.0009500824 0.001144701
        0.0013640814 0.0016104374 0.0018889529 0.0022047784 0.0025617422 0.0029621203
        0.0034065424 0.0038937253 0.004420071 0.0049792463 0.005561876 0.0061554485
        0.0067445473 0.007311467 0.007837245 0.008303047 0.008691779 0.009050592
        2.8861497e-05 7.391426e-05 0.00012643116 0.0001730291 0.00021812652 0.0002694668
        0.00033212602 0.00040815616 0.0004986221 0.0006061063 0.00073595555 0.00089269504
        0.001075659 0.0012834345 0.0015185503 0.0017860538 0.0020909612 0.002437187
        0.0028273151 0.0032624514 0.003741916 0.0042628124 0.0048195776 0.0054036276
        0.006003208 0.0066035464 0.007187393 0.007735973 0.008230321 0.008652862
        0.009049944 3.621491e-05 6.1283725e-05 0.00011308809 0.00017257495 0.00023497995
        0.00030383538 0.00038374958 0.000476619 0.0005827302 0.0007044488 0.0008485994
        0.0010218301 0.0012240156 0.0014536504 0.0017132965 0.0020078456 0.0023419105
        0.0027187942 0.003140228 0.003606154 0.0041143536 0.004659982 0.0052351165
        0.005828451 0.006425244 0.0070076357 0.007555397 0.0080471225 0.008461797
        0.008780557 0.009049295 3.9421193e-05 5.2157073e-05 9.521404e-05 0.0001576862
        0.0002323976 0.000317897 0.00041519242 0.00052369625 0.00064168114 0.00077106233
        0.00092081784 0.001100614 0.0013112894 0.0015513597 0.0018233085 0.0021316533
        0.0024804736 0.0028725078 0.0033088713 0.00378878 0.004309141 0.0048640813
        0.0054445267 0.0060379556 0.0066284435 0.007197092 0.007722916 0.008184173
        0.008560038 0.008832436 0.009048644 4.175021e-05 4.669442e-05 7.9156336e-05
        0.00013841235 0.00022137866 0.00032557105 0.00044729727 0.00057928887 0.0007140935
        0.0008524761 0.001007441 0.0011935722 0.0014130579 0.0016642738 0.001949461
        0.0022725756 0.002636993 0.0030447466 0.0034962243 0.0039898213 0.004521496
        0.005084304 0.0056680236 0.006258985 0.006840221 0.0073920237 0.00789296
        0.008321324 0.008656893 0.008882781 0.009047993 4.3062435e-05 4.2031766e-05
        6.320016e-05 0.000116080366 0.00020471223 0.00032923906 0.00048066373 0.00064090616
        0.0007940168 0.0009400028 0.0010975915 0.0012875528 0.0015138244 0.0017746297
        0.0020717778 0.0024084453 0.002787155 0.0032091683 0.0036741344 0.0041796584
        0.004720814 0.0052896864 0.0058750436 0.006462244 0.0070334855 0.007568478
        0.008045574 0.008443306 0.008742207 0.008926651 0.009047341
      </DataArray>
    </PointData>
    <CellData>
    </CellData>
    <Points>
      <DataArray type="Float32" Name="Points" NumberOfComponents="3" format="ascii" RangeMin="1.144914622546927" RangeMax="1.3206351621694348">
        0.84832823 0.026358366 0.768423 0.848894 0.026358353 0.76842266
        0.84955984 0.026358336 0.7684222 0.850343 0.026358314 0.76842153
        0.8512637 0.026358284 0.7684207 0.8523453 0.026358247 0.76841956
        0.8536149 0.026358197 0.7684181 0.8551039 0.02635813 0.76841617
        0.85684824 0.026358044 0.7684136 0.85888916 0.02635793 0.7684103
        0.8612736 0.026357785 0.76840615 0.8640544 0.026357602 0.7684008
        0.86729103 0.026357371 0.76839405 0.8710493 0.026357092 0.76838595
        0.8754015 0.026356772 0.7683765 0.8804254 0.02635642 0.7683663
        0.8862037 0.026356049 0.7683555 0.8928219 0.026355667 0.7683444
        0.9003657 0.026355285 0.7683332 0.9089177 0.026354913 0.7683224
        0.9185528 0.026354568 0.76831234 0.9293326 0.02635426 0.7683034
        0.94129944 0.026354 0.76829576 0.95446944 0.026353788 0.76828957
        0.9688262 0.026353609 0.7682844 0.9843149 0.02635343 0.7682792
        1.0008389 0.0263532 0.76827246 1.0182581 0.026352843 0.7682621
        1.0363915 0.026352268 0.7682453 1.0550225 0.026351372 0.7682192
        1.0739093 0.026350055 0.7681807 0.8485138 0.026369251 0.76842254
        0.84907764 0.026367772 0.7684222 0.8497962 0.02637901 0.7684213
        0.85064757 0.026401285 0.7684198 0.8516209 0.026431752 0.7684178
        0.8527199 0.026466716 0.76841545 0.8539653 0.026500767 0.76841277
        0.8553983 0.026527949 0.7684099 0.85707307 0.026544908 0.76840687
        0.8590454 0.026552752 0.7684034 0.86137086 0.026555471 0.7683992
        0.8641085 0.02655719 0.7683938 0.86731964 0.02655958 0.7683871
        0.87106586 0.026562259 0.76837885 0.8754135 0.026564864 0.7683694
        0.8804361 0.026567325 0.768359 0.8862142 0.026569648 0.76834816
        0.89283234 0.026571833 0.76833695 0.900376 0.026573874 0.7683257
        0.9089278 0.026575783 0.7683148 0.91856253 0.026577557 0.76830465
        0.9293418 0.026579203 0.76829565 0.941308 0.026580729 0.768288
        0.95447725 0.02658212 0.76828176 0.9688331 0.026583372 0.76827645
        0.9843209 0.026584446 0.76827127 1.0008438 0.026585294 0.7682645
        1.0182618 0.026585847 0.76825404 1.036394 0.02658602 0.76823723
        1.0550238 0.026585717 0.76821107 1.0739093 0.026584843 0.7681727
        0.8486797 0.026378706 0.7684221 0.84926957 0.026380913 0.76842165
        0.8500593 0.026411578 0.76842 0.85097253 0.026462765 0.76841736
        0.8519735 0.026525617 0.7684142 0.85306126 0.026590914 0.7684108
        0.85426646 0.0266492 0.7684072 0.85564494 0.026693072 0.7684038
        0.85726184 0.02671995 0.76840055 0.85917884 0.026732815 0.7683969
        0.86145586 0.026737962 0.7683927 0.8641569 0.02674179 0.7683873
        0.8673457 0.026746912 0.7683805 0.8710811 0.026752664 0.7683722
        0.8754246 0.026758386 0.76836264 0.88044614 0.02676394 0.76835215
        0.886224 0.026769321 0.76834124 0.8928421 0.026774526 0.76832986
        0.90038574 0.02677954 0.76831853 0.9089373 0.026784359 0.7683075
        0.9185717 0.026788976 0.7682973 0.92935055 0.026793392 0.7682882
        0.9413162 0.026797598 0.76828045 0.9544847 0.026801586 0.76827407
        0.96883976 0.026805336 0.7682687 0.9843266 0.026808811 0.76826346
        1.0008485 0.026811961 0.7682566 1.0182655 0.026814705 0.7682461
        1.0363964 0.026816959 0.76822925 1.0550251 0.026818635 0.768203
        1.0739093 0.026819631 0.7681645 0.8488268 0.026386859 0.76842177
        0.84947956 0.026400821 0.7684208 0.85035056 0.026459694 0.768418
        0.85130674 0.026543576 0.76841426 0.85230595 0.026635796 0.7684101
        0.853361 0.026723145 0.7684058 0.85452026 0.02679595 0.7684018
        0.8558505 0.026848827 0.76839817 0.85742027 0.026881227 0.76839465
        0.8592927 0.026897455 0.768391 0.8615299 0.026904875 0.7683867
        0.8641999 0.026910983 0.7683813 0.8673692 0.026918901 0.76837444
        0.8710951 0.026927752 0.7683661 0.87543494 0.026936688 0.7683564
        0.8804554 0.026945513 0.76834583 0.8862331 0.026954215 0.76833475
        0.8928512 0.02696278 0.7683233 0.90039474 0.026971199 0.7683118
        0.9089462 0.02697946 0.7683007 0.9185803 0.026987555 0.76829034
        0.92935884 0.026995482 0.7682811 0.94132394 0.027003225 0.76827323
        0.95449185 0.02701078 0.7682668 0.96884614 0.027018122 0.7682613
        0.9843322 0.027025208 0.76825583 1.0008532 0.027031992 0.7682489
        1.0182691 0.02703839 0.76823825 1.0363989 0.027044324 0.76822126
        1.0550263 0.027049696 0.7681949 1.0739093 0.02705442 0.7681563
        0.8489625 0.026394187 0.7684214 0.84971845 0.026431467 0.76841956
        0.85066783 0.026526522 0.76841545 0.8516379 0.026642768 0.7684105
        0.8526101 0.026757974 0.7684055 0.85362244 0.026859233 0.7684007
        0.854738 0.026939955 0.7683965 0.8560274 0.026997669 0.7683927
        0.85755837 0.027033443 0.76838905 0.8593934 0.027052252 0.7683854
        0.8615965 0.027061883 0.76838106 0.8642393 0.027070353 0.76837564
        0.8673911 0.027081048 0.76836866 0.8711083 0.027092963 0.76836026
        0.8754447 0.027105113 0.7683504 0.8804642 0.027117256 0.76833975
        0.88624173 0.027129363 0.76832855 0.8928599 0.027141435 0.768317
        0.90040344 0.027153458 0.7683054 0.9089547 0.027165426 0.76829416
        0.9185886 0.02717733 0.76828367 0.9293667 0.027189175 0.7682743
        0.9413314 0.027200948 0.76826626 0.9544987 0.027212648 0.76825964
        0.96885234 0.027224256 0.76825404 0.98433757 0.027235739 0.76824844
        1.0008577 0.027247056 0.7682413 1.0182725 0.027258137 0.7682305
        1.0364013 0.027268909 0.7682133 1.0550275 0.027279291 0.7681868
        1.0739093 0.027289206 0.768148 0.84906495 0.02639962 0.7684212
        0.84999967 0.026477665 0.7684177 0.8509925 0.026610816 0.7684123
        0.8519329 0.026749564 0.76840645 0.85285425 0.026873989 0.76840115
        0.8538196 0.026977526 0.7683963 0.8548977 0.027058436 0.7683921
        0.85615605 0.027116401 0.76838833 0.8576589 0.027153062 0.7683847
        0.8594675 0.027173333 0.768381 0.8616461 0.027184837 0.76837665
        0.86426896 0.02719555 0.76837116 0.86740774 0.027208872 0.76836413
        0.87111837 0.027223717 0.7683556 0.8754523 0.02723901 0.7683457
        0.88047105 0.027254494 0.7683349 0.8862485 0.027270148 0.76832354
        0.89286673 0.02728599 0.76831186 0.9004103 0.027302021 0.7683001
        0.9089616 0.027318273 0.76828873 0.9185954 0.027334768 0.76827806
        0.92937326 0.02735154 0.7682685 0.94133765 0.027368633 0.7682603
        0.9545046 0.027386095 0.7682535 0.9688577 0.027403975 0.7682476
        0.98434234 0.027422328 0.76824176 1.0008616 0.027441205 0.7682344
        1.0182757 0.02746068 0.7682233 1.0364035 0.027480852 0.7682057
        1.0550287 0.027501872 0.7681788 1.0739093 0.027523989 0.7681396
        0.84923166 0.026408538 0.76842076 0.8503457 0.026548611 0.76841503
        0.8513422 0.02672301 0.76840806 0.85224915 0.026887745 0.7684013
        0.8531333 0.027028542 0.76839536 0.8540643 0.027142586 0.76839024
        0.8551098 0.027230278 0.76838577 0.85633504 0.027292695 0.76838183
        0.85780305 0.027332468 0.76837814 0.8595755 0.027355144 0.7683743
        0.86171955 0.0273687 0.76837 0.8643137 0.027381405 0.7683644
        0.8674335 0.027396927 0.7683574 0.87113434 0.027414173 0.76834875
        0.8754644 0.027431972 0.7683388 0.8804819 0.027450006 0.7683279
        0.886259 0.027468229 0.76831645 0.89287704 0.027486654 0.7683047
        0.90042037 0.027505288 0.76829284 0.90897137 0.02752415 0.7682814
        0.91860473 0.027543262 0.7682706 0.92938215 0.027562661 0.76826096
        0.9413459 0.027582387 0.7682527 0.9545121 0.02760249 0.76824576
        0.96886444 0.027623013 0.76823974 0.9843482 0.027644008 0.76823384
        1.0008665 0.027665531 0.7682264 1.0182794 0.027687648 0.7682151
        1.036406 0.02771045 0.7681975 1.05503 0.027734078 0.7681705
        1.0739093 0.027758766 0.7681312 0.8496115 0.026447276 0.7684191
        0.8507405 0.026653577 0.768411 0.8517041 0.026868787 0.7684026
        0.85258055 0.02706338 0.7683948 0.8534414 0.027228862 0.768388
        0.8543522 0.027363889 0.768382 0.8553742 0.027468221 0.76837695
        0.8565684 0.027542321 0.76837254 0.8579968 0.027589269 0.7683686
        0.85972416 0.027615707 0.7683648 0.86182266 0.027630642 0.76836044
        0.864378 0.027643202 0.76835495 0.8674716 0.027657948 0.768348
        0.87115866 0.027674284 0.7683394 0.87548274 0.027691124 0.76832944
        0.88049793 0.02770813 0.76831865 0.886274 0.027725257 0.7683072
        0.8928913 0.02774251 0.76829547 0.90043396 0.027759904 0.76828367
        0.9089841 0.027777454 0.7682722 0.91861665 0.02779519 0.76826155
        0.9293932 0.027813146 0.7682519 0.9413559 0.02783137 0.7682437
        0.95452106 0.0278499 0.7682368 0.96887225 0.0278688 0.7682309
        0.98435473 0.027888117 0.768225 1.0008718 0.0279079 0.76821756
        1.0182835 0.027928218 0.7682064 1.0364088 0.02794916 0.76818883
        1.0550313 0.027970862 0.7681619 1.0739093 0.027993543 0.7681227
        0.85007143 0.026536537 0.7684157 0.8511379 0.02679556 0.7684057
        0.85205764 0.027047269 0.76839596 0.8529015 0.02726921 0.7683872
        0.85373765 0.027456919 0.7683795 0.8546262 0.027609799 0.76837283
        0.85562396 0.027727356 0.7683673 0.8567887 0.027810289 0.7683626
        0.8581812 0.027862534 0.76835847 0.85986733 0.027891656 0.76835454
        0.8619237 0.027907262 0.76835024 0.86444235 0.027918968 0.7683449
        0.86751056 0.027932098 0.76833797 0.871184 0.02794662 0.7683295
        0.87550205 0.027961588 0.76831967 0.88051486 0.02797667 0.7683088
        0.8862897 0.02799182 0.7682975 0.8929062 0.028007053 0.7682859
        0.900448 0.028022379 0.7682741 0.90899736 0.028037816 0.76826274
        0.91862893 0.028053401 0.76825213 0.92940444 0.02806917 0.7682426
        0.94136614 0.028085163 0.76823443 0.9545302 0.028101437 0.76822764
        0.9688802 0.028118046 0.7682218 0.9843614 0.028135039 0.768216
        1.0008773 0.02815247 0.7682086 1.0182875 0.028170405 0.7681976
        1.0364114 0.028188925 0.7681801 1.0550327 0.028208163 0.7681532
        1.0739093 0.02822832 0.76811403 0.8505032 0.026664877 0.76841086
        0.8515201 0.02697358 0.7683991 0.85239434 0.027256262 0.7683882
        0.8532019 0.027499778 0.7683786 0.85400844 0.027703082 0.76837033
        0.8548708 0.027866662 0.76836324 0.8558431 0.027990993 0.7683574
        0.8569805 0.028078036 0.7683525 0.85834205 0.028132755 0.76834834
        0.8599936 0.028163223 0.7683444 0.86201423 0.028179087 0.7683401
        0.8645011 0.02819 0.7683348 0.867547 0.028201737 0.7683281
        0.87120813 0.028214695 0.76831967 0.87552077 0.028228048 0.76830983
        0.8805313 0.02824147 0.7682991 0.88630515 0.02825492 0.7682879
        0.8929208 0.0282684 0.7682763 0.90046185 0.02828192 0.7682646
        0.90901035 0.028295519 0.76825327 0.91864103 0.028309219 0.7682427
        0.9294156 0.028323058 0.7682333 0.94137627 0.02833709 0.7682252
        0.95453924 0.02835136 0.76821846 0.96888804 0.02836593 0.7682127
        0.9843681 0.028380848 0.76820695 1.0008825 0.028396167 0.7681997
        1.0182916 0.028411949 0.76818866 1.0364141 0.02842827 0.76817125
        1.055034 0.028445251 0.7681444 1.0739093 0.028463092 0.7681054
        0.8509313 0.026838643 0.7684044 0.8518876 0.027187647 0.7683912
        0.85271233 0.027494673 0.7683794 0.8534805 0.027753506 0.76836914
        0.85425496 0.027966045 0.76836044 0.85509014 0.02813446 0.7683532
        0.8560378 0.028260924 0.76834726 0.8571505 0.028348926 0.7683423
        0.8584851 0.02840428 0.76833814 0.86010695 0.02843516 0.7683342
        0.86209667 0.028450912 0.7683299 0.8645558 0.028460914 0.76832473
        0.86758155 0.028471213 0.76831806 0.87123156 0.028482566 0.7683097
        0.8755392 0.028494274 0.7683 0.88054764 0.028506016 0.7682893
        0.8863204 0.02851774 0.7682781 0.8929353 0.028529454 0.76826656
        0.90047556 0.028541178 0.768255 0.9090232 0.028552935 0.76824373
        0.9186531 0.028564757 0.7682333 0.92942667 0.028576687 0.7682239
        0.94138634 0.028588774 0.7682159 0.9545482 0.028601067 0.76820916
        0.96889585 0.028613623 0.7682035 0.98437464 0.028626494 0.76819783
        1.0008879 0.028639732 0.7681906 1.0182956 0.02865339 0.7681797
        1.0364169 0.028667545 0.76816237 1.0550354 0.028682306 0.76813567
        1.0739093 0.02869786 0.7680966 0.85134274 0.027055016 0.7683964
        0.8522351 0.027436152 0.76838195 0.85300756 0.027759884 0.76836944
        0.8537342 0.028026717 0.7683589 0.8544755 0.02824177 0.76835006
        0.85528386 0.028409533 0.7683428 0.85620856 0.028534217 0.7683369
        0.8572995 0.028620698 0.768332 0.85861105 0.028675271 0.7683279
        0.86020756 0.028705876 0.76832396 0.8621709 0.028721254 0.7683198
        0.86460596 0.028730324 0.7683146 0.8676141 0.02873922 0.768308
        0.8712541 0.02874902 0.76829976 0.8755572 0.028759144 0.76829004
        0.88056374 0.028769268 0.7682795 0.88633555 0.028779339 0.76826835
        0.89294964 0.028789364 0.7682569 0.90048915 0.028799366 0.76824534
        0.9090361 0.028809363 0.76823413 0.91866505 0.028819393 0.76822376
        0.9294377 0.0288295 0.7682144 0.94139636 0.02883973 0.7682065
        0.9545571 0.02885014 0.76819986 0.96890366 0.028860778 0.76819426
        0.98438126 0.028871695 0.76818866 1.0008932 0.028882943 0.76818156
        1.0182996 0.028894573 0.76817065 1.0364195 0.028906647 0.76815337
        1.0550367 0.028919281 0.7681268 1.0739093 0.028932625 0.76808786
        0.8517352 0.027314166 0.76838684 0.8525592 0.027717385 0.7683715
        0.85327727 0.028049152 0.76835865 0.8539615 0.028316308 0.768348
        0.85467017 0.028527588 0.7683393 0.8554534 0.028690081 0.7683322
        0.85635746 0.028809939 0.7683264 0.85742944 0.028893037 0.76832163
        0.8587214 0.028945783 0.7683175 0.8602965 0.028975599 0.7683137
        0.8622374 0.028990405 0.7683095 0.86465174 0.02899851 0.76830447
        0.86764455 0.029006034 0.7682979 0.8712758 0.029014325 0.7682897
        0.8755748 0.029022899 0.76828015 0.88057965 0.029031454 0.7682696
        0.8863505 0.029039923 0.7682585 0.8929639 0.029048316 0.7682471
        0.9005027 0.02905665 0.7682356 0.9090488 0.029064957 0.76822454
        0.9186769 0.029073266 0.76821417 0.92944866 0.02908162 0.7682049
        0.9414063 0.029090073 0.768197 0.954566 0.029098669 0.7681905
        0.9689114 0.029107468 0.76818496 0.9843878 0.029116513 0.7681794
        1.0008985 0.029125853 0.7681723 1.0183036 0.02913553 0.76816154
        1.0364221 0.029145608 0.76814437 1.0550381 0.029156176 0.76811785
        1.0739093 0.029167391 0.768079 0.85210305 0.02761451 0.76837575
        0.8528561 0.028028816 0.76835984 0.853519 0.028359191 0.76834697
        0.8541615 0.028619003 0.76833653 0.8548394 0.028820846 0.76832813
        0.8555998 0.028974276 0.7683213 0.8564859 0.029086944 0.76831573
        0.8575417 0.029165268 0.76831114 0.8588171 0.029215414 0.7683072
        0.8603743 0.02924405 0.7683034 0.86229634 0.029258152 0.7682993
        0.8646933 0.02926529 0.7682943 0.867673 0.029271483 0.7682877
        0.8712966 0.02927831 0.7682797 0.87559205 0.029285394 0.7682701
        0.88059527 0.029292434 0.76825964 0.8863653 0.029299365 0.7682486
        0.89297795 0.029306192 0.7682373 0.90051603 0.029312938 0.76822585
        0.9090614 0.02931963 0.7682148 0.91868865 0.029326295 0.7682045
        0.9294595 0.029332979 0.76819533 0.9414162 0.029339733 0.7681875
        0.9545749 0.029346608 0.7681811 0.9689191 0.029353654 0.7681756
        0.9843943 0.029360913 0.7681701 1.0009038 0.029368429 0.7681631
        1.0183077 0.02937624 0.76815236 1.0364249 0.029384399 0.7681353
        1.0550394 0.029392993 0.7681088 1.0739093 0.029402152 0.76807004
        0.8524418 0.02795432 0.76836306 0.85312253 0.02836745 0.76834714
        0.8537311 0.028686585 0.76833457 0.85433394 0.028931815 0.7683246
        0.8549839 0.029119363 0.7683166 0.85572445 0.029260712 0.76831025
        0.8565952 0.029364392 0.76830506 0.8576374 0.029436907 0.76830065
        0.8588991 0.029483875 0.7682968 0.8604415 0.029511055 0.768293
        0.8623481 0.029524364 0.76828897 0.86473054 0.029530546 0.768284
        0.86769927 0.02953546 0.7682776 0.8713165 0.029540882 0.76826954
        0.87560886 0.029546535 0.76826006 0.8806107 0.02955213 0.7682497
        0.8863799 0.029557593 0.7682387 0.8929919 0.029562933 0.7682274
        0.90052927 0.029568167 0.7682161 0.9090739 0.029573323 0.7682051
        0.91870034 0.029578429 0.76819485 0.9294703 0.029583532 0.76818573
        0.94142604 0.029588679 0.768178 0.95458364 0.029593918 0.7681716
        0.96892685 0.0295993 0.7681662 0.98440087 0.029604863 0.76816076
        1.0009091 0.029610649 0.7681538 1.0183116 0.029616687 0.7681432
        1.0364275 0.029623019 0.76812613 1.0550407 0.02962972 0.76809967
        1.0739093 0.029636908 0.768061 0.8527465 0.028331084 0.76834893
        0.8533556 0.028729746 0.7683334 0.8539122 0.029027816 0.7683215
        0.85447896 0.029251946 0.7683123 0.8551046 0.029421212 0.768305
        0.8558284 0.029548135 0.7682991 0.8566864 0.02964148 0.7682943
        0.8577175 0.029707424 0.7682901 0.85896814 0.029750815 0.76828635
        0.8604987 0.029776352 0.7682827 0.86239284 0.029788807 0.76827866
        0.8647637 0.029794073 0.7682738 0.8677235 0.02979777 0.76826745
        0.8713354 0.02980186 0.7682594 0.87562525 0.029806158 0.76825
        0.8806259 0.029810388 0.7682397 0.8863943 0.02981447 0.76822877
        0.89300567 0.029818406 0.7682175 0.9005424 0.02982222 0.76820624
        0.9090863 0.02982593 0.76819533 0.91871196 0.029829573 0.76818514
        0.929481 0.029833194 0.7681761 0.9414358 0.02983683 0.7681684
        0.9545924 0.029840536 0.768162 0.9689345 0.029844357 0.76815665
        0.9844073 0.029848328 0.7681513 1.0009143 0.029852482 0.7681444
        1.0183156 0.029856844 0.7681339 1.0364302 0.029861446 0.76811683
        1.055042 0.029866353 0.76809055 1.0739093 0.029871663 0.76805186
        0.8530125 0.028741634 0.7683334 0.85355276 0.02911175 0.76831883
        0.8540617 0.029379377 0.768308 0.85459703 0.029576827 0.7682997
        0.85520244 0.029724635 0.7682932 0.8559126 0.029835366 0.7682879
        0.8567605 0.029917408 0.7682834 0.8577829 0.029976252 0.76827955
        0.8590249 0.03001579 0.7682759 0.86054623 0.030039571 0.76827234
        0.86243075 0.030051172 0.7682684 0.86479264 0.030055568 0.7682635
        0.86774564 0.030058138 0.76825726 0.8713534 0.030060986 0.7682493
        0.87564117 0.030064028 0.7682399 0.8806408 0.03006699 0.7682296
        0.88640857 0.030069787 0.76821876 0.8930193 0.030072423 0.7682076
        0.9005554 0.03007492 0.76819634 0.90909857 0.030077297 0.7681855
        0.9187234 0.030079588 0.76817536 0.9294917 0.030081835 0.76816636
        0.9414455 0.03008408 0.7681587 0.9546011 0.030086366 0.7681524
        0.96894205 0.03008874 0.7681471 0.9844138 0.030091234 0.76814187
        1.0009196 0.030093873 0.768135 1.0183196 0.030096669 0.76812446
        1.0364329 0.030099656 0.76810753 1.0550433 0.030102877 0.7680813
        1.0739093 0.030106416 0.76804274 0.8532353 0.02918198 0.7683165
        0.85371226 0.029509094 0.76830345 0.85417956 0.02973777 0.76829404
        0.8546888 0.029903995 0.76828694 0.85527825 0.030027946 0.7682813
        0.855978 0.030121228 0.76827663 0.8568183 0.030191313 0.76827264
        0.8578342 0.03024272 0.768269 0.8590698 0.03027826 0.7682656
        0.8605845 0.030300241 0.7682621 0.8624621 0.030311018 0.7682581
        0.8648176 0.030314634 0.7682533 0.86776567 0.030316185 0.768247
        0.8713704 0.03031791 0.7682392 0.87565666 0.030319812 0.76822984
        0.8806554 0.030321622 0.7682196 0.8864226 0.030323263 0.7682088
        0.8930327 0.03032473 0.76819766 0.9005682 0.030326035 0.7681865
        0.90911067 0.03032721 0.76817566 0.9187348 0.030328277 0.7681656
        0.9295022 0.030329287 0.7681566 0.9414551 0.030330269 0.768149
        0.95460975 0.030331274 0.7681428 0.9689496 0.030332336 0.7681376
        0.9844202 0.030333484 0.7681323 1.0009247 0.030334739 0.76812553
        1.0183235 0.03033611 0.7681151 1.0364355 0.03033761 0.7680982
        1.0550447 0.030339273 0.768072 1.0739093 0.030341165 0.7680335
        0.85341084 0.029647328 0.7682985 0.8538327 0.029917005 0.76828754
        0.8542659 0.030099459 0.76827985 0.8547553 0.030231016 0.768274
        0.85533303 0.030329429 0.76826936 0.8560256 0.030404456 0.7682654
        0.85686064 0.03046222 0.76826185 0.8578721 0.030506039 0.7682586
        0.85910356 0.03053753 0.7682553 0.8606139 0.030557744 0.7682518
        0.86248714 0.03056778 0.7682479 0.8648386 0.03057073 0.76824313
        0.8677836 0.030571407 0.76823694 0.87138647 0.03057216 0.76822907
        0.8756716 0.030573072 0.7682198 0.8806698 0.030573888 0.7682096
        0.8864364 0.030574521 0.76819885 0.893046 0.030574968 0.7681877
        0.9005809 0.030575246 0.76817656 0.90912265 0.03057537 0.7681658
        0.91874605 0.030575378 0.76815575 0.9295127 0.030575307 0.7681469
        0.94146466 0.03057519 0.7681393 0.95461833 0.030575074 0.76813316
        0.9689571 0.030574987 0.7681279 0.98442656 0.030574951 0.76812273
        1.00093 0.030574985 0.768116 1.0183275 0.030575084 0.76810557
        1.0364381 0.030575255 0.76808876 1.0550461 0.030575514 0.7680626
        1.0739093 0.030575912 0.76802415 0.85353565 0.03013208 0.76827943
        0.8539135 0.030330282 0.7682712 0.8543216 0.030460892 0.7682655
        0.85479754 0.030555448 0.76826113 0.8553681 0.03062733 0.7682575
        0.8560563 0.030683732 0.7682543 0.8568884 0.03072906 0.7682512
        0.8578975 0.030765304 0.76824814 0.85912675 0.03079282 0.76824504
        0.86063486 0.030811362 0.76824164 0.86250603 0.030820785 0.76823777
        0.8648559 0.03082323 0.76823294 0.8677996 0.030823214 0.7682268
        0.87140155 0.030823177 0.768219 0.8756861 0.030823285 0.76820976
        0.8806838 0.030823292 0.76819956 0.88644993 0.03082311 0.76818883
        0.8930591 0.030822728 0.7681778 0.90059334 0.030822163 0.7681667
        0.9091345 0.030821437 0.76815593 0.9187572 0.030820576 0.768146
        0.929523 0.030819615 0.7681371 0.94147414 0.030818593 0.7681296
        0.9546268 0.03081755 0.76812345 0.9689646 0.030816505 0.76811826
        0.98443294 0.030815478 0.76811314 1.0009351 0.030814478 0.76810646
        1.0183313 0.030813497 0.768096 1.0364407 0.030812528 0.7680793
        1.0550474 0.030811567 0.7680532 1.0739093 0.030810656 0.7680148
        0.853607 0.030629894 0.7682597 0.85395515 0.03074376 0.7682547
        0.8543486 0.030818898 0.76825124 0.85481775 0.03087521 0.7682483
        0.8553851 0.03092019 0.76824576 0.85607165 0.030957961 0.76824325
        0.85690284 0.030990982 0.7682407 0.8579113 0.031019801 0.7682379
        0.85914004 0.031043487 0.7682349 0.860648 0.03106052 0.7682316
        0.8625193 0.0310695 0.7682277 0.86486953 0.031071637 0.7682229
        0.86781365 0.031071136 0.7682168 0.87141573 0.031070523 0.768209
        0.8757002 0.031070039 0.7681998 0.88069755 0.031069452 0.76818967
        0.8864633 0.031068664 0.76817894 0.89307195 0.03106767 0.7681679
        0.9006057 0.031066483 0.7681568 0.90914625 0.031065118 0.76814616
        0.9187682 0.031063607 0.76813614 0.92953324 0.03106198 0.7681273
        0.9414835 0.031060273 0.7681198 0.95463526 0.031058514 0.76811373
        0.968972 0.031056734 0.7681086 0.98443925 0.031054936 0.7681035
        1.0009402 0.031053124 0.76809686 1.0183352 0.031051276 0.7680865
        1.0364434 0.031049376 0.76806974 1.0550487 0.031047413 0.7680437
        1.0739093 0.0310454 0.7680053 0.8536232 0.031133894 0.76823944
        0.8539611 0.031154374 0.7682382 0.85435086 0.031172428 0.76823694
        0.85481906 0.031190135 0.7682356 0.85538644 0.03120828 0.7682341
        0.8560735 0.031227626 0.76823235 0.8569053 0.031248553 0.76823026
        0.85791457 0.03127013 0.76822776 0.8591445 0.031290147 0.7682249
        0.86065406 0.03130581 0.7682216 0.8625275 0.031314492 0.76821774
        0.8648801 0.031316478 0.768213 0.8678261 0.03131568 0.76820683
        0.8714292 0.03131468 0.768199 0.8757139 0.03131379 0.7681899
        0.8807111 0.03131279 0.7681797 0.8864765 0.031311583 0.76816905
        0.89308465 0.031310163 0.7681581 0.9006179 0.031308535 0.768147
        0.9091578 0.031306725 0.7681363 0.91877913 0.031304754 0.76812637
        0.9295434 0.031302646 0.76811755 0.94149286 0.031300444 0.7681101
        0.95464367 0.031298164 0.76810396 0.96897936 0.031295836 0.7680989
        0.9844455 0.03129346 0.76809376 1.0009453 0.03129102 0.76808715
        1.0183392 0.031288497 0.76807684 1.036446 0.031285856 0.76806015
        1.05505 0.03128307 0.7680341 1.0739093 0.031280138 0.7679958
        0.85358375 0.031636868 0.76821893 0.85393506 0.031564284 0.76822144
        0.85433155 0.031525485 0.7682226 0.8548036 0.031504683 0.7682228
        0.85537374 0.03149605 0.76822233 0.856063 0.031497 0.7682214
        0.8568968 0.03150583 0.76821977 0.85790825 0.031520147 0.76821756
        0.8591408 0.031536464 0.7682148 0.8606536 0.031550717 0.7682116
        0.86253107 0.031559084 0.7682077 0.8648879 0.031560924 0.76820296
        0.86783725 0.03155983 0.7681968 0.8714422 0.031558458 0.768189
        0.87572753 0.031557176 0.76817983 0.88072467 0.031555783 0.76816976
        0.88648975 0.031554174 0.7681591 0.89309746 0.03155235 0.76814806
        0.9006301 0.031550303 0.7681371 0.90916944 0.03154806 0.7681264
        0.9187901 0.03154565 0.7681165 0.92955357 0.03154309 0.7681077
        0.94150215 0.031540412 0.76810026 0.954652 0.03153764 0.76809424
        0.96898675 0.031534787 0.7680891 0.9844518 0.03153185 0.76808405
        1.0009505 0.031528816 0.76807743 1.0183431 0.03152564 0.7680671
        1.0364486 0.03152228 0.7680505 1.0550513 0.0315187 0.7680245
        1.0739093 0.031514872 0.76798624 0.8534894 0.032131564 0.7681985
        0.8538737 0.031976055 0.7682045 0.85428774 0.031882588 0.7682079
        0.8547694 0.031823874 0.7682097 0.8553455 0.031788506 0.76821035
        0.856039 0.031770885 0.76821005 0.8568765 0.03176738 0.76820904
        0.8578916 0.031774174 0.7682071 0.85912836 0.03178654 0.76820457
        0.8606463 0.03179916 0.76820135 0.8625298 0.031806998 0.7681975
        0.8648929 0.0318085 0.76819277 0.86784714 0.03180693 0.76818657
        0.87145483 0.03180501 0.7681789 0.8757411 0.031803165 0.7681697
        0.8807383 0.031801198 0.7681596 0.8865031 0.031799022 0.768149
        0.89311033 0.03179661 0.76813805 0.90064245 0.03179398 0.768127
        0.9091812 0.03179115 0.7681164 0.91880107 0.031788133 0.76810646
        0.9295638 0.031784955 0.76809776 0.9415115 0.031781644 0.7680903
        0.9546605 0.031778216 0.7680843 0.9689942 0.03177468 0.7680792
        0.9844581 0.03177103 0.76807415 1.0009556 0.031767234 0.7680676
        1.0183469 0.031763252 0.76805735 1.0364512 0.031759016 0.7680407
        1.0550526 0.031754483 0.7680148 1.0739093 0.031749602 0.7679766
        0.853342 0.03261101 0.76817846 0.85377306 0.03238687 0.7681874
        0.85421497 0.032243017 0.7681929 0.8547128 0.032147948 0.7681962
        0.8552988 0.032086324 0.768198 0.85599935 0.032050166 0.76819855
        0.85684264 0.032034162 0.76819795 0.85786337 0.032033205 0.7681964
        0.8591063 0.03204136 0.768194 0.8606316 0.032052085 0.76819086
        0.86252344 0.032059133 0.76818705 0.8648949 0.032060046 0.7681823
        0.8678557 0.032057777 0.7681762 0.87146705 0.032055084 0.76816845
        0.8757547 0.032052454 0.76815933 0.88075215 0.032049697 0.76814926
        0.8865166 0.03204673 0.76813865 0.8931233 0.03204353 0.76812774
        0.9006549 0.032040104 0.7681168 0.909193 0.032036465 0.76810616
        0.91881216 0.032032635 0.7680963 0.92957413 0.03202863 0.7680876
        0.9415209 0.03202448 0.76808023 0.95466894 0.03202019 0.7680742
        0.96900165 0.03201577 0.7680692 0.98446447 0.0320112 0.7680642
        1.0009608 0.032006446 0.7680577 1.0183508 0.03200145 0.76804745
        1.0364538 0.03199615 0.7680309 1.055054 0.031990457 0.76800495
        1.0739093 0.031984337 0.7679668 0.8531446 0.033068758 0.76815915
        0.8536323 0.032791268 0.7681705 0.8541109 0.032603446 0.7681778
        0.85463136 0.03247476 0.76818264 0.85523176 0.03238808 0.76818544
        0.8559425 0.032333825 0.76818675 0.85679394 0.032305405 0.7681867
        0.8578225 0.0322966 0.76818544 0.8590738 0.032300368 0.7681832
        0.8606088 0.03230898 0.76818013 0.8625116 0.03231502 0.7681764
        0.8648938 0.032315124 0.7681716 0.8678629 0.032311946 0.76816547
        0.8714788 0.032308277 0.7681578 0.87576824 0.032304663 0.7681487
        0.880766 0.03230093 0.7681387 0.88653016 0.032296985 0.76812816
        0.89313644 0.0322928 0.7681173 0.9006674 0.03228838 0.76810634
        0.90920484 0.03228375 0.7680958 0.9188233 0.03227892 0.768086
        0.92958444 0.032273907 0.7680773 0.94153047 0.03226873 0.76807
        0.95467746 0.0322634 0.7680641 0.9690091 0.03225791 0.7680591
        0.9844708 0.032252245 0.7680541 1.000966 0.032246355 0.7680477
        1.0183548 0.032240175 0.7680375 1.0364566 0.032233622 0.7680209
        1.0550553 0.032226607 0.7679951 1.0739093 0.03221906 0.767957
        0.8529009 0.033499125 0.7681408 0.8534522 0.033183593 0.7681538
        0.8539744 0.03295996 0.7681628 0.8545236 0.032801677 0.76816887
        0.8551429 0.032691907 0.7681727 0.855867 0.03262048 0.76817477
        0.8567293 0.032580018 0.7681752 0.85776806 0.032563455 0.76817423
        0.8590303 0.032562766 0.7681722 0.86057764 0.032569107 0.7681692
        0.862494 0.032573942 0.7681654 0.86488944 0.03257306 0.7681607
        0.86786854 0.0325688 0.7681546 0.87149006 0.032564007 0.768147
        0.87578166 0.03255925 0.76813793 0.8807798 0.032554377 0.768128
        0.8865438 0.032549288 0.7681175 0.8931496 0.03254397 0.7681067
        0.90068 0.03253841 0.7680958 0.90921676 0.032532632 0.7680853
        0.9188345 0.032526653 0.7680755 0.9295948 0.03252048 0.76806694
        0.94153994 0.03251413 0.7680596 0.954686 0.03250761 0.76805377
        0.96901655 0.032500908 0.7680488 0.98447716 0.032494 0.76804394
        1.0009711 0.03248683 0.76803756 1.0183587 0.032479316 0.7680274
        1.0364592 0.03247137 0.7680109 1.0550566 0.03246289 0.76798517
        1.0739093 0.032453783 0.7679471 0.8526157 0.03389733 0.7681236
        0.8532346 0.03355861 0.7681378 0.8538054 0.033308584 0.76814795
        0.8543884 0.03312598 0.76815516 0.85503095 0.032995947 0.76815987
        0.85577184 0.0329088 0.76816255 0.8566478 0.032857005 0.7681635
        0.85769933 0.032832954 0.7681629 0.85897523 0.032827836 0.76816106
        0.86053777 0.032831814 0.76815814 0.8624707 0.03283531 0.7681543
        0.8648818 0.032833286 0.7681497 0.8678727 0.032827817 0.7681436
        0.87150073 0.032821756 0.76813596 0.87579495 0.032815732 0.76812696
        0.8807937 0.032809593 0.76811713 0.88655746 0.032803245 0.76810664
        0.89316285 0.032796662 0.7680959 0.90069264 0.03278984 0.76808506
        0.90922874 0.0327828 0.76807463 0.9188458 0.03277555 0.7680649
        0.92960525 0.032768093 0.7680564 0.9415495 0.032760456 0.7680492
        0.9546945 0.032752626 0.76804334 0.96902406 0.032744598 0.76803845
        0.9844835 0.032736324 0.7680337 1.0009762 0.032727756 0.76802725
        1.0183626 0.032718796 0.76801723 1.0364618 0.032709345 0.7680008
        1.0550579 0.032699287 0.76797515 1.0739093 0.032688502 0.7679372
        0.85229385 0.034259494 0.76810795 0.8529819 0.033911545 0.7681226
        0.8536044 0.03364532 0.7681336 0.8542251 0.03344486 0.7681415
        0.8548947 0.03329833 0.768147 0.8556558 0.033197537 0.7681503
        0.85654837 0.03313548 0.7681517 0.85761553 0.03310443 0.7681514
        0.85890794 0.03309503 0.7681497 0.8604889 0.033096604 0.7681469
        0.8624414 0.03309864 0.7681431 0.86487097 0.033095352 0.76813847
        0.86787546 0.03308856 0.7681324 0.8715109 0.033081137 0.7681248
        0.8758081 0.033073742 0.7681159 0.8808076 0.033066247 0.7681061
        0.88657117 0.03305854 0.7680957 0.8931761 0.033050593 0.76808494
        0.90070534 0.033042416 0.7680743 0.9092408 0.03303401 0.76806384
        0.91885704 0.03302539 0.76805425 0.92961574 0.033016562 0.7680457
        0.941559 0.033007536 0.7680386 0.9547031 0.0329983 0.7680328
        0.9690316 0.032988843 0.768028 0.98448986 0.032979116 0.76802325
        1.0009815 0.032969054 0.76801693 1.0183666 0.032958556 0.768007
        1.0364645 0.032947503 0.76799065 1.0550592 0.032935772 0.767965
        1.0739093 0.03292322 0.7679271 0.85194045 0.034582827 0.7680938
        0.8526973 0.034238223 0.7681084 0.85337234 0.033966165 0.7681197
        0.8540332 0.03375534 0.7681282 0.85473305 0.03359711 0.76813424
        0.85551745 0.033485487 0.768138 0.8564297 0.033414684 0.7681398
        0.85751563 0.03337738 0.7681397 0.85882795 0.03336396 0.7681382
        0.8604307 0.03336315 0.7681354 0.8624062 0.033363625 0.76813173
        0.8648569 0.033358965 0.7681271 0.8678768 0.033350762 0.76812106
        0.87152064 0.0333419 0.7681135 0.8758212 0.03333306 0.7681047
        0.8808214 0.03332412 0.7680949 0.88658494 0.033314966 0.7680846
        0.8931894 0.03330558 0.7680739 0.90071803 0.033295963 0.7680633
        0.9092528 0.033286113 0.768053 0.9188683 0.033276044 0.7680434
        0.92962617 0.03326576 0.76803493 0.9415686 0.033255257 0.7680279
        0.9547117 0.03324454 0.76802224 0.9690391 0.033233568 0.7680175
        0.98449624 0.033222303 0.76801276 1.0009866 0.03321066 0.76800656
        1.0183705 0.033198547 0.76799667 1.0364671 0.033185814 0.7679804
        1.0550605 0.033172324 0.7679548 1.0739093 0.033157934 0.76791704
        0.8515611 0.03486485 0.7680814 0.8523847 0.034534927 0.7680955
        0.8531113 0.034267034 0.76810664 0.85381275 0.03405401 0.7681153
        0.8545449 0.03388993 0.7681216 0.85535544 0.033771176 0.7681257
        0.85629046 0.033693746 0.7681278 0.85739857 0.03365124 0.768128
        0.8587344 0.03363423 0.76812655 0.8603629 0.033631105 0.76812387
        0.86236507 0.03362996 0.76812017 0.8648398 0.03362384 0.7681155
        0.8678769 0.033614155 0.7681096 0.87152994 0.033603787 0.7681021
        0.8758341 0.033593435 0.7680933 0.8808353 0.03358299 0.7680836
        0.8865987 0.033572335 0.7680733 0.89320266 0.033561446 0.7680628
        0.9007307 0.033550322 0.76805216 0.90926486 0.033538964 0.76804197
        0.9188797 0.033527374 0.76803243 0.92963666 0.033515558 0.7680241
        0.94157815 0.03350352 0.7680171 0.95472026 0.033491243 0.7680115
        0.9690466 0.033478696 0.7680068 0.9845026 0.03346583 0.76800215
        1.0009918 0.033452544 0.7679961 1.0183743 0.033438735 0.7679862
        1.0364697 0.03342426 0.7679701 1.0550618 0.03340895 0.7679446
        1.0739093 0.033392645 0.7679069 0.85115916 0.035105493 0.7680709
        0.85204756 0.034799106 0.76808393 0.85282373 0.034544364 0.76809454
        0.85356444 0.03433759 0.768103 0.85432917 0.03417452 0.76810926
        0.85516775 0.034053408 0.76811355 0.8561286 0.03397222 0.76811576
        0.85726255 0.033925995 0.76811606 0.85862625 0.033906005 0.7681148
        0.86028486 0.033900697 0.7681122 0.86231774 0.033897854 0.7681085
        0.86481965 0.033890173 0.76810384 0.8678757 0.033878926 0.76809794
        0.8715388 0.03386698 0.76809055 0.875847 0.033855043 0.7680818
        0.8808492 0.033843018 0.7680721 0.8866125 0.033830784 0.768062
        0.893216 0.03381832 0.7680515 0.90074354 0.03380561 0.768041
        0.90927696 0.03379266 0.7680308 0.918891 0.033779476 0.7680214
        0.9296472 0.033766057 0.7680131 0.9415878 0.0337524 0.7680062
        0.9547289 0.03373849 0.7680006 0.96905416 0.033724286 0.7679961
        0.98450905 0.03370973 0.76799154 1.000997 0.033694725 0.76798546
        1.0183783 0.033679146 0.7679757 1.0364723 0.033662844 0.7679596
        1.0550631 0.03364564 0.7679342 1.0739093 0.033627354 0.7678966
        0.85074687 0.03530032 0.76806235 0.85169196 0.03502794 0.76807386
        0.85251415 0.034794092 0.76808363 0.85329103 0.034601334 0.76809144
        0.85408676 0.034446508 0.76809746 0.85495394 0.03432874 0.7681016
        0.855943 0.03424757 0.7681038 0.85710675 0.034199703 0.7681042
        0.85850304 0.03417765 0.76810294 0.86019665 0.034170434 0.7681004
        0.8622646 0.034165923 0.76809675 0.8647967 0.03415666 0.76809216
        0.8678735 0.03414386 0.76808625 0.8715474 0.03413035 0.76807886
        0.8758598 0.03411684 0.76807016 0.8808631 0.034103237 0.7680606
        0.8866263 0.03408943 0.76805055 0.8932294 0.034075387 0.7680401
        0.90075636 0.03406109 0.7680297 0.9092891 0.03404655 0.7680196
        0.9189024 0.03403176 0.76801026 0.92965776 0.034016725 0.76800203
        0.9415974 0.03400144 0.76799524 0.9547375 0.03398588 0.7679897
        0.9690617 0.033970002 0.7679853 0.9845154 0.03395374 0.76798075
        1.0010022 0.033936992 0.7679748 1.0183822 0.03391963 0.76796514
        1.036475 0.033901475 0.7679491 1.0550644 0.033882353 0.7679238
        1.0739093 0.033862058 0.7678863 0.85030174 0.035459537 0.7680554
        0.85131663 0.035222072 0.7680654 0.8521837 0.035015043 0.768074
        0.8529923 0.034843862 0.76808083 0.85381424 0.034705706 0.76808614
        0.854708 0.034598954 0.7680898 0.85572684 0.03452331 0.7680918
        0.8569251 0.03447688 0.7680921 0.85836023 0.03445399 0.76809084
        0.86009544 0.0344451 0.7680883 0.8622041 0.03443873 0.76808465
        0.8647704 0.03442762 0.76808006 0.86787003 0.03441299 0.7680742
        0.8715556 0.034397643 0.7680669 0.87587255 0.0343823 0.7680583
        0.8808771 0.03436686 0.7680488 0.8866403 0.03435123 0.76803887
        0.89324296 0.03433535 0.76802856 0.90076923 0.03431922 0.7680182
        0.90930134 0.03430284 0.7680082 0.91891384 0.03428621 0.76799893
        0.92966837 0.034269318 0.7679908 0.94160706 0.034252167 0.76798403
        0.9547462 0.03423473 0.76797867 0.9690693 0.03421695 0.76797426
        0.98452187 0.03419877 0.7679699 1.0010073 0.034180064 0.767964
        1.0183861 0.034160692 0.7679544 1.0364776 0.03414049 0.76793855
        1.0550658 0.034119252 0.7679133 1.0739093 0.034096763 0.7678759
        0.8499273 0.035556264 0.76805127 0.8509424 0.035376973 0.7680586
        0.85184544 0.035201475 0.7680658 0.8526835 0.035054687 0.7680716
        0.8535291 0.034936894 0.768076 0.8544473 0.034845546 0.768079
        0.8554962 0.03477939 0.7680806 0.85673153 0.034737162 0.76808065
        0.85820943 0.03471507 0.76807934 0.8599899 0.03470543 0.7680767
        0.86214185 0.03469789 0.76807314 0.8647437 0.034685675 0.7680685
        0.86786646 0.03467005 0.7680627 0.87156373 0.034653723 0.7680554
        0.8758852 0.034637373 0.7680468 0.8808909 0.034620915 0.76803744
        0.886654 0.034604233 0.7680275 0.89325625 0.034587283 0.7680172
        0.900782 0.03457006 0.76800686 0.9093134 0.03455256 0.76799697
        0.91892517 0.034534782 0.7679878 0.92967886 0.03451672 0.7679797
        0.94161665 0.03449836 0.767973 0.95475477 0.034479678 0.7679677
        0.9690768 0.03446062 0.76796335 0.98452824 0.034441102 0.76795906
        1.0010126 0.03442102 0.7679533 1.01839 0.03440021 0.76794374
        1.0364802 0.03437849 0.7679279 1.0550671 0.03435565 0.7679028
        1.0739093 0.034331463 0.7678655 0.8497544 0.03559194 0.7680498
        0.8506208 0.0354882 0.76805377 0.85153234 0.03534581 0.7680595
        0.8524063 0.035216186 0.76806456 0.8532872 0.03510865 0.76806843
        0.85423744 0.035023563 0.7680712 0.85531753 0.03496095 0.76807255
        0.85658514 0.03492062 0.76807255 0.85809696 0.03489971 0.7680711
        0.8599121 0.034891125 0.76806843 0.862097 0.03488487 0.76806474
        0.86472553 0.03487439 0.76806 0.86786556 0.03486086 0.768054
        0.87157154 0.034846764 0.7680466 0.8758963 0.034832686 0.768038
        0.8809028 0.03481852 0.76802844 0.88666594 0.034804158 0.7680184
        0.89326775 0.03478956 0.768008 0.9007931 0.034774713 0.7679977
        0.909324 0.034759615 0.7679876 0.9189352 0.03474427 0.7679783
        0.9296882 0.034728672 0.76797014 0.94162536 0.034712803 0.76796335
        0.95476264 0.03469663 0.7679579 0.9690838 0.03468011 0.7679535
        0.98453426 0.034663144 0.76794904 1.0010175 0.03464562 0.76794314
        1.0183939 0.034627374 0.76793355 1.0364828 0.0346082 0.7679176
        1.0550684 0.034587882 0.76789236 1.0739093 0.034566157 0.7678549
        0.8496421 0.03561475 0.76804876 0.85036254 0.03556584 0.76805043
        0.85125226 0.035456505 0.76805466 0.8521607 0.03534012 0.7680591
        0.8530844 0.035236463 0.76806283 0.854071 0.035152074 0.7680655
        0.8551814 0.035089567 0.7680669 0.85647625 0.03504965 0.7680669
        0.85801446 0.03502969 0.76806533 0.8598557 0.035022534 0.76806253
        0.862065 0.035018146 0.7680587 0.86471325 0.03501 0.7680538
        0.8678659 0.03499918 0.76804775 0.87157816 0.03498801 0.76804024
        0.87590533 0.03497701 0.76803136 0.8809125 0.03496608 0.7680217
        0.8866755 0.03495513 0.7680115 0.8932771 0.034944132 0.768001
        0.9008021 0.034933105 0.76799047 0.90933263 0.034922063 0.7679802
        0.91894346 0.03491104 0.76797074 0.9296961 0.03490005 0.7679624
        0.9416327 0.034889124 0.76795536 0.9547694 0.034878265 0.7679497
        0.9690899 0.03486747 0.767945 0.98453957 0.034856703 0.7679403
        1.001022 0.034845922 0.767934 1.0183975 0.03483504 0.76792413
        1.0364853 0.03482397 0.7679078 1.0550697 0.0348126 0.76788217
        1.0739093 0.03480085 0.7678443 0.84949577 0.035644222 0.7680475
        0.85012984 0.03562681 0.7680478 0.85096145 0.035555884 0.7680504
        0.85187036 0.03546647 0.7680536 0.8528246 0.035378944 0.7680566
        0.85384953 0.035303682 0.76805884 0.8549975 0.0352464 0.76805997
        0.856329 0.03520963 0.76805973 0.8579038 0.035191696 0.7680581
        0.85978097 0.035186045 0.7680552 0.86202306 0.035183292 0.76805127
        0.86469704 0.035177395 0.7680462 0.86786586 0.035169277 0.76803994
        0.871586 0.03516095 0.76803225 0.8759161 0.03515285 0.7680233
        0.880924 0.035144873 0.76801354 0.88668686 0.035136953 0.7680032
        0.89328814 0.035129074 0.76799256 0.9008127 0.03512125 0.7679818
        0.90934277 0.03511351 0.7679715 0.91895306 0.03510588 0.76796186
        0.9297051 0.035098385 0.76795334 0.94164103 0.035091054 0.7679462
        0.954777 0.035083897 0.76794034 0.96909666 0.035076912 0.7679355
        0.98454547 0.035070077 0.76793057 1.0010269 0.035063334 0.7679242
        1.0184011 0.03505661 0.76791406 1.0364878 0.035049804 0.76789755
        1.055071 0.03504281 0.76787174 1.0739093 0.03503554 0.76783365
        0.8493366 0.035676006 0.7680462 0.84991765 0.03567496 0.7680458
        0.8506846 0.035636697 0.76804686 0.8515677 0.035578765 0.7680487
        0.85253465 0.035515383 0.7680506 0.8535937 0.035456434 0.7680521
        0.8547836 0.03540931 0.76805276 0.8561588 0.035378445 0.7680523
        0.8577774 0.035363607 0.76805043 0.8596969 0.03535948 0.7680474
        0.86197674 0.03535808 0.76804334 0.86467946 0.035354324 0.76803815
        0.86786586 0.03534891 0.7680317 0.8715945 0.035343397 0.7680239
        0.8759277 0.0353381 0.7680148 0.88093626 0.035332948 0.7680049
        0.886699 0.035327885 0.76799446 0.8932998 0.03532291 0.7679836
        0.9008239 0.035318024 0.7679728 0.90935344 0.035313267 0.76796234
        0.91896313 0.03530866 0.76795256 0.9297145 0.035304237 0.7679439
        0.94164973 0.03530001 0.7679366 0.9547849 0.035296 0.7679306
        0.9691037 0.035292193 0.76792556 0.98455155 0.03528856 0.7679206
        1.0010319 0.035285044 0.767914 1.0184051 0.035281565 0.76790375
        1.0364904 0.03527801 0.7678871 1.0550724 0.035274267 0.7678611
        1.0739093 0.035270225 0.7678229 0.849157 0.035711527 0.76804465
        0.8497172 0.03571501 0.76804405 0.8504252 0.03570074 0.7680442
        0.8512621 0.035674136 0.7680446 0.852217 0.03564142 0.7680451
        0.8532969 0.035607997 0.7680454 0.8545286 0.035579275 0.7680452
        0.8559554 0.03555966 0.7680442 0.85762835 0.035550166 0.7680421
        0.85959977 0.03554771 0.76803887 0.86192435 0.03554717 0.7680347
        0.8646599 0.035545323 0.7680294 0.8678659 0.03554253 0.7680228
        0.8716038 0.035539687 0.7680148 0.8759403 0.03553698 0.7680056
        0.88094956 0.035534352 0.76799554 0.8867121 0.035531793 0.767985
        0.8933124 0.035529297 0.7679741 0.90083593 0.03552687 0.7679632
        0.9093648 0.035524547 0.76795256 0.91897386 0.03552235 0.7679427
        0.9297245 0.035520293 0.76793396 0.9416589 0.035518397 0.7679265
        0.9547932 0.03551667 0.76792043 0.969111 0.035515092 0.7679153
        0.9845578 0.035513636 0.7679102 1.001037 0.03551222 0.7679035
        1.018409 0.035510764 0.76789314 1.0364932 0.035509147 0.76787645
        1.0550737 0.035507236 0.7678504 1.0739093 0.035504904 0.7678121
        0.848956 0.035750836 0.768043 0.8495202 0.035750818 0.76804256
        0.8501842 0.03575079 0.768042 0.8509652 0.035750758 0.7680413
        0.8518833 0.035750717 0.7680404 0.8529619 0.03575066 0.7680392
        0.85422796 0.03575059 0.7680377 0.85571283 0.035750497 0.76803565
        0.85745233 0.035750374 0.7680331 0.85948753 0.035750218 0.7680297
        0.86186534 0.035750017 0.7680254 0.8646384 0.035749763 0.76802
        0.86786604 0.03574945 0.7680132 0.87161386 0.03574907 0.7680051
        0.87595385 0.03574864 0.7679958 0.8809638 0.035748165 0.76798564
        0.8867261 0.03574767 0.767975 0.8933258 0.03574716 0.767964
        0.9008486 0.035746645 0.767953 0.90937686 0.03574615 0.76794225
        0.91898507 0.035745684 0.76793236 0.92973495 0.035745274 0.7679235
        0.94166845 0.035744924 0.767916 0.9548018 0.03574464 0.7679099
        0.9691186 0.0357444 0.7679047 0.98456424 0.035744157 0.7678995
        1.0010422 0.035743844 0.7678928 1.018413 0.03574336 0.7678824
        1.0364958 0.03574258 0.7678656 1.055075 0.035741366 0.76783955
        1.0739093 0.035739582 0.7678012
        <InformationKey name="L2_NORM_RANGE" location="vtkDataArray" length="2">
          <Value index="0">
            1.1449146225
          </Value>
          <Value index="1">
            1.3206351622
          </Value>
        </InformationKey>
      </DataArray>
    </Points>
  </Piece>
  </StructuredGrid>
</VTKFile>
