<?xml version="1.0"?>
<VTKFile type="StructuredGrid" version="0.1" byte_order="LittleEndian" header_type="UInt32" compressor="vtkZLibDataCompressor">
  <StructuredGrid WholeExtent="0 30 0 40 0 0">
  <Piece Extent="0 30 0 40 0 0">
    <PointData>
      <DataArray type="Float32" Name="orthogonality" format="ascii" RangeMin="0" RangeMax="0.9243800044059753">
        0 0.01580946 0.031421736 0.04672473 0.06161924 0.076014906
        0.08983095 0.10299695 0.11545313 0.1271502 0.13804874 0.14811833
        0.15733625 0.16568597 0.17315537 0.17973392 0.18540727 0.1901441
        0.1938627 0.19635066 0.19709001 0.19491437 0.18740077 0.16986687
        0.13370976 0.06332859 0.06898959 0.29567787 0.579957 0.80136967
        0.92438 8.86959e-05 0.01592324 0.031567074 0.046908446 0.061848227
        0.07629591 0.09017052 0.103401355 0.11592835 0.12770191 0.13868234
        0.14883891 0.15814865 0.16659486 0.17416519 0.18084885 0.18663101
        0.19147903 0.19530748 0.19789445 0.19869964 0.19651 0.18882185
        0.17085902 0.13407022 0.063707046 0.064233735 0.27510685 0.5430548
        0.7729484 0.91795367 0.00021948162 0.016084336 0.031765 0.047150224
        0.062141012 0.07664679 0.09058644 0.10388911 0.11649452 0.1283529
        0.1394244 0.14967819 0.15909123 0.16764681 0.17533264 0.18213794
        0.18804772 0.19302846 0.19699173 0.19970725 0.20061459 0.19845904
        0.19066684 0.17239065 0.13517468 0.06516884 0.05813451 0.25378272
        0.50476456 0.7422915 0.91112727 0.00038610777 0.016290722 0.0320179
        0.047457214 0.06250995 0.07708567 0.09110333 0.10449213 0.11719185
        0.12915282 0.14033534 0.1507088 0.16025048 0.16894412 0.17677794
        0.18374182 0.18982127 0.19498275 0.19913603 0.20204446 0.20313132
        0.20110832 0.19334953 0.17497748 0.1377238 0.06879004 0.04895258
        0.22949095 0.4635976 0.7069316 0.89942455 0.0005815755 0.016535047
        0.03231809 0.047821365 0.062946625 0.07760376 0.091712 0.10520082
        0.118010335 0.13009122 0.14140426 0.15191941 0.16161472 0.1704748
        0.17848894 0.18564823 0.19193949 0.19733004 0.20172928 0.2048965
        0.20624325 0.20445721 0.19688094 0.17865199 0.14178166 0.07465061
        0.036653116 0.20204633 0.4188616 0.6654011 0.88107985 0.0007982726
        0.016808901 0.032656323 0.048232555 0.06343997 0.07818894 0.09239919
        0.10600068 0.118934065 0.1311507 0.14261208 0.15328915 0.16316105
        0.17221373 0.18043812 0.18782711 0.1943695 0.20003457 0.2047327
        0.20822173 0.20990665 0.20846191 0.2012217 0.1833861 0.1473345
        0.08272348 0.021335468 0.17143264 0.37000486 0.61590356 0.85347575
        0.0010276138 0.017101796 0.03302013 0.04867619 0.063973084 0.07882183
        0.093142755 0.10686651 0.11993449 0.1322989 0.14392228 0.15477675
        0.16484293 0.17410846 0.1825663 0.1902117 0.1970361 0.20301156
        0.20805086 0.211913 0.21400183 0.21299025 0.20622833 0.18902639
        0.15421118 0.09277777 0.0033497335 0.13794938 0.31686231 0.5565478
        0.81288385 0.0012614403 0.017402919 0.033395912 0.049135692 0.06452618
        0.07947908 0.093915485 0.10776678 0.12097524 0.13349406 0.14528696
        0.15632746 0.16659778 0.17608757 0.18479206 0.1927092 0.19983351
        0.20614046 0.21154642 0.21581401 0.21835132 0.21784149 0.21167459
        0.1953158 0.16210398 0.1043961 0.016703062 0.1022793 0.2599596
        0.48587498 0.7544268 0.0014901838 0.017698409 0.03376535 0.049588002
        0.06507109 0.080127046 0.09467766 0.10865511 0.12200256 0.13467418
        0.14663489 0.1578596 0.1683322 0.17804432 0.18699351 0.19518049
        0.20260297 0.2092401 0.21501264 0.2196888 0.22268589 0.22270834
        0.21720868 0.20184569 0.17051695 0.11692781 0.03794383 0.065483265
        0.20054191 0.403768 0.67240983 0.0017092013 0.0179793 0.03411497
        0.05001491 0.06558454 0.080736935 0.09539452 0.10949018 0.1229678
        0.13578248 0.14790018 0.15929705 0.16995849 0.1798779 0.18905498
        0.19749294 0.2051925 0.21213646 0.21825023 0.22330914 0.22674392
        0.22729017 0.22248235 0.20820355 0.17893626 0.12968458 0.05942593
        0.028803755 0.14047675 0.3116744 0.5605204 0.0019144163 0.018239524
        0.034436654 0.050406083 0.06605384 0.08129349 0.096048 0.110250756
        0.12384629 0.1367904 0.14904988 0.16060191 0.17143318 0.18153854
        0.19091949 0.19958141 0.20752768 0.21474442 0.22116189 0.22656374
        0.23039787 0.23143998 0.22732343 0.21417926 0.18708375 0.14226344
        0.08056161 0.00693231 0.08134946 0.21263814 0.41543767 0.0020978898
        0.018470062 0.034720242 0.05075016 0.06646629 0.08178257 0.09662232
        0.11091932 0.12461851 0.13767618 0.15005976 0.16174719 0.17272606
        0.18299244 0.19254923 0.20140356 0.20956095 0.21701059 0.22368757
        0.22938491 0.23357122 0.23507042 0.23162964 0.21964553 0.19478312
        0.1543957 0.10094515 0.041105375 0.024619387 0.11219496 0.24514762
        0.002253859 0.018665599 0.034960873 0.051042717 0.0668179 0.08220062
        0.09711437 0.11149316 0.12528218 0.13843802 0.1509285 0.16273208
        0.173837 0.18424016 0.19394553 0.20296155 0.21129559 0.21893947
        0.22583318 0.23178013 0.2362729 0.23819116 0.23540847 0.22459908
        0.20200004 0.16598222 0.12038049 0.07335364 0.028638907 0.016175997
        0.06885885 0.0023762656 0.018822128 0.035156652 0.05128402 0.0671112
        0.082552515 0.09753157 0.11198247 0.1258505 0.1390924 0.15167624
        0.16358079 0.17479478 0.18531565 0.1951482 0.20430194 0.21278569
        0.22059385 0.22767141 0.23383333 0.23859948 0.24091226 0.238783
        0.22917196 0.20886505 0.17713843 0.13896717 0.10373548 0.07805586
        0.07124589 0.09212569 0.0024596553 0.018936278 0.03530633 0.05147502
        0.06734942 0.08284393 0.09788217 0.112398244 0.12633748 0.13965668
        0.15232402 0.1643185 0.17562914 0.18625389 0.19619812 0.20547225
        0.21408646 0.22203757 0.22927597 0.23562932 0.2406479 0.24334341
        0.24187468 0.233493 0.21550581 0.1879844 0.15682888 0.13238175
        0.12355576 0.14800757 0.22523507 0.0024986381 0.019004034 0.035407294
        0.051614523 0.06753285 0.083076686 0.09816963 0.11274574 0.1267503
        0.14014013 0.15288347 0.16495943 0.17635728 0.18707533 0.19711949
        0.20650093 0.21523114 0.22330938 0.23069175 0.2372198 0.24247712
        0.24555033 0.24475358 0.23763126 0.22198227 0.1985679 0.17401825
        0.1593725 0.16517349 0.21374412 0.32841006 0.0024881435 0.019021038
        0.03545591 0.051699616 0.06765932 0.08324938 0.09839334 0.11302519
        0.12709013 0.14054492 0.15335782 0.16550805 0.17698504 0.18778738
        0.19792145 0.20739913 0.21623309 0.22442518 0.23193747 0.23862645
        0.24411146 0.2475587 0.24744356 0.24160248 0.22829437 0.20887226
        0.19052173 0.18473297 0.20300785 0.2691456 0.40555614 0.00242346
        0.018982965 0.035448223 0.05172672 0.067725584 0.08335912 0.09855078
        0.113234416 0.12735513 0.14086965 0.15374613 0.16596389 0.17751245
        0.18839069 0.19860533 0.20816891 0.21709529 0.22538885 0.23301798
        0.23985495 0.24555682 0.24937299 0.2499441 0.2453953 0.23441352
        0.21885325 0.20630126 0.20847598 0.23722622 0.31539863 0.46215612
        0.0022997162 0.01888536 0.035380192 0.05169217 0.06772834 0.08340294
        0.09863928 0.1133711 0.12754335 0.14111264 0.1540471 0.16632602
        0.17793903 0.18888518 0.19917156 0.20881125 0.21781927 0.22620259
        0.23393609 0.24090847 0.24681616 0.25099447 0.25225168 0.24899659
        0.240313 0.22847523 0.22133611 0.23064552 0.26807648 0.35383353
        0.50316554 0.0021127153 0.01872421 0.03524798 0.05159223 0.06766393
        0.083377205 0.09865522 0.113431536 0.12765098 0.14127 0.15425666
        0.16659018 0.17826028 0.18926612 0.19961506 0.20932074 0.2183992
        0.22686 0.23468466 0.24177887 0.2478794 0.25240928 0.2543452
        0.25237286 0.24594267 0.2376751 0.23557131 0.25124326 0.295766
        0.385626 0.532431 0.0018542453 0.018492643 0.035046015 0.05142256
        0.06752916 0.08327982 0.09859757 0.113415815 0.1276792 0.14134406
        0.15437831 0.16676116 0.17848232 0.18954107 0.199945 0.20970821
        0.21884778 0.22737585 0.23528071 0.24248531 0.24876781 0.25364012
        0.25624767 0.25554627 0.25132552 0.24648744 0.24907924 0.2704307
        0.32069498 0.41196287 0.55280304 0.0015245338 0.018189404 0.03477155
        0.051178817 0.067317985 0.08310295 0.09845657 0.11331205 0.12761386
        0.14131814 0.1543927 0.1668166 0.17857954 0.18968081 0.20012815
        0.20993602 0.21912242 0.22770196 0.23566964 0.24296574 0.24940972
        0.2546021 0.25785443 0.25838247 0.25628597 0.25468874 0.26159698
        0.2879435 0.34272942 0.43335685 0.5662526 0.0010922439 0.017790021
        0.034406733 0.05084936 0.06702471 0.08284664 0.09823793 0.113131694
        0.12747225 0.14121562 0.15432952 0.16679294 0.17859556 0.18973671
        0.20022431 0.21007317 0.21930224 0.22792861 0.23595409 0.24333665
        0.24993768 0.2554472 0.2593429 0.2610952 0.2610934 0.26263452
        0.27360645 0.30444673 0.36285776 0.45120212 0.5742865 0.0005951359
        0.017344393 0.03401355 0.050508507 0.06673639 0.08261133 0.09805628
        0.113004506 0.12740047 0.14120033 0.15437198 0.16689463 0.17875823
        0.18996252 0.2005159 0.21043396 0.21973702 0.22844528 0.23656814
        0.24408258 0.2508945 0.2567879 0.2614134 0.264503 0.26673248
        0.27154213 0.28663233 0.32182303 0.38328966 0.46828026 0.57917243
        0.00014559957 0.016955853 0.033687014 0.050244343 0.066535406 0.08247472
        0.09798558 0.11300154 0.1274674 0.14133964 0.15458655 0.16718784
        0.179134 0.19042544 0.20107141 0.2110887 0.22049944 0.22932754
        0.23759103 0.24528766 0.25237122 0.25872633 0.26418757 0.2687622
        0.27341887 0.28171927 0.30110255 0.3406066 0.40455437 0.48568392
        0.5833484 0.00021799309 0.016647734 0.033435877 0.050051462 0.06640243
        0.08240359 0.09797853 0.11306108 0.1275963 0.14154106 0.154864
        0.16754527 0.179576 0.19095728 0.20169927 0.21181995 0.22134346
        0.23029764 0.23870975 0.24659984 0.2539731 0.2608217 0.2671764
        0.2733345 0.28056353 0.2925196 0.3162937 0.35995963 0.4257327
        0.5028216 0.58819485 0.00051830936 0.01639638 0.03323547 0.049903937
        0.06631001 0.08236877 0.09800401 0.113149785 0.12775142 0.14176603
        0.15516265 0.16792187 0.18003532 0.19150484 0.20234144 0.21256432
        0.22219966 0.23127948 0.23984087 0.24792781 0.25560087 0.26296815
        0.27027085 0.2781149 0.28807494 0.30387026 0.3321428 0.3798116
        0.44684052 0.51966214 0.59363097 0.00075382116 0.016205726 0.033091985
        0.049810063 0.06626847 0.08238249 0.09807615 0.1132837 0.1279507
        0.14203456 0.15550464 0.16834202 0.18053886 0.1920977 0.20303044
        0.2133576 0.22310746 0.23231645 0.24103221 0.24932441 0.25731307
        0.2652307 0.27354392 0.28318644 0.29604852 0.3158777 0.34875193
        0.40023276 0.46795994 0.5364003 0.59977126 0.0009305027 0.016070142
        0.033000078 0.049764667 0.066272676 0.08243961 0.09818967 0.11345733
        0.12818837 0.14234048 0.15588339 0.16879858 0.18107882 0.19272731
        0.20375694 0.21418948 0.22405548 0.23339601 0.24226995 0.25077447
        0.2590934 0.2675928 0.27698097 0.2885407 0.30448797 0.3285588
        0.3661369 0.42122036 0.4891352 0.5531266 0.60671145 0.0010524644
        0.015986409 0.032957356 0.049766086 0.06632163 0.0825397 0.0983447
        0.1136713 0.12846553 0.14268535 0.15630084 0.16929397 0.18165806
        0.19339703 0.20452473 0.21506427 0.22504853 0.23452353 0.24356012
        0.25228485 0.26094985 0.2700643 0.2805955 0.2941987 0.31342703
        0.3419605 0.384342 0.44280162 0.5104378 0.5699824 0.6146077
        0.0011243748 0.015950399 0.032960184 0.049811114 0.066412486 0.08268024
        0.09853897 0.11392357 0.1287803 0.14306743 0.15675542 0.16982667
        0.18227512 0.19410542 0.20533238 0.21598056 0.22608523 0.23569764
        0.2449013 0.25385416 0.2628812 0.27264485 0.2843898 0.3001693
        0.3228874 0.35611862 0.40340167 0.46500152 0.5319457 0.5871033
        0.6236273 0.0011507701 0.015958047 0.033004932 0.0498965 0.06654234
        0.08285861 0.09877013 0.114212 0.12913077 0.14348498 0.15724549
        0.1703952 0.18292862 0.19485122 0.20617878 0.2169373 0.22716461
        0.2369174 0.24629267 0.2554816 0.2648869 0.27533445 0.28836596
        0.30646083 0.33289042 0.3710695 0.42335245 0.48785457 0.5537501
        0.6046327 0.63394994 0.0011361197 0.01600522 0.033087768 0.05001869
        0.066707864 0.08307168 0.099035196 0.11453376 0.12951417 0.14393532
        0.15776847 0.17099702 0.18361609 0.19563195 0.20706142 0.21793199
        0.22828412 0.23818028 0.24773158 0.25716448 0.26696402 0.27813023
        0.2925223 0.31307688 0.3434527 0.3868462 0.44423094 0.5114037
        0.575952 0.6227101 0.64574385 0.0010847165 0.01608786 0.033204846
        0.050174005 0.06690552 0.08331604 0.099330865 0.11488559 0.12992732
        0.1444153 0.15832119 0.17162892 0.18433426 0.1964443 0.20797692
        0.21896116 0.22944021 0.23948255 0.24921414 0.25889853 0.26910782
        0.2810268 0.29685366 0.3200164 0.35458627 0.40347964 0.4660761
        0.5357017 0.5986588 0.641463 0.6591458 0.0010006196 0.016202051
        0.033352368 0.05035874 0.067131676 0.08358809 0.09965354 0.1152639
        0.13036658 0.1449212 0.15889984 0.172287 0.18507911 0.19728409
        0.20892093 0.22002026 0.23062809 0.24081914 0.2507349 0.26067775
        0.2713114 0.2840158 0.30135044 0.3272727 0.36629796 0.42099866
        0.48893085 0.56081086 0.62197703 0.66099316 0.6742348 0.0008876042
        0.016344076 0.03352665 0.050569233 0.06738266 0.08388413 0.09999946
        0.115664825 0.13082796 0.14544888 0.15950012 0.17296675 0.18584588
        0.1981463 0.20988813 0.22110364 0.23184174 0.24218361 0.25228685
        0.26249427 0.27356535 0.28708547 0.3059983 0.3348327 0.37858877
        0.4394314 0.5128441 0.58680034 0.6460025 0.6813612 0.69100636
        0.00074913667 0.016510453 0.033724185 0.050801903 0.06765481 0.08420036
        0.100364685 0.11608426 0.13130717 0.1459938 0.16011721 0.173663
        0.18662906 0.19902502 0.21087217 0.22220443 0.23307373 0.24356785
        0.253861 0.26433787 0.2758574 0.29022008 0.3107771 0.34267607
        0.39145392 0.4588069 0.5378721 0.61374074 0.6708059 0.70256877
        0.70934564 0.0005883734 0.01669793 0.033941597 0.051053252 0.067944445
        0.08453293 0.100745134 0.11651784 0.1317995 0.14655092 0.16074565
        0.1743699 0.18742225 0.19991328 0.21186543 0.22331432 0.2343149
        0.24496175 0.25544608 0.2661955 0.27817166 0.29339913 0.31566018
        0.35077426 0.40488288 0.47915772 0.56407994 0.6416954 0.69641644
        0.7245409 0.72900593 0.00040818722 0.016903454 0.03417563 0.051319793
        0.068247825 0.0848778 0.10113641 0.1169608 0.13229977 0.14711455
        0.16137919 0.17508052 0.18821785 0.20080268 0.21285862 0.22442299
        0.23555385 0.2463526 0.25702766 0.2680505 0.28048784 0.29659617
        0.32061282 0.35908917 0.41885978 0.5005232 0.5915407 0.67070717
        0.7228027 0.74710935 0.7495929 0.0002112248 0.017124088 0.034423042
        0.051597927 0.06856098 0.085230544 0.10153364 0.11740772 0.13280194
        0.14767797 0.16201039 0.17578657 0.1890066 0.20168287 0.21384016
        0.22551753 0.23677604 0.24772398 0.25858712 0.2698811 0.2827795
        0.29977724 0.3255905 0.3675718 0.43336433 0.5229544 0.62033284
        0.70078003 0.74985355 0.77000076 0.7705564 0 0.01735839
        0.03468349 0.051888447 0.06888585 0.08559432 0.10194117 0.117864184
        0.13331288 0.14824934 0.16264862 0.17649873 0.18980044 0.20256704
        0.21482448 0.22661346 0.2379981 0.24909347 0.26014265 0.27170536
        0.28506204 0.30294693 0.33055833 0.3760536 0.44784385 0.54510134
        0.64819455 0.7294706 0.7758231 0.7921564 0.7907247
      </DataArray>
      <DataArray type="Float32" Name="aspect_ratio" format="ascii" RangeMin="1.7273218631744385" RangeMax="28.538360595703125">
        27.591005 27.378103 27.095196 26.676058 26.129248 25.46572
        24.69835 23.841415 22.91003 21.919622 20.885443 19.822147
        18.743448 17.661863 16.588535 15.533151 14.503916 13.507633
        12.549878 11.635315 10.768206 9.953099 9.195477 8.501613
        7.875549 7.3079095 6.741604 6.0043745 4.9865775 4.19183
        4.216544 27.602947 27.347105 27.02146 26.560453 25.973328
        25.271652 24.468847 23.579626 22.619444 21.603958 20.548548
        19.467892 18.375643 17.284178 16.204441 15.14586 14.116352
        13.12239 12.169168 11.260882 10.401149 9.59354 8.841982
        8.150192 7.517866 6.9286046 6.322364 5.574273 4.669422
        4.0041966 3.9881322 27.614908 27.319317 26.954174 26.454548
        25.8303 25.093569 24.258266 23.33951 22.353052 21.31476
        20.240116 19.143814 18.039438 16.939226 15.8539295 14.792736
        13.763285 12.771737 11.8229265 10.920599 10.067744 9.266977
        8.52072 7.830302 7.191656 6.583237 5.9455914 5.1917734
        4.366071 3.7884974 3.7120368 27.626896 27.298178 26.900003
        26.367939 25.712381 24.945953 24.082983 23.138939 22.12985
        21.071766 19.980278 18.870111 17.754808 16.646513 15.5558195
        14.491732 13.461659 12.471509 11.525805 10.627893 9.780183
        8.9843855 8.241505 7.5506887 6.9047155 6.2786303 5.61633
        4.8605175 4.086946 3.5611565 3.4062912 27.638918 27.28442
        26.860424 26.302874 25.622583 24.832561 23.947475 22.983084
        21.955643 20.88137 19.775955 18.654167 17.529535 16.414137
        15.318469 14.251391 13.220149 12.230444 11.286551 10.391469
        9.547076 8.75424 8.012628 7.319416 6.6648126 6.02192
        5.3396235 4.5830545 3.840273 3.3337874 3.0897682 27.650978
        27.27889 26.837143 26.261923 25.564333 24.757656 23.856812
        22.877768 21.836962 20.750742 19.634892 18.504227 17.372288
        16.251125 15.151179 14.081225 13.048399 12.058263 11.114901
        10.22102 9.378024 8.585987 7.8433228 7.145433 6.4804845
        5.8208103 5.1210566 4.3627815 3.6341007 3.1190174 2.781381
        27.663082 27.281902 26.8308 26.24606 25.53895 24.722906
        23.813002 22.82534 21.776478 20.68286 19.56035 18.423817
        17.286829 16.16145 15.0581045 13.98554 12.950843 11.959496
        11.015451 10.121184 9.277674 8.484246 7.73813 7.03312
        6.3558035 5.6786475 4.9622636 4.199959 3.472975 2.9278173
        2.4958582 27.675234 27.293987 26.84247 26.256914 25.548607
        24.731022 23.819271 22.829512 21.778357 20.682312 19.557297
        18.418236 17.27875 16.150946 15.04528 13.970529 12.933785
        11.940519 10.994616 10.098373 9.252391 8.455286 7.7031484
        6.988293 6.296099 5.5998287 4.865928 4.096058 3.3616047
        2.7714584 2.2474492 27.687435 27.313381 26.86865 26.289299
        25.586527 24.773735 23.865995 22.879446 21.830704 20.7363
        19.612198 18.473375 17.333519 16.204803 15.09776 14.021229
        12.982366 11.986671 11.038013 10.138557 9.288555 8.485937
        7.7256746 6.9987063 6.2895184 5.5726967 4.8203325 4.040177
        3.2932703 2.651912 2.0393171 27.699682 27.337297 26.903809
        26.335024 25.641975 24.837938 23.937885 22.95789 21.914537
        20.824366 19.703367 18.566572 17.42774 16.299128 15.191361
        14.113375 13.072411 12.074034 11.122122 10.21873 9.363778
        8.554506 7.784778 7.044233 6.316756 5.5787287 4.8077736
        4.0163355 3.2560925 2.5656054 1.8696566 27.711971 27.367435
        26.951347 26.399157 25.721642 24.931854 24.044592 23.075802
        22.041992 20.959671 19.844841 18.712582 17.576736 16.449661
        15.342107 14.263134 13.220112 12.218713 11.262861 10.354535
        9.493339 8.675817 7.894705 7.1383777 6.3903217 5.629064
        4.8376565 4.0325646 3.2581694 2.5254226 1.7599049 27.724297
        27.404669 27.013018 26.484324 25.828993 25.059755 24.191143
        23.238905 22.219416 21.149109 20.043978 18.919151 17.788557
        16.66468 15.558419 14.479006 13.43398 12.429167 11.468585
        10.55417 9.685225 8.857588 8.062827 7.2880464 6.5164747
        5.7290645 4.9142904 4.092525 3.3034608 2.5395916 1.7273219
        27.73665 27.44803 27.086891 26.587639 25.960215 25.216934
        24.37199 23.440866 22.439758 21.384995 20.292543 19.17757
        18.054102 16.934769 15.830651 14.7511835 13.704117 12.695471
        11.729396 10.8078165 9.929745 9.090293 8.279817 7.484131
        6.686342 5.870111 5.029452 4.188847 3.3858595 2.6047013
        1.7729473 27.749031 27.497356 27.172604 26.708513 26.11446
        25.402271 24.585726 23.679987 22.701025 21.665037 20.587954
        19.48498 18.37025 17.256569 16.155224 15.075892 14.026576
        13.013534 12.041083 11.111171 10.22253 9.369525 8.541254
        7.722226 6.8955436 6.047849 5.178875 4.317578 3.5017233
        2.716495 1.8915296 27.761433 27.552284 27.269394 26.84574
        26.290056 25.613602 24.829683 23.953096 22.999548 21.985094
        20.925613 19.83636 18.731604 17.624338 16.526096 15.446838
        14.39486 13.376696 12.396876 11.457395 10.556719 9.688453
        8.840401 7.9957523 7.1377196 6.256178 5.356778 4.4733443
        3.645768 2.867048 2.0697408 27.773855 27.612602 27.376787
        26.998545 26.485888 25.849445 25.101994 24.257923 23.332663
        22.342104 21.302088 20.22793 19.134052 18.033672 16.938614
        15.859152 14.803921 13.779774 12.791493 11.841149 10.92696
        10.0417595 9.172029 8.299633 7.407989 6.490427 5.5587087
        4.6518927 3.8134704 3.048338 2.292959 27.786295 27.677952
        27.49402 27.16572 26.70028 26.107635 25.400005 24.591341
        23.696775 22.732042 21.712948 20.654894 19.572483 18.479197
        17.387177 16.307062 15.247868 14.2168045 13.218943 12.25646
        11.327341 10.423647 9.530516 8.628481 7.701247 6.745783
        5.780133 4.848904 4.000209 3.2525203 2.5477686 27.798754
        27.748219 27.620813 27.346783 26.932505 26.38719 25.72245
        24.95179 24.090036 23.152773 22.155794 21.11461 20.044039
        18.957859 17.86858 16.787241 15.723279 14.684307 13.6757145
        12.6998205 11.754391 10.830718 9.912576 8.97916 8.014523
        7.0194154 6.018325 5.0616736 4.202826 3.4737296 2.8242936
        27.811228 27.823132 27.756588 27.540808 27.18128 26.686447
        26.067299 25.336878 24.50972 23.601267 22.627321 21.603537
        20.544975 19.465765 18.378813 17.295609 16.226042 15.178169
        14.157736 13.167226 12.204207 11.259205 10.31462 9.348294
        8.344663 7.3083706 6.270489 5.28748 4.4182463 3.706904
        3.1148384 27.823717 27.904385 27.904608 27.752502 27.452606
        27.012548 26.442677 25.755562 24.965448 24.087664 23.13805
        22.13244 21.0862 20.013844 18.928738 17.84287 16.766645
        15.708607 14.674898 13.668208 12.685929 11.717819 10.744883
        9.743568 8.6986885 7.61887 6.541956 5.5307193 4.6496882
        3.9530585 3.4189875 27.836222 27.989727 28.060427 27.97531
        27.737936 27.35512 26.836557 26.194366 25.442513 24.596233
        23.671446 22.684196 21.65019 20.584368 19.500593 18.411388
        17.327705 16.258604 15.210658 14.186781 13.184209 12.19194
        11.18957 10.152133 9.0648 7.940229 6.823155 5.782823
        4.8891935 4.2039757 3.7271905 27.848738 28.090872 28.246784
        28.24219 28.079548 27.764757 27.306814 26.71736 26.010103
        25.200235 24.303822 23.33722 22.316574 21.25738 20.174114
        19.079966 17.98655 16.903557 15.838097 14.793385 13.766544
        12.745798 11.709242 10.630335 9.494502 8.318551 7.1545653
        6.078882 5.1668444 4.484815 4.06655 27.861263 28.188864
        28.426828 28.499676 28.40882 28.159298 27.75945 27.22047
        26.555841 25.780724 24.911327 23.964323 22.95629 21.90325
        20.820288 19.721224 18.61832 17.521877 16.439507 15.374722
        14.324532 13.2764 12.206951 11.088088 9.905456 8.679942
        7.470932 6.3617883 5.4326644 4.7514324 4.3882494 27.873806
        28.21042 28.45715 28.53836 28.455338 28.213003 27.819607
        27.286274 26.626444 25.855263 24.988943 24.044184 23.037601
        21.985275 20.902351 19.802715 18.698692 17.600637 16.51617
        15.448721 14.395044 13.342072 12.265626 11.136965 9.942396
        8.705951 7.491795 6.3869405 5.473331 4.8173504 4.480763
        27.88639 28.15512 28.33692 28.357061 28.217611 27.92412
        27.485317 26.912634 26.21966 25.421528 24.534311 23.574444
        22.55819 21.501192 20.418121 19.322355 18.2257 17.137997
        16.06638 15.013831 13.976716 12.941693 11.884503 10.776715
        9.60571 8.397567 7.2185025 6.1556396 5.2895093 4.6813154
        4.341773 27.89902 28.09176 28.200737 28.152256 27.949276
        27.59809 27.107979 26.490747 25.760166 24.93138 24.020317
        23.043127 22.015684 20.95316 19.869684 18.778072 17.689552
        16.613396 15.556194 14.520453 13.502169 12.487795 11.453124
        10.370158 9.227304 8.052364 6.9130855 5.8960805 5.0792217
        4.5150228 4.1701307 27.911688 28.038984 28.08487 27.97659
        27.717936 27.315897 26.780294 26.12331 25.358927 24.502348
        23.569416 22.57607 21.537874 20.46961 19.384964 18.296263
        17.214237 16.147665 15.102673 14.081343 13.079346 12.082951
        11.067976 10.006746 8.888526 7.742721 6.6386986 5.6626925
        4.8892 4.3593035 4.0106115 27.92439 27.98834 27.972904
        27.806263 27.49306 27.040989 26.460442 25.763998 24.96589
        24.08141 23.126345 22.116459 21.067036 19.992493 18.906092
        17.8197 16.743572 15.686006 14.652672 13.645263 12.659151
        11.680471 10.68511 9.645711 8.552254 7.4355035 6.36624
        5.4300404 4.69698 4.1954956 3.8412812 27.937128 27.94272
        27.870543 27.64967 27.285547 26.78657 26.163681 25.429878
        24.599653 23.688414 22.711935 21.685843 20.62518 19.54405
        18.455338 17.370493 16.299332 15.249713 14.226898 13.232219
        12.260795 11.298663 10.321801 9.303112 8.233113 7.143709
        6.106979 5.207661 4.510519 4.030975 3.670715 27.949898
        27.901482 27.776585 27.505117 27.093304 26.550205 25.887316
        25.118048 24.257166 23.320219 22.322992 21.28101 20.209118
        19.121143 18.02963 16.945654 15.878629 14.836016 13.822696
        12.839683 11.881883 10.935284 9.975973 8.977061 7.9294
        6.8657722 5.859411 4.993983 4.3281784 3.8648853 3.4977977
        27.962694 27.864868 27.69156 27.373455 26.917507 26.333416
        25.633204 24.830687 23.940908 22.979576 21.96251 20.90516
        19.822216 18.727262 17.632547 16.548811 15.485109 14.448542
        13.443651 12.47117 11.525844 10.593649 9.650812 8.670575
        7.6438913 6.6041245 5.6255083 4.790427 4.1509786 3.6986513
        3.3244336 27.975521 27.832808 27.615368 27.2546 26.758133
        26.136263 25.401514 24.568092 23.651323 22.66707 21.631212
        20.559158 19.465462 18.363504 17.265285 16.181244 15.120116
        14.088681 13.091184 12.128122 11.194121 10.275205 9.347755
        8.385066 7.377919 6.359906 5.406081 4.5973806 3.9790926
        3.5330007 3.1518197 27.988373 27.8052 27.547855 27.148386
        26.61504 25.958666 25.192251 24.330378 23.388636 22.38306
        21.329592 20.243622 19.139597 18.030735 16.92881 15.8440075
        14.784781 13.757629 12.766538 11.811815 10.888019 9.981272
        9.068142 8.121878 7.1327686 6.1342053 5.2018538 4.415127
        3.8126645 3.3686752 2.9813302 28.00125 27.781857 27.488691
        27.05438 26.48773 25.800093 25.00489 24.117048 23.152414
        22.127186 21.05738 19.958382 18.84456 17.728994 16.62327
        15.537348 14.479443 13.455804 12.470203 11.522804 10.608151
        9.712527 8.8127165 7.88182 6.9092565 5.9276814 5.0131216
        4.243547 3.6515455 3.206215 2.8141901 28.01415 27.762535
        27.437422 26.971956 26.375444 25.659697 24.838526 23.927176
        22.941732 21.898554 20.813738 19.702671 18.579666 17.457687
        16.348164 15.260863 14.203792 13.182993 12.202059 11.261054
        10.354569 9.469115 8.581732 7.6652656 6.707816 5.7406282
        4.839794 4.0821476 3.4953258 3.0459847 2.651459 28.027073
        27.746946 27.393505 26.90035 26.277237 25.53638 24.69195
        23.759476 22.755268 21.69583 20.597342 19.475204 18.343687
        17.215662 16.102423 15.013576 13.95695 12.938415 11.961421
        11.025982 10.126796 9.250676 8.374976 7.4721704 6.5285153
        5.572985 4.681379 3.9300427 3.3433192 2.8881583 2.4939454
        28.040018 27.734787 27.35636 26.838734 26.192059 25.428915
        24.563782 23.612457 22.59145 21.517399 20.406565 19.274364
        18.13504 17.001387 15.884583 14.794105 13.737626 12.720875
        11.747197 10.816601 9.923959 9.056473 8.191879 7.3021765
        6.3711467 5.4243975 4.5370083 3.7859616 3.1945815 2.7327182
        2.3421443 28.052984 27.72576 27.325413 26.786282 26.118864
        25.336058 24.452625 23.484594 22.448652 21.36157 20.239676
        19.098413 17.952 16.813166 15.693006 14.600873 13.544322
        12.528961 11.558069 10.631695 9.744954 8.885539 8.031662
        7.1547394 6.235346 5.294303 4.4054737 3.6482625 3.0479329
        2.5794578 2.196172 28.06597 27.719612 27.300173 26.74228
        26.056734 25.256716 24.35723 23.374508 22.325401 21.226793
        20.095078 18.945726 17.792936 16.649397 15.526117 14.432361
        13.375576 12.361284 11.392726 10.470042 9.588664 8.736885
        7.8935146 7.0293016 6.12074 5.182035 4.2852488 3.51494
        2.9019876 2.4279718 2.055704 28.078972 27.716166 27.280287
        26.706215 26.00501 25.190092 24.276682 23.281189 22.220606
        21.111914 19.971575 18.81508 17.656624 16.50885 15.3827095
        14.287388 13.230251 12.216754 11.250137 10.330676 9.454198
        8.609726 7.7768173 6.9254923 6.027129 5.0869284 4.1744943
        3.3836186 2.7551787 2.2776346 1.9199125 28.09199 27.71405
        27.263054 26.674105 25.958504 25.12989 24.203682 23.196455
        22.12533 21.007383 19.859133 18.69609 17.532444 16.3808
        15.252058 14.155327 13.097902 12.085188 11.120442 10.204121
        9.332532 8.495595 7.673916 6.83713 5.9512057 5.01048
        4.0808315 3.2675748 2.6234238 2.141798 1.7950588
      </DataArray>
      <DataArray type="Float32" Name="jacobian" format="ascii" RangeMin="0.0006223662639968097" RangeMax="0.009088446386158466">
        0.0088984445 0.008872957 0.008822441 0.008724782 0.008582168 0.008397667
        0.0081750825 0.007918807 0.007633643 0.0073246346 0.0069968943 0.0066554537
        0.00630513 0.0059504188 0.005595413 0.005243746 0.0048985626 0.0045625004
        0.0042376914 0.0039257584 0.003627815 0.0033444562 0.0030757592 0.0028213228
        0.0025804152 0.0023521762 0.0021348484 0.0019175606 0.0016411472 0.0011922547
        0.00062236626 0.0089022955 0.008890687 0.008854121 0.008770228 0.008640964
        0.008469173 0.008258465 0.008013062 0.0077376356 0.00743713 0.007116596
        0.0067810393 0.006435281 0.0060838517 0.0057309004 0.0053801374 0.0050347946
        0.0046976013 0.004370765 0.0040559457 0.0037542072 0.0034659428 0.0031907945
        0.0029276176 0.0026745328 0.0024288625 0.0021863638 0.0019383344 0.0016512985
        0.0012484387 0.00069630804 0.008906153 0.008907447 0.008883903 0.008812916
        0.008696221 0.008536455 0.00833704 0.008102039 0.007835988 0.007543734
        0.007230262 0.006900543 0.0065593957 0.0062113735 0.005860672 0.0055110655
        0.0051658624 0.004827869 0.0044993567 0.0041820025 0.0038767913 0.003583866
        0.003302359 0.0030302932 0.0027646031 0.0025010433 0.002233936 0.0019578726
        0.0016612587 0.0012995177 0.0007661562 0.008910019 0.008922105 0.008909545
        0.008849534 0.008743626 0.008594279 0.008404752 0.0081789605 0.007921322
        0.007636584 0.0073296633 0.007005487 0.0066688573 0.0063243327 0.005976136
        0.0056280834 0.0052835364 0.0049453564 0.0046158517 0.004296689 0.0039887344
        0.0036918246 0.0034045046 0.003123883 0.0028457164 0.0025645394 0.0022743493
        0.0019740227 0.0016694539 0.0013448892 0.0008450717 0.008913895 0.008934408
        0.0089304885 0.008879182 0.008781896 0.00864095 0.008459471 0.008241255
        0.0079906145 0.0077122133 0.007410903 0.0070915665 0.006758982 0.0064177015
        0.0060719587 0.0057255947 0.0053820023 0.005044076 0.0047141374 0.004393813
        0.0040838164 0.003783626 0.0034911374 0.003202496 0.0029123512 0.0026144485
        0.0023035025 0.0019833178 0.0016731339 0.0013812472 0.0009305523 0.008917783
        0.008944067 0.00894611 0.008900857 0.008809619 0.008674618 0.008498887
        0.008286135 0.0080405995 0.0077668773 0.0074697686 0.0071541187 0.00682468
        0.006485994 0.0061422936 0.005797429 0.005454809 0.0051173386 0.004787332
        0.00446635 0.004154924 0.0038521388 0.0035552038 0.0032593035 0.0029581257
        0.0026451247 0.0023166393 0.0019816332 0.0016688694 0.0014046526 0.0010162713
        0.008921686 0.008950966 0.008956149 0.008914125 0.008826157 0.008694412
        0.008521873 0.008312199 0.00806958 0.007798576 0.00750395 0.0071905213
        0.0068630213 0.006525979 0.00618362 0.0058397944 0.00549791 0.005160868
        0.0048309546 0.0045096474 0.004197273 0.0038925093 0.0035918797 0.0032896681
        0.0029788208 0.0026530167 0.0023109124 0.001966412 0.00165437 0.0014123158
        0.001093698 0.008925602 0.008954925 0.00896022 0.008918377 0.008830654
        0.008699218 0.008527042 0.008317777 0.008075602 0.007805064 0.0075109135
        0.007197957 0.0068709147 0.0065343026 0.0061923373 0.005848858 0.0055072615
        0.005170428 0.004840602 0.0045191622 0.0042062243 0.003900066 0.0035965678
        0.0032892353 0.0029705525 0.0026349083 0.002283692 0.0019351139 0.0016271453
        0.0014018663 0.0011512714 0.008929534 0.008956521 0.008959487 0.008915359
        0.008825436 0.008691917 0.008517804 0.00830677 0.008063013 0.0077910884
        0.0074957544 0.007181816 0.0068539875 0.0065167765 0.0061743874 0.0058306432
        0.0054889196 0.005152067 0.0048222765 0.0045008217 0.004187611 0.0038805471
        0.0035749401 0.0032636705 0.0029390422 0.0025965287 0.002240375 0.0018922159
        0.0015908207 0.0013773665 0.0011856975 0.008933481 0.008956665 0.0089558
        0.008907875 0.008814249 0.00867718 0.00849972 0.008285586 0.008039008
        0.0077645676 0.007467038 0.0071512316 0.0068218624 0.0064834296 0.0061401236
        0.005795748 0.0054536527 0.005116652 0.004786878 0.0044654994 0.004152229
        0.0038446283 0.0035375135 0.0032232886 0.0028943103 0.0025473724 0.0021894705
        0.0018447624 0.0015512366 0.0013452955 0.0011995015 0.008937441 0.008954802
        0.00894804 0.008894241 0.008794861 0.008652243 0.008469521 0.008250481
        0.007999411 0.007720936 0.007419859 0.0071010087 0.0067691035 0.006428636
        0.0060837795 0.0057383133 0.005395553 0.005058268 0.004728526 0.004407389
        0.00409439 0.0037867993 0.0034790395 0.0031632124 0.0028319492 0.0024834916
        0.0021272986 0.0017891012 0.0015049627 0.0013044608 0.001187375 0.008941413
        0.008950646 0.00893565 0.00887364 0.008766206 0.008615817 0.00842572
        0.0081998 0.007942426 0.007658287 0.007352229 0.007029108 0.006693649
        0.006350339 0.006003328 0.0056563634 0.005312716 0.0049750996 0.0046455073
        0.0043248977 0.0040126424 0.0037057784 0.0033984547 0.0030826493 0.0027514535
        0.0024045669 0.00205348 0.0017245776 0.0014512321 0.0012560152 0.0011502899
        0.008945394 0.008944517 0.008919302 0.00884713 0.008729756 0.008569803
        0.008370658 0.008136329 0.007871282 0.007580284 0.007268233 0.0069400137
        0.00660036 0.0062537445 0.005904291 0.0055557 0.0052111885 0.0048734024
        0.0045442516 0.00422459 0.0039136508 0.0036082922 0.0033024957 0.0029882644
        0.0026592617 0.0023165506 0.0019731745 0.0016554315 0.0013936296 0.0012043626
        0.0010974008 0.008949384 0.008936479 0.008899163 0.0088150175 0.00868599
        0.008514888 0.008305258 0.008061247 0.0077874344 0.007488669 0.0071699056
        0.0068360544 0.0064918506 0.006141746 0.005789821 0.005439721 0.0050945906
        0.0047569936 0.0044287485 0.0041106017 0.0038016653 0.0034986695 0.0031955196
        0.002884357 0.0025594712 0.0022231282 0.0018894604 0.0015841244 0.0013342698
        0.0011518238 0.0010367269 0.008953382 0.008926657 0.008875534 0.0087778205
        0.008635686 0.008452137 0.008230901 0.007976273 0.00769295 0.007385862
        0.0070600137 0.006720333 0.006371544 0.0060180617 0.0056639086 0.0053126537
        0.004967355 0.0046304786 0.004303737 0.0039877696 0.0036815791 0.003381809
        0.0030823583 0.002775584 0.0024564036 0.0021280972 0.0018054859 0.0015132257
        0.0012754297 0.0011004483 0.00097520463 0.008957388 0.008915134 0.008848627
        0.008735926 0.008579441 0.008382398 0.008148707 0.007882816 0.0075895316
        0.007273862 0.006940847 0.006595415 0.006242262 0.0058857454 0.0055298097
        0.005177928 0.004833052 0.0044975327 0.0041729673 0.0038598808 0.00355718
        0.0032614514 0.0029666405 0.0026653663 0.0023531422 0.002034072 0.0017233406
        0.0014444025 0.0012185778 0.0010513718 0.00091689336 0.0089614 0.008902039
        0.008818751 0.008689865 0.008518043 0.008306733 0.008060031 0.0077825263
        0.007479128 0.0071549006 0.0068149 0.0064640357 0.0061069494 0.0057479185
        0.0053907875 0.005038913 0.0046951207 0.0043616323 0.0040399167 0.0037303835
        0.003431849 0.0031408684 0.0028514701 0.002556557 0.0022521883 0.0019431132
        0.0016446343 0.0013789225 0.0011648039 0.0010054033 0.0008638983 0.00896542
        0.008887426 0.008786061 0.008639933 0.00845196 0.008225809 0.007965749
        0.0076764966 0.0073630405 0.0070304773 0.0066838544 0.0063280333 0.0059675765
        0.0056066564 0.005248993 0.0048978063 0.004555778 0.0042249854 0.0039067613
        0.003601396 0.0033076233 0.0030219855 0.0027386197 0.0024507195 0.0021548315
        0.0018561926 0.0015700402 0.0013172548 0.0011144687 0.0009627337 0.0008166508
        0.008969445 0.008871397 0.008750807 0.008586563 0.008381834 0.008140486
        0.007866941 0.007566018 0.007242756 0.0069022537 0.006549519 0.0061893356
        0.0058261584 0.0054640286 0.0051065204 0.004756697 0.004417082 0.0040895967
        0.003775431 0.0034747543 0.0031862252 0.0029063886 0.0026295069 0.0023490626
        0.0020620287 0.001773996 0.0015000054 0.001259688 0.0010677637 0.00092343846
        0.00077496713 0.0089734765 0.008853432 0.008712038 0.008528455 0.008306081
        0.008048963 0.007761647 0.0074490164 0.007116126 0.0067680385 0.0064096837
        0.0060457336 0.0056805015 0.0053178705 0.00496124 0.0046134987 0.0042769923
        0.003953475 0.0036439842 0.0033485682 0.0030658157 0.0027922872 0.002522386
        0.0022498807 0.0019721151 0.0016949145 0.0014330128 0.0012048354 0.0010234262
        0.00088636123 0.00073723827 0.008977514 0.008834265 0.008671228 0.0084678
        0.008227575 0.007954737 0.007653913 0.00733001 0.006988053 0.0066330316
        0.006269761 0.005902768 0.0055361995 0.0051737553 0.0048186476 0.004473573
        0.004140693 0.0038215907 0.0035171502 0.0032273014 0.0029505712 0.0026835466
        0.0024207784 0.0021563082 0.0018877962 0.0016212102 0.0013709173 0.0011542216
        0.0009827173 0.00085252867 0.00070406974 0.008981556 0.008810244 0.0086215
        0.008394925 0.008134259 0.007843767 0.0075280936 0.0071921004 0.0068407147
        0.006478782 0.0061109373 0.005741501 0.005374394 0.0050130826 0.0046605426
        0.0043192427 0.003991127 0.003677579 0.0033793126 0.003096129 0.0028264937
        0.0025670328 0.0023124674 0.0020571214 0.0017989305 0.0015438938 0.0013058874
        0.0011010818 0.0009397776 0.0008169481 0.00067007967 0.0089856 0.008787346
        0.008574262 0.008326063 0.008046561 0.0077400347 0.007411084 0.007064481
        0.006705015 0.0063373605 0.005965953 0.0055948957 0.0052278815 0.0048681465
        0.004518441 0.0041810153 0.003857613 0.0035494352 0.0032570413 0.002980121
        0.0027170903 0.0024646204 0.0022175931 0.0019705845 0.0017217566 0.0014770989
        0.0012500208 0.0010557056 0.00090336293 0.00078692485 0.00064228027 0.00898965
        0.008788343 0.008572446 0.008321683 0.008039884 0.007731337 0.007400645
        0.0070525776 0.0066919173 0.006323326 0.0059512234 0.005579693 0.0052124066
        0.004852578 0.004502935 0.0041657058 0.0038426125 0.0035348374 0.0032429257
        0.002966558 0.0027041547 0.0024524098 0.0022062564 0.0019603665 0.0017130618
        0.0014705388 0.0012462968 0.0010552217 0.0009057968 0.0007904813 0.0006489259
        0.008993709 0.008813375 0.008616221 0.008381896 0.008114208 0.007817469
        0.0074963495 0.007155721 0.0068005016 0.006435509 0.00606534 0.005694263
        0.0053261407 0.0049643763 0.0046118796 0.004271053 0.0039437762 0.0036313767
        0.0033345218 0.003052989 0.0027852568 0.002528026 0.0022761847 0.0020243616
        0.0017709982 0.0015227428 0.0012937426 0.0010992 0.00094706455 0.00082817615
        0.000690982 0.008997783 0.008841104 0.008665363 0.008450055 0.008198905
        0.0079162 0.00760664 0.007275173 0.0069268337 0.006566595 0.006199231
        0.0058292067 0.005460593 0.005097002 0.0047415504 0.0043968395 0.0040649357
        0.0037473352 0.0034448537 0.0031573877 0.0028834941 0.0026198945 0.002361434
        0.0021026898 0.0018422123 0.0015871293 0.001352319 0.0011533751 0.0009976667
        0.00087508716 0.00074292853 0.009001867 0.008865666 0.008708758 0.00851044
        0.008274306 0.008004563 0.007705883 0.0073832343 0.007041716 0.0066864006
        0.0063221944 0.0059537156 0.0055852025 0.0052204444 0.0048627374 0.0045148567
        0.004179037 0.0038569306 0.0035494932 0.003256741 0.0029773193 0.0027079936
        0.0024436007 0.0021786909 0.0019119146 0.0016508232 0.0014109544 0.0012082123
        0.0010493521 0.00092416746 0.0007975443 0.009005963 0.008889696 0.008751371
        0.008570046 0.008349138 0.008092734 0.0078054336 0.007492186 0.0071581197
        0.006808375 0.006447962 0.0060816305 0.0057137697 0.0053483336 0.0049887877
        0.0046380796 0.0042986097 0.0039721895 0.0036599212 0.0033619518 0.0030770323
        0.0028019974 0.0025317026 0.0022606868 0.0019876831 0.0017206265 0.0014756897
        0.001269068 0.0011069586 0.0009797554 0.00085975934 0.009010069 0.008912262
        0.008791373 0.008626201 0.008419965 0.008176598 0.0079005975 0.007596859
        0.0072705015 0.0069267023 0.0065705413 0.006206871 0.0058402065 0.005474643
        0.005113799 0.004760778 0.0044181384 0.0040878416 0.0037711381 0.0034683102
        0.0031782323 0.002897839 0.002622044 0.002345401 0.0020667037 0.0017941964
        0.0015446094 0.0013343819 0.001169285 0.001041021 0.0009287234 0.009014186
        0.008933547 0.008829071 0.008679291 0.008487211 0.008256591 0.007991801
        0.0076976544 0.007379235 0.007041723 0.0066902433 0.0063297222 0.005964776
        0.0055996208 0.0052380087 0.004883187 0.004537857 0.0042041284 0.003883394
        0.0035760798 0.003281204 0.0029958363 0.0027149965 0.002433286 0.0021495325
        0.0018721899 0.00161844 0.0014049225 0.0012372052 0.0011089507 0.0010056824
        0.009018313 0.008953455 0.008864235 0.008728923 0.008550305 0.008331957
        0.008078109 0.007793469 0.007483062 0.0071520493 0.0068055717 0.0064486065
        0.006085846 0.005721606 0.0053597526 0.005003657 0.004656155 0.00431949
        0.0039951964 0.0036838506 0.0033846342 0.0030947952 0.0028095187 0.0025234986
        0.002235565 0.0019542489 0.00169703 0.0014807058 0.0013109611 0.0011840089
        0.0010911735 0.009022449 0.008971992 0.008896836 0.008774999 0.008609052
        0.0084023895 0.008159086 0.00788374 0.007581296 0.0072568776 0.0069156205
        0.00656253 0.0062023536 0.005839483 0.005477881 0.005121026 0.0047718706
        0.0044327835 0.004105435 0.0037905579 0.0034875215 0.0031938024 0.0029048228
        0.0026154264 0.0023244154 0.0020402274 0.0017804306 0.0015619472 0.0013909998
        0.0012668472 0.0011858733 0.009026594 0.008989174 0.008926867 0.008817454
        0.008663306 0.008467635 0.008234365 0.007967971 0.007673314 0.007355461
        0.007019528 0.006670529 0.0063132467 0.0059521315 0.0055912216 0.005234086
        0.0048837787 0.004542783 0.0042128996 0.0038950231 0.0035887393 0.0032918095
        0.0029999802 0.0027083233 0.002415582 0.0021298917 0.0018686329 0.0016488298
        0.0014777664 0.001358106 0.0012902846 0.009030748 0.009005047 0.008954383
        0.0088563245 0.008713052 0.008527607 0.008303765 0.008045881 0.007758722
        0.0074472935 0.0071166777 0.006771882 0.00641771 0.0060586515 0.005698805
        0.005341814 0.004990819 0.004648405 0.004316499 0.003996165 0.0036872348
        0.0033878214 0.003094099 0.002801468 0.0025085937 0.002223057 0.0019616918
        0.0017416169 0.001571797 0.0014584698 0.001404752 0.009034909 0.0090196775
        0.008979489 0.008891721 0.00875838 0.008582351 0.008367268 0.00811737
        0.00783733 0.007532085 0.0072066765 0.0068660965 0.006515154 0.006158367
        0.0057998775 0.005443388 0.0050921147 0.004748732 0.0044152886 0.0040930267
        0.0037820584 0.0034809238 0.003186348 0.0028941885 0.0026030336 0.0023196128
        0.002059758 0.0018406824 0.0016737378 0.0015686541 0.0015293644 0.009039078
        0.009033147 0.009002324 0.008923813 0.008799467 0.008632027 0.008424998
        0.008182507 0.007909135 0.007609754 0.0072893575 0.0069529144 0.006605231
        0.0062508415 0.00589392 0.005538217 0.005187008 0.0048430515 0.004508513
        0.004184824 0.0038724137 0.0035703338 0.0032760047 0.0029859082 0.0026985859
        0.0024195805 0.0021631413 0.0019465727 0.001784391 0.0016894079 0.0016638697
        0.009043254 0.009045546 0.009023047 0.008952808 0.008836547 0.008676874
        0.008477178 0.008241483 0.007974284 0.0076803854 0.0073647355 0.0070322743
        0.0066878 0.006335853 0.005980632 0.0056259227 0.0052750534 0.004930856
        0.0045956117 0.004270952 0.003957668 0.0036554143 0.0033624738 0.0030761654
        0.002795066 0.0025231577 0.0022723712 0.0020600692 0.0019047605 0.0018215115
        0.0018075716 0.0090474365 0.009056962 0.009041818 0.008978922 0.008869872
        0.008717166 0.008524085 0.008294559 0.008033006 0.0077441675 0.007432945
        0.007104249 0.006762865 0.0064133364 0.006059875 0.005706297 0.0053559737
        0.005011804 0.004676185 0.004350963 0.0040373327 0.0037356585 0.0034452756
        0.00316461 0.0028924285 0.0026307553 0.0023882622 0.0021822606 0.0020361051
        0.0019657803 0.0019592256 0.009051625 0.009067472 0.009058779 0.009002349
        0.008899676 0.008753156 0.00856598 0.008341992 0.0080855405 0.007801307
        0.0074941516 0.0071689556 0.006830488 0.006483291 0.0061315866 0.005779213
        0.005429579 0.0050856457 0.0047499267 0.004424499 0.0041110083 0.003810639
        0.0035239998 0.003250965 0.002990754 0.0027430258 0.0025119868 0.0023146316
        0.002180006 0.0021230828 0.002116956 0.009055819 0.009077128 0.009074027
        0.009023221 0.008926114 0.008785017 0.008603036 0.008383948 0.008132034
        0.007851926 0.0075484426 0.0072264383 0.0068906657 0.006545663 0.0061956584
        0.005844508 0.0054956516 0.0051521105 0.004816516 0.0044911904 0.004178283
        0.003879916 0.0035982227 0.003334956 0.003090206 0.0028608837 0.00264517
        0.0024591784 0.0023384534 0.0022944075 0.0022782418 0.009060019 0.009086373
        0.009088446 0.0090428535 0.008950915 0.008814863 0.00863773 0.008423222
        0.008175564 0.007899337 0.007599325 0.0072803525 0.006947158 0.006604274
        0.0062559335 0.0059060077 0.0055579683 0.005214894 0.0048795403 0.0045544966
        0.004242466 0.003946634 0.0036709288 0.003419475 0.003193777 0.0029875976
        0.002790635 0.002615477 0.0025045944 0.002468063 0.0024320004
      </DataArray>
    </PointData>
    <CellData>
    </CellData>
    <Points>
      <DataArray type="Float32" Name="Points" NumberOfComponents="3" format="ascii" RangeMin="0.8901735546277001" RangeMax="1.0264578373846343">
        0.45148814 -0.014297813 0.76704824 0.4641266 -0.014300216 0.7671772
        0.47670087 -0.0143025275 0.7673012 0.489146 -0.014304738 0.76741976
        0.5013995 -0.014306833 0.76753217 0.513403 -0.014308799 0.7676376
        0.52510285 -0.014310622 0.7677354 0.53645134 -0.014312289 0.7678249
        0.54740703 -0.014313792 0.7679055 0.55793536 -0.0143151255 0.76797706
        0.5680086 -0.01431629 0.76803946 0.57760614 -0.014317288 0.76809305
        0.58671385 -0.014318127 0.7681381 0.595324 -0.01431882 0.76817524
        0.6034345 -0.014319377 0.7682051 0.6110487 -0.014319813 0.7682285
        0.6181742 -0.014320143 0.7682462 0.6248226 -0.014320381 0.768259
        0.63100874 -0.014320542 0.76826763 0.63674986 -0.014320639 0.7682729
        0.6420653 -0.014320685 0.7682753 0.64697564 -0.014320689 0.76827556
        0.65150255 -0.014320663 0.7682741 0.65566814 -0.014320612 0.7682714
        0.6594946 -0.014320545 0.7682678 0.6630038 -0.014320467 0.7682636
        0.6662175 -0.014320381 0.768259 0.6691567 -0.014320292 0.7682542
        0.6718413 -0.014320201 0.76824933 0.6742909 -0.014320112 0.76824456
        0.6765236 -0.014320025 0.7682399 0.45148814 -0.013953432 0.7670546
        0.46413207 -0.013954691 0.7671836 0.4767118 -0.013955925 0.7673077
        0.48916227 -0.013957131 0.7674263 0.50142103 -0.013958295 0.7675387
        0.51342964 -0.013959401 0.7676443 0.5251345 -0.013960435 0.7677421
        0.5364877 -0.013961381 0.76783156 0.547448 -0.013962231 0.76791227
        0.55798054 -0.013962976 0.76798385 0.5680579 -0.013963613 0.76804626
        0.57765913 -0.013964145 0.76809984 0.58677036 -0.013964574 0.76814485
        0.5953836 -0.013964908 0.768182 0.603497 -0.013965156 0.76821184
        0.61111367 -0.013965328 0.7682352 0.61824137 -0.013965437 0.7682529
        0.62489164 -0.013965495 0.76826566 0.6310792 -0.013965515 0.76827425
        0.63682127 -0.013965516 0.76827943 0.642137 -0.013965529 0.7682819
        0.6470465 -0.013965597 0.7682821 0.65157056 -0.013965806 0.7682806
        0.6557295 -0.013966278 0.7682779 0.6595424 -0.013967187 0.76827425
        0.66302633 -0.013968733 0.76827 0.6661945 -0.013971278 0.7682654
        0.6690553 -0.013976744 0.7682607 0.67162496 -0.013995811 0.7682558
        0.67396337 -0.014054034 0.7682501 0.67616904 -0.014157331 0.7682437
        0.45148814 -0.01360905 0.7670608 0.46413755 -0.01360862 0.7671899
        0.47672278 -0.013608225 0.767314 0.48917866 -0.013607864 0.76743275
        0.5014428 -0.013607524 0.7675453 0.51345664 -0.013607187 0.76765084
        0.5251665 -0.013606838 0.7677488 0.53652465 -0.0136064645 0.76783824
        0.5474896 -0.013606054 0.76791894 0.5580267 -0.013605597 0.7679905
        0.5681082 -0.013605091 0.768053 0.57771343 -0.013604531 0.7681066
        0.58682823 -0.013603922 0.76815164 0.59544486 -0.013603268 0.7681887
        0.6035613 -0.013602573 0.7682186 0.6111807 -0.013601849 0.76824194
        0.6183108 -0.013601101 0.7682595 0.6249631 -0.01360034 0.7682723
        0.63115233 -0.01359958 0.76828086 0.6368956 -0.013598848 0.76828605
        0.6422118 -0.013598189 0.7682885 0.6471206 -0.013597697 0.7682887
        0.6516417 -0.013597532 0.7682872 0.6557936 -0.013597956 0.76828444
        0.6595924 -0.013599315 0.7682808 0.6630502 -0.013602004 0.7682766
        0.66617256 -0.013606722 0.76827204 0.66895884 -0.01361704 0.76826733
        0.6714237 -0.013651602 0.7682623 0.67365223 -0.013756807 0.7682561
        0.6758038 -0.013957455 0.7682481 0.45148814 -0.013264664 0.76706684
        0.46414307 -0.013262083 0.76719606 0.4767338 -0.013259582 0.7673203
        0.48919517 -0.013257163 0.767439 0.5014647 -0.013254809 0.76755166
        0.5134839 -0.013252512 0.7676573 0.525199 -0.013250249 0.7677552
        0.53656214 -0.013248013 0.7678448 0.5475319 -0.0132457875 0.76792556
        0.5580736 -0.0132435635 0.76799715 0.56815946 -0.013241338 0.7680597
        0.5777688 -0.013239102 0.76811326 0.5868875 -0.013236862 0.7681583
        0.5955077 -0.013234617 0.76819545 0.6036274 -0.01323237 0.76822525
        0.6112498 -0.013230126 0.7682486 0.6183825 -0.013227891 0.76826626
        0.6250371 -0.0132256765 0.76827896 0.6312282 -0.0132234935 0.7682876
        0.63697284 -0.0132213775 0.76829267 0.6422897 -0.0132193975 0.7682951
        0.64719796 -0.013217697 0.7682953 0.6517162 -0.013216525 0.7682938
        0.6558609 -0.013216293 0.768291 0.6596451 -0.013217541 0.7682874
        0.66307604 -0.0132208485 0.7682832 0.6661531 -0.013227201 0.76827866
        0.668869 -0.013241478 0.76827407 0.6712387 -0.01328782 0.768269
        0.6733603 -0.013428137 0.76826257 0.6754324 -0.013714036 0.76825327
        0.45148814 -0.012920277 0.76707274 0.46414858 -0.012915168 0.76720196
        0.47674486 -0.01291017 0.76732635 0.4892118 -0.012905287 0.76744515
        0.50148684 -0.012900502 0.76755786 0.5135114 -0.012895808 0.7676636
        0.5252318 -0.012891185 0.76776165 0.53660005 -0.012886622 0.76785123
        0.5475748 -0.012882106 0.76793206 0.55812126 -0.012877625 0.7680037
        0.5682117 -0.012873175 0.7680662 0.57782537 -0.01286875 0.7681198
        0.58694804 -0.0128643485 0.76816493 0.59557205 -0.0128599685 0.76820207
        0.6036952 -0.012855615 0.76823187 0.6113208 -0.012851284 0.76825523
        0.61845636 -0.012846987 0.7682729 0.6251134 -0.012842722 0.7682856
        0.6313067 -0.012838514 0.76829416 0.637053 -0.012834399 0.76829934
        0.64237076 -0.012830474 0.7683017 0.6472786 -0.012826937 0.7683019
        0.651794 -0.012824142 0.7683004 0.65593153 -0.012822666 0.7682977
        0.6597009 -0.012823246 0.76829404 0.6631048 -0.012826643 0.7682898
        0.66613746 -0.012834035 0.7682854 0.66878784 -0.012851204 0.7682808
        0.67107195 -0.01290555 0.76827586 0.67309135 -0.013068765 0.76826924
        0.675062 -0.013421392 0.76825917 0.45148814 -0.012575885 0.76707846
        0.46415415 -0.012567972 0.7672078 0.47675604 -0.012560186 0.76733226
        0.48922852 -0.012552531 0.76745117 0.50150913 -0.012544996 0.767564
        0.51353914 -0.012537572 0.7676698 0.5252649 -0.012530242 0.76776785
        0.53663844 -0.012522993 0.76785755 0.54761827 -0.012515811 0.7679384
        0.5581696 -0.012508688 0.7680101 0.5682647 -0.012501612 0.76807266
        0.5778828 -0.01249458 0.7681263 0.5870098 -0.012487587 0.7681714
        0.59563774 -0.01248063 0.76820856 0.6037646 -0.012473709 0.7682384
        0.6113935 -0.012466824 0.7682618 0.6185322 -0.01245997 0.7682794
        0.62519205 -0.012453158 0.7682921 0.63138765 -0.012446407 0.7683007
        0.63713586 -0.012439764 0.76830584 0.6424548 -0.012433354 0.7683083
        0.6473625 -0.0124274315 0.76830846 0.6518752 -0.012422476 0.7683069
        0.65600556 -0.01241923 0.7683042 0.65976 -0.012418652 0.7683006
        0.66313726 -0.012421649 0.7682965 0.66612726 -0.0124294795 0.76829207
        0.6687174 -0.012448365 0.76828754 0.6709253 -0.0125069395 0.7682827
        0.6728497 -0.01268094 0.7682762 0.6747027 -0.013075889 0.7682659
        0.45148814 -0.012231492 0.767084 0.46415973 -0.012220604 0.76721346
        0.4767672 -0.012209853 0.767338 0.48924536 -0.01219924 0.76745707
        0.50153154 -0.012188757 0.7675699 0.5135671 -0.012178392 0.76767576
        0.5252983 -0.012168134 0.7677739 0.5366772 -0.012157965 0.7678637
        0.5476622 -0.012147875 0.7679446 0.55821854 -0.012137852 0.7680164
        0.5683185 -0.012127886 0.768079 0.5779412 -0.012117968 0.7681327
        0.5870725 -0.012108095 0.76817775 0.5957045 -0.012098259 0.76821494
        0.6038352 -0.012088456 0.7682448 0.6114678 -0.012078686 0.76826817
        0.6186097 -0.012068942 0.7682858 0.6252726 -0.0120592285 0.76829857
        0.6314708 -0.012049566 0.76830715 0.63722116 -0.012040017 0.7683123
        0.64254147 -0.012030732 0.7683147 0.6474492 -0.012022032 0.7683149
        0.65195954 -0.0120145185 0.7683134 0.6560829 -0.01200913 0.76831067
        0.65982276 -0.01200704 0.7683071 0.6631741 -0.012009266 0.768303
        0.6661239 -0.012017009 0.7682986 0.6686596 -0.012036413 0.7682943
        0.67080104 -0.012095597 0.7682895 0.6726398 -0.012269012 0.7682833
        0.6743676 -0.012678078 0.76827323 0.45148814 -0.011887097 0.7670894
        0.46416533 -0.011873174 0.767219 0.47677848 -0.011859386 0.76734364
        0.48926225 -0.011845739 0.76746273 0.5015541 -0.011832226 0.7675757
        0.5135953 -0.011818834 0.76768166 0.525332 -0.011805551 0.7677799
        0.5367162 -0.011792361 0.7678697 0.5477065 -0.011779252 0.76795065
        0.5582679 -0.011766213 0.7680225 0.5683728 -0.011753229 0.7680851
        0.5780001 -0.011740294 0.7681388 0.5871359 -0.011727398 0.76818395
        0.5957722 -0.011714535 0.76822114 0.6039069 -0.011701696 0.768251
        0.6115432 -0.011688872 0.7682744 0.6186886 -0.011676061 0.76829207
        0.6253546 -0.011663263 0.76830477 0.6315556 -0.011650497 0.76831335
        0.63730836 -0.011637838 0.76831853 0.64263034 -0.011625468 0.7683209
        0.64753836 -0.011613781 0.76832116 0.65204656 -0.0116035035 0.76831967
        0.6561633 -0.011595779 0.768317 0.65988904 -0.011591992 0.7683134
        0.66321576 -0.011593237 0.7683093 0.66612864 -0.011600485 0.768305
        0.66861606 -0.011619316 0.7683007 0.6707006 -0.011675884 0.76829624
        0.6724652 -0.011838934 0.7682904 0.6740701 -0.012233166 0.7682811
        0.45148814 -0.011542698 0.7670947 0.46417096 -0.011525802 0.7672244
        0.47678977 -0.0115090385 0.76734906 0.48927924 -0.011492418 0.7674683
        0.5015768 -0.011475934 0.7675813 0.51362354 -0.011459571 0.7676873
        0.52536577 -0.01144332 0.76778567 0.53675544 -0.011427163 0.76787555
        0.547751 -0.0114110885 0.76795655 0.55831754 -0.011395084 0.76802844
        0.5684274 -0.011379132 0.7680911 0.57805955 -0.011363227 0.76814485
        0.58719987 -0.011347354 0.76818997 0.59584045 -0.011331506 0.76822716
        0.60397923 -0.01131567 0.768257 0.6116193 -0.0112998355 0.76828045
        0.6187683 -0.011283995 0.7682981 0.62543756 -0.011268147 0.76831084
        0.63164157 -0.011252314 0.7683194 0.6373969 -0.011236579 0.76832455
        0.64272064 -0.01122116 0.76832694 0.64762926 -0.011206519 0.7683272
        0.6521356 -0.011193524 0.7683257 0.6562461 -0.011183519 0.768323
        0.65995866 -0.011178093 0.7683194 0.6632625 -0.011178365 0.7683154
        0.66614187 -0.0111849215 0.76831114 0.66858774 -0.011202335 0.768307
        0.6706251 -0.011253705 0.7683027 0.6723286 -0.011398852 0.7682973
        0.67382306 -0.011753329 0.768289 0.45148814 -0.011198297 0.7670998
        0.4641766 -0.01117855 0.76722956 0.4768011 -0.011158936 0.7673543
        0.48929626 -0.011139468 0.76747364 0.5015995 -0.011120137 0.76758677
        0.5136519 -0.011100933 0.76769286 0.5253997 -0.011081841 0.7677912
        0.53679484 -0.011062849 0.76788116 0.54779565 -0.01104394 0.7679622
        0.5583674 -0.0110251 0.76803416 0.56848216 -0.011006316 0.76809686
        0.57811916 -0.010987573 0.76815057 0.58726406 -0.010968861 0.76819575
        0.595909 -0.010950164 0.76823294 0.6040519 -0.0109314695 0.76826286
        0.6116959 -0.010912765 0.7682862 0.6188485 -0.010894037 0.7683039
        0.6255211 -0.010875283 0.7683166 0.63172823 -0.010856527 0.76832515
        0.63748616 -0.010837866 0.76833034 0.64281195 -0.010819547 0.7683328
        0.64772135 -0.010802112 0.76833296 0.6522261 -0.010786562 0.76833147
        0.6563309 -0.010774449 0.7683288 0.66003114 -0.010767555 0.7683252
        0.663314 -0.010766966 0.76832116 0.6661638 -0.010772745 0.768317
        0.66857433 -0.010788109 0.76831293 0.67057365 -0.010832375 0.7683088
        0.67222935 -0.01095454 0.768304 0.6736327 -0.011249394 0.768297
        0.45148814 -0.010853895 0.76710474 0.46418226 -0.010831471 0.76723456
        0.47681248 -0.010809185 0.76735944 0.48931336 -0.010787051 0.7674788
        0.50162226 -0.010765062 0.767592 0.5136803 -0.010743205 0.76769817
        0.52543366 -0.010721468 0.76779664 0.53683424 -0.010699835 0.76788664
        0.5478404 -0.010678291 0.7679677 0.5584173 -0.010656822 0.76803964
        0.5685371 -0.0106354095 0.7681024 0.5781788 -0.010614041 0.7681562
        0.5873283 -0.010592702 0.76820135 0.59597766 -0.010571376 0.76823854
        0.6041247 -0.010550046 0.7682684 0.6117726 -0.010528697 0.76829183
        0.6189289 -0.010507313 0.7683094 0.625605 -0.010485888 0.76832217
        0.6318152 -0.010464452 0.7683307 0.63757586 -0.01044311 0.7683359
        0.64290375 -0.010422146 0.76833826 0.64781404 -0.010402174 0.76833844
        0.6523175 -0.010384336 0.76833695 0.65641713 -0.010370385 0.76833427
        0.6601061 -0.010362279 0.7683307 0.6633701 -0.010361027 0.7683267
        0.66619396 -0.010366048 0.7683225 0.66857517 -0.01037895 0.76831853
        0.6705448 -0.010414863 0.76831466 0.67216575 -0.01051124 0.7683103
        0.673502 -0.010733436 0.76830465 0.45148814 -0.010509491 0.7671095
        0.46418792 -0.010484667 0.76723945 0.47682387 -0.010459997 0.76736444
        0.48933047 -0.010435491 0.76748383 0.501645 -0.010411144 0.7675971
        0.5137087 -0.010386944 0.76770335 0.52546763 -0.010362876 0.7678018
        0.53687364 -0.010338926 0.7678919 0.54788506 -0.010315076 0.767973
        0.55846715 -0.010291316 0.76804495 0.56859183 -0.010267622 0.7681077
        0.57823837 -0.010243981 0.7681615 0.5873924 -0.010220377 0.76820666
        0.5960461 -0.01019679 0.76824385 0.60419726 -0.0101732025 0.7682738
        0.611849 -0.010149594 0.7682971 0.61900896 -0.010125951 0.7683147
        0.62568843 -0.010102262 0.7683274 0.63190174 -0.010078561 0.768336
        0.63766515 -0.010054964 0.7683411 0.6429951 -0.010031789 0.76834345
        0.6479065 -0.010009724 0.7683436 0.65240896 -0.009990048 0.76834214
        0.6565039 -0.0099746995 0.7683394 0.6601827 -0.009965799 0.7683359
        0.6634299 -0.009964235 0.7683318 0.6662316 -0.009968701 0.7683278
        0.66858906 -0.0099790655 0.76832384 0.6705368 -0.010006197 0.7683201
        0.6721351 -0.010076347 0.76831615 0.673431 -0.010222807 0.76831174
        0.45148814 -0.010165083 0.76711416 0.4641936 -0.010138215 0.7672442
        0.47683525 -0.010111522 0.7673692 0.48934758 -0.010085017 0.7674887
        0.5016678 -0.010058693 0.767602 0.5137371 -0.010032539 0.7677083
        0.5255015 -0.0100065395 0.7678068 0.5369129 -0.00998068 0.7678969
        0.5479296 -0.009954945 0.7679781 0.5585167 -0.009929316 0.76805
        0.5686463 -0.0099037755 0.76811284 0.5782975 -0.009878308 0.7681666
        0.587456 -0.009852891 0.7682118 0.5961139 -0.009827508 0.7682489
        0.60426915 -0.009802136 0.76827884 0.6119247 -0.009776753 0.76830214
        0.61908823 -0.009751342 0.7683197 0.625771 -0.009725894 0.7683324
        0.6319874 -0.009700441 0.76834095 0.6377534 -0.009675114 0.768346
        0.64308554 -0.009650263 0.7683484 0.647998 -0.0096266465 0.7683485
        0.6524996 -0.009605669 0.76834697 0.65659046 -0.009589451 0.7683442
        0.66026026 -0.009580243 0.76834065 0.66349274 -0.009578781 0.76833665
        0.66627574 -0.009582995 0.7683326 0.6686145 -0.00959099 0.7683287
        0.6705471 -0.009609559 0.7683251 0.67213345 -0.009654811 0.76832163
        0.6734138 -0.009730487 0.7683182 0.45148814 -0.009820675 0.76711863
        0.4641993 -0.009792191 0.76724875 0.47684664 -0.009763918 0.7673738
        0.48936465 -0.0097358655 0.76749337 0.5016905 -0.0097080255 0.7676067
        0.5137654 -0.009680387 0.76771307 0.5255352 -0.009652936 0.7678116
        0.53695196 -0.009625657 0.7679017 0.5479738 -0.009598532 0.7679829
        0.55856586 -0.009571543 0.7680549 0.56870025 -0.009544671 0.76811767
        0.578356 -0.009517897 0.7681714 0.58751893 -0.0094912015 0.7682166
        0.596181 -0.009464561 0.7682538 0.60434014 -0.009437954 0.7682836
        0.6119994 -0.009411356 0.7683069 0.6191663 -0.009384747 0.7683245
        0.6258523 -0.0093581155 0.76833713 0.6320716 -0.009331498 0.7683456
        0.6378403 -0.0093050385 0.76835066 0.6431744 -0.009279113 0.768353
        0.6480879 -0.009254549 0.76835304 0.6525889 -0.0092328675 0.7683515
        0.6566761 -0.009216349 0.76834875 0.660338 -0.009207353 0.7683452
        0.6635578 -0.009206438 0.7683411 0.6663254 -0.00921077 0.7683371
        0.6686499 -0.009216755 0.76833326 0.6705733 -0.0092275 0.76832974
        0.6721566 -0.0092505105 0.7683265 0.67344207 -0.009265981 0.76832384
        0.45148814 -0.009476263 0.767123 0.46420497 -0.009446666 0.7672531
        0.47685802 -0.0094173215 0.7673783 0.48938167 -0.009388239 0.76749784
        0.50171316 -0.00935941 0.76761127 0.5137935 -0.009330823 0.7677176
        0.5255688 -0.0093024615 0.76781625 0.5369907 -0.0092743095 0.76790637
        0.5480176 -0.009246348 0.76798755 0.55861455 -0.00921856 0.76805955
        0.56875366 -0.0091909235 0.7681223 0.5784139 -0.009163418 0.768176
        0.58758104 -0.009136021 0.7682212 0.5962471 -0.009108711 0.76825833
        0.60441 -0.009081459 0.76828814 0.61207277 -0.009054242 0.7683114
        0.619243 -0.009027035 0.7683289 0.62593204 -0.008999828 0.7683415
        0.63215417 -0.008972661 0.76834995 0.6379252 -0.008945683 0.76835495
        0.6432613 -0.008919301 0.7683572 0.64817595 -0.0088944025 0.7683573
        0.65267646 -0.008872614 0.7683557 0.6567605 -0.00885636 0.7683529
        0.66041553 -0.008848082 0.7683493 0.6636247 -0.008848148 0.7683453
        0.6663797 -0.008852982 0.7683412 0.66869396 -0.008857428 0.76833737
        0.670613 -0.00886141 0.768334 0.6722005 -0.008865594 0.768331
        0.67350614 -0.008833931 0.7683288 0.45148814 -0.009131851 0.76712716
        0.4642107 -0.0091017075 0.76725733 0.4768694 -0.009071867 0.7673825
        0.4893987 -0.009042334 0.7675022 0.5017357 -0.0090131 0.7676156
        0.5138215 -0.00898415 0.767722 0.52560204 -0.00895547 0.7678206
        0.53702915 -0.008927041 0.7679107 0.548061 -0.008898843 0.76799196
        0.5586627 -0.008870854 0.7680639 0.56880635 -0.008843054 0.76812667
        0.57847095 -0.00881542 0.7681804 0.58764213 -0.008787926 0.76822555
        0.59631205 -0.008760549 0.7682626 0.6044786 -0.008733259 0.76829237
        0.61214477 -0.008706029 0.7683156 0.6193181 -0.008678831 0.7683331
        0.62601006 -0.008651659 0.76834565 0.63223475 -0.008624547 0.768354
        0.6380082 -0.008597659 0.768359 0.64334613 -0.008571425 0.7683612
        0.6482618 -0.008546785 0.7683612 0.65276194 -0.008525463 0.7683596
        0.65684336 -0.008509999 0.76835674 0.6604926 -0.008502903 0.7683531
        0.66369283 -0.008504347 0.768349 0.666438 -0.00851006 0.768345
        0.6687453 -0.008513485 0.7683412 0.6706641 -0.008511924 0.76833785
        0.6722615 -0.008501 0.768335 0.67359716 -0.008435529 0.7683331
        0.45148814 -0.0087874355 0.76713115 0.46421638 -0.008757379 0.7672614
        0.47688076 -0.008727673 0.7673866 0.48941565 -0.008698324 0.7675063
        0.50175816 -0.008669315 0.7676197 0.5138493 -0.008640636 0.7677262
        0.52563506 -0.008612265 0.7678248 0.5370672 -0.008584183 0.76791495
        0.5481039 -0.00855637 0.76799613 0.5587103 -0.0085288 0.76806813
        0.5688583 -0.008501451 0.76813084 0.57852703 -0.0084743 0.76818454
        0.5877022 -0.0084473165 0.76822966 0.5963758 -0.008420475 0.7682667
        0.6045458 -0.008393745 0.7682964 0.61221516 -0.008367095 0.76831955
        0.6193915 -0.0083404975 0.768337 0.6260862 -0.008313941 0.76834947
        0.6323134 -0.008287464 0.7683578 0.6380889 -0.008261239 0.7683627
        0.6434286 -0.008235716 0.76836485 0.6483453 -0.008211884 0.76836485
        0.65284526 -0.008191544 0.7683632 0.65692455 -0.008177346 0.76836026
        0.6605689 -0.008171843 0.76835656 0.6637619 -0.008175014 0.7683525
        0.66649956 -0.0081819445 0.76834846 0.66880286 -0.008184871 0.76834464
        0.67072475 -0.008179008 0.76834136 0.6723364 -0.008156652 0.76833856
        0.67370766 -0.008069606 0.76833683 0.45148814 -0.008443018 0.7671351
        0.46422207 -0.008413737 0.76726526 0.47689208 -0.008384851 0.76739055
        0.48943254 -0.008356359 0.7675103 0.50178045 -0.008328245 0.7676237
        0.5138769 -0.008300494 0.7677302 0.5256678 -0.008273084 0.76782876
        0.53710485 -0.0082459925 0.76791894 0.54814625 -0.008219196 0.7680001
        0.5587571 -0.00819267 0.76807207 0.56890947 -0.008166387 0.7681348
        0.57858217 -0.00814032 0.7681884 0.5877611 -0.008114441 0.7682335
        0.5964383 -0.008088718 0.7682705 0.6046115 -0.00806312 0.7683002
        0.61228395 -0.008037613 0.7683233 0.6194631 -0.008012168 0.76834065
        0.6261603 -0.007986772 0.7683531 0.6323898 -0.007961463 0.76836133
        0.6381674 -0.007936423 0.7683662 0.64350873 -0.007912119 0.7683683
        0.6484264 -0.00788958 0.76836824 0.6529264 -0.0078706825 0.76836646
        0.65700394 -0.007858162 0.76836354 0.66064435 -0.0078546 0.7683598
        0.66383165 -0.00785979 0.7683557 0.66656387 -0.007868239 0.7683516
        0.66886556 -0.007871151 0.76834786 0.6707934 -0.007862177 0.7683445
        0.67242235 -0.0078318 0.7683418 0.67383164 -0.0077337446 0.76834
        0.45148814 -0.0080986 0.7671388 0.46422777 -0.0080708405 0.7672691
        0.47690338 -0.008043506 0.7673943 0.48944932 -0.008016588 0.76751405
        0.5018026 -0.007990072 0.76762754 0.5139043 -0.007963934 0.76773393
        0.52570015 -0.007938153 0.7678326 0.53714204 -0.007912704 0.7679227
        0.54818803 -0.00788756 0.7680039 0.55880326 -0.0078626955 0.7680758
        0.5689597 -0.007838081 0.7681385 0.5786363 -0.0078136865 0.7681921
        0.58781886 -0.0077894805 0.7682371 0.5964994 -0.0077654324 0.76827407
        0.60467577 -0.0077415076 0.7683037 0.61235106 -0.00771767 0.76832676
        0.6195328 -0.0076938868 0.76834404 0.62623245 -0.0076701473 0.7683564
        0.6324641 -0.0076464918 0.7683646 0.63824356 -0.007623103 0.7683694
        0.64358646 -0.0076004695 0.76837146 0.64850515 -0.007579655 0.76837134
        0.6530052 -0.0075625954 0.7683695 0.6570814 -0.0075521003 0.7683666
        0.66071886 -0.0075507723 0.76836276 0.6639018 -0.007558222 0.76835865
        0.6666303 -0.0075684404 0.76835454 0.6689326 -0.0075717815 0.7683507
        0.6708685 -0.007560784 0.76834744 0.67251694 -0.0075254394 0.76834464
        0.67396456 -0.0074252007 0.7683428 0.45148814 -0.0077541806 0.76714236
        0.46423346 -0.0077287396 0.76727265 0.47691464 -0.0077037276 0.76739794
        0.48946607 -0.007679131 0.7675176 0.5018247 -0.0076549305 0.7676311
        0.5139314 -0.0076311016 0.76773757 0.5257322 -0.007607621 0.7678362
        0.53717875 -0.0075844615 0.76792634 0.5482293 -0.0075615942 0.76800746
        0.5588487 -0.007538991 0.76807934 0.56900907 -0.0075166216 0.768142
        0.5786894 -0.0074944566 0.76819557 0.58787537 -0.007472461 0.7682405
        0.5965591 -0.0074506043 0.7682774 0.6047385 -0.0074288477 0.768307
        0.61241645 -0.007407157 0.7683299 0.6196007 -0.007385498 0.7683472
        0.62630254 -0.007363858 0.76835954 0.63253623 -0.0073422813 0.76836765
        0.63831747 -0.0073209545 0.7683724 0.6436618 -0.0073003825 0.7683744
        0.6485815 -0.007281658 0.7683742 0.6530817 -0.00726677 0.76837236
        0.6571571 -0.00725859 0.76836926 0.66079223 -0.0072597275 0.7683655
        0.6639721 -0.0072696265 0.76836133 0.66669863 -0.0072818217 0.7683572
        0.6690032 -0.0072859745 0.7683534 0.6709489 -0.0072739203 0.76835
        0.6726183 -0.007236245 0.76834726 0.6741029 -0.0071409885 0.7683452
        0.45148814 -0.0074097593 0.7671457 0.46423915 -0.0073875324 0.76727605
        0.47692588 -0.007365698 0.76740134 0.48948267 -0.0073442375 0.7675211
        0.5018465 -0.007323131 0.7676346 0.5139583 -0.0073023527 0.767741
        0.5257638 -0.0072818776 0.7678396 0.53721493 -0.007261679 0.76792973
        0.54826975 -0.0072417282 0.7680108 0.55889326 -0.007221996 0.7680827
        0.56905746 -0.007202452 0.7681453 0.5787413 -0.007183068 0.76819885
        0.5879306 -0.007163808 0.76824373 0.59661734 -0.0071446407 0.76828057
        0.60479945 -0.0071255295 0.76831007 0.61248 -0.0071064383 0.76833296
        0.6196666 -0.0070873355 0.7683501 0.62637055 -0.007068207 0.7683624
        0.6326061 -0.0070490986 0.76837045 0.63838893 -0.007030205 0.76837516
        0.64373463 -0.007012044 0.76837707 0.64865524 -0.006995735 0.7683768
        0.65315586 -0.006983313 0.7683749 0.65723073 -0.006977695 0.7683718
        0.6608643 -0.006981496 0.76836795 0.6640421 -0.0069939997 0.7683638
        0.6667681 -0.007008346 0.7683596 0.6690764 -0.007013654 0.7683558
        0.6710333 -0.0070013995 0.76835245 0.6727245 -0.0069636363 0.7683496
        0.6742437 -0.006879248 0.7683473 0.45148814 -0.0070653367 0.76714903
        0.4642448 -0.0070472113 0.76727927 0.4769371 -0.007029389 0.76740456
        0.4894992 -0.0070118513 0.76752436 0.5018682 -0.006994577 0.76763785
        0.51398486 -0.0069775437 0.76774424 0.5257951 -0.006960728 0.7678429
        0.53725064 -0.0069441046 0.76793295 0.5483096 -0.006927648 0.768014
        0.5589371 -0.006911331 0.76808584 0.5691049 -0.0068951244 0.76814836
        0.57879215 -0.0068790005 0.7682018 0.58798456 -0.006862928 0.7682467
        0.5966742 -0.0068468763 0.7682835 0.604859 -0.0068308115 0.76831293
        0.6125419 -0.006814698 0.76833576 0.61973065 -0.0067985053 0.76835287
        0.62643653 -0.0067822235 0.768365 0.6326738 -0.0067659006 0.76837313
        0.63845825 -0.006749738 0.7683777 0.64380515 -0.006734265 0.76837957
        0.64872676 -0.006720625 0.7683792 0.65322787 -0.00671089 0.7683773
        0.6573025 -0.0067080194 0.7683742 0.66093516 -0.0067146206 0.7683703
        0.664112 -0.0067298333 0.7683661 0.6668385 -0.0067464514 0.76836187
        0.6691519 -0.006753181 0.768358 0.6711212 -0.006741428 0.7683546
        0.6728344 -0.006705417 0.7683516 0.6743856 -0.0066363816 0.7683492
        0.45148814 -0.006720912 0.7671521 0.46425048 -0.0067081572 0.7672824
        0.4769482 -0.0066955187 0.76740766 0.48951557 -0.006682985 0.7675274
        0.5018896 -0.006670545 0.76764095 0.514011 -0.006658182 0.76774734
        0.5258258 -0.0066458834 0.7678459 0.5372856 -0.0066336296 0.76793593
        0.5483486 -0.0066214018 0.768017 0.55897975 -0.0066091795 0.76808876
        0.56915104 -0.006596942 0.7681513 0.5788415 -0.0065846643 0.7682047
        0.58803684 -0.0065723234 0.76824945 0.59672916 -0.006559892 0.76828617
        0.60491633 -0.00654734 0.76831555 0.61260146 -0.0065346393 0.7683384
        0.6197922 -0.006521762 0.7683554 0.6264999 -0.006508702 0.7683675
        0.6327387 -0.0064955144 0.7683755 0.63852453 -0.0064824065 0.76838005
        0.6438726 -0.0064699184 0.76838183 0.64879507 -0.006459218 0.7683815
        0.65329677 -0.0064524063 0.76837945 0.65737146 -0.0064524747 0.7683763
        0.6610038 -0.0064620213 0.76837236 0.66418046 -0.0064800535 0.76836807
        0.6669086 -0.0064990735 0.7683639 0.66922796 -0.0065074945 0.76835996
        0.67121005 -0.0064968793 0.7683565 0.6729452 -0.006464044 0.76835346
        0.6745247 -0.0064144186 0.7683507 0.45148814 -0.0063764863 0.767155
        0.46425614 -0.0063699004 0.76728535 0.4769593 -0.0063631716 0.76741064
        0.48953187 -0.0063563026 0.7675304 0.5019108 -0.006349298 0.7676438
        0.51403695 -0.006342157 0.76775026 0.5258562 -0.006334876 0.7678488
        0.53732014 -0.00632745 0.7679388 0.54838705 -0.0063198702 0.7680198
        0.5590218 -0.006312128 0.76809156 0.5691964 -0.00630421 0.76815397
        0.57888997 -0.006296102 0.7682074 0.58808815 -0.006287789 0.7682521
        0.59678304 -0.006279249 0.7682888 0.60497254 -0.0062704626 0.76831806
        0.61265975 -0.006261404 0.7683408 0.61985236 -0.006252055 0.7683578
        0.62656176 -0.0062424126 0.7683698 0.63280207 -0.0062325406 0.7683777
        0.6385892 -0.006222652 0.76838225 0.6439384 -0.0062133013 0.768384
        0.6488618 -0.0062056724 0.76838356 0.6533641 -0.006201893 0.76838154
        0.65743923 -0.006204982 0.76837826 0.6610718 -0.0062175184 0.7683743
        0.66424906 -0.0062383884 0.76837003 0.66697985 -0.0062598414 0.76836574
        0.6693061 -0.0062700924 0.7683618 0.6713018 -0.0062610623 0.7683583
        0.67305887 -0.0062326305 0.7683552 0.6746642 -0.0062047765 0.7683522
        0.45148814 -0.006032059 0.7671578 0.4642618 -0.006031067 0.76728815
        0.47697046 -0.0060297293 0.76741344 0.4895483 -0.0060280603 0.7675332
        0.50193226 -0.0060260706 0.7676466 0.5140632 -0.006023772 0.767753
        0.5258869 -0.0060211676 0.76785153 0.5373551 -0.0060182605 0.76794153
        0.548426 -0.0060150516 0.7680225 0.55906445 -0.0060115373 0.76809424
        0.5692426 -0.006007713 0.76815665 0.5789393 -0.006003572 0.76821
        0.5881404 -0.0059991023 0.76825464 0.596838 -0.0059942906 0.76829123
        0.60502994 -0.00598912 0.7683205 0.61271936 -0.005983573 0.76834315
        0.61991394 -0.0059776334 0.7683601 0.6266251 -0.005971306 0.76837206
        0.63286704 -0.005964656 0.7683799 0.63865554 -0.0059579043 0.76838434
        0.644006 -0.0059516155 0.76838607 0.64893055 -0.005946987 0.7683856
        0.6534338 -0.0059461687 0.7683835 0.6575098 -0.0059521953 0.7683802
        0.66114324 -0.0059676245 0.7683762 0.66432214 -0.005991216 0.7683719
        0.6670568 -0.006014986 0.7683676 0.66939145 -0.0060270443 0.76836365
        0.6714024 -0.006019959 0.7683601 0.6731826 -0.0059974156 0.7683568
        0.67481375 -0.0059917103 0.7683536 0.45148814 -0.0056876307 0.7671604
        0.46426752 -0.005691181 0.76729083 0.4769817 -0.0056942734 0.76741606
        0.4895649 -0.005696922 0.76753587 0.501954 -0.005699142 0.76764935
        0.5140898 -0.0057009454 0.7677557 0.52591825 -0.005702341 0.7678542
        0.53739095 -0.0057033347 0.7679442 0.54846597 -0.005703929 0.76802516
        0.5591083 -0.0057041245 0.76809686 0.5692901 -0.0057039196 0.7681592
        0.57899016 -0.005703309 0.76821256 0.58819443 -0.0057022856 0.76825714
        0.59689486 -0.0057008383 0.7682937 0.6050894 -0.0056989538 0.7683229
        0.6127813 -0.005696615 0.76834553 0.6199781 -0.0056938105 0.76836234
        0.6266912 -0.005690547 0.7683743 0.6329349 -0.0056868917 0.76838213
        0.63872504 -0.005683071 0.7683865 0.644077 -0.0056796535 0.7683881
        0.64900285 -0.005677848 0.76838756 0.6535075 -0.0056798174 0.76838547
        0.6575849 -0.005688604 0.76838213 0.6612202 -0.0057067345 0.7683781
        0.6644019 -0.0057328395 0.7683737 0.667142 -0.0057587232 0.76836944
        0.669487 -0.0057725045 0.76836544 0.6715154 -0.0057677776 0.76836175
        0.6733204 -0.0057527004 0.7683584 0.6749787 -0.005768538 0.76835495
        0.45148814 -0.0053432016 0.7671629 0.46427327 -0.0053505143 0.7672933
        0.47699305 -0.005357312 0.7674186 0.48958167 -0.005363606 0.76753837
        0.501976 -0.005369411 0.7676519 0.5141169 -0.0053747375 0.7677583
        0.52595013 -0.005379596 0.7678568 0.5374273 -0.005383991 0.7679468
        0.5485067 -0.005387926 0.7680277 0.55915314 -0.005391403 0.7680994
        0.5693387 -0.005394421 0.7681617 0.5790423 -0.005396975 0.768215
        0.58824986 -0.005399059 0.7682596 0.59695333 -0.005400664 0.7682961
        0.6051507 -0.0054017757 0.7683252 0.6128451 -0.005402381 0.7683478
        0.62004423 -0.005402467 0.7683646 0.6267595 -0.005402043 0.76837647
        0.6330052 -0.0054011773 0.7683843 0.6387971 -0.0054000984 0.76838857
        0.64415073 -0.0053993766 0.7683901 0.64907825 -0.005400225 0.7683896
        0.65358466 -0.0054048127 0.7683874 0.6576641 -0.005416179 0.768384
        0.66130215 -0.005436811 0.7683799 0.66448814 -0.0054652104 0.7683756
        0.6672354 -0.0054930043 0.7683712 0.66959274 -0.0055084513 0.7683672
        0.67164075 -0.0055065462 0.7683635 0.673472 -0.005500218 0.76835996
        0.6751582 -0.0055372845 0.76835626 0.45148814 -0.0049987715 0.76716524
        0.46427906 -0.005009042 0.76729566 0.4770045 -0.0050187865 0.767421
        0.4895986 -0.005028012 0.7675408 0.50199825 -0.0050367303 0.76765436
        0.5141443 -0.0050449492 0.76776075 0.5259825 -0.005052677 0.7678593
        0.53746444 -0.005059917 0.7679493 0.5485482 -0.0050666714 0.7680302
        0.5591989 -0.0050729406 0.7681019 0.56938845 -0.0050787223 0.76816416
        0.57909584 -0.0050840117 0.76821744 0.58830684 -0.0050888034 0.76826197
        0.59701353 -0.005093085 0.7682984 0.6052139 -0.0050968453 0.76832753
        0.61291105 -0.0051000686 0.76835 0.6201127 -0.005102744 0.7683668
        0.62683034 -0.0051048785 0.7683787 0.6330782 -0.005106542 0.76838636
        0.6388721 -0.005107961 0.7683906 0.6442277 -0.005109707 0.7683921
        0.64915717 -0.005112989 0.76839155 0.6536658 -0.0051199715 0.7683893
        0.65774804 -0.0051336796 0.7683859 0.66139 -0.0051565506 0.7683818
        0.6645817 -0.005186963 0.76837736 0.66733813 -0.0052164085 0.76837295
        0.6697103 -0.005233448 0.7683689 0.6717802 -0.0052348655 0.7683651
        0.6736394 -0.0052384273 0.76836145 0.67535466 -0.005295912 0.7683576
        0.45148814 -0.0046543395 0.7671674 0.46428484 -0.004666833 0.76729786
        0.477016 -0.0046788226 0.7674233 0.48961568 -0.004690309 0.76754314
        0.50202084 -0.004701302 0.7676566 0.5141721 -0.004711806 0.76776314
        0.52601534 -0.004721825 0.76786166 0.5375021 -0.004731361 0.76795167
        0.5485906 -0.0047404133 0.7680326 0.55924565 -0.0047489805 0.7681042
        0.56943935 -0.004757059 0.76816654 0.5791506 -0.0047646426 0.7682197
        0.5883653 -0.0047717225 0.76826423 0.59707546 -0.0047782874 0.7683007
        0.605279 -0.0047843247 0.76832974 0.6129791 -0.004789816 0.7683522
        0.6201835 -0.0047947513 0.7683689 0.6269037 -0.004799137 0.7683807
        0.6331539 -0.00480304 0.76838833 0.63895005 -0.004806685 0.76839256
        0.6443078 -0.004810638 0.76839405 0.64923966 -0.0048160995 0.7683934
        0.653751 -0.004825217 0.76839113 0.6578369 -0.004840986 0.7683877
        0.66148406 -0.0048657833 0.76838356 0.6646834 -0.0048978743 0.7683791
        0.6674512 -0.0049286755 0.7683747 0.66984063 -0.00494723 0.7683705
        0.6719351 -0.0049524736 0.7683667 0.67382395 -0.0049668076 0.7683629
        0.6755695 -0.0050436077 0.7683588 0.45148814 -0.0043099076 0.7671694
        0.46429065 -0.0043239347 0.76729995 0.47702757 -0.0043375017 0.7674254
        0.48963293 -0.004350607 0.7675453 0.50204355 -0.0043632537 0.7676589
        0.5142002 -0.0043754447 0.76776534 0.52604866 -0.004387181 0.7678639
        0.53754044 -0.004398461 0.76795393 0.5486337 -0.0044092815 0.7680349
        0.5592933 -0.00441964 0.7681065 0.5694914 -0.0044295285 0.7681688
        0.57920676 -0.004438941 0.768222 0.58842534 -0.0044478667 0.7682665
        0.59713906 -0.004456292 0.76830286 0.605346 -0.004464202 0.7683319
        0.6130493 -0.00447158 0.76835436 0.6202567 -0.0044784117 0.768371
        0.62697965 -0.0044847033 0.7683827 0.6332324 -0.00449052 0.76839036
        0.63903105 -0.0044960803 0.7683945 0.6443913 -0.004501941 0.7683959
        0.64932585 -0.004509286 0.76839525 0.65384054 -0.0045202305 0.7683929
        0.6579311 -0.004537724 0.7683894 0.66158485 -0.004564074 0.7683853
        0.66479385 -0.0045974455 0.7683808 0.6675757 -0.004629253 0.7683764
        0.6699854 -0.00464923 0.7683722 0.67210704 -0.0046587735 0.7683682
        0.67402756 -0.0046844636 0.76836425 0.67580473 -0.0047789933 0.76836
        0.45148814 -0.003965474 0.76717126 0.46429652 -0.0039804005 0.76730186
        0.47703922 -0.003994925 0.7674274 0.4896503 -0.004009042 0.7675473
        0.50206655 -0.004022752 0.767661 0.5142287 -0.004036055 0.7677674
        0.52608246 -0.0040489486 0.7678661 0.5375794 -0.004061429 0.7679561
        0.5486776 -0.004073492 0.768037 0.55934197 -0.00408513 0.76810867
        0.5695445 -0.0040963367 0.76817095 0.5792642 -0.0041071004 0.7682241
        0.5884868 -0.0041174116 0.7682686 0.59720445 -0.0041272547 0.76830494
        0.605415 -0.004136612 0.768334 0.6131217 -0.0041454677 0.7683563
        0.62033224 -0.0041538044 0.76837295 0.62705815 -0.004161627 0.76838464
        0.6333138 -0.0041689975 0.7683922 0.63911515 -0.004176128 0.7683963
        0.6444782 -0.0041835606 0.7683977 0.64941585 -0.0041924515 0.768397
        0.6539346 -0.00420487 0.76839465 0.6580308 -0.0042236988 0.7683912
        0.66169286 -0.0042511607 0.76838696 0.6649139 -0.0042853463 0.76838243
        0.66771275 -0.0043177577 0.76837796 0.670146 -0.00433904 0.7683737
        0.67229784 -0.0043532816 0.7683696 0.67425215 -0.004390527 0.76836556
        0.6760626 -0.0045006652 0.76836115 0.45148814 -0.0036210397 0.767173
        0.4643024 -0.0036362852 0.76730365 0.47705093 -0.0036511924 0.7674292
        0.4896678 -0.0036657548 0.7675492 0.50208974 -0.0036799705 0.7676628
        0.5142575 -0.0036938358 0.7677694 0.52611667 -0.0037073477 0.76786804
        0.53761894 -0.0037204996 0.7679581 0.5487222 -0.0037332857 0.7680391
        0.5593915 -0.0037456974 0.76811075 0.56959873 -0.0037577262 0.768173
        0.57932293 -0.00376936 0.76822615 0.5885498 -0.003780586 0.7682706
        0.59727144 -0.0037913893 0.768307 0.6054858 -0.0038017514 0.76833594
        0.61319613 -0.0038116535 0.7683583 0.6204101 -0.0038210799 0.76837486
        0.6271392 -0.0038300317 0.76838654 0.63339794 -0.003838567 0.768394
        0.63920236 -0.003846891 0.7683981 0.64456856 -0.0038555246 0.7683995
        0.64950985 -0.0038655852 0.7683987 0.65403324 -0.003879078 0.76839626
        0.65813637 -0.0038987924 0.76839274 0.66180867 -0.003926859 0.7683885
        0.66504437 -0.0039613177 0.768384 0.66786367 -0.0039938744 0.76837945
        0.67032415 -0.0040163035 0.7683751 0.67250955 -0.004035504 0.768371
        0.6744999 -0.004084032 0.76836675 0.67634565 -0.004207026 0.7683622
        0.45148814 -0.0032766052 0.76717454 0.4643083 -0.0032916418 0.76730525
        0.47706273 -0.0033064068 0.76743084 0.48968545 -0.0033208905 0.76755095
        0.50211316 -0.00333509 0.7676647 0.5142866 -0.0033490004 0.76777124
        0.52615136 -0.0033626172 0.7678699 0.537659 -0.0033759333 0.76796
        0.5487675 -0.0033889404 0.768041 0.55944186 -0.0034016306 0.7681126
        0.569654 -0.0034139925 0.7681749 0.57938284 -0.0034260142 0.76822805
        0.58861417 -0.0034376835 0.7682725 0.59734005 -0.0034489832 0.7683088
        0.60555845 -0.0034598948 0.7683378 0.6132726 -0.0034703999 0.7683601
        0.6204902 -0.0034804817 0.76837665 0.62722284 -0.0034901395 0.7683883
        0.6334849 -0.0034994285 0.7683957 0.63929266 -0.003508541 0.7683998
        0.6446623 -0.0035179742 0.7684011 0.6496077 -0.0035287929 0.76840025
        0.6541367 -0.0035429155 0.76839787 0.658248 -0.0035630125 0.7683943
        0.66193265 -0.0035911042 0.76839 0.66518617 -0.003625221 0.7683854
        0.6680298 -0.0036573983 0.7683809 0.6705217 -0.003680758 0.76837647
        0.67274433 -0.003704968 0.7683722 0.6747735 -0.0037639246 0.7683678
        0.6766566 -0.0038963216 0.7683632 0.45148814 -0.0029321697 0.7671759
        0.46431422 -0.0029465237 0.7673067 0.47707456 -0.0029606682 0.7674324
        0.4897032 -0.0029745933 0.7675525 0.50213677 -0.0029882952 0.7676663
        0.51431596 -0.003001769 0.7677729 0.52618635 -0.003015008 0.7678717
        0.5376995 -0.0030280058 0.7679618 0.54881346 -0.0030407542 0.7680428
        0.55949306 -0.0030532437 0.7681144 0.5697102 -0.0030654634 0.76817673
        0.5794439 -0.003077402 0.76822984 0.58867985 -0.0030890459 0.76827425
        0.5974102 -0.0031003791 0.76831055 0.6056329 -0.0031113836 0.76833946
        0.6133511 -0.0031220408 0.7683618 0.62057257 -0.0031323337 0.7683783
        0.62730896 -0.0031422616 0.7683899 0.63357466 -0.003151874 0.7683973
        0.639386 -0.0031613512 0.7684013 0.64475954 -0.0031711564 0.7684026
        0.64970964 -0.0031822913 0.76840174 0.654245 -0.00319656 0.7683993
        0.65836596 -0.003216483 0.76839566 0.6620653 -0.0032439516 0.7683914
        0.66534024 -0.0032770326 0.7683868 0.6682126 -0.0033082417 0.76838213
        0.6707406 -0.0033322258 0.7683776 0.6730046 -0.0033611937 0.7683732
        0.6750757 -0.003429029 0.7683688 0.6769987 -0.0035666162 0.768364
        0.45148814 -0.0025877336 0.76717716 0.46432012 -0.0026009807 0.76730806
        0.47708648 -0.0026140742 0.7674338 0.48972103 -0.0026270046 0.7675539
        0.50216055 -0.0026397684 0.7676678 0.5143456 -0.00265236 0.76777446
        0.52622175 -0.0026647737 0.7678732 0.5377406 -0.0026770022 0.76796335
        0.54886 -0.002689038 0.7680444 0.559545 -0.0027008716 0.76811606
        0.5697673 -0.0027124935 0.76817834 0.57950604 -0.0027238927 0.7682315
        0.58874685 -0.0027350553 0.7682759 0.59748185 -0.0027459676 0.7683122
        0.60570896 -0.0027566121 0.76834106 0.6134315 -0.0027669712 0.76836336
        0.6206571 -0.0027770288 0.7683798 0.6273975 -0.0027867844 0.7683914
        0.63366705 -0.0027962823 0.76839876 0.6394823 -0.0028056852 0.7684027
        0.64486015 -0.002815419 0.76840395 0.64981544 -0.0028264034 0.7684031
        0.6543582 -0.0028403022 0.7684006 0.6584904 -0.0028594448 0.768397
        0.66220725 -0.0028855759 0.7683927 0.66550744 -0.0029168525 0.768388
        0.66841364 -0.0029464304 0.76838326 0.67098325 -0.0029706068 0.7683787
        0.6732933 -0.0030036713 0.76837415 0.6754097 -0.003078012 0.7683695
        0.6773754 -0.0032157872 0.7683648 0.45148814 -0.0022432972 0.76717824
        0.4643261 -0.0022550595 0.7673092 0.4770984 -0.0022667167 0.767435
        0.489739 -0.0022782597 0.76755524 0.50218445 -0.0022896857 0.7676691
        0.51437545 -0.002300989 0.7677759 0.5262575 -0.0023121643 0.76787466
        0.5377821 -0.0023232058 0.76796484 0.54890716 -0.002334106 0.7680459
        0.5595976 -0.0023448565 0.7681176 0.5698253 -0.0023554491 0.7681799
        0.57956916 -0.0023658737 0.768233 0.58881503 -0.0023761182 0.76827747
        0.59755486 -0.0023861697 0.7683137 0.6057867 -0.0023960134 0.7683425
        0.6135137 -0.0024056332 0.7683648 0.6207437 -0.0024150147 0.76838124
        0.62748826 -0.002424157 0.76839274 0.633762 -0.0024330986 0.7684001
        0.63958156 -0.002441985 0.768404 0.6449641 -0.002451194 0.76840526
        0.6499252 -0.0024615463 0.7684043 0.6544762 -0.0024745322 0.7684018
        0.6586215 -0.0024922478 0.7683981 0.6623587 -0.0025162646 0.76839375
        0.6656888 -0.0025448916 0.76838905 0.6686347 -0.0025720957 0.7683842
        0.67125213 -0.0025958552 0.7683795 0.6736134 -0.0026318145 0.76837486
        0.6757793 -0.0027093312 0.76837015 0.6777905 -0.0028415117 0.7683653
        0.45148814 -0.00189886 0.7671792 0.46433207 -0.0019088044 0.76731014
        0.47711042 -0.0019186822 0.7674361 0.48975703 -0.0019284867 0.76755637
        0.5022086 -0.0019382144 0.76767033 0.51440555 -0.0019478614 0.7677771
        0.5262935 -0.001957423 0.7678759 0.537824 -0.001966894 0.76796615
        0.5489548 -0.0019762684 0.7680472 0.55965084 -0.0019855392 0.768119
        0.56988406 -0.0019946992 0.76818126 0.5796333 -0.0020037403 0.7682344
        0.5888843 -0.0020126526 0.7682788 0.5976292 -0.002021425 0.768315
        0.6058659 -0.002030045 0.7683438 0.61359763 -0.002038499 0.76836604
        0.6208322 -0.0020467753 0.76838243 0.62758124 -0.0020548727 0.76839393
        0.6338594 -0.0020628246 0.76840127 0.63968354 -0.0020707536 0.76840514
        0.64507115 -0.0020789828 0.76840633 0.65003866 -0.002088214 0.7684054
        0.65459913 -0.0020997275 0.7684028 0.6587593 -0.0021153355 0.76839906
        0.66252023 -0.002136405 0.7683947 0.6658853 -0.002161463 0.76838994
        0.6688778 -0.0021854592 0.76838505 0.67155004 -0.0022079481 0.7683802
        0.6739688 -0.0022449037 0.76837534 0.67618865 -0.0023211697 0.7683705
        0.6782485 -0.0024412572 0.7683657 0.45148814 -0.0015544227 0.76717997
        0.46433806 -0.0015622552 0.767311 0.47712246 -0.0015700507 0.767437
        0.48977515 -0.0015778036 0.7675573 0.5022328 -0.0015855118 0.7676713
        0.5144358 -0.0015931719 0.76777816 0.5263298 -0.0016007804 0.7678771
        0.53786623 -0.001608333 0.7679673 0.5490029 -0.0016158252 0.7680484
        0.5597047 -0.001623252 0.76812017 0.56994355 -0.0016306075 0.76818246
        0.57969826 -0.0016378857 0.76823556 0.5889546 -0.0016450786 0.76827997
        0.5977047 -0.0016521785 0.7683162 0.6059464 -0.0016591751 0.768345
        0.6136831 -0.0016660583 0.7683672 0.6209225 -0.001672819 0.76838356
        0.62767625 -0.0016794563 0.768395 0.6339591 -0.0016859967 0.7684023
        0.63978815 -0.0016925386 0.7684061 0.64518124 -0.0016993395 0.7684073
        0.65015584 -0.0017069613 0.7684063 0.65472674 -0.0017164352 0.76840365
        0.65890384 -0.0017292305 0.76839995 0.66269207 -0.0017464688 0.7683955
        0.6660981 -0.0017669642 0.7683906 0.66914487 -0.0017868059 0.76838565
        0.6718804 -0.0018068363 0.76838064 0.6743637 -0.0018419982 0.76837564
        0.67664284 -0.0019113481 0.7683707 0.6787541 -0.0020122693 0.7683658
        0.45148814 -0.0012099849 0.76718056 0.46434405 -0.0012154485 0.7673117
        0.47713453 -0.0012208951 0.76743776 0.48979336 -0.001226321 0.76755816
        0.5022571 -0.0012317245 0.7676722 0.5144663 -0.0012371032 0.76777905
        0.52636635 -0.0012424549 0.767878 0.5379088 -0.0012477766 0.7679683
        0.54905146 -0.0012530651 0.7680495 0.55975914 -0.001258317 0.7681212
        0.5700037 -0.0012635286 0.76818347 0.579764 -0.0012686956 0.76823664
        0.58902586 -0.001273813 0.768281 0.5977813 -0.0012788755 0.7683172
        0.6060283 -0.0012838766 0.768346 0.61377007 -0.0012888092 0.7683681
        0.6210145 -0.0012936674 0.76838446 0.62777317 -0.0012984509 0.76839584
        0.634061 -0.0013031787 0.7684031 0.6398952 -0.0013079204 0.7684069
        0.6452942 -0.0013128585 0.76840806 0.6502765 -0.0013183929 0.768407
        0.65485895 -0.00132526 0.76840436 0.6590551 -0.0013345205 0.76840055
        0.6628747 -0.0013469985 0.768396 0.6663284 -0.001361859 0.7683911
        0.66943866 -0.0013764575 0.76838595 0.67224723 -0.0013923829 0.76838076
        0.6748034 -0.0014218267 0.76837564 0.6771477 -0.0014772072 0.76837057
        0.67931247 -0.0015515652 0.7683656 0.45148814 -0.0008655469 0.76718104
        0.46435007 -0.0008684186 0.7673122 0.47714663 -0.0008712842 0.7674383
        0.4898116 -0.0008741419 0.76755875 0.50228155 -0.00087699044 0.7676729
        0.51449686 -0.0008798285 0.7677798 0.5264031 -0.00088265474 0.76787883
        0.53795165 -0.00088546757 0.76796913 0.5491004 -0.0008882653 0.7680503
        0.559814 -0.000891046 0.7681221 0.57006437 -0.0008938081 0.76818436
        0.5798305 -0.00089654926 0.76823753 0.589098 -0.0008992675 0.7682819
        0.5978589 -0.00090196007 0.768318 0.6061113 -0.00090462406 0.7683468
        0.6138584 -0.00090725604 0.7683689 0.62110794 -0.0009098534 0.7683852
        0.6278718 -0.0009124163 0.76839656 0.63416487 -0.00091495534 0.76840377
        0.6400045 -0.00091750745 0.7684075 0.64540976 -0.00092016964 0.7684086
        0.65040034 -0.00092315476 0.7684075 0.6549956 -0.0009268575 0.76840484
        0.6592131 -0.0009318527 0.76840097 0.6630684 -0.0009385981 0.7683964
        0.66657734 -0.00094666216 0.7683913 0.66976196 -0.0009547364 0.768386
        0.67265534 -0.0009642786 0.76838064 0.6752943 -0.0009826268 0.7683753
        0.6777101 -0.0010154496 0.7683701 0.67992955 -0.0010559286 0.768365
        0.45148814 -0.00052110874 0.76718134 0.4643561 -0.0005211979 0.7673126
        0.47715878 -0.0005212836 0.76743877 0.48982993 -0.0005213655 0.7675593
        0.50230604 -0.000521443 0.76767343 0.5145276 -0.00052151567 0.7677804
        0.5264401 -0.00052158296 0.7678794 0.5379948 -0.0005216443 0.7679698
        0.54914963 -0.00052169943 0.76805097 0.5598693 -0.0005217482 0.76812273
        0.57012564 -0.0005217905 0.7681851 0.5798976 -0.0005218266 0.7682382
        0.5891708 -0.0005218567 0.76828253 0.59793746 -0.0005218813 0.76831865
        0.6061954 -0.0005219008 0.7683474 0.61394787 -0.0005219158 0.7683695
        0.6212028 -0.00052192685 0.76838577 0.627972 -0.00052193453 0.76839703
        0.6342705 -0.00052193936 0.7684042 0.64011586 -0.0005219419 0.76840794
        0.6455278 -0.0005219426 0.76840895 0.65052736 -0.00052194187 0.7684078
        0.65513647 -0.00052194 0.7684051 0.65937763 -0.0005219373 0.7684012
        0.6632735 -0.0005219341 0.7683965 0.66684645 -0.00052193063 0.7683913
        0.6701185 -0.0005219269 0.76838577 0.67311096 -0.00052192307 0.76838017
        0.6758444 -0.0005219193 0.7683746 0.67833835 -0.0005219156 0.7683692
        0.6806116 -0.0005219121 0.768364
        <InformationKey name="L2_NORM_RANGE" location="vtkDataArray" length="2">
          <Value index="0">
            0.89017355463
          </Value>
          <Value index="1">
            1.0264578374
          </Value>
        </InformationKey>
      </DataArray>
    </Points>
  </Piece>
  </StructuredGrid>
</VTKFile>
