<?xml version="1.0"?>
<VTKFile type="StructuredGrid" version="0.1" byte_order="LittleEndian">
    <StructuredGrid WholeExtent="0 30 0 40 0 0">
        <Piece Extent="0 30 0 40 0 0">
            <Points>
                <DataArray type="Float32" NumberOfComponents="3" format="ascii">
                        0.1713990806060045        0.0301485431919661    0.0
                        0.1721354943764908        0.0301485431919661    0.0
                        0.1730014281843693        0.0301485431919661    0.0
                        0.1740191636458218        0.0301485431919661    0.0
                        0.1752146242784317        0.0301485431919661    0.0
                        0.1766178973694658        0.0301485431919661    0.0
                        0.1782638020100999        0.0301485431919661    0.0
                        0.1801924952927583        0.0301485431919661    0.0
                        0.1824501021805951        0.0301485431919661    0.0
                        0.1850893456704462        0.0301485431919661    0.0
                        0.1881701420612756        0.0301485431919661    0.0
                        0.1917601109424114        0.0301485431919661    0.0
                        0.1959349306539561        0.0301485431919661    0.0
                        0.2007784475783559        0.0301485431919661    0.0
                        0.2063824225580484        0.0301485431919661    0.0
                        0.2128457720187986        0.0301485431919661    0.0
                        0.2202731387071799        0.0301485431919661    0.0
                        0.2287726132140957        0.0301485431919661    0.0
                        0.2384524310760297        0.0301485431919661    0.0
                        0.2494165020120226        0.0301485431919661    0.0
                        0.2617586998149254        0.0301485431919661    0.0
                        0.2755559643163759        0.0301485431919661    0.0
                        0.2908604457895347        0.0301485431919661    0.0
                        0.3076911507016178        0.0301485431919661    0.0
                        0.3260258017020619        0.0301485431919661    0.0
                        0.3457938583786652        0.0301485431919661    0.0
                        0.3668717935744519        0.0301485431919661    0.0
                        0.3890817104275715        0.0301485431919661    0.0
                        0.4121941599771017        0.0301485431919661    0.0
                        0.4359355627868794        0.0301485431919661    0.0
                        0.4600000000000001        0.0301485431919661    0.0
                        0.1716443847303957        0.0301629932588886    0.0
                        0.1723776512199660        0.0301609666408432    0.0
                        0.1733124662782879        0.0301754454383626    0.0
                        0.1744205102229941        0.0302043439750845    0.0
                        0.1756873057138388        0.0302440114042897    0.0
                        0.1771167568524488        0.0302897934645146    0.0
                        0.1787345041463013        0.0303348896730703    0.0
                        0.1805922148476460        0.0303716278382602    0.0
                        0.1827591081199302        0.0303953051655697    0.0
                        0.1853074114705210        0.0304068526050256    0.0
                        0.1883087101229666        0.0304111506188333    0.0
                        0.1918388322126905        0.0304136732538169    0.0
                        0.1959769098956520        0.0304170859587081    0.0
                        0.2008023425597792        0.0304210615854630    0.0
                        0.2063991778968438        0.0304250353269801    0.0
                        0.2128603353759388        0.0304288606851541    0.0
                        0.2202872284888157        0.0304325199358781    0.0
                        0.2287866082353444        0.0304360036993279    0.0
                        0.2384662736927632        0.0304392976600494    0.0
                        0.2494300258214391        0.0304423863562935    0.0
                        0.2617717212064877        0.0304452558774916    0.0
                        0.2755683023657855        0.0304478949723664    0.0
                        0.2908719262799698        0.0304502954822775    0.0
                        0.3077016081064264        0.0304524525100214    0.0
                        0.3260350816039749        0.0304543644289249    0.0
                        0.3458018205063805        0.0304560327700444    0.0
                        0.3668783152415850        0.0304574620231140    0.0
                        0.3890866900616473        0.0304586593975416    0.0
                        0.4121975203840563        0.0304596346211687    0.0
                        0.4359372537916970        0.0304603998352896    0.0
                        0.4600000000000000        0.0304609670891917    0.0
                        0.1718637445326022        0.0301755575909605    0.0
                        0.1726306468646489        0.0301782228113454    0.0
                        0.1736593287317793        0.0302179614490253    0.0
                        0.1748502539696562        0.0302846150382032    0.0
                        0.1761557773500524        0.0303667501465028    0.0
                        0.1775731620668134        0.0304526132757975    0.0
                        0.1791400434049896        0.0305300992662691    0.0
                        0.1809271209378420        0.0305894911318153    0.0
                        0.1830180751983330        0.0306269383852117    0.0
                        0.1854931305407907        0.0306456666891378    0.0
                        0.1884294044031876        0.0306534536699166    0.0
                        0.1919089656726274        0.0306587511158871    0.0
                        0.1960150021040492        0.0306657442727329    0.0
                        0.2008243119497965        0.0306738265402917    0.0
                        0.2064147113013718        0.0306820070158986    0.0
                        0.2128738962701223        0.0306900138048923    0.0
                        0.2203003839851729        0.0306978079941089    0.0
                        0.2287997088548481        0.0307053706676246    0.0
                        0.2384792700454480        0.0307126755829859    0.0
                        0.2494427666680044        0.0307196940506275    0.0
                        0.2617840368130784        0.0307263991285903    0.0
                        0.2755800224665559        0.0307327674682047    0.0
                        0.2908828835626569        0.0307387801189352    0.0
                        0.3077116399223563        0.0307444229287710    0.0
                        0.3260440322138359        0.0307496867027786    0.0
                        0.3458095440611556        0.0307545671752589    0.0
                        0.3668846793220668        0.0307590648510725    0.0
                        0.3890915794935129        0.0307631847930749    0.0
                        0.4122008409859502        0.0307669364968923    0.0
                        0.4359389356873529        0.0307703339683390    0.0
                        0.4600000000000000        0.0307733909864173    0.0
                        0.1720581444146339        0.0301864093905428    0.0
                        0.1729076373451342        0.0302043640198426    0.0
                        0.1740444201886927        0.0302810424061626    0.0
                        0.1752938430357587        0.0303906605894154    0.0
                        0.1765991225857553        0.0305115990559843    0.0
                        0.1779750250026255        0.0306268493232951    0.0
                        0.1794822068306198        0.0307238881701266    0.0
                        0.1812060561986699        0.0307955286214372    0.0
                        0.1832351267577703        0.0308405804770436    0.0
                        0.1856512475181503        0.0308640071665119    0.0
                        0.1885342112753153        0.0308749394747825    0.0
                        0.1919711092204295        0.0308832475818413    0.0
                        0.1960493514102249        0.0308939136162096    0.0
                        0.2008444000587757        0.0309061368186673    0.0
                        0.2064290466654663        0.0309186353169411    0.0
                        0.2128864669844401        0.0309310416232529    0.0
                        0.2203126049899776        0.0309432994633283    0.0
                        0.2288119021861096        0.0309553856066296    0.0
                        0.2384913955707963        0.0309672695440098    0.0
                        0.2494546900992601        0.0309789176280440    0.0
                        0.2617956046405845        0.0309902978205836    0.0
                        0.2755910778688536        0.0310013819153521    0.0
                        0.2908932692239199        0.0310121465680727    0.0
                        0.3077211992812273        0.0310225738616387    0.0
                        0.3260526112821688        0.0310326515970366    0.0
                        0.3458169940371134        0.0310423733758641    0.0
                        0.3668908598758612        0.0310517385463282    0.0
                        0.3890963624968026        0.0310607521170779    0.0
                        0.4122041143852562        0.0310694248408527    0.0
                        0.4359406071765367        0.0310777736523801    0.0
                        0.4600000000000000        0.0310858148836428    0.0
                        0.1722375146186835        0.0301961871631715    0.0
                        0.1732233464809317        0.0302447274455319    0.0
                        0.1744651305633306        0.0303690367123406    0.0
                        0.1757347371722145        0.0305214008593022    0.0
                        0.1770057543188510        0.0306728953277820    0.0
                        0.1783259863511453        0.0308068100425992    0.0
                        0.1797758857058813        0.0309145613363158    0.0
                        0.1814461022816936        0.0309927777247495    0.0
                        0.1834240684853897        0.0310424256119262    0.0
                        0.1857909628103952        0.0310693832114363    0.0
                        0.1886283970236722        0.0310833171908764    0.0
                        0.1920279393659927        0.0310947440900126    0.0
                        0.1960812780433649        0.0311090741752199    0.0
                        0.2008633327469533        0.0311253815442021    0.0
                        0.2064426828652048        0.0311421821173452    0.0
                        0.2128984663251874        0.0311590332643070    0.0
                        0.2203242768845428        0.0311758648024313    0.0
                        0.2288235490964121        0.0311926539011906    0.0
                        0.2385029844274059        0.0312093726937964    0.0
                        0.2494660993795371        0.0312259905963972    0.0
                        0.2618066933915404        0.0312424790819669    0.0
                        0.2756017001789999        0.0312588141342001    0.0
                        0.2909032765659768        0.0312749774959726    0.0
                        0.3077304413967928        0.0312909574429480    0.0
                        0.3260609376109445        0.0313067492840807    0.0
                        0.3458242559249923        0.0313223556649122    0.0
                        0.3668969134757146        0.0313377867651448    0.0
                        0.3891010721731081        0.0313530605287455    0.0
                        0.4122073563607723        0.0313682031975283    0.0
                        0.4359422731058671        0.0313832504259123    0.0
                        0.4600000000000000        0.0313982387808684    0.0
                        0.1723725748453135        0.0302034271042608    0.0
                        0.1735959597257130        0.0303057907074726    0.0
                        0.1748969520621795        0.0304804379554016    0.0
                        0.1761282952127138        0.0306626330420635    0.0
                        0.1773325739233622        0.0308264675591979    0.0
                        0.1785907128900797        0.0309634825334084    0.0
                        0.1799908739737913        0.0310714778663012    0.0
                        0.1816201164932717        0.0311499684860186    0.0
                        0.1835612496181680        0.0312007255166212    0.0
                        0.1858932410401574        0.0312295810538988    0.0
                        0.1886981690695921        0.0312459744770111    0.0
                        0.1920705554757445        0.0312603499154683    0.0
                        0.1961054370155276        0.0312781397726110    0.0
                        0.2008777439312263        0.0312983233946986    0.0
                        0.2064531304709680        0.0313193081702437    0.0
                        0.2129077428694492        0.0313406131714047    0.0
                        0.2203333912002461        0.0313621738612206    0.0
                        0.2288327367663623        0.0313839902231141    0.0
                        0.2385122210272836        0.0314060651580376    0.0
                        0.2494752905738416        0.0314284049469153    0.0
                        0.2618157278470453        0.0314510245459686    0.0
                        0.2756104600295323        0.0314739514869575    0.0
                        0.2909116382451510        0.0314972291913353    0.0
                        0.3077382751493413        0.0315209205241088    0.0
                        0.3260681072465032        0.0315451120728227    0.0
                        0.3458306189842935        0.0315699196975322    0.0
                        0.3669023217070261        0.0315954962055609    0.0
                        0.3891053720941032        0.0316220425649984    0.0
                        0.4122103895417806        0.0316498251575517    0.0
                        0.4359438756135203        0.0316792034257738    0.0
                        0.4600000000000000        0.0317106626780940    0.0
                        0.1725940421103047        0.0302154168272972    0.0
                        0.1740562137125141        0.0304000024989398    0.0
                        0.1753628821434927        0.0306291707279080    0.0
                        0.1765506474581899        0.0308457733609080    0.0
                        0.1777061819151883        0.0310314522950055    0.0
                        0.1789193577162604        0.0311826497354607    0.0
                        0.1802770592260904        0.0312999326007974    0.0
                        0.1818631338592266        0.0313845693520059    0.0
                        0.1837586240857701        0.0314396292813936    0.0
                        0.1860431822982449        0.0314717893074124    0.0
                        0.1888019968417179        0.0314909653801560    0.0
                        0.1921350979280044        0.0315079875249554    0.0
                        0.1961429231727443        0.0315286618734019    0.0
                        0.2009007071799606        0.0315520205713910    0.0
                        0.2064699578589860        0.0315763345723539    0.0
                        0.2129224833919310        0.0316010316110390    0.0
                        0.2203475075350740        0.0316260138784628    0.0
                        0.2288465803385075        0.0316512708596192    0.0
                        0.2385257744996367        0.0316768011537788    0.0
                        0.2494884397632357        0.0317026081794950    0.0
                        0.2618283374681011        0.0317287044894600    0.0
                        0.2756223899809387        0.0317551155470922    0.0
                        0.2909227467893838        0.0317818830025439    0.0
                        0.3077484204761998        0.0318090681368497    0.0
                        0.3260771495269527        0.0318367559186825    0.0
                        0.3458384231311539        0.0318650601828244    0.0
                        0.3669087607231758        0.0318941307307001    0.0
                        0.3891103307892637        0.0319241636818043    0.0
                        0.4122137683379113        0.0319554174242959    0.0
                        0.4359455941280557        0.0319882382104793    0.0
                        0.4600000000000000        0.0320230865753195    0.0
                        0.1731009505843473        0.0302676875680893    0.0
                        0.1745824862381432        0.0305398543805758    0.0
                        0.1758453088829709        0.0308227458630018    0.0
                        0.1769925586862084        0.0310786461347056    0.0
                        0.1781176010335501        0.0312969111183778    0.0
                        0.1793046520909010        0.0314760329692363    0.0
                        0.1806324126810789        0.0316157317402418    0.0
                        0.1821787678167807        0.0317163693791270    0.0
                        0.1840233035828415        0.0317814248047829    0.0
                        0.1862488482620814        0.0318189474395786    0.0
                        0.1889471442277471        0.0318402216944303    0.0
                        0.1922272721610760        0.0318571833618271    0.0
                        0.1961979178965032        0.0318768233986910    0.0
                        0.2009352858637815        0.0318989248751984    0.0
                        0.2064954511258506        0.0319219151428586    0.0
                        0.2129443749354113        0.0319452051138583    0.0
                        0.2203678103507422        0.0319686841076193    0.0
                        0.2288658365968220        0.0319923406867358    0.0
                        0.2385440444856998        0.0320161752488211    0.0
                        0.2495056572001122        0.0320401933045772    0.0
                        0.2618444077553136        0.0320644098385107    0.0
                        0.2756372122993379        0.0320888532046164    0.0
                        0.2909362195216867        0.0321135682910313    0.0
                        0.3077604442482908        0.0321386197122317    0.0
                        0.3260876303893299        0.0321640955200743    0.0
                        0.3458472760956602        0.0321901119473274    0.0
                        0.3669159134847336        0.0322168199680089    0.0
                        0.3891157273702127        0.0322444149660449    0.0
                        0.4122173723536989        0.0322731517770526    0.0
                        0.4359473913724703        0.0323033689555693    0.0
                        0.4600000000000000        0.0323355104725451    0.0
                        0.1737148170740061        0.0303880210415371    0.0
                        0.1751122128919440        0.0307293410126573    0.0
                        0.1763163945956063        0.0310600671595585    0.0
                        0.1774206309126776        0.0313518949716306    0.0
                        0.1785131557605515        0.0315995516576427    0.0
                        0.1796714296534492        0.0318024992693425    0.0
                        0.1809680213792975        0.0319600566770450    0.0
                        0.1824764889054336        0.0320727910824016    0.0
                        0.1842745627415481        0.0321452076021492    0.0
                        0.1864465078327616        0.0321865527899363    0.0
                        0.1890890040132537        0.0322089360742174    0.0
                        0.1923192211322906        0.0322249036377733    0.0
                        0.1962539995564862        0.0322424111454297    0.0
                        0.2009712487183254        0.0322620528321227    0.0
                        0.2065222683020391        0.0322825025023965    0.0
                        0.2129674390930711        0.0323031886660885    0.0
                        0.2203891215662489        0.0323239971877684    0.0
                        0.2288859472157804        0.0323449189897513    0.0
                        0.2385630309824967        0.0323659579329256    0.0
                        0.2495234695330986        0.0323871226754921    0.0
                        0.2618609660280470        0.0324084313499478    0.0
                        0.2756524288154080        0.0324299156356478    0.0
                        0.2909500045032578        0.0324516238132767    0.0
                        0.3077727091795261        0.0324736237057901    0.0
                        0.3260982914376706        0.0324960060560598    0.0
                        0.3458562578220434        0.0325188888627122    0.0
                        0.3669231526776678        0.0325424234424786    0.0
                        0.3891211767474194        0.0325668034732820    0.0
                        0.4122210038368005        0.0325922792017973    0.0
                        0.4359491986408590        0.0326191804806415    0.0
                        0.4600000000000000        0.0326479343697707    0.0
                        0.1742904529565632        0.0305607948668094    0.0
                        0.1756212263922935        0.0309670143225474    0.0
                        0.1767650255355829        0.0313381937081344    0.0
                        0.1778213810153566        0.0316583830602936    0.0
                        0.1788751359295648        0.0319267621419223    0.0
                        0.1799992376365458        0.0321441216536883    0.0
                        0.1812626150772940        0.0323109259950065    0.0
                        0.1827356282988230        0.0324293075327855    0.0
                        0.1844935583540511        0.0325051366166364    0.0
                        0.1866203674819212        0.0325483648791751    0.0
                        0.1892156719775204        0.0325712082146362    0.0
                        0.1924029436617039        0.0325862196420873    0.0
                        0.1963061755669128        0.0326018812530523    0.0
                        0.2010053948361791        0.0326194041325983    0.0
                        0.2065481193632649        0.0326376676544490    0.0
                        0.2129898594214143        0.0326561108115845    0.0
                        0.2204099238264057        0.0326746125521322    0.0
                        0.2289056266125168        0.0326931640979842    0.0
                        0.2385816475033312        0.0327117715790151    0.0
                        0.2495409669081943        0.0327304458972977    0.0
                        0.2618772601802609        0.0327492074361847    0.0
                        0.2756674281149315        0.0327680902280466    0.0
                        0.2909636151234134        0.0327871448917856    0.0
                        0.3077848383444144        0.0328064413348455    0.0
                        0.3261088508103970        0.0328260718145394    0.0
                        0.3458651672207813        0.0328461548828571    0.0
                        0.3669303439540040        0.0328668409658772    0.0
                        0.3891265975698156        0.0328883207922542    0.0
                        0.4122246210804623        0.0329108387729126    0.0
                        0.4359510010825770        0.0329347148104569    0.0
                        0.4600000000000000        0.0329603582669963    0.0
                        0.1748604380087714        0.0307943902465226    0.0
                        0.1761102436609399        0.0312528032019274    0.0
                        0.1771885721831433        0.0316556261047095    0.0
                        0.1781931649394632        0.0319959534056792    0.0
                        0.1792048469934295        0.0322766968984304    0.0
                        0.1802932136965714        0.0325006753315464    0.0
                        0.1815242566078723        0.0326704724105536    0.0
                        0.1829650944497185        0.0327901895029527    0.0
                        0.1846881145279310        0.0328668520417914    0.0
                        0.1867761814228681        0.0329106352265828    0.0
                        0.1893307694928080        0.0329333804521784    0.0
                        0.1924804564748578        0.0329472629478596    0.0
                        0.1963555633241275        0.0329610205187502    0.0
                        0.2010384330652867        0.0329763804665375    0.0
                        0.2065735317140434        0.0329924209837398    0.0
                        0.2130120670339742        0.0330085947350549    0.0
                        0.2204305820981128        0.0330247736769558    0.0
                        0.2289251856211082        0.0330409485989264    0.0
                        0.2386001573694081        0.0330571273249834    0.0
                        0.2495583701251788        0.0330733224775026    0.0
                        0.2618934728405113        0.0330895560948178    0.0
                        0.2756823586494483        0.0331058638505866    0.0
                        0.2909771694255962        0.0331222978724642    0.0
                        0.3077969230081346        0.0331389292155827    0.0
                        0.3261193765437953        0.0331558506246354    0.0
                        0.3458740526014597        0.0331731801068901    0.0
                        0.3669375193605805        0.0331910660501989    0.0
                        0.3891320090334458        0.0332096950581558    0.0
                        0.4122282337562327        0.0332293045233818    0.0
                        0.4359528020358194        0.0332502032332843    0.0
                        0.4600000000000000        0.0332727821642218    0.0
                        0.1754075558919622        0.0310847689205128    0.0
                        0.1765722648608072        0.0315844102854300    0.0
                        0.1775817319361215        0.0320088160264435    0.0
                        0.1785317180800506        0.0323596812914870    0.0
                        0.1794997968505782        0.0326439181602792    0.0
                        0.1805528231775136        0.0328671975577661    0.0
                        0.1817537233326852        0.0330346936535439    0.0
                        0.1831660616386516        0.0331523384157221    0.0
                        0.1848591120547318        0.0332278652217523    0.0
                        0.1869142589107873        0.0332712126768074    0.0
                        0.1894341149079243        0.0332934783226378    0.0
                        0.1925513627377516        0.0333061768183554    0.0
                        0.1964018014325396        0.0333180879081796    0.0
                        0.2010701103687344        0.0333313617098993    0.0
                        0.2065983298872051        0.0333452628676982    0.0
                        0.2130339286202597        0.0333592587133551    0.0
                        0.2204509877340392        0.0333732136948569    0.0
                        0.2289445333349455        0.0333871172895445    0.0
                        0.2386184843212099        0.0334009783602650    0.0
                        0.2495756156397272        0.0334148106834941    0.0
                        0.2619095516470482        0.0334286373369281    0.0
                        0.2756971779096168        0.0334424949214722    0.0
                        0.2909906335578106        0.0334564362574622    0.0
                        0.3078089368774765        0.0334705326395840    0.0
                        0.3261298488735540        0.0334848763151793    0.0
                        0.3458828997476051        0.0334995837024256    0.0
                        0.3669446692839892        0.0335148000650101    0.0
                        0.3891374052137679        0.0335307067708550    0.0
                        0.4122318387452856        0.0335475330745487    0.0
                        0.4359546003412085        0.0335655755363437    0.0
                        0.4600000000000000        0.0335852060614474    0.0
                        0.1759283602720256        0.0314319073403789    0.0
                        0.1770027591307648        0.0319594353803186    0.0
                        0.1779408049404688        0.0323940453783164    0.0
                        0.1788350908220905        0.0327453756955610    0.0
                        0.1797601806645290        0.0330247770104387    0.0
                        0.1807799416980817        0.0332411830617382    0.0
                        0.1819536882133661        0.0334022468897498    0.0
                        0.1833412109809050        0.0335152695158670    0.0
                        0.1850087175442520        0.0335882041098912    0.0
                        0.1870360211567744        0.0336303767556696    0.0
                        0.1895264229553842        0.0336518714605509    0.0
                        0.1926159076478431        0.0336633397976414    0.0
                        0.1964449458090737        0.0336734456229655    0.0
                        0.2011004470029014        0.0336846893985816    0.0
                        0.2066225360145213        0.0336965130116374    0.0
                        0.2130554683568969        0.0337084000879836    0.0
                        0.2204711639064008        0.0337202074596165    0.0
                        0.2289636906497353        0.0337319226085633    0.0
                        0.2386366466669892        0.0337435548716979    0.0
                        0.2495927191663675        0.0337551186759468    0.0
                        0.2619255098074936        0.0337666375828516    0.0
                        0.2757118967279780        0.0337781484703640    0.0
                        0.2910040161452822        0.0337897041026095    0.0
                        0.3078208865713584        0.0338013751760870    0.0
                        0.3261402726436061        0.0338132525284858    0.0
                        0.3458917119854604        0.0338254500185772    0.0
                        0.3669517958100133        0.0338381087746807    0.0
                        0.3891427872455998        0.0338514038938334    0.0
                        0.4122354365241715        0.0338655554487593    0.0
                        0.4359563961029637        0.0338808467379276    0.0
                        0.4600000000000000        0.0338976299586730    0.0
                        0.1764157270436616        0.0318334088729155    0.0
                        0.1773967679569362        0.0323743880476654    0.0
                        0.1782625188658584        0.0328068884946320    0.0
                        0.1791019747961325        0.0331486145877938    0.0
                        0.1799864581990480        0.0334156717651222    0.0
                        0.1809761025982673        0.0336201147433643    0.0
                        0.1821260673153054        0.0337715433832936    0.0
                        0.1834923661838394        0.0338780321243837    0.0
                        0.1851383662115010        0.0339472981881863    0.0
                        0.1871423777638582        0.0339877554144920    0.0
                        0.1896081065487684        0.0340082758187484    0.0
                        0.1926741768440348        0.0340185020107730    0.0
                        0.1964849621261469        0.0340268636229337    0.0
                        0.2011294011778694        0.0340361520097247    0.0
                        0.2066461229778549        0.0340459775568690    0.0
                        0.2130766689211036        0.0340558416214913    0.0
                        0.2204910982394863        0.0340655934663526    0.0
                        0.2289826480256588        0.0340752179998861    0.0
                        0.2386546368380203        0.0340847245191313    0.0
                        0.2496096746475664        0.0340941276369854    0.0
                        0.2619413424587427        0.0341034508863053    0.0
                        0.2757265111953309        0.0341127308211737    0.0
                        0.2910173140478130        0.0341220194558342    0.0
                        0.3078327695780400        0.0341313861115286    0.0
                        0.3261506458654565        0.0341409193688827    0.0
                        0.3459004877718945        0.0341507296250477    0.0
                        0.3669588977830480        0.0341609529315401    0.0
                        0.3891481543164447        0.0341717571493669    0.0
                        0.4122390265865851        0.0341833521945315    0.0
                        0.4359581890864750        0.0341960071354080    0.0
                        0.4600000000000000        0.0342100538558985    0.0
                        0.1768635702332923        0.0322867060241641    0.0
                        0.1777499949635306        0.0328251741824932    0.0
                        0.1785445655569910        0.0332427480517877    0.0
                        0.1793320254432905        0.0335653635813057    0.0
                        0.1801796580064101        0.0338136404369960    0.0
                        0.1811429664121381        0.0340020637371085    0.0
                        0.1822726458204924        0.0341414185282077    0.0
                        0.1836211475824811        0.0342399534040260    0.0
                        0.1852493324609855        0.0343047623762540    0.0
                        0.1872341645731964        0.0343431147018461    0.0
                        0.1896795808946412        0.0343625247011010    0.0
                        0.1927262928317102        0.0343715212753136    0.0
                        0.1965218503439375        0.0343782120010606    0.0
                        0.2011569525634935        0.0343856307108753    0.0
                        0.2066690764932783        0.0343935480798818    0.0
                        0.2130975217504179        0.0344014844736455    0.0
                        0.2205107851629735        0.0344092817816951    0.0
                        0.2290014015234130        0.0344169218702912    0.0
                        0.2386724519323541        0.0344244135392008    0.0
                        0.2496264798963092        0.0344317711660985    0.0
                        0.2619570479121212        0.0344390177882785    0.0
                        0.2757410199662177        0.0344461890860898    0.0
                        0.2910305261548474        0.0344533356870014    0.0
                        0.3078445849517142        0.0344605248213393    0.0
                        0.3261609677187556        0.0344678420304983    0.0
                        0.3459092263967266        0.0344753934156973    0.0
                        0.3669659746051539        0.0344833090797356    0.0
                        0.3891535059535902        0.0344917487523176    0.0
                        0.4122426086027888        0.0345009112869603    0.0
                        0.4359599791218331        0.0345110506209209    0.0
                        0.4600000000000000        0.0345224777531241    0.0
                        0.1772656643637654        0.0327882449358446    0.0
                        0.1780586732788141        0.0333070316640252    0.0
                        0.1787854285390934        0.0336969193540872    0.0
                        0.1795254794079077        0.0339918782277667    0.0
                        0.1803409669428630        0.0342160659224275    0.0
                        0.1812820372626052        0.0343853178618776    0.0
                        0.1823949205118561        0.0345107765865795    0.0
                        0.1837288801269600        0.0346003236824362    0.0
                        0.1853426580879548        0.0346601147842726    0.0
                        0.1873120755969381        0.0346960971715941    0.0
                        0.1897412016222410        0.0347143215856576    0.0
                        0.1927723666735462        0.0347221292880320    0.0
                        0.1965556113982816        0.0347272414025299    0.0
                        0.2011830791308808        0.0347328944039989    0.0
                        0.2066913774229800        0.0347390111594154    0.0
                        0.2131180124469083        0.0347451320461926    0.0
                        0.2205302134642504        0.0347510918824439    0.0
                        0.2290199421236026        0.0347568691211444    0.0
                        0.2386900845987604        0.0347624716597935    0.0
                        0.2496431288955654        0.0347679132615228    0.0
                        0.2619726212384992        0.0347732160450295    0.0
                        0.2757554190090133        0.0347784143167551    0.0
                        0.2910436491845497        0.0347835567358875    0.0
                        0.3078563300463261        0.0347887077860920    0.0
                        0.3261712361052787        0.0347939492510587    0.0
                        0.3459179262407202        0.0347993821677836    0.0
                        0.3669730250799764        0.0348051298858151    0.0
                        0.3891588413343818        0.0348113431752301    0.0
                        0.4122461820764545        0.0348182089868783    0.0
                        0.4359617659891879        0.0348259652884560    0.0
                        0.4600000000000000        0.0348349016503497    0.0
                        0.1776160550065841        0.0333336491489471    0.0
                        0.1783197317177127        0.0338146835786325    0.0
                        0.1789843215944295        0.0341647406983505    0.0
                        0.1796829875417631        0.0344247182331084    0.0
                        0.1804716342572900        0.0346205998406484    0.0
                        0.1813946837273108        0.0347683067390853    0.0
                        0.1824941865112003        0.0348785518561483    0.0
                        0.1838166935483199        0.0349583898758946    0.0
                        0.1854192364543225        0.0350127895568541    0.0
                        0.1873767206739985        0.0350462437352313    0.0
                        0.1897932981480919        0.0350632647535337    0.0
                        0.1928125155933218        0.0350699560094965    0.0
                        0.1965862570478325        0.0350736060737140    0.0
                        0.2012077633350873        0.0350776210899012    0.0
                        0.2067130060888044        0.0350820679705709    0.0
                        0.2131381240684372        0.0350865078242812    0.0
                        0.2205493689325900        0.0350907687983463    0.0
                        0.2290382578891099        0.0350948256582174    0.0
                        0.2387075248070876        0.0350986850475236    0.0
                        0.2496596132398710        0.0351023597769903    0.0
                        0.2619880554320261        0.0351058706672615    0.0
                        0.2757697025346321        0.0351092501998863    0.0
                        0.2910566784140768        0.0351125445389071    0.0
                        0.3078680010790256        0.0351158148246236    0.0
                        0.3261814480731061        0.0351191384270564    0.0
                        0.3459265850846399        0.0351226106151095    0.0
                        0.3669800476278753        0.0351263472456370    0.0
                        0.3891641594259700        0.0351304893649617    0.0
                        0.4122497464250616        0.0351352112429007    0.0
                        0.4359635494533700        0.0351407340969352    0.0
                        0.4600000000000000        0.0351473255475753    0.0
                        0.1779091206978508        0.0339175817119230    0.0
                        0.1785308060728142        0.0343423748385794    0.0
                        0.1791410517610253        0.0346415905636328    0.0
                        0.1798054695400287        0.0348606190509077    0.0
                        0.1805729208888780        0.0350249943130543    0.0
                        0.1814821688967278        0.0351494588952703    0.0
                        0.1825716004181337        0.0352436022232773    0.0
                        0.1838855878993293        0.0353132767760414    0.0
                        0.1854798651989334        0.0353620752515272    0.0
                        0.1874286599580037        0.0353929414347186    0.0
                        0.1898361918360033        0.0354088001090849    0.0
                        0.1928468708281597        0.0354144857079903    0.0
                        0.1966138131037554        0.0354168226314600    0.0
                        0.2012309934335999        0.0354193591699342    0.0
                        0.2067339426931182        0.0354222980016981    0.0
                        0.2131578371068557        0.0354252214537563    0.0
                        0.2205682341115926        0.0354279515259698    0.0
                        0.2290563335990303        0.0354304591291131    0.0
                        0.2387247594266735        0.0354327493582467    0.0
                        0.2496759217018869        0.0354348337755256    0.0
                        0.2620033409968804        0.0354367315676971    0.0
                        0.2757838626264082        0.0354384729891280    0.0
                        0.2910696073676742        0.0354401012356803    0.0
                        0.3078795928846065        0.0354416735658294    0.0
                        0.3261915996392674        0.0354432623408980    0.0
                        0.3459351999963297        0.0354449564202624    0.0
                        0.3669870402286370        0.0354468634907243    0.0
                        0.3891694589704493        0.0354491141709109    0.0
                        0.4122533009905446        0.0354518693276068    0.0
                        0.4359653292801980        0.0354553326980699    0.0
                        0.4600000000000000        0.0354597494448008    0.0
                        0.1781397798883110        0.0345337346354045    0.0
                        0.1786902587450926        0.0348838701494485    0.0
                        0.1792559820187979        0.0351228354773800    0.0
                        0.1798941264271877        0.0352963674800410    0.0
                        0.1806461785744507        0.0354269839889982    0.0
                        0.1815457582792870        0.0355271171057538    0.0
                        0.1826282873518613        0.0356046534979738    0.0
                        0.1839365267650128        0.0356639506827615    0.0
                        0.1855253197663520        0.0357070896360728    0.0
                        0.1874684559407837        0.0357354039485149    0.0
                        0.1898702287023172        0.0357502043130289    0.0
                        0.1928755964090785        0.0357550413722332    0.0
                        0.1966383302344802        0.0357562553419144    0.0
                        0.2012527701629584        0.0357575134136717    0.0
                        0.2067541718283597        0.0357591456157241    0.0
                        0.2131771327716422        0.0357607558738187    0.0
                        0.2205867907923695        0.0357621607511481    0.0
                        0.2290741526694158        0.0357633272694887    0.0
                        0.2387417737090585        0.0357642587452986    0.0
                        0.2496920413756410        0.0357649652394039    0.0
                        0.2620184668284291        0.0357654640124155    0.0
                        0.2757978899206221        0.0357657827374737    0.0
                        0.2910824283449333        0.0357659612224173    0.0
                        0.3078910993287892        0.0357660523625938    0.0
                        0.3262016861159097        0.0357661229749654    0.0
                        0.3459437675894831        0.0357662549278578    0.0
                        0.3669940006254933        0.0357665471190878    0.0
                        0.3891747386406133        0.0357671190908265    0.0
                        0.4122568451479173        0.0357681176344572    0.0
                        0.4359671052944731        0.0357697283186523    0.0
                        0.4600000000000000        0.0357721733420264    0.0
                        0.1783037109853442        0.0351748462768917    0.0
                        0.1787973201069036        0.0354324457505581    0.0
                        0.1793302479631925        0.0356038353294243    0.0
                        0.1799506654022339        0.0357287729140276    0.0
                        0.1806930588188080        0.0358242764032185    0.0
                        0.1815868999636055        0.0358995525217328    0.0
                        0.1826654908199632        0.0359603297985391    0.0
                        0.1839705590886988        0.0360092587193627    0.0
                        0.1855564486977589        0.0360468226415540    0.0
                        0.1874967436058541        0.0360727148233054    0.0
                        0.1898958274486521        0.0360866264611116    0.0
                        0.1928989204101323        0.0360908241047687    0.0
                        0.1966599046611170        0.0360911530659821    0.0
                        0.2012731214351020        0.0360913793850723    0.0
                        0.2067736936844594        0.0360919519099182    0.0
                        0.2131960019460843        0.0360924966223161    0.0
                        0.2206050273259984        0.0360928256548800    0.0
                        0.2290917031614330        0.0360929022823508    0.0
                        0.2387585562223713        0.0360927278906284    0.0
                        0.2497079617153393        0.0360923108324065    0.0
                        0.2620334235013069        0.0360916661932851    0.0
                        0.2758117762634524        0.0360908187587757    0.0
                        0.2910951345460758        0.0360898045813197    0.0
                        0.3079025149850455        0.0360886717677357    0.0
                        0.3262117034087140        0.0360874811125883    0.0
                        0.3459522850029680        0.0360863069689791    0.0
                        0.3670009270357703        0.0360852388815417    0.0
                        0.3891799975247709        0.0360843847174793    0.0
                        0.4122603786004208        0.0360838765633269    0.0
                        0.4359688775154928        0.0360838811638068    0.0
                        0.4600000000000000        0.0360845972392520    0.0
                        0.1783975934133869        0.0358328026765463    0.0
                        0.1788528436667795        0.0359814325549551    0.0
                        0.1793664859387019        0.0360804710187868    0.0
                        0.1799778052194517        0.0361551237316208    0.0
                        0.1807158695426102        0.0362149858784717    0.0
                        0.1816074894575505        0.0362653779516319    0.0
                        0.1826847768609606        0.0363095460657954    0.0
                        0.1839889795925048        0.0363483013589936    0.0
                        0.1855742995489053        0.0363804900870004    0.0
                        0.1875143274534893        0.0364041633349860    0.0
                        0.1899135526458542        0.0364174065300536    0.0
                        0.1929171903755302        0.0364212142915299    0.0
                        0.1966787220215544        0.0364209332928102    0.0
                        0.2012921387303705        0.0364204104840322    0.0
                        0.2067925549940022        0.0364202048801389    0.0
                        0.2132144717126224        0.0364199652449356    0.0
                        0.2206229613735576        0.0364195007057030    0.0
                        0.2291089972363009        0.0364187711604209    0.0
                        0.2387751154000580        0.0364177760058845    0.0
                        0.2497236885043662        0.0364165217283014    0.0
                        0.2620482149388688        0.0364150210319908    0.0
                        0.2758255243266438        0.0364132955548972    0.0
                        0.2911077278548920        0.0364113772781235    0.0
                        0.3079138412891796        0.0364093091497179    0.0
                        0.3262216527371642        0.0364071455208907    0.0
                        0.3459607533752493        0.0364049527627304    0.0
                        0.3670078205654214        0.0364028105578566    0.0
                        0.3891852366662306        0.0364008145514482    0.0
                        0.4122639022274520        0.0363990815409031    0.0
                        0.4359706464938258        0.0363977588277302    0.0
                        0.4600000000000000        0.0363970211364775    0.0
                        0.1784193321825938        0.0364988224774022    0.0
                        0.1788611005939834        0.0365268863626513    0.0
                        0.1793697332675346        0.0365513864210525    0.0
                        0.1799796610578552        0.0365752145325173    0.0
                        0.1807177670869065        0.0365994847243712    0.0
                        0.1816099828319327        0.0366252438836980    0.0
                        0.1826881087782397        0.0366530764759209    0.0
                        0.1839933838995730        0.0366818978950290    0.0
                        0.1855801655011508        0.0367089150510257    0.0
                        0.1875222275447578        0.0367305538817098    0.0
                        0.1899241666965077        0.0367433185773516    0.0
                        0.1929309354085268        0.0367469500593157    0.0
                        0.1966951284743411        0.0367462960952326    0.0
                        0.2013100512002131        0.0367452679284715    0.0
                        0.2068109202539962        0.0367445260250729    0.0
                        0.2132326706350134        0.0367437429247908    0.0
                        0.2206406983444183        0.0367427265611064    0.0
                        0.2291261227748583        0.0367414340370865    0.0
                        0.2387915246364567        0.0367398627881436    0.0
                        0.2497392827700320        0.0367380173198782    0.0
                        0.2620628914937155        0.0367359077877237    0.0
                        0.2758391752075172        0.0367335524654255    0.0
                        0.2911202413316415        0.0367309789966576    0.0
                        0.3079251043304570        0.0367282248567839    0.0
                        0.3262315541709876        0.0367253375955894    0.0
                        0.3459691876213991        0.0367223752044887    0.0
                        0.3670146917724353        0.0367194070704976    0.0
                        0.3891904630072802        0.0367165161511975    0.0
                        0.4122674200445374        0.0367138034580914    0.0
                        0.4359724139521353        0.0367113963238440    0.0
                        0.4600000000000000        0.0367094450337031    0.0
                        0.1783682321757689        0.0371637233572728    0.0
                        0.1788269606877333        0.0370714480256815    0.0
                        0.1793442541372831        0.0370216602953828    0.0
                        0.1799592683398747        0.0369947788059862    0.0
                        0.1807009232365011        0.0369835290237262    0.0
                        0.1815960094771608        0.0369846948279249    0.0
                        0.1826767696228031        0.0369961944663763    0.0
                        0.1839848229499662        0.0370150555764215    0.0
                        0.1855749309223353        0.0370368596666543    0.0
                        0.1875211969994529        0.0370564213339884    0.0
                        0.1899283083717156        0.0370686785959592    0.0
                        0.1929406881785753        0.0370721283629892    0.0
                        0.1967095608200033        0.0370711175130036    0.0
                        0.2013272196563230        0.0370696071859759    0.0
                        0.2068290954830598        0.0370683512522988    0.0
                        0.2132508639772127        0.0370670467235369    0.0
                        0.2206584700950377        0.0370655019093714    0.0
                        0.2291432821166147        0.0370636716153083    0.0
                        0.2388079592717249        0.0370615513319393    0.0
                        0.2497548948531183        0.0370591434846614    0.0
                        0.2620775802916635        0.0370564555373951    0.0
                        0.2758528345133969        0.0370535022170168    0.0
                        0.2911327607534464        0.0370503066082074    0.0
                        0.3079363717973984        0.0370469004584541    0.0
                        0.3262414591522078        0.0370433242350711    0.0
                        0.3459776249112553        0.0370396272521201    0.0
                        0.3670215656753120        0.0370358682956513    0.0
                        0.3891956916779740        0.0370321173320354    0.0
                        0.4122709396745207        0.0370284592922400    0.0
                        0.4359741824637949        0.0370250012639553    0.0
                        0.4600000000000000        0.0370218689309287    0.0
                        0.1782450899241563        0.0378182477199139    0.0
                        0.1787461606284227        0.0376183974042789    0.0
                        0.1792862253335474        0.0374971668852243    0.0
                        0.1799138007579341        0.0374203795292029    0.0
                        0.1806632480392461        0.0373736740862304    0.0
                        0.1815639833955260        0.0373500293260854    0.0
                        0.1826495415081814        0.0373448843967503    0.0
                        0.1839623760060054        0.0373534543766782    0.0
                        0.1855579388840458        0.0373697247911022    0.0
                        0.1875108253950797        0.0373869080357683    0.0
                        0.1899257919921192        0.0373983791958376    0.0
                        0.1929464422639152        0.0374013907048630    0.0
                        0.1967221219927218        0.0373997854378604    0.0
                        0.2013437940000303        0.0373975638371102    0.0
                        0.2068472423395860        0.0373955665570234    0.0
                        0.2132692101689136        0.0373935149452210    0.0
                        0.2206764259399711        0.0373912183450428    0.0
                        0.2291606128081968        0.0373886293443993    0.0
                        0.2388245435719830        0.0373857413827801    0.0
                        0.2497706347806964        0.0373825546871838    0.0
                        0.2620923765810197        0.0373790738980756    0.0
                        0.2758665825656116        0.0373753100360641    0.0
                        0.2911453517529409        0.0373712814401274    0.0
                        0.3079476952577477        0.0373670139256874    0.0
                        0.3262514061900071        0.0373625406688442    0.0
                        0.3459860920748552        0.0373579021081276    0.0
                        0.3670284591575887        0.0373531462565774    0.0
                        0.3892009316677890        0.0373483299593408    0.0
                        0.4122744645363551        0.0373435219936054    0.0
                        0.4359759524080580        0.0373388092034210    0.0
                        0.4600000000000000        0.0373342928281543    0.0
                        0.1780521828987660        0.0384534113213432    0.0
                        0.1786134633458425        0.0381641749794872    0.0
                        0.1791898062075154        0.0379770652672590    0.0
                        0.1798385560684160        0.0378524242712240    0.0
                        0.1806011389672196        0.0377709321333795    0.0
                        0.1815111117862892        0.0377225295892799    0.0
                        0.1826042299920789        0.0377005324257684    0.0
                        0.1839243270692725        0.0376985006075340    0.0
                        0.1855278900386067        0.0377088922597614    0.0
                        0.1874901927951194        0.0377233473142863    0.0
                        0.1899160330709641        0.0377336920818405    0.0
                        0.1929478733534953        0.0377359407700036    0.0
                        0.1967326479517001        0.0377334342774806    0.0
                        0.2013596894155200        0.0377302042181407    0.0
                        0.2068653126176840        0.0377271718915590    0.0
                        0.2132876800810443        0.0377240822966098    0.0
                        0.2206945485496110        0.0377207458956048    0.0
                        0.2291781054860084        0.0377171128715170    0.0
                        0.2388412735394102        0.0377131744302562    0.0
                        0.2497865019460930        0.0377089284768354    0.0
                        0.2621072816242230        0.0377043767122466    0.0
                        0.2758804213523648        0.0376995263171551    0.0
                        0.2911580162294369        0.0376943907316853    0.0
                        0.3079590759959500        0.0376889896773873    0.0
                        0.3262613956829295        0.0376833488829903    0.0
                        0.3459945885788082        0.0376774997770689    0.0
                        0.3670353709047143        0.0376714795040593    0.0
                        0.3892061812004991        0.0376653317475254    0.0
                        0.4122779928513493        0.0376591091617478    0.0
                        0.4359777225724851        0.0376528784676011    0.0
                        0.4600000000000000        0.0376467167253798    0.0
                        0.1777931528715978        0.0390608354936589    0.0
                        0.1784276497611076        0.0387017244422088    0.0
                        0.1790517457893776        0.0384570320939637    0.0
                        0.1797302623857582        0.0382881529614954    0.0
                        0.1805118387773116        0.0381734631677175    0.0
                        0.1814351492639317        0.0381009029290331    0.0
                        0.1825390204581258        0.0380621716012392    0.0
                        0.1838692400219205        0.0380494192064986    0.0
                        0.1854837024761189        0.0380536963994190    0.0
                        0.1874585509732275        0.0380651345116940    0.0
                        0.1898985740094150        0.0380740489711645    0.0
                        0.1929447328051331        0.0380752384122088    0.0
                        0.1967410002214875        0.0380715519929761    0.0
                        0.2013748113617130        0.0380670451981460    0.0
                        0.2068832304720754        0.0380627133268979    0.0
                        0.2133062101326844        0.0380583240637958    0.0
                        0.2207127846120666        0.0380536889084145    0.0
                        0.2291957156736354        0.0380487553843744    0.0
                        0.2388581122192320        0.0380435122744500    0.0
                        0.2498024657729097        0.0380379550555914    0.0
                        0.2621222702673884        0.0380320824011624    0.0
                        0.2758943303514834        0.0380258975524389    0.0
                        0.2911707376353794        0.0380194089375375    0.0
                        0.3079705008866209        0.0380126300669117    0.0
                        0.3262714174553582        0.0380055791141957    0.0
                        0.3460031067846101        0.0379982784145364    0.0
                        0.3670422954460325        0.0379907542003226    0.0
                        0.3892114366346867        0.0379830370043350    0.0
                        0.4122815224900771        0.0379751634371229    0.0
                        0.4359794920376986        0.0379671802593059    0.0
                        0.4600000000000000        0.0379591406226054    0.0
                        0.1774728048127560        0.0396330121225062    0.0
                        0.1781896889547038        0.0392236359406311    0.0
                        0.1788706663282871        0.0389319201894103    0.0
                        0.1795868272476650        0.0387240773277171    0.0
                        0.1803933203553162        0.0385788164110307    0.0
                        0.1813343338278376        0.0384833413422764    0.0
                        0.1824524432067766        0.0384283887226494    0.0
                        0.1837959453774963        0.0384050361287555    0.0
                        0.1854245172296249        0.0384031045168628    0.0
                        0.1874153458153441        0.0384113205970880    0.0
                        0.1898731212674081        0.0384185559424221    0.0
                        0.1929368963711654        0.0384184365283795    0.0
                        0.1967471215865664        0.0384133390115469    0.0
                        0.2013891135896528        0.0384073353554598    0.0
                        0.2069009492881322        0.0384014872276837    0.0
                        0.2133247560128675        0.0383955838174995    0.0
                        0.2207310944427271        0.0383894375665537    0.0
                        0.2292134088292093        0.0383829931030368    0.0
                        0.2388750299557911        0.0383762366238478    0.0
                        0.2498185010651339        0.0383691611030860    0.0
                        0.2621373213584712        0.0383617621352004    0.0
                        0.2759082920779576        0.0383540389641408    0.0
                        0.2911835018060592        0.0383459949393676    0.0
                        0.3079819587553479        0.0383376372930451    0.0
                        0.3262814629977594        0.0383289765881716    0.0
                        0.3460116405169503        0.0383200260359472    0.0
                        0.3670492285972989        0.0383108009648346    0.0
                        0.3892166954170050        0.0383013188156575    0.0
                        0.4122850521512863        0.0382916002764007    0.0
                        0.4359812603583615        0.0382816723431115    0.0
                        0.4600000000000000        0.0382715645198310    0.0
                        0.1770968296736933        0.0401635148947438    0.0
                        0.1779017522072238        0.0397229725550461    0.0
                        0.1786462504533482        0.0393964601926437    0.0
                        0.1794067873151302        0.0391565848599682    0.0
                        0.1802438813063121        0.0389845135994061    0.0
                        0.1812070746612758        0.0388680839775778    0.0
                        0.1823431306765233        0.0387978613779529    0.0
                        0.1837033538465034        0.0387642884985676    0.0
                        0.1853495601714285        0.0387562008416852    0.0
                        0.1873601209050197        0.0387610712855432    0.0
                        0.1898394835326478        0.0387664287697139    0.0
                        0.1929243288044051        0.0387647928520265    0.0
                        0.1967510188519757        0.0387580962620980    0.0
                        0.2014025918852126        0.0387504194022486    0.0
                        0.2069184512295197        0.0387428815183405    0.0
                        0.2133432950660142        0.0387352919110122    0.0
                        0.2207494557461771        0.0387274638871203    0.0
                        0.2292311647411657        0.0387193389850288    0.0
                        0.2388920089716922        0.0387109006922090    0.0
                        0.2498345924530295        0.0387021394433406    0.0
                        0.2621524218284861        0.0386930477445552    0.0
                        0.2759222956382698        0.0386836208306115    0.0
                        0.2911962998861578        0.0386738569563340    0.0
                        0.3079934426323629        0.0386637570625667    0.0
                        0.3262915270536012        0.0386533241025065    0.0
                        0.3460201860369041        0.0386425621901814    0.0
                        0.3670561679156621        0.0386314758144885    0.0
                        0.3892219561520334        0.0386200694364863    0.0
                        0.4122885812116681        0.0386083479910488    0.0
                        0.4359830273834782        0.0385963189456301    0.0
                        0.4600000000000000        0.0385839884170565    0.0
                        0.1766715907055472        0.0406470040195139    0.0
                        0.1775670274903401        0.0401933473052332    0.0
                        0.1783790335539466        0.0398452998713869    0.0
                        0.1791890988667892        0.0395818996725337    0.0
                        0.1800619195944283        0.0393880345337534    0.0
                        0.1810517392736854        0.0392534428406934    0.0
                        0.1822096346535077        0.0391694101222227    0.0
                        0.1835903104302207        0.0391262892369570    0.0
                        0.1852580336002361        0.0391122544519173    0.0
                        0.1872924424553785        0.0391137335612694    0.0
                        0.1897975226099588        0.0391170561786002    0.0
                        0.1929070524225841        0.0391137294492183    0.0
                        0.1967527427359903        0.0391052806994509    0.0
                        0.2014152710879281        0.0390957897074105    0.0
                        0.2069357384550711        0.0390864233577499    0.0
                        0.2133618199507510        0.0390770094731696    0.0
                        0.2207678588317032        0.0390673621602967    0.0
                        0.2292489738505952        0.0390574197148037    0.0
                        0.2389090405235195        0.0390471628329690    0.0
                        0.2498507321854018        0.0390365794150168    0.0
                        0.2621675649684771        0.0390256589137335    0.0
                        0.2759363353739209        0.0390143925915176    0.0
                        0.2912091272492511        0.0390027736455104    0.0
                        0.3080049488805317        0.0389907967689206    0.0
                        0.3263016069077946        0.0389784573653589    0.0
                        0.3460287414592178        0.0389657505390983    0.0
                        0.3670631122280515        0.0389526700643293    0.0
                        0.3892272182356728        0.0389392075934306    0.0
                        0.4122921094678400        0.0389253525327273    0.0
                        0.4359847931184561        0.0389110931062188    0.0
                        0.4600000000000000        0.0388964123142821    0.0
                        0.1762035850737639        0.0410795149317990    0.0
                        0.1771895607102727        0.0406290993424880    0.0
                        0.1780704263558352        0.0402730693365907    0.0
                        0.1789331341694996        0.0399960126944439    0.0
                        0.1798458180820164        0.0397867432193118    0.0
                        0.1808664755588640        0.0396377772768501    0.0
                        0.1820502461901134        0.0395420133382148    0.0
                        0.1834554436051757        0.0394903634774277    0.0
                        0.1851490052027692        0.0394707636708700    0.0
                        0.1872118256829010        0.0394688810658733    0.0
                        0.1897471082470251        0.0394700434600138    0.0
                        0.1928851201295621        0.0394648737217054    0.0
                        0.1967523717875783        0.0394545432981684    0.0
                        0.2014271954940314        0.0394431211457292    0.0
                        0.2069528270821955        0.0394318109491680    0.0
                        0.2133803344771562        0.0394204573397480    0.0
                        0.2207863035341323        0.0394088751475394    0.0
                        0.2292668348989965        0.0393969992987357    0.0
                        0.2389261230837040        0.0393848076541158    0.0
                        0.2498669187154843        0.0393722856247336    0.0
                        0.2621827493218289        0.0393594196890671    0.0
                        0.2759504099854592        0.0393461972224946    0.0
                        0.2912219827971245        0.0393326064543475    0.0
                        0.3080164766284975        0.0393186359310720    0.0
                        0.3263117019245153        0.0393042736273874    0.0
                        0.3460373063757571        0.0392895057880818    0.0
                        0.3670700613294039        0.0392743156615483    0.0
                        0.3892324816238683        0.0392586823265610    0.0
                        0.4122956369764337        0.0392425799479237    0.0
                        0.4359865576413416        0.0392259778503219    0.0
                        0.4600000000000000        0.0392088362115077    0.0
                        0.1757003284309389        0.0414574569587906    0.0
                        0.1767744535750036        0.0410251550389064    0.0
                        0.1777230820584625        0.0406742429820412    0.0
                        0.1786391220571634        0.0403943081476770    0.0
                        0.1795942377959709        0.0401774167965654    0.0
                        0.1806493360143524        0.0400190634291017    0.0
                        0.1818630312500567        0.0399144496599184    0.0
                        0.1832971769998893        0.0398557468605235    0.0
                        0.1850214234539426        0.0398311885308554    0.0
                        0.1871177557937344        0.0398260673622682    0.0
                        0.1896881358946294        0.0398249808315276    0.0
                        0.1928586225658640        0.0398178405729169    0.0
                        0.1967500097035781        0.0398055249194117    0.0
                        0.2014384213427060        0.0397920804815612    0.0
                        0.2069697384113425        0.0397787361458365    0.0
                        0.2133988450597995        0.0397653515784438    0.0
                        0.2208047913681072        0.0397517422494964    0.0
                        0.2292847479047719        0.0397378396176026    0.0
                        0.2389432561576484        0.0397236187062204    0.0
                        0.2498831513475072        0.0397090625271552    0.0
                        0.2621979741363494        0.0396941547117377    0.0
                        0.2759645187560674        0.0396788788860245    0.0
                        0.2912348659106982        0.0396632184580576    0.0
                        0.3080280253942317        0.0396471559887864    0.0
                        0.3263218117779783        0.0396306722080722    0.0
                        0.3460458806176358        0.0396137447166936    0.0
                        0.3670770151905567        0.0395963464919977    0.0
                        0.3892377463922915        0.0395784443394414    0.0
                        0.4122991638651592        0.0395599975322381    0.0
                        0.4359883210609513        0.0395409568985601    0.0
                        0.4600000000000000        0.0395212601087332    0.0
                        0.1751659260909720        0.0417804497439253    0.0
                        0.1763264881260246        0.0413779729191188    0.0
                        0.1773402945111767        0.0410439728554889    0.0
                        0.1783077925199839        0.0407723011241468    0.0
                        0.1793056552348098        0.0405569258843199    0.0
                        0.1803976324652385        0.0403956172077260    0.0
                        0.1816451363377890        0.0402860802369190    0.0
                        0.1831131200598779        0.0402223878425233    0.0
                        0.1848736531642799        0.0401937370542520    0.0
                        0.1870093717970429        0.0401855793090120    0.0
                        0.1896203364486433        0.0401821582850993    0.0
                        0.1928275917871243        0.0401729058989909    0.0
                        0.1967457493239670        0.0401584862708554    0.0
                        0.2014490125951660        0.0401429124225360    0.0
                        0.2069865080010593        0.0401274275664080    0.0
                        0.2134173740598986        0.0401119049205686    0.0
                        0.2208233395933525        0.0400961604342089    0.0
                        0.2293027276776839        0.0400801219536458    0.0
                        0.2389604527327873        0.0400637616679950    0.0
                        0.2498994413559145        0.0400470603038359    0.0
                        0.2622132490031107        0.0400299988035712    0.0
                        0.2759786696395361        0.0400125572189269    0.0
                        0.2912477829850700        0.0399947143264038    0.0
                        0.3080396001263475        0.0399764469121628    0.0
                        0.3263319401142798        0.0399577287011563    0.0
                        0.3460544667007256        0.0399385289278864    0.0
                        0.3670839753927432        0.0399188106219052    0.0
                        0.3892430133997250        0.0398985286899966    0.0
                        0.4123026904909218        0.0398776279437959    0.0
                        0.4359900834518753        0.0398560412031666    0.0
                        0.4600000000000000        0.0398336840059588    0.0
                        0.1746171528020754        0.0420422784830190    0.0
                        0.1758535563433426        0.0416836320834951    0.0
                        0.1769280874213827        0.0413767625846290    0.0
                        0.1779430788364859        0.0411235762380866    0.0
                        0.1789814438052321        0.0409193291984302    0.0
                        0.1801108265160105        0.0407627373817402    0.0
                        0.1813952379588093        0.0406534235503678    0.0
                        0.1829020670750506        0.0405876338760330    0.0
                        0.1847050470532039        0.0405562072380837    0.0
                        0.1868866115350595        0.0405454363820742    0.0
                        0.1895440063453970        0.0405397217000582    0.0
                        0.1927923765932630        0.0405283270588456    0.0
                        0.1967398067158520        0.0405118009778274    0.0
                        0.2014590497237873        0.0404941066637737    0.0
                        0.2070031440751934        0.0404764878522818    0.0
                        0.2134359028785775        0.0404588293522728    0.0
                        0.2208419223497276        0.0404409475734637    0.0
                        0.2293207477292561        0.0404227667900144    0.0
                        0.2389776878634731        0.0404042564873342    0.0
                        0.2499157662111119        0.0403853953180323    0.0
                        0.2622285542597861        0.0403661617839490    0.0
                        0.2759928460727156        0.0403465326294514    0.0
                        0.2912607206199600        0.0403264822820375    0.0
                        0.3080511905052058        0.0403059820552170    0.0
                        0.3263420794826612        0.0402849989958609    0.0
                        0.3460630597166881        0.0402634943291807    0.0
                        0.3670909391437284        0.0402414215286135    0.0
                        0.3892482814597083        0.0402187240306590    0.0
                        0.4123062166961500        0.0401953326505106    0.0
                        0.4359918450611756        0.0401711626987440    0.0
                        0.4600000000000000        0.0401461079031844    0.0
                        0.1740237253770609        0.0422564947099472    0.0
                        0.1753539873680722        0.0419429385668315    0.0
                        0.1764882284784962        0.0416709805329563    0.0
                        0.1775447343887021        0.0414462048123590    0.0
                        0.1786172580840063        0.0412641996179269    0.0
                        0.1797809518791784        0.0411225699860470    0.0
                        0.1811039771473075        0.0410209987803732    0.0
                        0.1826555516304944        0.0409574070101300    0.0
                        0.1845092823646209        0.0409250024866303    0.0
                        0.1867454942400004        0.0409119959816441    0.0
                        0.1894570887314077        0.0409037645398318    0.0
                        0.1927521600752411        0.0408898594387907    0.0
                        0.1967319753655544        0.0408708559651521    0.0
                        0.2014685637907068        0.0408506737702070    0.0
                        0.2070197555036316        0.0408305584098083    0.0
                        0.2134545606999275        0.0408104079134705    0.0
                        0.2208606694380892        0.0407900385791593    0.0
                        0.2293389310925647        0.0407693704661754    0.0
                        0.2389950742900111        0.0407483701508132    0.0
                        0.2499322262902613        0.0407270142431964    0.0
                        0.2622439767011680        0.0407052789182192    0.0
                        0.2760071207301293        0.0406831377623238    0.0
                        0.2912737374314394        0.0406605610365811    0.0
                        0.3080628416877597        0.0406375148093766    0.0
                        0.3263522626608288        0.0406139597350298    0.0
                        0.3460716815666524        0.0405898493861219    0.0
                        0.3670979193307208        0.0405651281199407    0.0
                        0.3892535565974027        0.0405397284356179    0.0
                        0.4123097440052827        0.0405135677872583    0.0
                        0.4359936053955505        0.0404865447240014    0.0
                        0.4600000000000000        0.0404585318004100    0.0
                        0.1735247048276959        0.0423865948662165    0.0
                        0.1748559256298421        0.0421496429921625    0.0
                        0.1760379828890625        0.0419189665435308    0.0
                        0.1771331738279403        0.0417262884676224    0.0
                        0.1782362790679069        0.0415713608023827    0.0
                        0.1794313526560396        0.0414505289083386    0.0
                        0.1807930518290680        0.0413620708505060    0.0
                        0.1823926567668995        0.0413045174808041    0.0
                        0.1843021080538879        0.0412734266631416    0.0
                        0.1865978821548575        0.0412594980902136    0.0
                        0.1893673950677358        0.0412496888553109    0.0
                        0.1927111518607626        0.0412342512553578    0.0
                        0.1967239382927164        0.0412138720266648    0.0
                        0.2014778889927239        0.0411923381764016    0.0
                        0.2070361160972514        0.0411708408193211    0.0
                        0.2134729371733087        0.0411492794107929    0.0
                        0.2208791307358488        0.0411274709437420    0.0
                        0.2293568388680899        0.0411053328113067    0.0
                        0.2390122045794427        0.0410828295323035    0.0
                        0.2499484559698047        0.0410599362178861    0.0
                        0.2622591985139148        0.0410366272059118    0.0
                        0.2760212266402989        0.0410128734259740    0.0
                        0.2912866178144524        0.0409886414790203    0.0
                        0.3080743877353632        0.0409638926807387    0.0
                        0.3263623696940300        0.0409385817490204    0.0
                        0.3460802528518528        0.0409126550015716    0.0
                        0.3671048701886537        0.0408860479957748    0.0
                        0.3892588185419979        0.0408586825007755    0.0
                        0.4123132685939230        0.0408304626729844    0.0
                        0.4359953674586861        0.0408012701678835    0.0
                        0.4600000000000000        0.0407709556976355    0.0
                        0.1732956696845451        0.0424342742322232    0.0
                        0.1744291664065520        0.0422976642725109    0.0
                        0.1756216869314448        0.0421106663767453    0.0
                        0.1767638167346540        0.0419406429699943    0.0
                        0.1779129752791807        0.0417994163491121    0.0
                        0.1791497642202967        0.0416871200023094    0.0
                        0.1805520678374838        0.0416036077493047    0.0
                        0.1821937831026917        0.0415487489452230    0.0
                        0.1841476434059387        0.0415193101357141    0.0
                        0.1864891183525833        0.0415068061490340    0.0
                        0.1893025216905309        0.0414986795952108    0.0
                        0.1926829005961661        0.0414854929073873    0.0
                        0.1967203181293426        0.0414678766979168    0.0
                        0.2014871828970935        0.0414493208717286    0.0
                        0.2070506142678125        0.0414308574406132    0.0
                        0.2134888879605815        0.0414123595201602    0.0
                        0.2208950953645997        0.0413936474749310    0.0
                        0.2293723545799272        0.0413746413774359    0.0
                        0.2390271193127012        0.0413553067238632    0.0
                        0.2499626862324569        0.0413356189900784    0.0
                        0.2622726628233977        0.0413155523664957    0.0
                        0.2760338326395593        0.0412950769256637    0.0
                        0.2912982620715868        0.0412741574711068    0.0
                        0.3080849581943449        0.0412527523299946    0.0
                        0.3263717489700580        0.0412308117325919    0.0
                        0.3460883221124066        0.0412082756086741    0.0
                        0.3671115135091891        0.0411850706707089    0.0
                        0.3892639275576455        0.0411611065773852    0.0
                        0.4123167471895593        0.0411362708960108    0.0
                        0.4359971361932938        0.0411104223549383    0.0
                        0.4600000000000000        0.0410833795948611    0.0
                        0.1731481933394011        0.0424645043999254    0.0
                        0.1740880247467916        0.0424005289047956    0.0
                        0.1752507707380177        0.0422571005084408    0.0
                        0.1764377625911115        0.0421044082942841    0.0
                        0.1776430826530024        0.0419682177366366    0.0
                        0.1789277500042084        0.0418568151608372    0.0
                        0.1803697018959062        0.0417734250760280    0.0
                        0.1820469709127321        0.0417190897382449    0.0
                        0.1840352282728473        0.0416908872102734    0.0
                        0.1864108036163192        0.0416802694492421    0.0
                        0.1892565329910117        0.0416745977680446    0.0
                        0.1926636829462279        0.0416644798161087    0.0
                        0.1967189730111218        0.0416504539940564    0.0
                        0.2014951593139606        0.0416357988747699    0.0
                        0.2070623352521450        0.0416214476935516    0.0
                        0.2135016479445626        0.0416072736656356    0.0
                        0.2209078630595639        0.0415931218133259    0.0
                        0.2293848083348519        0.0415789385800494    0.0
                        0.2390391627835215        0.0415647172084449    0.0
                        0.2499742694628343        0.0415504642054319    0.0
                        0.2622837318911391        0.0415361893067934    0.0
                        0.2760443191287027        0.0415219036780316    0.0
                        0.2913080819726144        0.0415076199649130    0.0
                        0.3080940126719577        0.0414933526249246    0.0
                        0.3263799256276871        0.0414791183170740    0.0
                        0.3460954965677469        0.0414649363650358    0.0
                        0.3671175512010315        0.0414508294263801    0.0
                        0.3892686856248939        0.0414368245566259    0.0
                        0.4123200761474404        0.0414229549923758    0.0
                        0.4359988810020656        0.0414092631090343    0.0
                        0.4600000000000000        0.0413958034920867    0.0
                        0.1729555265625886        0.0425036876606442    0.0
                        0.1737811800836579        0.0424812286382054    0.0
                        0.1748660665216328        0.0423884855267764    0.0
                        0.1760524729974209        0.0422713626467182    0.0
                        0.1772972025125095        0.0421565085288198    0.0
                        0.1786316344322295        0.0420572616621493    0.0
                        0.1801226832139345        0.0419809165356393    0.0
                        0.1818477714188905        0.0419308873793046    0.0
                        0.1838837299276075        0.0419055016038006    0.0
                        0.1863064631141765        0.0418969742066764    0.0
                        0.1891959488369542        0.0418934732262431    0.0
                        0.1926383631679228        0.0418862983700070    0.0
                        0.1967166403194639        0.0418758687415261    0.0
                        0.2015045956493726        0.0418650402512652    0.0
                        0.2070764201611043        0.0418545907042412    0.0
                        0.2135169768655808        0.0418443969220066    0.0
                        0.2209231457561399        0.0418343258408429    0.0
                        0.2293996402626056        0.0418243360947301    0.0
                        0.2390534195204608        0.0418144277517496    0.0
                        0.2499878856706460        0.0418046126976077    0.0
                        0.2622966401695134        0.0417949057818510    0.0
                        0.2760564380672208        0.0417853231814174    0.0
                        0.2913193158874638        0.0417758823789418    0.0
                        0.3081042537873290        0.0417666023768238    0.0
                        0.3263890570459090        0.0417575039413037    0.0
                        0.3461033958113499        0.0417486098803090    0.0
                        0.3671240942457064        0.0417399454519098    0.0
                        0.3892737512712000        0.0417315390356593    0.0
                        0.4123235504905960        0.0417234232931252    0.0
                        0.4360006616945828        0.0417156371182736    0.0
                        0.4600000000000000        0.0417082273893122    0.0
                        0.1727460011305944        0.0425459433230987    0.0
                        0.1735019327296394        0.0425449190515419    0.0
                        0.1745007932518998        0.0424951200593640    0.0
                        0.1756517201755777        0.0424194271752426    0.0
                        0.1769116575014898        0.0423364351727718    0.0
                        0.1782899608909712        0.0422588583522705    0.0
                        0.1798352548098771        0.0421961548106577    0.0
                        0.1816172402891713        0.0421541973562082    0.0
                        0.1837105252776626        0.0421331774779168    0.0
                        0.1861890456690488        0.0421268557093731    0.0
                        0.1891289482039947        0.0421251577369646    0.0
                        0.1926108403622630        0.0421207619535696    0.0
                        0.1967142265370937        0.0421139372085619    0.0
                        0.2015148011239305        0.0421069116179001    0.0
                        0.2070915265804222        0.0421002626703376    0.0
                        0.2135333450043694        0.0420938834961618    0.0
                        0.2209394074634654        0.0420876709494295    0.0
                        0.2294153703197385        0.0420815953796731    0.0
                        0.2390684897022174        0.0420756594109650    0.0
                        0.2500022303509513        0.0420698746488037    0.0
                        0.2623101919184037        0.0420642547253574    0.0
                        0.2760691153943020        0.0420588139552934    0.0
                        0.2913310233431478        0.0420535672366848    0.0
                        0.3081148846385443        0.0420485301247504    0.0
                        0.3263984967633839        0.0420437189149682    0.0
                        0.3461115261191854        0.0420391507340325    0.0
                        0.3671307976234425        0.0420348437039236    0.0
                        0.3892789157233819        0.0420308172635511    0.0
                        0.4123270743091421        0.0420270927909007    0.0
                        0.4360024578785199        0.0420236947039027    0.0
                        0.4600000000000000        0.0420206512865378    0.0
                        0.1725095619077430        0.0425931842418393    0.0
                        0.1732382754458908        0.0425979557569071    0.0
                        0.1741592491193299        0.0425795263670606    0.0
                        0.1752482338354906        0.0425448982779064    0.0
                        0.1764904041366902        0.0425022104063943    0.0
                        0.1778940404422396        0.0424583785964340    0.0
                        0.1794928040372503        0.0424203036592771    0.0
                        0.1813416683143358        0.0423937207161740    0.0
                        0.1835058167482171        0.0423803207729627    0.0
                        0.1860528598988634        0.0423765903073909    0.0
                        0.1890528655666422        0.0423760672838175    0.0
                        0.1925801963299717        0.0423740932180406    0.0
                        0.1967116475130537        0.0423707708456195    0.0
                        0.2015260232222397        0.0423673885255160    0.0
                        0.2071080019186003        0.0423642608668523    0.0
                        0.2135511080181180        0.0423613183738532    0.0
                        0.2209569811907793        0.0423585006719414    0.0
                        0.2294323001384904        0.0423557908013825    0.0
                        0.2390846414838551        0.0423531901959245    0.0
                        0.2500175377654967        0.0423507051638683    0.0
                        0.2623245876379566        0.0423483428750231    0.0
                        0.2760825184299911        0.0423461105635058    0.0
                        0.2913433396145462        0.0423440154400761    0.0
                        0.3081260102553944        0.0423420647021685    0.0
                        0.3264083221066742        0.0423402655486360    0.0
                        0.3461199404220396        0.0423386251975595    0.0
                        0.3671376938994959        0.0423371509414477    0.0
                        0.3892841958145256        0.0423358502817477    0.0
                        0.4123306537394496        0.0423347312119852    0.0
                        0.4360042701522940        0.0423338027314485    0.0
                        0.4600000000000000        0.0423330751837634    0.0
                        0.1722449528254888        0.0426454990809890    0.0
                        0.1729792082107842        0.0426454990809890    0.0
                        0.1738426040179053        0.0426454990809890    0.0
                        0.1748573565569353        0.0426454990809890    0.0
                        0.1760493133651612        0.0426454990809890    0.0
                        0.1774484735457911        0.0426454990809890    0.0
                        0.1790895541373044        0.0426454990809890    0.0
                        0.1810125945340637        0.0426454990809890    0.0
                        0.1832635845096851        0.0426454990809890    0.0
                        0.1858950925330199        0.0426454990809890    0.0
                        0.1889668592919051        0.0426454990809890    0.0
                        0.1925463061866531        0.0426454990809890    0.0
                        0.1967088897486292        0.0426454990809890    0.0
                        0.2015382106114934        0.0426454990809890    0.0
                        0.2071257606720832        0.0426454990809890    0.0
                        0.2135701664379722        0.0426454990809890    0.0
                        0.2209757639540348        0.0426454990809890    0.0
                        0.2294503270040477        0.0426454990809890    0.0
                        0.2391017738925411        0.0426454990809890    0.0
                        0.2500337097853169        0.0426454990809890    0.0
                        0.2623397333366935        0.0426454990809890    0.0
                        0.2760965588722142        0.0426454990809890    0.0
                        0.2913561838156747        0.0426454990809890    0.0
                        0.3081375589274601        0.0426454990809890    0.0
                        0.3264184721506033        0.0426454990809890    0.0
                        0.3461285898226773        0.0426454990809890    0.0
                        0.3671447468374948        0.0426454990809890    0.0
                        0.3892895677383819        0.0426454990809890    0.0
                        0.4123342760657455        0.0426454990809890    0.0
                        0.4360060942285631        0.0426454990809890    0.0
                        0.4600000000000001        0.0426454990809890    0.0
                </DataArray>
            </Points>
            <PointData>
                <DataArray type="Float32" Name="orthogonality" NumberOfComponents="1" format="ascii">
                        0.9982287139938245
                        0.9991077839863742
                        0.9978848660260196
                        0.9937280381685593
                        0.9854694161590027
                        0.9699474188405888
                        0.9404502066135290
                        0.8863844457866857
                        0.7956259275667262
                        0.6580100132164179
                        0.4756850417732631
                        0.2888424840096813
                        0.1557945306423936
                        0.0876857582123620
                        0.0605564786361080
                        0.0518948138841466
                        0.0495669476546039
                        0.0486501409348290
                        0.0475870178209145
                        0.0460114261901956
                        0.0438801836376753
                        0.0412153649424306
                        0.0380483789195761
                        0.0344130684195194
                        0.0303474332949882
                        0.0258960074614617
                        0.0211115754451426
                        0.0160559317663274
                        0.0107995569499829
                        0.0054201965425412
                        0.0000000000002879
                        0.9972393318793204
                        0.9986272298814047
                        0.9964828458746304
                        0.9911123215334636
                        0.9808253709955882
                        0.9615089481248747
                        0.9259913401792155
                        0.8650321983041630
                        0.7696345612967045
                        0.6326859514678882
                        0.4577110830467854
                        0.2808194028769422
                        0.1538087307380570
                        0.0877424625908427
                        0.0610616246829512
                        0.0524087641625110
                        0.0499902127904925
                        0.0489756253595606
                        0.0478307407833242
                        0.0461923381122044
                        0.0440150239057972
                        0.0413178109024038
                        0.0381291492570626
                        0.0344801642083757
                        0.0304063791165324
                        0.0259500902665514
                        0.0211620962131133
                        0.0161024831695470
                        0.0108403342696690
                        0.0054522884569907
                        0.0000193307838134
                        0.9966821170271141
                        0.9983132231516469
                        0.9954545444883587
                        0.9886723818141493
                        0.9750540317967583
                        0.9493833635623055
                        0.9052050468601536
                        0.8367894454431184
                        0.7386448940332467
                        0.6049935660455497
                        0.4391015408794641
                        0.2727021945771459
                        0.1518719565575248
                        0.0879367945545586
                        0.0617424868868727
                        0.0531022950622614
                        0.0505837695172904
                        0.0494593160180077
                        0.0482211398853946
                        0.0465096273311280
                        0.0442771313901960
                        0.0415394476105681
                        0.0383219333872271
                        0.0346528995939828
                        0.0305653294645515
                        0.0260992450463316
                        0.0213034436372490
                        0.0162363036077022
                        0.0109655213494019
                        0.0055666440446520
                        0.0001191778519856
                        0.9974594509857539
                        0.9979442809613483
                        0.9942361662070400
                        0.9853174326818265
                        0.9669402244159216
                        0.9336723097722579
                        0.8815442876247203
                        0.8083099635883179
                        0.7098219728749140
                        0.5803484669517602
                        0.4228526180748997
                        0.2656892834353369
                        0.1504034218793870
                        0.0884660647346643
                        0.0627368331943850
                        0.0540882522758009
                        0.0514435570301868
                        0.0501833198806861
                        0.0488284621146223
                        0.0470232977802591
                        0.0447177091906184
                        0.0419240078718391
                        0.0386642472686580
                        0.0349637714381856
                        0.0308529145893633
                        0.0263693433664339
                        0.0215597870036679
                        0.0164808533980290
                        0.0111987875421446
                        0.0057879755288605
                        0.0003256468308948
                        0.9991328136173404
                        0.9976299593801718
                        0.9928048792735781
                        0.9808460814911082
                        0.9565682598771071
                        0.9157874401314239
                        0.8577494248689431
                        0.7819934633287667
                        0.6841900405567929
                        0.5585119205812113
                        0.4079046896330243
                        0.2583341681344131
                        0.1478699256921388
                        0.0878981836907197
                        0.0627909508194895
                        0.0542997412463432
                        0.0516714467006273
                        0.0503939157566329
                        0.0490202022392866
                        0.0472021008791853
                        0.0448901587620073
                        0.0420959041104287
                        0.0388404154285390
                        0.0351480922993343
                        0.0310483921041732
                        0.0265781976886317
                        0.0217835875464100
                        0.0167207097851154
                        0.0114556170447795
                        0.0060628104104166
                        0.0006176487005465
                        0.9999980768277093
                        0.9971872251806725
                        0.9899285584134944
                        0.9719822416070259
                        0.9388375360751745
                        0.8903392794772506
                        0.8286915294286573
                        0.7531109524823296
                        0.6583482907574325
                        0.5385249572463586
                        0.3963861402495618
                        0.2552100419142365
                        0.1496224047026704
                        0.0912303999544702
                        0.0662079632507296
                        0.0573408440048198
                        0.0542580018685078
                        0.0525669275766763
                        0.0508473700513092
                        0.0487484485474627
                        0.0462113884848993
                        0.0432383788065170
                        0.0398424872546246
                        0.0360414984442603
                        0.0318595365732059
                        0.0273293637564910
                        0.0224941728397483
                        0.0174086116082906
                        0.0121389642256051
                        0.0067623245178479
                        0.0013419961130571
                        0.9998553826815831
                        0.9964220015310012
                        0.9856598793246083
                        0.9614412143582783
                        0.9216010209048067
                        0.8685155063249949
                        0.8050392538490512
                        0.7301990597672513
                        0.6388229064489659
                        0.5253052906725222
                        0.3919027959613070
                        0.2589340870065062
                        0.1576255316218998
                        0.0999646675817319
                        0.0741229513794995
                        0.0640516942718703
                        0.0598078887614353
                        0.0571182879205566
                        0.0545728830520662
                        0.0517993026616799
                        0.0487126050488252
                        0.0452914500986201
                        0.0415290448006772
                        0.0374265673824832
                        0.0329942042504054
                        0.0282529210209521
                        0.0232357980884967
                        0.0179886435732518
                        0.0125697752790846
                        0.0070486964971672
                        0.0014809450437183
                        0.9999107924840512
                        0.9947256473048090
                        0.9791637318120236
                        0.9488638189247286
                        0.9033896608284986
                        0.8455440506957991
                        0.7781065536071821
                        0.7009772330426848
                        0.6104083584884632
                        0.5018013256257880
                        0.3771197665261858
                        0.2536398743274333
                        0.1585074851730931
                        0.1032195018570653
                        0.0777167441177200
                        0.0672584186449658
                        0.0624696840580818
                        0.0592706175370323
                        0.0562970712508568
                        0.0531750456549382
                        0.0498071333652073
                        0.0461591523934480
                        0.0422131394777161
                        0.0379608238268051
                        0.0334043999520519
                        0.0285580395572189
                        0.0234490080856396
                        0.0181180902261412
                        0.0126192007553929
                        0.0070178333198338
                        0.0013671341905738
                        0.9999071633301980
                        0.9905819483046838
                        0.9695516130898140
                        0.9324883141602073
                        0.8794745622785527
                        0.8137943011194219
                        0.7395918427286946
                        0.6586575619075767
                        0.5686544771446094
                        0.4656114237922537
                        0.3509421759355422
                        0.2387984137205840
                        0.1519172665105365
                        0.1007366082960447
                        0.0768053904625144
                        0.0668364450157730
                        0.0621676177718613
                        0.0589897805374770
                        0.0560217601989094
                        0.0529085498099111
                        0.0495546208510885
                        0.0459243042802916
                        0.0419978444156607
                        0.0377653597285284
                        0.0332276482707204
                        0.0283976834969709
                        0.0233017194480587
                        0.0179797086944018
                        0.0124849001964435
                        0.0068822131953204
                        0.0012258402322757
                        0.9986641897607873
                        0.9840828265855180
                        0.9569035473950537
                        0.9118869885419578
                        0.8497272753536484
                        0.7752611069660128
                        0.6947813962152389
                        0.6114976396122008
                        0.5235560612405852
                        0.4270631916222089
                        0.3227652127206877
                        0.2220658171934895
                        0.1437615107485977
                        0.0971174737510912
                        0.0750772974391170
                        0.0657990496596169
                        0.0613842835896601
                        0.0583267699466560
                        0.0554420018714601
                        0.0523998786708741
                        0.0491100993639463
                        0.0455379415792296
                        0.0416638099342904
                        0.0374778173300757
                        0.0329806927285702
                        0.0281853128708083
                        0.0231178383983444
                        0.0178181592037011
                        0.0123395086159799
                        0.0067467971172117
                        0.0010956964984669
                        0.9960027399770230
                        0.9755723257313631
                        0.9411469147996048
                        0.8869077109015701
                        0.8148318339661772
                        0.7322227635935147
                        0.6473597413823329
                        0.5637837613836360
                        0.4793094123622648
                        0.3898695654403752
                        0.2956293738587321
                        0.2057562833205446
                        0.1357143980719586
                        0.0935848129668221
                        0.0734648319872382
                        0.0648814175496067
                        0.0607084338882154
                        0.0577551987181407
                        0.0549386726197276
                        0.0519546357767277
                        0.0487179182880385
                        0.0451944722740783
                        0.0413646117202395
                        0.0372182386639968
                        0.0327558470608438
                        0.0279900807863806
                        0.0229468917194532
                        0.0176660045651860
                        0.0122005406930344
                        0.0066153153999689
                        0.0009673882358640
                        0.9915599317336704
                        0.9643555921233181
                        0.9213041843923778
                        0.8562905883729958
                        0.7736650933097109
                        0.6839413482021150
                        0.5966882924621443
                        0.5146845850997961
                        0.4349035638547215
                        0.3530202815535885
                        0.2687235276487013
                        0.1893306672334093
                        0.1274192127503398
                        0.0898731050848853
                        0.0717572803082379
                        0.0639139276480763
                        0.0600034438277714
                        0.0571652295423305
                        0.0544236892639265
                        0.0515023981660012
                        0.0483219987444102
                        0.0448494862915533
                        0.0410653590227716
                        0.0369595341534890
                        0.0325324594509772
                        0.0277967029395686
                        0.0227781364683688
                        0.0175164224766301
                        0.0120646494521956
                        0.0064876030145832
                        0.0008437553948963
                        0.9850392774685207
                        0.9498480276831877
                        0.8963423237265718
                        0.8189547175411994
                        0.7258205840249914
                        0.6307868012326342
                        0.5434149676767030
                        0.4647505505742295
                        0.3907079485827344
                        0.3167554951978751
                        0.2422437720177830
                        0.1729782730771215
                        0.1190294705063815
                        0.0860876396599560
                        0.0700266968494740
                        0.0629495770114979
                        0.0593104985587255
                        0.0565896200497209
                        0.0539232596226610
                        0.0510641204356500
                        0.0479390444227441
                        0.0445162364045506
                        0.0407764945271902
                        0.0367098477658710
                        0.0323167804242926
                        0.0276098543791026
                        0.0226149178920080
                        0.0173716136636630
                        0.0119330252507415
                        0.0063639293703051
                        0.0007241989459680
                        0.9758671495906179
                        0.9310092518428642
                        0.8646919679103587
                        0.7734741017738562
                        0.6707293995073036
                        0.5728561825642502
                        0.4877517066744568
                        0.4140597934276698
                        0.3466658931354521
                        0.2809631808233390
                        0.2161099262478281
                        0.1566817576818874
                        0.1105515930756674
                        0.0822280069396102
                        0.0682651589971853
                        0.0619784985484975
                        0.0586205636610863
                        0.0560208364682773
                        0.0534312823825788
                        0.0506349130825143
                        0.0475651641455340
                        0.0441916511116741
                        0.0404956213794493
                        0.0364673407039403
                        0.0321074363645717
                        0.0274285537028269
                        0.0224565907466465
                        0.0172312275797066
                        0.0118055836103152
                        0.0062444582949936
                        0.0006091197478860
                        0.9631110908891500
                        0.9062494326409426
                        0.8242117253889138
                        0.7182890618485953
                        0.6080296880710550
                        0.5104320650243796
                        0.4300250788114505
                        0.3627946409360057
                        0.3028307638192892
                        0.2456365641274823
                        0.1903252578422672
                        0.1404791757142657
                        0.1020287575623223
                        0.0783204994779891
                        0.0664851327191537
                        0.0610068431552299
                        0.0579373965334618
                        0.0554616209437650
                        0.0529499147256884
                        0.0502165118811885
                        0.0472017656855451
                        0.0438768785264689
                        0.0402236814795673
                        0.0362327908375760
                        0.0319050744031487
                        0.0272533435832936
                        0.0223036140596812
                        0.0170956562109386
                        0.0116826628913770
                        0.0061294849165848
                        0.0004987751422713
                        0.9451079078354710
                        0.8729881177194565
                        0.7719253642200199
                        0.6517166447710726
                        0.5375380687520361
                        0.4438708633219973
                        0.3705499152953426
                        0.3111128651734247
                        0.2592417638059855
                        0.2107645837587058
                        0.1648901772324772
                        0.1244027724421799
                        0.0934986801019676
                        0.0743878890434295
                        0.0646967219880846
                        0.0600390024554726
                        0.0572633986464054
                        0.0549136702865800
                        0.0524805162540947
                        0.0498100541208677
                        0.0468498187039220
                        0.0435727582188083
                        0.0399614133623023
                        0.0360068587342416
                        0.0317102956585200
                        0.0270847807933946
                        0.0221565129024613
                        0.0169654039174084
                        0.0115647567570770
                        0.0060195011500623
                        0.0003936597063557
                        0.9187952371227896
                        0.8269670024253839
                        0.7038495231007551
                        0.5722039219042752
                        0.4594243689183780
                        0.3737082766586563
                        0.3097216067587653
                        0.2592259909165429
                        0.2159863143027087
                        0.1763796466912288
                        0.1398380764088386
                        0.1085053429268593
                        0.0850122528334344
                        0.0704627740952777
                        0.0629177811850999
                        0.0590855865465641
                        0.0566060168663039
                        0.0543827977149918
                        0.0520278125555696
                        0.0494194325129156
                        0.0465125502881139
                        0.0432819802503399
                        0.0397110727082557
                        0.0357914480561055
                        0.0315247178432701
                        0.0269242500712317
                        0.0220164815378285
                        0.0168415086328831
                        0.0114527743104354
                        0.0059153088297352
                        0.0002944795064163
                        0.8782249512680150
                        0.7610475551932167
                        0.6150510162747533
                        0.4787924711328080
                        0.3744070091315351
                        0.3007388913625036
                        0.2480659336073612
                        0.2074327228969053
                        0.1732217782306133
                        0.1425715971668882
                        0.1152451943292129
                        0.0928680729947631
                        0.0766396341257631
                        0.0665922759079200
                        0.0611776857885289
                        0.0581665108054528
                        0.0559802769160579
                        0.0538810117182735
                        0.0516016013706098
                        0.0490526962192304
                        0.0461965960007416
                        0.0430100310273560
                        0.0394772092400936
                        0.0355903426675314
                        0.0313514959212991
                        0.0267743868481370
                        0.0218857227252449
                        0.0167258088830534
                        0.0113482430884711
                        0.0058181644308550
                        0.0002022415438844
                        0.8110444691302322
                        0.6634395374882922
                        0.5005631668595560
                        0.3719419633938227
                        0.2840371381812845
                        0.2261513377847477
                        0.1863333217095393
                        0.1561891309262360
                        0.1312274288472793
                        0.1095260296439050
                        0.0912592977858434
                        0.0776223982411472
                        0.0684868826361493
                        0.0628509310623427
                        0.0595276319133979
                        0.0573193482804631
                        0.0554155825987682
                        0.0534320529926978
                        0.0512212596351828
                        0.0487257166586138
                        0.0459149776367318
                        0.0427676070943382
                        0.0392686166518630
                        0.0354107730279105
                        0.0311965689673745
                        0.0266400550348316
                        0.0217681955912984
                        0.0166214913572873
                        0.0112536777660096
                        0.0057299831555711
                        0.0001183007301646
                        0.6898567915026665
                        0.5166247761272859
                        0.3582316521906375
                        0.2546646370402814
                        0.1910262995122607
                        0.1517033713264125
                        0.1256272848391964
                        0.1062053648357549
                        0.0904769846994396
                        0.0775790970899661
                        0.0681420822496628
                        0.0629837417382432
                        0.0607232491091557
                        0.0593630484880985
                        0.0580590428126682
                        0.0566144312525751
                        0.0549680510053900
                        0.0530814432809802
                        0.0509239166639563
                        0.0484688251497416
                        0.0456924829306658
                        0.0425749620116811
                        0.0391018282467862
                        0.0352662062322925
                        0.0310708604803607
                        0.0265300487104835
                        0.0216708890315557
                        0.0165339887380127
                        0.0111731399095671
                        0.0056535846397098
                        0.0000443036411669
                        0.4561618099040818
                        0.3036031407261113
                        0.1936042863371108
                        0.1332033690967218
                        0.0992494102034422
                        0.0797026175755171
                        0.0673928732735189
                        0.0584341234351991
                        0.0516271948509099
                        0.0472093027159464
                        0.0462671613140293
                        0.0492566860972395
                        0.0535916933979134
                        0.0563153919530640
                        0.0569158562039637
                        0.0561655329089942
                        0.0547293558747330
                        0.0529036653293844
                        0.0507702354477112
                        0.0483314417482411
                        0.0455693476980282
                        0.0424648089277867
                        0.0390033742356293
                        0.0351780649728802
                        0.0309915431379574
                        0.0264579676797375
                        0.0216043568749296
                        0.0164712093385899
                        0.0111121846906290
                        0.0055923682429754
                        0.0000184029839140
                        0.0508822303208476
                        0.0315045595891789
                        0.0195610059063227
                        0.0135915969150407
                        0.0112318014174108
                        0.0112340719588795
                        0.0121046591768287
                        0.0130707304912382
                        0.0147485911965257
                        0.0184501223122143
                        0.0256815089022733
                        0.0365156594890172
                        0.0471770719134300
                        0.0537839868237977
                        0.0561598229731888
                        0.0560219769464264
                        0.0547390542235064
                        0.0529305346373223
                        0.0507857949317178
                        0.0483340816212229
                        0.0455619603601163
                        0.0424501619785163
                        0.0389834967751529
                        0.0351542983534422
                        0.0309646501889019
                        0.0264282223271380
                        0.0215716094593090
                        0.0164349271051341
                        0.0110714625287295
                        0.0055459284406391
                        0.0000712462888909
                        0.3799359135754845
                        0.2468758629344544
                        0.1550462546199408
                        0.1056702950001588
                        0.0763911924797015
                        0.0569404114785809
                        0.0429687764609487
                        0.0321044256571698
                        0.0219243033791458
                        0.0100611388567204
                        0.0053793464858432
                        0.0240477276932295
                        0.0409711835615311
                        0.0513872147610399
                        0.0554897890828275
                        0.0559399744540060
                        0.0547978926422489
                        0.0529986635592935
                        0.0508364339525388
                        0.0483664812366732
                        0.0455796286401005
                        0.0424563856645662
                        0.0389807687966546
                        0.0351443876495611
                        0.0309487235380560
                        0.0264069422339187
                        0.0215452035864335
                        0.0164032287863635
                        0.0110339177622885
                        0.0055015904555692
                        0.0001227714266036
                        0.6451842531774661
                        0.4724691618877898
                        0.3223967227078620
                        0.2272683194619284
                        0.1678613418039415
                        0.1286947253364534
                        0.1010272631371938
                        0.0796607835815013
                        0.0604197059703241
                        0.0398839953359338
                        0.0157915763016098
                        0.0110303701734684
                        0.0343815330759530
                        0.0486766988828327
                        0.0545507926807718
                        0.0556319607969552
                        0.0546708498011790
                        0.0529153893053002
                        0.0507640118959161
                        0.0482987255350124
                        0.0455155503631959
                        0.0423956383068120
                        0.0389229450389049
                        0.0350889689259331
                        0.0308951009757752
                        0.0263544308456868
                        0.0214930419602773
                        0.0163505610928465
                        0.0109797515794702
                        0.0054447515475749
                        0.0001826796739899
                        0.7832480234397697
                        0.6307301069011003
                        0.4695436725743681
                        0.3461490954462783
                        0.2615272246400439
                        0.2036214651046426
                        0.1621179661321916
                        0.1298057644802239
                        0.1009738568735746
                        0.0712112729420805
                        0.0379446169099752
                        0.0025746739182001
                        0.0274095737214959
                        0.0456634032015467
                        0.0533525356789553
                        0.0551050675796220
                        0.0543630406991181
                        0.0526843294209140
                        0.0505709955050541
                        0.0481323750595233
                        0.0453705642238334
                        0.0422681790719037
                        0.0388098149029195
                        0.0349874453837957
                        0.0308028616455331
                        0.0262694875956480
                        0.0214136735729929
                        0.0162752387294770
                        0.0109070487868668
                        0.0053732595126140
                        0.0002533650244650
                        0.8590943783796667
                        0.7364521543535166
                        0.5891318729360971
                        0.4555324433159267
                        0.3533710426312064
                        0.2793796189033235
                        0.2248030666987488
                        0.1816095423300081
                        0.1429507364294968
                        0.1035711974006680
                        0.0606965891746802
                        0.0164463882492666
                        0.0203112257756464
                        0.0425425391390603
                        0.0520450890719145
                        0.0544779410311577
                        0.0539700779629173
                        0.0523831391833603
                        0.0503205878713352
                        0.0479188693845083
                        0.0451864971493776
                        0.0421079596347864
                        0.0386688571577151
                        0.0348619501333148
                        0.0306896932954417
                        0.0261660669720526
                        0.0213178744802001
                        0.0161852811889437
                        0.0108213799292262
                        0.0052904425794077
                        0.0003336341095426
                        0.9046428153466918
                        0.8078081936022021
                        0.6822782344471514
                        0.5517269721165603
                        0.4403524208959163
                        0.3540449118320187
                        0.2878958012145748
                        0.2343234419068121
                        0.1858541614767975
                        0.1366016857589017
                        0.0837507460416334
                        0.0303357732580022
                        0.0132780109239858
                        0.0394521574895971
                        0.0507298553182244
                        0.0538289478854461
                        0.0535546684129507
                        0.0520627344971127
                        0.0500543208246160
                        0.0476921241464875
                        0.0449910471148831
                        0.0419375883264400
                        0.0385185018210798
                        0.0347274688170699
                        0.0305677250504795
                        0.0260539085688117
                        0.0212133610067418
                        0.0160866629854161
                        0.0107271866899838
                        0.0051993547469152
                        0.0004217438010423
                        0.9342044716975423
                        0.8575540852329270
                        0.7537287083752845
                        0.6338322729627141
                        0.5206381237878597
                        0.4262848357324834
                        0.3505878432302489
                        0.2874804453426471
                        0.2294076944755134
                        0.1701102774967587
                        0.1069366129257494
                        0.0440878104551449
                        0.0064281819749581
                        0.0364717523175321
                        0.0494611575663402
                        0.0531983729213913
                        0.0531485753868057
                        0.0517488442765570
                        0.0497932218933594
                        0.0474693731227104
                        0.0447983566090432
                        0.0417686808667709
                        0.0383682942829130
                        0.0345918449406630
                        0.0304433947195611
                        0.0259382810822936
                        0.0211044198482792
                        0.0159828345039499
                        0.0106271936946438
                        0.0051020744699659
                        0.0005162191555703
                        0.9545911852724320
                        0.8935132885288337
                        0.8085464179869033
                        0.7025915281346645
                        0.5932940949671874
                        0.4951909801140630
                        0.4123279279328255
                        0.3408068078160581
                        0.2734900508986898
                        0.2040251195076328
                        0.1301704520441906
                        0.0576086029297827
                        0.0001658931898660
                        0.0336452097684731
                        0.0482653661122011
                        0.0526041802203615
                        0.0527655073878519
                        0.0514525107880444
                        0.0495463518616745
                        0.0472580976347576
                        0.0446146237698988
                        0.0416063884556126
                        0.0382225303081481
                        0.0344586743067883
                        0.0303197241455590
                        0.0258217341862105
                        0.0209932103209164
                        0.0158756299208284
                        0.0105229612833800
                        0.0049999271197606
                        0.0006159490095796
                        0.9692675368426757
                        0.9203682169605740
                        0.8509097872011368
                        0.7594516908581409
                        0.6579373525426897
                        0.5600737442556434
                        0.4726646261522797
                        0.3941016138670683
                        0.3180441434343452
                        0.2383264205307916
                        0.1534032693702100
                        0.0708266851224128
                        0.0064494214892652
                        0.0310022001818490
                        0.0471577122034134
                        0.0520555048769174
                        0.0524120272246750
                        0.0511789273629189
                        0.0493179622557049
                        0.0470618159790698
                        0.0444427756859005
                        0.0414531582736311
                        0.0380832673421952
                        0.0343296980974596
                        0.0301981981739420
                        0.0257055452704278
                        0.0208808422134745
                        0.0157660238834411
                        0.0104153553421994
                        0.0048936905541530
                        0.0007202324163612
                        0.9801014283095440
                        0.9409922748464448
                        0.8840560901892513
                        0.8061686285489426
                        0.7146841127269441
                        0.6205284629984742
                        0.5313353271246181
                        0.4473333743976996
                        0.3631690510438105
                        0.2731233883665215
                        0.1766766531589156
                        0.0837298468666138
                        0.0124094775999893
                        0.0285413376102777
                        0.0461298601089159
                        0.0515430503326417
                        0.0520799738838709
                        0.0509214231053277
                        0.0491027244873578
                        0.0468763133636663
                        0.0442795061565966
                        0.0413064254086339
                        0.0379485486208942
                        0.0342034629330702
                        0.0300777853824921
                        0.0255890426708209
                        0.0207669573894069
                        0.0156539389736777
                        0.0103045578657941
                        0.0047837943682975
                        0.0008283999044879
                        0.9880262876298034
                        0.9570438460207381
                        0.9101906549945274
                        0.8441691744989778
                        0.7634931078592589
                        0.6757561133181502
                        0.5875762939257712
                        0.5000118344349689
                        0.4085897882763242
                        0.3082328994411238
                        0.1998086006995974
                        0.0961449361177469
                        0.0179231448878655
                        0.0263397205071722
                        0.0452333959877686
                        0.0511048956231953
                        0.0517990698849026
                        0.0507036833161423
                        0.0489196064966018
                        0.0467167711952360
                        0.0441369333248765
                        0.0411758211950114
                        0.0378259790747528
                        0.0340859135997611
                        0.0299630598637403
                        0.0254756563387586
                        0.0206540164178845
                        0.0155409981089686
                        0.0101914496242814
                        0.0046704409606916
                        0.0009408898113619
                        0.9938596491793549
                        0.9699212096532174
                        0.9314133042579417
                        0.8755420787955124
                        0.8056781961976537
                        0.7265104705761768
                        0.6421966697212520
                        0.5531843680297247
                        0.4554307756767017
                        0.3446300760704901
                        0.2234770045386965
                        0.1084919364332735
                        0.0232793791066680
                        0.0241739237711351
                        0.0442898088330638
                        0.0505976391427623
                        0.0514540571222378
                        0.0504331624266639
                        0.0486944283072180
                        0.0465238729549988
                        0.0439677869391116
                        0.0410238636445171
                        0.0376860631350235
                        0.0339541111845773
                        0.0298365134466508
                        0.0253524318332750
                        0.0205329466129944
                        0.0154215088859098
                        0.0100733608891642
                        0.0045537489622686
                        0.0010549365744031
                        0.9971612683780084
                        0.9793161262587121
                        0.9479230592598497
                        0.9000226143153182
                        0.8391307558827395
                        0.7686990301133788
                        0.6901906782428049
                        0.6019818945448422
                        0.4994515742926494
                        0.3788388851833692
                        0.2449773936226150
                        0.1188000918016187
                        0.0270907344219521
                        0.0230558086090155
                        0.0440766431330099
                        0.0506373575608412
                        0.0515389559025676
                        0.0505072298801076
                        0.0487466949751282
                        0.0465540436647382
                        0.0439772594989959
                        0.0410140227095753
                        0.0376581566362299
                        0.0339093517851640
                        0.0297761641091956
                        0.0252778448357813
                        0.0204455528622121
                        0.0153227556720417
                        0.0099645950131647
                        0.0044360512763393
                        0.0011795859630752
                        0.9975268409182517
                        0.9834300606782990
                        0.9594520109624815
                        0.9180700600304539
                        0.8625964233156484
                        0.7972615207618619
                        0.7226383711936623
                        0.6351717548461340
                        0.5289430354602810
                        0.4001184179291106
                        0.2554598459498085
                        0.1203351785973684
                        0.0243016919880926
                        0.0269158705499002
                        0.0477525815451416
                        0.0538059499083038
                        0.0541785066627582
                        0.0526784131741118
                        0.0505228674746314
                        0.0480011783262249
                        0.0451503771769637
                        0.0419581202892834
                        0.0384098588984063
                        0.0344984084263920
                        0.0302266688730884
                        0.0256091918448065
                        0.0206731566975977
                        0.0154585560097592
                        0.0100173599637351
                        0.0044114926679255
                        0.0012776444665412
                        0.9946523861027388
                        0.9842801211867773
                        0.9679258497863525
                        0.9348333971476785
                        0.8852492650782236
                        0.8226219021743568
                        0.7480997383007742
                        0.6582383122703240
                        0.5468324170757869
                        0.4099173661118642
                        0.2557846875571364
                        0.1137952027312983
                        0.0154804074127247
                        0.0353338496685924
                        0.0550133324809730
                        0.0598825843098013
                        0.0592161084067387
                        0.0568427342672124
                        0.0539632675289278
                        0.0508432765162988
                        0.0474974103807959
                        0.0438943093785454
                        0.0400037061367791
                        0.0358054814043040
                        0.0312918580581127
                        0.0264684993362228
                        0.0213550679545624
                        0.0159850298931736
                        0.0104044538542834
                        0.0046696187399351
                        0.0011438394194652
                        0.9852371686066094
                        0.9842480767979112
                        0.9743533264390324
                        0.9507898347071039
                        0.9104581081445275
                        0.8530508937338141
                        0.7795759861693524
                        0.6877157531920485
                        0.5715358957696864
                        0.4268080582351521
                        0.2630540892220119
                        0.1136550560018168
                        0.0122614345909463
                        0.0390471016075763
                        0.0584170541638897
                        0.0628363393047073
                        0.0617437288647141
                        0.0590008264157226
                        0.0558093185987474
                        0.0524279082448424
                        0.0488635340262026
                        0.0450781111105294
                        0.0410359004871180
                        0.0367124678064018
                        0.0320967393820482
                        0.0271919862142179
                        0.0220163058993387
                        0.0166023977180066
                        0.0109964028551512
                        0.0052556634837740
                        0.0005522444026997
                        0.9763306474872534
                        0.9836055424179482
                        0.9769386770100541
                        0.9593700908763143
                        0.9273376808458313
                        0.8773976372639334
                        0.8080659353570376
                        0.7168192721452848
                        0.5979003819285905
                        0.4467756529446261
                        0.2740784056808202
                        0.1173672306598629
                        0.0126378263729648
                        0.0396039789263838
                        0.0591373878679984
                        0.0635403118251876
                        0.0623942569239213
                        0.0595933067988842
                        0.0563469622127619
                        0.0529154372997368
                        0.0493056542280008
                        0.0454793054334422
                        0.0414005248181147
                        0.0370448940143173
                        0.0324014944378033
                        0.0274738754264398
                        0.0222805136421541
                        0.0168545599773642
                        0.0112426467313429
                        0.0055026163706085
                        0.0002988977911777
                        0.9725476962511585
                        0.9833337701081577
                        0.9789248203994433
                        0.9658433961512353
                        0.9414021893165558
                        0.9003865119423939
                        0.8377478495306487
                        0.7488168512307541
                        0.6274097345171901
                        0.4687475650038367
                        0.2851667922597394
                        0.1198743353744600
                        0.0116433914366193
                        0.0412994900259706
                        0.0607645064202364
                        0.0649769345447010
                        0.0636437179966111
                        0.0606766971006961
                        0.0572858094876395
                        0.0537288174476939
                        0.0500099562772924
                        0.0460885985118091
                        0.0419270082675722
                        0.0374993061080332
                        0.0327934557809466
                        0.0278121610022154
                        0.0225732486271389
                        0.0171093340318814
                        0.0114665412971446
                        0.0057021481100078
                        0.0001186360132467
                        0.9754555789267227
                        0.9835175189039269
                        0.9804172287749448
                        0.9703527407385586
                        0.9518904919459867
                        0.9197198563004168
                        0.8660436667638429
                        0.7823411762040784
                        0.6601227005534497
                        0.4937496496041096
                        0.2977746072670825
                        0.1227505216826074
                        0.0107887558977237
                        0.0427980032860186
                        0.0621604058501807
                        0.0661887481766567
                        0.0646897650687346
                        0.0615793637973063
                        0.0580637278363772
                        0.0543975920067995
                        0.0505828745847760
                        0.0465771277611015
                        0.0423411975009364
                        0.0378481259496598
                        0.0330850778988675
                        0.0280541722967317
                        0.0227727936466147
                        0.0172731796417351
                        0.0116010590712202
                        0.0058132218802074
                        0.0000259588027228
                        0.9811766174487111
                        0.9851205598037940
                        0.9830361348603220
                        0.9747133321669889
                        0.9597129526807847
                        0.9333447235297479
                        0.8870317049436758
                        0.8096829183447008
                        0.6894545972714769
                        0.5177911663944117
                        0.3102979731342696
                        0.1256291548543569
                        0.0100360830624113
                        0.0441146472589281
                        0.0633533777714088
                        0.0672067181032633
                        0.0655598203180326
                        0.0623242925029411
                        0.0587002194655768
                        0.0549389817437840
                        0.0510403588581791
                        0.0469603307594947
                        0.0426585529462978
                        0.0381071880733639
                        0.0332927772341953
                        0.0282170116830722
                        0.0228969767092334
                        0.0173646647238846
                        0.0116655335775470
                        0.0058560054690322
                        0.0000000000002879
                </DataArray>
                <DataArray type="Float32" Name="aspect_ratio" NumberOfComponents="1" format="ascii">
                        1.9469385070822861
                        2.5359073729188168
                        2.4047068586918517
                        2.1303045498630603
                        2.0227303446172588
                        2.1324876271207653
                        2.5048487990600580
                        3.2201275409631736
                        4.3739878870067231
                        6.0256418656231472
                        8.0671441997347705
                       10.1312838861563280
                       11.9955540388223490
                       13.8200649092702455
                       15.7795793832227723
                       17.9441374287814960
                       20.3368399355943880
                       22.9645703518027713
                       25.8235947019779606
                       28.8986413222068400
                       32.1607235751442763
                       35.5648621315044761
                       39.0483497674325078
                       42.5301734382696604
                       45.9121781315915523
                       49.0824417929721035
                       51.9210796024488634
                       54.3082965744157548
                       56.1340073831686621
                       57.3078674769699207
                       58.1564533713493371
                        2.0386004370593448
                        2.5221615326784353
                        2.3165040716341655
                        2.1158453422484602
                        2.0941550659883382
                        2.2807324634425648
                        2.7281419428117432
                        3.5233257292250844
                        4.7623140082392489
                        6.4989143239870718
                        8.6305614059510729
                       10.8210338999522666
                       12.8450814799358492
                       14.8245259224130837
                       16.9214409628419342
                       19.2106779200479172
                       21.7200119802596915
                       24.4567158787180114
                       27.4139048082282454
                       30.5709673503048045
                       33.8923414250673987
                       37.3258581888422477
                       40.8015552799378817
                       44.2317276692135335
                       47.5128281800089885
                       50.5296334385474240
                       53.1617894112147122
                       55.2924227588524958
                       56.8180024403665987
                       57.6581924770698641
                       58.1523680525396727
                        2.3027648488714476
                        2.5332176015707504
                        2.2536105557200815
                        2.1004347767890336
                        2.1531398677231888
                        2.4309722055415319
                        2.9870002618672039
                        3.9001212377640655
                        5.2541934807396786
                        7.0950394100291343
                        9.3307091481629123
                       11.6618020294751885
                       13.8638445605409126
                       16.0194502228636943
                       18.2753161830827568
                       20.7100455669855926
                       23.3557738587717513
                       26.2196844722722555
                       29.2909547843625467
                       32.5426310050410738
                       35.9314569744585034
                       39.3969250414658779
                       42.8607274481028093
                       46.2275386487847708
                       49.3877642392397040
                       52.2226066711705147
                       54.6114410430850187
                       56.4410362455962791
                       57.6156559249391340
                       58.0666684747642049
                       58.1482790818689009
                        2.8287470228235921
                        2.5005850748572279
                        2.1895694286870457
                        2.1010822818449283
                        2.2344550939020171
                        2.6060156399836361
                        3.2657429781315624
                        4.2845747337332056
                        5.7397367950806325
                        7.6737857426617352
                       10.0064053580928322
                       12.4716646702074972
                       14.8463883038160043
                       17.1759565247810983
                       19.5902185787187114
                       22.1705657928783764
                       24.9535208805513394
                       27.9464088513940593
                       31.1346392258205063
                       34.4849962654429690
                       37.9465143220640350
                       41.4502170381378629
                       44.9091842817526933
                       48.2200496537428279
                       51.2665957807334809
                       53.9257380591923484
                       56.0757729574677670
                       57.6062747759247424
                       58.4285198112203606
                       58.4849443416379497
                       58.1441856854678911
                        4.0867616890359070
                        2.4085114017654336
                        2.1643101024019072
                        2.1865608384072566
                        2.4495567182001949
                        2.9720210852466696
                        3.8050584390433377
                        5.0231071947094477
                        6.7079971660972551
                        8.9034204780349244
                       11.5316424575710612
                       14.3327503859190127
                       17.0657199572650315
                       19.7435571327637637
                       22.4874812253826247
                       25.3855704705332763
                       28.4790853304774891
                       31.7728121547702886
                       35.2431184210264047
                       38.8430809217716118
                       42.5046881362697959
                       46.1394909125108104
                       49.6396046315147771
                       52.8804399844160796
                       55.7258932570803641
                       58.0361950432705632
                       59.6780779061145683
                       60.5363282048565829
                       60.5252165818912587
                       59.5979150089447674
                       58.1400866020604938
                        4.9843649233621243
                        2.2481204722256390
                        2.0520547211752791
                        2.1013757493637943
                        2.3644943894515687
                        2.8505373646376642
                        3.6006449529495755
                        4.6828428888353852
                        6.1722448863241018
                        8.1126724523220715
                       10.4566070001347725
                       13.0132555373785479
                       15.5755212354628623
                       18.1212279802687924
                       20.7411066869329266
                       23.5179854885698120
                       26.4977037249865586
                       29.6914495856684208
                       33.0822438241175832
                       36.6299841603404653
                       40.2735333961340171
                       43.9310112194862237
                       47.5002377808623259
                       50.8607820032144728
                       53.8784306101892048
                       56.4123816187565034
                       58.3249463665865657
                       59.4929488711403625
                       59.8194119793988461
                       59.2436703453310770
                       58.1360746557419169
                        3.1765071863399958
                        2.0708746900224989
                        1.8849250371514315
                        1.8590800522917418
                        1.9606817210682550
                        2.2058299807995253
                        2.6304791793549781
                        3.2848617250633983
                        4.2254929398141965
                        5.4954475773593425
                        7.0914790818553799
                        8.9224953899841982
                       10.8525233816958458
                       12.8372211356082239
                       14.9255721639673650
                       17.1837825685154622
                       19.6599267456908106
                       22.3779195786399598
                       25.3403860877054015
                       28.5318867530830271
                       31.9197611567111579
                       35.4531799072173171
                       39.0619659177610239
                       42.6564749410246123
                       46.1293979702793970
                       49.3600159917599621
                       52.2210810745500216
                       54.5880319285508506
                       56.3497135710761102
                       57.4192893195493607
                       58.1318907168491209
                        2.1337654400695789
                        1.8984038143232590
                        1.7701198948259929
                        1.7296955012597208
                        1.7828771222112071
                        1.9507747143873772
                        2.2635883994422636
                        2.7619823354408982
                        3.4933809864096288
                        4.4999595571355674
                        5.7990774044525160
                        7.3470392315173762
                        9.0415588352191649
                       10.8239986964786425
                       12.7197408519404273
                       14.7873883835085293
                       17.0777465385133486
                       19.6213614759065738
                       22.4293459622353501
                       25.4961323810022611
                       28.8000377411681487
                       32.3018687594551630
                       35.9430452317717927
                       39.6445320955573560
                       43.3074953130321041
                       46.8163194021682882
                       50.0443239178709085
                       52.8620901297202142
                       55.1477737685068264
                       56.7982494606314277
                       58.1275782891559672
                        1.8778540296581018
                        1.7942829977166998
                        1.7008023648091251
                        1.6773126505379218
                        1.7475006575453059
                        1.9309145001717797
                        2.2524638762217545
                        2.7456109535861481
                        3.4513068184347307
                        4.4114672771176994
                        5.6560387942040766
                        7.1660014061174575
                        8.8516201501111863
                       10.6388289014975703
                       12.5363664049152444
                       14.5996363690364193
                       16.8823537100874432
                       19.4179476150113995
                       22.2192191541655128
                       25.2815605327022094
                       28.5839695343757184
                       32.0878388558369295
                       35.7351075121027780
                       39.4471610487758632
                       43.1254377593382240
                       46.6543948860591455
                       49.9071816747703862
                       52.7539393953436545
                       55.0721118327399382
                       56.7576162351792883
                       58.1232494776065960
                        1.8336735798853197
                        1.7261736171212719
                        1.6377612312463597
                        1.6335293837937271
                        1.7289056713880828
                        1.9399011755064264
                        2.2869124045797367
                        2.7968047768362522
                        3.5045966333410857
                        4.4518978678683046
                        5.6788060486417540
                        7.1850777186274724
                        8.8899438960036827
                       10.7062267637435198
                       12.6282775991877170
                       14.7087571431532890
                       17.0040249060635129
                       19.5497658338342758
                       22.3595711335001027
                       25.4287129565732962
                       28.7356888478928929
                       32.2412738096524592
                       35.8867914247379240
                       39.5930927138122749
                       43.2612364533182787
                       46.7755279135462503
                       50.0092534100006151
                       52.8330181328246770
                       55.1250587459054640
                       56.7823728877107865
                       58.1189286165497742
                        1.7278304309345805
                        1.6419432682115653
                        1.5695528688294101
                        1.5851785461757644
                        1.7032447620957983
                        1.9375565412440998
                        2.3044890414554124
                        2.8254155031418112
                        3.5309062959074996
                        4.4627854336171581
                        5.6697670326763792
                        7.1672734808424766
                        8.8829981628846284
                       10.7198067376149429
                       12.6594046709279135
                       14.7514687560239851
                       17.0545079545668925
                       19.6062734999226359
                       22.4212115762179804
                       25.4946724497306774
                       28.8049072004174561
                       32.3123405593252454
                       35.9579334224243817
                       39.6622133459156663
                       43.3260003327331794
                       46.8334898545295018
                       50.0580252020048461
                       52.8704589637875579
                       55.1494676429665209
                       56.7926563505286117
                       58.1146105078211908
                        1.6324072612943524
                        1.5564158807434481
                        1.4993305026132590
                        1.5356846057509009
                        1.6775033823756646
                        1.9360941828410834
                        2.3236603494640137
                        2.8568426778210009
                        3.5629596385914705
                        4.4845339664181278
                        5.6776826440702987
                        7.1706591502215036
                        8.8983247873285056
                       10.7555904240592583
                       12.7131593038961211
                       14.8178218018489385
                       17.1298927202989303
                       19.6889189400342728
                       22.5100372161117351
                       25.5885647664532205
                       28.9024130085109852
                       32.4115692357818299
                       36.0565515653014076
                       39.7574973609550091
                       43.4149426920225662
                       46.9129579165424127
                       50.1249648671457089
                       52.9221262317595742
                       55.1836624819891407
                       56.8079271921256341
                       58.1102970719980157
                        1.5273693109396839
                        1.4651048054750051
                        1.4254899101876280
                        1.4835895167462009
                        1.6498456545805066
                        1.9326515772633625
                        2.3400666076566411
                        2.8849712174398677
                        3.5925171560199908
                        4.5062663193975660
                        5.6886849267066053
                        7.1785637577793794
                        8.9168845582386211
                       10.7923510165271522
                       12.7662518160623119
                       14.8826364622904444
                       17.2032889012006092
                       19.7693018801771985
                       22.5963965487402966
                       25.6798301526024742
                       28.9971779191497398
                       32.5080018771999083
                       36.1523905839067081
                       39.8501022880606807
                       43.5013959049532308
                       46.9902171685646673
                       50.1900590989740556
                       52.9723784044203184
                       55.2169149395282801
                       56.8227390973765639
                       58.1059882544588068
                        1.4172932692534031
                        1.3691104477814852
                        1.3485262641015344
                        1.4301055333189865
                        1.6222329213320105
                        1.9296125090336181
                        2.3564758325550310
                        2.9130464637541484
                        3.6232645186037715
                        4.5319866836136957
                        5.7071315021272273
                        7.1960716549787791
                        8.9448240301495265
                       10.8372006804937222
                       12.8265513145792071
                       14.9544277765338586
                       17.2837981831094718
                       19.8570502107368038
                       22.6903609262833666
                       25.7788702628895591
                       29.0997866835779987
                       32.6122241045468355
                       36.2558213863627072
                       39.9499402751748912
                       43.5945493180382986
                       47.0734622695264552
                       50.2602434133342108
                       53.0266521532424974
                       55.2529654972174696
                       56.8389971713132240
                       58.1016845028880907
                        1.3003096213064777
                        1.2682032263114924
                        1.2690131218446394
                        1.3765026273983808
                        1.5960185577045987
                        1.9280238797291620
                        2.3737189354826372
                        2.9418272178827201
                        3.6558553642638496
                        4.5621018647994021
                        5.7331389216256941
                        7.2232376663768165
                        8.9824060553113141
                       10.8906004233862423
                       12.8946168713199257
                       15.0338149374711272
                       17.3720960783960029
                       19.9528960164516725
                       22.7927163903811405
                       25.8865189632005451
                       29.2111112092372406
                       32.7251321366187891
                       36.3677465896786739
                       40.0578982865407688
                       43.6952484398897622
                       47.1634685684820104
                       50.3361926669018024
                       53.0854915881611659
                       55.2921992869357776
                       56.8569033662862278
                       58.0973861546999126
                        1.1765223221277008
                        1.1630869774986525
                        1.1885548191902939
                        1.3249658235123022
                        1.5732089894415577
                        1.9295533146564628
                        2.3933886882355947
                        2.9730302529183369
                        3.6921499081808208
                        4.5985477634889796
                        5.7687326443510621
                        7.2623980017523537
                        9.0325134057913047
                       10.9559607304495660
                       12.9742668284527330
                       15.1249550743355971
                       17.4726458484570962
                       20.0615799498893917
                       22.9084422596989200
                       26.0079403010546089
                       29.3364287999315365
                       32.8520266349162147
                       36.4933823770703450
                       40.1789843547526880
                       43.8081576075686303
                       47.2644152076424164
                       50.4214610137611325
                       53.1516966575962208
                       55.3365526245705761
                       56.8774492076735743
                       58.0930935897430428
                        1.0461308984157229
                        1.0551528986300106
                        1.1097195555558576
                        1.2782348773304092
                        1.5559570104261934
                        1.9359086483758528
                        2.4171362454615923
                        3.0084657651164297
                        3.7341556587890574
                        4.6434932967841599
                        5.8162714045283479
                        7.3162906991741846
                        9.0984652311647035
                       11.0371735462772452
                       13.0698577112928548
                       15.2325968751494557
                       17.5905489877563115
                       20.1885215950991957
                       23.0432310723724734
                       26.1490377146155955
                       29.4817718193469520
                       32.9989659254096716
                       36.6386896563242811
                       40.3189205786113419
                       43.9386052843873538
                       47.3810755067278174
                       50.5201072060160617
                       53.2284642889194877
                       55.3882360203764827
                       56.9017664639437888
                       58.0888071540028421
                        1.0985845012329982
                        1.0558662647409291
                        1.0362773869726778
                        1.2395889116554602
                        1.5466146631853840
                        1.9490023577194809
                        2.4469026064663635
                        3.0503215670043522
                        3.7843620965877857
                        4.6997266743193312
                        5.8788934252309178
                        7.3885788422374418
                        9.1846255472267522
                       11.1392972531970284
                       13.1870348872250478
                       15.3628891125147692
                       17.7324051911414519
                       20.3407239617921731
                       23.2044288963968161
                       26.3174188291147763
                       29.6549027650624388
                       33.1737342300487076
                       36.8113156613327473
                       40.4850362147817344
                       44.0934055003147662
                       47.5195435312572779
                       50.6373043530152153
                       53.3198622306696183
                       55.4500572583731257
                       56.9312901425901370
                       58.0845270910117129
                        1.2962422161326824
                        1.1854956703236113
                        1.0274882886203664
                        1.2125591403862109
                        1.5474649396846615
                        1.9706908426074744
                        2.4846204187851935
                        3.1008100033313888
                        3.8453188222447911
                        4.7701468264771507
                        5.9598997287122566
                        7.4831076573886790
                        9.2955246786692000
                       11.2675443985628368
                       13.3315988011990242
                       15.5221378191932704
                       17.9049694828842047
                       20.5253390144966502
                       23.3995203312692886
                       26.5208156014913147
                       29.8636908497036997
                       33.3842020397340138
                       37.0189715173195718
                       40.6847013664431343
                       44.2793909722361386
                       47.6859125490741595
                       50.7782098262561378
                       53.4299338679016260
                       55.5247989222108910
                       56.9674379766932039
                       58.0802533893015353
                        1.5730350185417922
                        1.3297022619831155
                        1.0793713382962990
                        1.2000058963329203
                        1.5596979406177016
                        2.0015719771883022
                        2.5307651220670854
                        3.1604336958854145
                        3.9175761034802218
                        4.8553210220795678
                        6.0598428745495557
                        7.6004282111538136
                        9.4317646502781416
                       11.4225882308561630
                       13.5042732765079688
                       15.7110925645390195
                       18.1089985236961060
                       20.7431149322778360
                       23.6292300328519980
                       26.7599139527580454
                       30.1087682104968881
                       33.6309336651229613
                       37.2621417849369404
                       40.9183122895730549
                       44.4968656977433672
                       47.8803959864349873
                       50.9429544978141436
                       53.5587420277414905
                       55.6124763106915517
                       57.0102031190656792
                       58.0759854827153909
                        1.9261150296197472
                        1.4616625186701373
                        1.1108737169872088
                        1.2008595863684710
                        1.5794920260010703
                        2.0361758493027468
                        2.5785013262044222
                        3.2209662928214778
                        3.9913581165922574
                        4.9436381788986068
                        6.1648363479652948
                        7.7238956519376982
                        9.5737146763538298
                       11.5819527211635898
                       13.6800338193363337
                       15.9024340023627826
                       18.3150666272809061
                       20.9627085505229695
                       23.8605485649380132
                       27.0003888764276422
                       30.3549637243283610
                       33.8785080819345521
                       37.5058767569112672
                       41.1522239713861450
                       44.7144092724343500
                       48.0747654606691169
                       51.1074656382372116
                       53.6872694581850926
                       55.6999006056463325
                       57.0528126102205492
                       58.0717216536377929
                        2.1676622679077691
                        1.5272975888259072
                        1.1211723738774166
                        1.2045687646489339
                        1.5914339344711422
                        2.0548865247243206
                        2.6038568925421153
                        3.2536796646222924
                        4.0326108288704238
                        4.9948370017321144
                        6.2270577481163513
                        7.7965991790541697
                        9.6546175460284726
                       11.6694850218013401
                       13.7743393229545636
                       16.0041183766351410
                       18.4243038350060906
                       21.0791030064118499
                       23.9831962085106574
                       27.1279058950469336
                       30.4854795398897641
                       34.0096600216482659
                       37.6348329374147195
                       41.2757493925075383
                       44.8289825110394497
                       48.1767463696138864
                       51.1933064020458301
                       53.7537521062813162
                       55.7443763361144804
                       57.0734124779513856
                       58.0674583335219156
                        1.9974354797120383
                        1.4837118703179470
                        1.1154694360605057
                        1.2007443136060549
                        1.5817145605777752
                        2.0405206562774137
                        2.5859446306880114
                        3.2335647504243571
                        4.0116884945541922
                        4.9738814140294315
                        6.2049569607677944
                        7.7692493029979244
                        9.6168969840481773
                       11.6197524311133468
                       13.7147347494914548
                       15.9373901539291656
                       18.3522228374703878
                       21.0026695189599504
                       23.9031743868998892
                       27.0451438807932448
                       30.4010411360192206
                       33.9248677616982888
                       37.5512722891553837
                       41.1952467745679327
                       44.7535568084810686
                       48.1085321428318616
                       51.1344500145436083
                       53.7062864995113511
                       55.7100854960759113
                       57.0537001588750299
                       58.0631922847709910
                        1.6463612978000018
                        1.3625416306660675
                        1.0895871837290705
                        1.1972211220189563
                        1.5607412086345118
                        2.0060193178342507
                        2.5404447793549537
                        3.1793073757053170
                        3.9506402258628656
                        4.9067306094684927
                        6.1292483017400144
                        7.6782973352361812
                        9.5032950240584081
                       11.4815599104419703
                       13.5554021928544859
                       15.7611615057787023
                       18.1619776517048217
                       20.8003421733978086
                       23.6906203870286920
                       26.8246683867035348
                       30.1756301573249186
                       33.6982667801014065
                       37.3279801857949408
                       40.9804371343491555
                       44.5529212816959567
                       47.9280424636529562
                       50.9800455464835862
                       53.5835079551924451
                       55.6236894287747359
                       57.0072987736302494
                       58.0589258785665953
                        1.3562182750299447
                        1.2207422643216655
                        1.0421766319565740
                        1.2060489215229453
                        1.5457030695500396
                        1.9731621949960790
                        2.4939668172840657
                        3.1228292401385198
                        3.8873674998213312
                        4.8382473810907171
                        6.0531851364548414
                        7.5869438413151967
                        9.3877460108994582
                       11.3391608818384854
                       13.3898671333288110
                       15.5772560497520932
                       17.9629283426142432
                       20.5882548786394508
                       23.4674569871238469
                       26.5928503154243014
                       29.9383030868438509
                       33.4593915245340451
                       37.0923293799706206
                       40.7535130904063491
                       44.3407897654774881
                       47.7370787407325828
                       50.8165998891968832
                       53.4535128055695304
                       55.5322452507392981
                       56.9582866636476885
                       58.0546629235471637
                        1.1479183507635349
                        1.0898985220529438
                        1.0181184453233021
                        1.2295410611737929
                        1.5420480678257432
                        1.9494507357383501
                        2.4558714528561429
                        3.0754857701508036
                        3.8355000332133312
                        4.7847286121290116
                        5.9962137675169660
                        7.5182245634488044
                        9.2970816096156283
                       11.2230904796417064
                       13.2520803454359032
                       15.4227408676387541
                       17.7950074375682130
                       20.4089428196340281
                       23.2784727497967407
                       26.3962476376784414
                       29.7367432199286269
                       33.2562362893431889
                       36.8916437818999050
                       40.5599979678650754
                       44.1596414030898111
                       47.5737722438844854
                       50.6766021702967742
                       53.3419440492801453
                       55.4535206009216224
                       56.9157797231498706
                       58.0504053872990200
                        1.0021848130005005
                        1.0210380426354608
                        1.0875835981376473
                        1.2649939082329364
                        1.5488837545817703
                        1.9346884045464032
                        2.4262280956327140
                        3.0375332023279648
                        3.7955342155537722
                        4.7469747322671263
                        5.9593982209389137
                        7.4732985423732415
                        9.2324614861902636
                       11.1345894829792991
                       13.1434528570864366
                       15.2992257104321508
                       17.6600246996861694
                       20.2644104036914065
                       23.1258560857267504
                       26.2372139729664394
                       29.5734399690561852
                       33.0913846474116967
                       36.7285464720155540
                       40.4024867850408549
                       44.0119639228480867
                       47.4404150858470566
                       50.5620554149591234
                       53.2504221188846159
                       55.3886657106516266
                       56.8803823733793540
                       58.0461539371737857
                        1.1283293727100162
                        1.1251827631325134
                        1.1627066759245415
                        1.3086847985829067
                        1.5637773619407262
                        1.9268806263133526
                        2.4029968072154904
                        3.0067401048018126
                        3.7650507675451377
                        4.7223747510048277
                        5.9397659264236903
                        7.4484962853309932
                        9.1893533060800954
                       11.0683949722230928
                       13.0581592781736716
                       15.2004099877899023
                       17.5512508468120918
                       20.1475451191064482
                       23.0021723535009820
                       26.1080757388890028
                       29.4405888830728847
                       32.9570349693728753
                       36.5953967558651604
                       40.2736787594182177
                       43.8909900946581851
                       47.3309730434161527
                       50.4678525049128138
                       53.1749430960419827
                       55.3349251490801880
                       56.8506907118655365
                       58.0419086258866814
                        1.2488954918273207
                        1.2275085991302910
                        1.2396030406251147
                        1.3569969295517066
                        1.5839640953123946
                        1.9236509201342843
                        2.3837443974235319
                        2.9804572315929193
                        3.7411911092556646
                        4.7078582501458181
                        5.9338293421076651
                        7.4395129353093454
                        9.1624571758777381
                       11.0183742288790757
                       12.9894138271269967
                       15.1189395878543631
                       17.4608080812968088
                       20.0499936820609019
                       22.8986615126844396
                       25.9997621235164974
                       29.3289348904696727
                       32.8439061215096553
                       36.4830762364578158
                       40.1648337281225115
                       43.7885930654336461
                       47.2381767937906003
                       50.3878216295714693
                       53.1106530745878475
                       55.2889479078455079
                       56.8249918440560503
                       58.0376692481705942
                        1.3655393034501152
                        1.3274646936375404
                        1.3160909925064732
                        1.4072476941302183
                        1.6072469855102385
                        1.9232528250976521
                        2.3668398387310375
                        2.9570391823671107
                        3.7223520903330228
                        4.7019187300945665
                        5.9399946444075069
                        7.4442460534324850
                        9.1489916196567682
                       10.9812391539143927
                       12.9335742725152928
                       15.0508666641200960
                       17.3844577497458294
                       19.9672461367888181
                       22.8105758508125622
                       25.9073375027271690
                       29.2334218509859445
                       32.7469070876942473
                       36.3865625478642141
                       40.0711175393073121
                       43.7002588371556106
                       47.1579712236222592
                       50.3185047529712063
                       53.0548201775744408
                       55.2488392214842425
                       56.8023125616112955
                       58.0334355590547104
                        1.4749971627592797
                        1.4236930900533873
                        1.3904602998468157
                        1.4566062003230039
                        1.6303472935794107
                        1.9222363465074003
                        2.3485036046693550
                        2.9322878095826944
                        3.7039753822324452
                        4.6996503642248020
                        5.9527026145517583
                        7.4559164562376098
                        9.1407878158476215
                       10.9476936995608208
                       12.8804336696960358
                       14.9851616456790040
                       17.3104006228121390
                       19.8868031201020702
                       22.7248195331727789
                       25.8172546209499088
                       29.1402415221507352
                       32.6522058054665940
                       36.2922817746195193
                       39.9795351226435825
                       43.6139197479387828
                       47.0795767493084071
                       50.2507630883530077
                       53.0002683054536404
                       55.2096532887903234
                       56.7801294843232105
                       58.0292072396870029
                        1.5950129997871092
                        1.5208777075752359
                        1.4646342428625492
                        1.5063744802952123
                        1.6550952574007417
                        1.9237425084555126
                        2.3333773247780003
                        2.9124661518756112
                        3.6942693564800289
                        4.7115671945866160
                        5.9847853070622554
                        7.4892479094031203
                        9.1542535698582615
                       10.9359036257109286
                       12.8498882734199063
                       14.9433264109988499
                       17.2615994255018949
                       19.8329203171257926
                       22.6667217555457986
                       25.7556242888410481
                       29.0759116057379382
                       32.5862668529291639
                       36.2261049966025662
                       39.9147563919333538
                       43.5523916243187925
                       47.0232878928392135
                       50.2017268149153505
                       52.9603875040863073
                       55.1805747018503725
                       56.7631050566372241
                       58.0249844572210300
                        1.6635029019645020
                        1.6036685976686448
                        1.5336569262240329
                        1.5498111773175662
                        1.6699258050238898
                        1.9105452580495076
                        2.2982630545286089
                        2.8683377666507274
                        3.6579158419993861
                        4.6958577598261419
                        5.9868803619126361
                        7.4862121863342657
                        9.1228485170532262
                       10.8717625588888534
                       12.7610013001686509
                       14.8380762155486922
                       17.1448845980882895
                       19.7071548114947797
                       22.5334272938558514
                       25.6163500912954078
                       28.9326081845153836
                       32.4414031273844144
                       36.0826775908514600
                       39.7762343960117880
                       43.4226016234642725
                       46.9062387037126190
                       50.1013799286225357
                       52.8803896520099392
                       55.1239790884565072
                       56.7321153617445239
                       58.0207657512767769
                        1.9209736620908358
                        1.7253806227260341
                        1.6164816666091202
                        1.6102648564122779
                        1.7114781912822785
                        1.9382475027246393
                        2.3221708962545120
                        2.9052387821729466
                        3.7289517880836865
                        4.8179194315315569
                        6.1577409335834616
                        7.6785264648619967
                        9.3091712647499899
                       11.0466043389419503
                       12.9320829601957255
                       15.0131485138357518
                       17.3276819299651710
                       19.8982457801662853
                       22.7316153691157265
                       25.8194379886979841
                       29.1376751899891917
                       32.6448947047600051
                       36.2804729568305952
                       39.9637546847683659
                       43.5949774157855191
                       47.0585376811144661
                       50.2288837940213014
                       52.9788988545123363
                       55.1901146015710154
                       56.7635819460048664
                       58.0165559674581007
                        2.8544191221325641
                        1.9356647845220837
                        1.7877780121097547
                        1.8059452206176817
                        1.9625242306370215
                        2.2720049712048975
                        2.7708696957768100
                        3.5088801163346173
                        4.5337731040063182
                        5.8652935734037572
                        7.4593156737155822
                        9.2012067694726630
                       11.0111334476106930
                       12.9132215096794640
                       14.9666758375611486
                       17.2197749175874468
                       19.7042219144017570
                       22.4348443951121685
                       25.4100185085562746
                       28.6121398870234710
                       32.0070333324164340
                       35.5425570545531374
                       39.1474244283846010
                       42.7312358791759512
                       46.1864642937160793
                       49.3928677905839957
                       52.2244626381785170
                       54.5587309707782661
                       56.2872115134506613
                       57.3261515990404780
                       58.0123335269596497
                        4.3288486339820117
                        2.1802606130699606
                        2.0674907462190445
                        2.1909181613150143
                        2.5213913837152466
                        3.0673598903449313
                        3.8716350586681448
                        4.9972081116044813
                        6.5021194385540251
                        8.3958984359994236
                       10.5784850302464264
                       12.8532564232732637
                       15.1239421988602587
                       17.4579239051660710
                       19.9422665945641475
                       22.6270435724821813
                       25.5341957021996998
                       28.6639155760241651
                       31.9963943289987081
                       35.4925581727913222
                       39.0939321775467179
                       42.7221270549544834
                       46.2790520668689406
                       49.6488620850241729
                       52.7023014342525532
                       55.3037137505599508
                       57.3205179126243323
                       58.6343927164757595
                       59.1528575971179243
                       58.8195389165146672
                       58.0080074633428755
                        3.5808176070891127
                        2.3528161288971518
                        2.2063069765356196
                        2.3038222872870998
                        2.6364730286973750
                        3.2197001928999399
                        4.0966963540624590
                        5.3341827109635796
                        6.9972704974698485
                        9.0899269447451906
                       11.4682952766497877
                       13.8786085440208105
                       16.2340741864567801
                       18.6442020586462992
                       21.2120207598405403
                       23.9847064276916605
                       26.9773392591861019
                       30.1838734298604231
                       33.5790253745654897
                       37.1184704960947727
                       40.7384900977496127
                       44.3556033772628542
                       47.8671555256118242
                       51.1537673218746036
                       54.0842330354210207
                       56.5230565285088698
                       58.3403322623989273
                       59.4231156676102423
                       59.6868893619560865
                       59.0853762126189789
                       58.0035969605492463
                        2.5446991275705946
                        2.3781797635260665
                        2.1741685578552598
                        2.1629621710587191
                        2.3703363582627414
                        2.8161668311236187
                        3.5425461981058565
                        4.6134837999738177
                        6.0948075103748615
                        7.9904991929754636
                       10.1413151289513299
                       12.2798676879678134
                       14.3464630408736896
                       16.4782362302091642
                       18.7809554432126850
                       21.2965141212289822
                       24.0377514538201905
                       27.0018217699039694
                       30.1713545105817778
                       33.5134152183602663
                       36.9782239649285844
                       40.4980796548558885
                       43.9871653072848123
                       47.3429514263486607
                       50.4497432975584404
                       53.1846385405147741
                       55.4257748059349207
                       57.0622628151428715
                       58.0047034692104202
                       58.1948151255041974
                       57.9992115278269331
                        2.0937294747934029
                        2.3710050723257402
                        2.2058584854135595
                        2.1331321261919333
                        2.2584526924849919
                        2.6145815678541449
                        3.2509452178141407
                        4.2384563698131757
                        5.6503147556802867
                        7.4904071738143136
                        9.5684239966622580
                       11.5805751067286471
                       13.4928479549719578
                       15.4791238018168263
                       17.6519213902981467
                       20.0482087526087579
                       22.6771361712459685
                       25.5359720862867157
                       28.6105427604513624
                       31.8730614353081109
                       35.2800461369208248
                       38.7707101190589134
                       42.2662774742974139
                       45.6708084869475104
                       48.8740553505572536
                       51.7566615229107189
                       54.1976792412358125
                       56.0839245632094952
                       57.3201989938011457
                       57.8390073480405765
                       57.9948151743788904
                        1.8580906747858146
                        2.3243984577204328
                        2.2335701935912634
                        2.1180689856844147
                        2.1673527090147278
                        2.4324895551158292
                        2.9704975781756432
                        3.8633882469834135
                        5.1971599374481562
                        6.9785474883902742
                        8.9825294278945299
                       10.8647443739123984
                       12.6213603367415790
                       14.4635980209519738
                       16.5085999314006532
                       18.7878514250244987
                       21.3070602865440725
                       24.0638566247294767
                       27.0473612421133337
                       30.2349123753638191
                       33.5892056796612484
                       37.0561503077995167
                       40.5636871760985067
                       44.0220336142139220
                       47.3258570792012692
                       50.3587422705929312
                       53.0000224450137396
                       55.1336166669527003
                       56.6580264379726498
                       57.4962153596517647
                       57.9904101153824354
                        1.7682818951118181
                        2.2985534029790910
                        2.2760287008988221
                        2.0973688008501613
                        2.0676354998159821
                        2.2621590253811068
                        2.7339088787585504
                        3.5617692378369816
                        4.8366909168582697
                        6.5699249685042847
                        8.5078928685406383
                       10.2703865230211848
                       11.8860949484700001
                       13.6010850484985593
                       15.5349036607266204
                       17.7130213035234397
                       20.1375671472400039
                       22.8061996658362930
                       25.7107501370838612
                       28.8329251222057884
                       32.1407419746031423
                       35.5859122908439836
                       39.1022292316169297
                       42.6053102717396736
                       45.9941781472640859
                       49.1550865896348335
                       51.9677446270092148
                       54.3136882002728022
                       56.0860626614159156
                       57.1996248977974125
                       57.9860002473820769
                </DataArray>
                <DataArray type="Float32" Name="jacobian" NumberOfComponents="1" format="ascii">
                        0.0000124064665269
                        0.0000096208999959
                        0.0000215816105097
                        0.0000578515867107
                        0.0001275972240351
                        0.0002386875042305
                        0.0003901636279947
                        0.0005668970206481
                        0.0007472388515490
                        0.0009199783042725
                        0.0010917092194375
                        0.0012819176555354
                        0.0015068828495038
                        0.0017701923930343
                        0.0020725800459429
                        0.0024161484992361
                        0.0028030070207644
                        0.0032341754856909
                        0.0037089975836791
                        0.0042246466851585
                        0.0047756390283995
                        0.0053534074205166
                        0.0059460272117151
                        0.0065381982937161
                        0.0071115819925930
                        0.0076455649596219
                        0.0081184678138036
                        0.0085091368002604
                        0.0087987656902263
                        0.0089727134460634
                        0.0090825205107341
                        0.0000131176972163
                        0.0000130026893357
                        0.0000339821218396
                        0.0000798492827057
                        0.0001523756148743
                        0.0002519247242663
                        0.0003763126329754
                        0.0005190774182190
                        0.0006707162047537
                        0.0008257318204107
                        0.0009888043293736
                        0.0011734478348452
                        0.0013906036933651
                        0.0016422837720101
                        0.0019296753400592
                        0.0022559282302091
                        0.0026242639492760
                        0.0030367224612048
                        0.0034936347653182
                        0.0039932309605260
                        0.0045312056107436
                        0.0051002775011645
                        0.0056898484118156
                        0.0062858785110452
                        0.0068710890524516
                        0.0074255791655228
                        0.0079278949587071
                        0.0083565142104698
                        0.0086916189944398
                        0.0089169409255993
                        0.0090818824888395
                        0.0000128759615496
                        0.0000166350574767
                        0.0000469528720533
                        0.0001005563408197
                        0.0001726298868023
                        0.0002597001033365
                        0.0003607023058951
                        0.0004753370576339
                        0.0006019172207608
                        0.0007394090757026
                        0.0008917926847330
                        0.0010681128536646
                        0.0012749974783741
                        0.0015131872181530
                        0.0017841573617660
                        0.0020918121688521
                        0.0024402567968525
                        0.0028324225363637
                        0.0032695782882102
                        0.0037510193011032
                        0.0042736765348282
                        0.0048316649245654
                        0.0054158806182168
                        0.0060137723761902
                        0.0066094053810125
                        0.0071839162403655
                        0.0077164168288535
                        0.0081853364631513
                        0.0085701037450161
                        0.0088529782829486
                        0.0090812438355210
                        0.0000112950181610
                        0.0000228022775105
                        0.0000631135608186
                        0.0001202981462240
                        0.0001860227865605
                        0.0002584088152566
                        0.0003404866526920
                        0.0004358823482143
                        0.0005457355151815
                        0.0006705229334586
                        0.0008138547907966
                        0.0009822872624115
                        0.0011796834469294
                        0.0014058116013299
                        0.0016622288228441
                        0.0019533159062036
                        0.0022838043225932
                        0.0026572945212080
                        0.0030757965204575
                        0.0035394909725382
                        0.0040463870453036
                        0.0045918767434348
                        0.0051682963973332
                        0.0057646225217434
                        0.0063664221134453
                        0.0069561620053496
                        0.0075139482319470
                        0.0080187064347095
                        0.0084497320622059
                        0.0087884490591406
                        0.0090806041368261
                        0.0000067489433520
                        0.0000320890480234
                        0.0000794661667369
                        0.0001312272572709
                        0.0001819707009507
                        0.0002351182160964
                        0.0002969773496181
                        0.0003720353672127
                        0.0004619391499884
                        0.0005678013353304
                        0.0006929935489481
                        0.0008423812167388
                        0.0010179212756692
                        0.0012187499798859
                        0.0014464022547561
                        0.0017054367973144
                        0.0020009731834664
                        0.0023372339555223
                        0.0027171498824064
                        0.0031422118964213
                        0.0036122127772440
                        0.0041248589869331
                        0.0046753510892794
                        0.0052560481533461
                        0.0058563263315707
                        0.0064627337925441
                        0.0070595245104472
                        0.0076296134227867
                        0.0081559375228814
                        0.0086231461993247
                        0.0090799627164800
                       -0.0000004984726372
                        0.0000483778639388
                        0.0001015172487749
                        0.0001523158929265
                        0.0002016581185055
                        0.0002561137722282
                        0.0003221949827544
                        0.0004034828796365
                        0.0005011997759008
                        0.0006167145096528
                        0.0007538488726523
                        0.0009172674188092
                        0.0011079141154353
                        0.0013239573671876
                        0.0015665100358152
                        0.0018402068359170
                        0.0021502840834119
                        0.0025008326315954
                        0.0028943714764716
                        0.0033317570064483
                        0.0038119792817077
                        0.0043318156424998
                        0.0048854555702064
                        0.0054642244977879
                        0.0060565201768715
                        0.0066480596612184
                        0.0072225090723083
                        0.0077625232165545
                        0.0082511607338927
                        0.0086735785541043
                        0.0090793297113717
                       -0.0000115530720707
                        0.0000719717027487
                        0.0001293343676016
                        0.0001881498361525
                        0.0002549662193000
                        0.0003378077013629
                        0.0004417866960147
                        0.0005681759131297
                        0.0007161152480475
                        0.0008862416656030
                        0.0010833274364399
                        0.0013126208076428
                        0.0015731263550507
                        0.0018599067427502
                        0.0021726995967766
                        0.0025165304578631
                        0.0028969196311458
                        0.0033171228256587
                        0.0037776518989493
                        0.0042763981795780
                        0.0048086024379242
                        0.0053666338859992
                        0.0059397607466177
                        0.0065140888640495
                        0.0070727964025427
                        0.0075967479335753
                        0.0080655183458448
                        0.0084587855183934
                        0.0087579656850066
                        0.0089478842081634
                        0.0090786745093442
                       -0.0000146598526102
                        0.0000953045337641
                        0.0001574240913695
                        0.0002212620709241
                        0.0002978454022817
                        0.0003957086354460
                        0.0005193628875909
                        0.0006696168380209
                        0.0008456509617941
                        0.0010487001599401
                        0.0012844077516777
                        0.0015574371751367
                        0.0018632105834269
                        0.0021925199873378
                        0.0025434037894863
                        0.0029215417105006
                        0.0033332858994645
                        0.0037818123727888
                        0.0042666868406680
                        0.0047843240320417
                        0.0053282196614391
                        0.0058889041480723
                        0.0064538648662875
                        0.0070076515821987
                        0.0075322981450221
                        0.0080081286342363
                        0.0084149520253987
                        0.0087335727326231
                        0.0089474610654903
                        0.0090443564366272
                        0.0090780024926887
                        0.0000153609252851
                        0.0001239625244796
                        0.0001851887553705
                        0.0002479220297324
                        0.0003228958232570
                        0.0004168999098376
                        0.0005339167583960
                        0.0006762768781184
                        0.0008458957815721
                        0.0010464183219812
                        0.0012847727976354
                        0.0015652983248775
                        0.0018807596616503
                        0.0022185791630222
                        0.0025752410515115
                        0.0029568412891871
                        0.0033706710807181
                        0.0038205094722315
                        0.0043061393406851
                        0.0048239881038805
                        0.0053674928081203
                        0.0059271140438520
                        0.0064902815562166
                        0.0070415110043815
                        0.0075628337594294
                        0.0080346094053636
                        0.0084367243026757
                        0.0087501025002224
                        0.0089583722810030
                        0.0090494610837902
                        0.0090773281087507
                        0.0000559984852900
                        0.0001558431648892
                        0.0002121976346084
                        0.0002713035761474
                        0.0003416232358904
                        0.0004284041508490
                        0.0005356033640585
                        0.0006668943651444
                        0.0008262492157985
                        0.0010192252433061
                        0.0012540008485997
                        0.0015350837109425
                        0.0018535295116878
                        0.0021941097593546
                        0.0025518333565366
                        0.0029329656661245
                        0.0033455577617829
                        0.0037939799003790
                        0.0042783394405694
                        0.0047952414819125
                        0.0053382466579784
                        0.0058979202723448
                        0.0064617816253080
                        0.0070144129127027
                        0.0075378782442817
                        0.0080125260180226
                        0.0084181803633172
                        0.0087356499032145
                        0.0089483985842104
                        0.0090441518028194
                        0.0090766546746894
                        0.0000939876922626
                        0.0001854936626121
                        0.0002369753906078
                        0.0002918521060424
                        0.0003572347625806
                        0.0004377362321974
                        0.0005374914230898
                        0.0006609115934633
                        0.0008131056576227
                        0.0010009142360818
                        0.0012336078873305
                        0.0015160345252560
                        0.0018379486201681
                        0.0021818183766026
                        0.0025412605758419
                        0.0029226390435052
                        0.0033346782759627
                        0.0037822727923224
                        0.0042658014384947
                        0.0047820003739336
                        0.0053245104364196
                        0.0058839622253961
                        0.0064479321790016
                        0.0070010476813226
                        0.0075253995435460
                        0.0080013379257812
                        0.0084086590173820
                        0.0087281119862326
                        0.0089430719184786
                        0.0090411523926502
                        0.0090759815004418
                        0.0001309533127767
                        0.0002134849252201
                        0.0002591141328779
                        0.0003089256307539
                        0.0003690322969186
                        0.0004436545825225
                        0.0005369558152473
                        0.0006537000823582
                        0.0007996975221702
                        0.0009827311975374
                        0.0012130102672728
                        0.0014958196858755
                        0.0018200155741792
                        0.0021661820862113
                        0.0025266785942924
                        0.0029078853031886
                        0.0033190924409266
                        0.0037656596647995
                        0.0042482198100129
                        0.0047636433303412
                        0.0053056617997339
                        0.0058649828905184
                        0.0064292505825938
                        0.0069831449148251
                        0.0075087865872126
                        0.0079865252608948
                        0.0083961206208074
                        0.0087182471948459
                        0.0089361697715370
                        0.0090373635674390
                        0.0090753088706921
                        0.0001660202305674
                        0.0002389502233849
                        0.0002781826743799
                        0.0003227061413821
                        0.0003778966179070
                        0.0004475262895177
                        0.0005355648410856
                        0.0006469010637174
                        0.0007878072210141
                        0.0009667815841004
                        0.0011948260795913
                        0.0014776765534572
                        0.0018035579994353
                        0.0021515097504773
                        0.0025127777594903
                        0.0028937114348362
                        0.0033040763447482
                        0.0037496375135602
                        0.0042312541239523
                        0.0047459200153931
                        0.0052874528343920
                        0.0058466346721405
                        0.0064111753369685
                        0.0069658067626412
                        0.0074926799632112
                        0.0079721459200626
                        0.0083839310925453
                        0.0087086399979274
                        0.0089294327869264
                        0.0090336525070289
                        0.0090746367966261
                        0.0001987278281552
                        0.0002614261452602
                        0.0002939298330155
                        0.0003333251655181
                        0.0003841941743529
                        0.0004496391110937
                        0.0005333057899959
                        0.0006401292820799
                        0.0007767134729009
                        0.0009521013695645
                        0.0011779445571221
                        0.0014604029779031
                        0.0017872801394335
                        0.0021363892134816
                        0.0024980244668345
                        0.0028784733774454
                        0.0032878902156024
                        0.0037323867244944
                        0.0042130238387291
                        0.0047269125389594
                        0.0052679571641749
                        0.0058270167558943
                        0.0063918697702465
                        0.0069473025920407
                        0.0074754985139401
                        0.0079568109017394
                        0.0083709328507500
                        0.0086983972739061
                        0.0089222564864167
                        0.0090297165684339
                        0.0090739653592494
                        0.0002287215919174
                        0.0002804880755266
                        0.0003063011252760
                        0.0003411115357879
                        0.0003883957641098
                        0.0004503846366102
                        0.0005303989222495
                        0.0006334207601430
                        0.0007663030373444
                        0.0009384983455603
                        0.0011621739399790
                        0.0014438601268717
                        0.0017710949766376
                        0.0021207538299646
                        0.0024823494680494
                        0.0028620920282455
                        0.0032704441670564
                        0.0037138068576069
                        0.0041934184556643
                        0.0047065012410473
                        0.0052470474299960
                        0.0058059962178532
                        0.0063711982580921
                        0.0069274976702083
                        0.0074571126509955
                        0.0079404005254690
                        0.0083570211714189
                        0.0086874342863709
                        0.0089145807906986
                        0.0090255242813479
                        0.0090732946241522
                        0.0002556244442389
                        0.0002958347153236
                        0.0003153657161500
                        0.0003463675182892
                        0.0003907787548777
                        0.0004498931314479
                        0.0005268050656670
                        0.0006265679106187
                        0.0007562182463651
                        0.0009255048459969
                        0.0011469853063612
                        0.0014274919494756
                        0.0017544198731959
                        0.0021039763628158
                        0.0024650704162384
                        0.0028438305985592
                        0.0032509517261311
                        0.0036930678039300
                        0.0041715719704206
                        0.0046837943717623
                        0.0052238190681944
                        0.0057826714714632
                        0.0063482806537669
                        0.0069055539588581
                        0.0074367485500622
                        0.0079222276530179
                        0.0083416171218584
                        0.0086752994095268
                        0.0089060966029139
                        0.0090209191394128
                        0.0090726246631430
                        0.0002790572085443
                        0.0003072719692220
                        0.0003212658116733
                        0.0003493359496563
                        0.0003914828792551
                        0.0004481672433019
                        0.0005223981055119
                        0.0006193161944560
                        0.0007460832391057
                        0.0009126465537904
                        0.0011318371185671
                        0.0014107134700292
                        0.0017366277402561
                        0.0020853752892626
                        0.0024454440739604
                        0.0028228851905278
                        0.0032285527981333
                        0.0036692592828634
                        0.0041465320077665
                        0.0046578083442022
                        0.0051972713619554
                        0.0057560420592575
                        0.0063221372868893
                        0.0068805357647859
                        0.0074135395167846
                        0.0079015202659146
                        0.0083240682083216
                        0.0086614820284067
                        0.0088964533497851
                        0.0090157230702216
                        0.0090719555433599
                        0.0002985486970437
                        0.0003146697903889
                        0.0003241385910931
                        0.0003501408620035
                        0.0003904945288162
                        0.0004450777963056
                        0.0005169475104771
                        0.0006113281923771
                        0.0007354512360513
                        0.0008993762031187
                        0.0011160977926542
                        0.0013928229172363
                        0.0017169484153238
                        0.0020641055982974
                        0.0024225473709448
                        0.0027982570406971
                        0.0032021779808825
                        0.0036412482633252
                        0.0041171117020139
                        0.0046273158510090
                        0.0051661540247761
                        0.0057248563909435
                        0.0062915409616567
                        0.0068512694301879
                        0.0073863969972096
                        0.0078773074333912
                        0.0083035527332665
                        0.0086453382665865
                        0.0088852083821670
                        0.0090097109287711
                        0.0090712873170390
                        0.0003134526100754
                        0.0003179207497356
                        0.0003241117342348
                        0.0003488230214709
                        0.0003877193929688
                        0.0004404478930993
                        0.0005102047020773
                        0.0006022734387640
                        0.0007239021431325
                        0.0008851854198058
                        0.0010991793626178
                        0.0013731635957916
                        0.0016946607831843
                        0.0020393784848287
                        0.0023955201398801
                        0.0027690144236024
                        0.0031708267940664
                        0.0036079709775519
                        0.0040821925713023
                        0.0045911559207803
                        0.0051292798650223
                        0.0056879215396664
                        0.0062553175926065
                        0.0068166278767191
                        0.0073542717402352
                        0.0078486498142916
                        0.0082792728119148
                        0.0086262406284123
                        0.0088719287503830
                        0.0090026617023325
                        0.0090706199983911
                        0.0003229003871882
                        0.0003170823729714
                        0.0003215217399556
                        0.0003455628297480
                        0.0003832362389340
                        0.0004343311743630
                        0.0005022079056747
                        0.0005921676553362
                        0.0007114278533201
                        0.0008700523229096
                        0.0010810679325260
                        0.0013517570350575
                        0.0016698373046708
                        0.0020113108993430
                        0.0023645063211580
                        0.0027353136380503
                        0.0031346594524669
                        0.0035695869061629
                        0.0040419301600864
                        0.0045494773210475
                        0.0050867881091365
                        0.0056453645526855
                        0.0062135796984627
                        0.0067767072304911
                        0.0073172422997404
                        0.0078156080708375
                        0.0082512718753887
                        0.0086042169925189
                        0.0088566294152380
                        0.0089945808536115
                        0.0090699535173176
                        0.0003264204032997
                        0.0003133796762868
                        0.0003177300894906
                        0.0003414822285325
                        0.0003781861774195
                        0.0004279908939252
                        0.0004943681460118
                        0.0005825960625064
                        0.0006998343576010
                        0.0008560768185287
                        0.0010642602824238
                        0.0013316070915000
                        0.0016460452044516
                        0.0019840039231938
                        0.0023340667413592
                        0.0027021080512682
                        0.0030989727408267
                        0.0035316922999620
                        0.0040021680843835
                        0.0045083032933421
                        0.0050447950190321
                        0.0056032884854881
                        0.0061722923860357
                        0.0067371944159063
                        0.0072805668029635
                        0.0077828577227836
                        0.0082234947745759
                        0.0085823492434340
                        0.0088414228349074
                        0.0089865396959356
                        0.0090692876258395
                        0.0003266037058443
                        0.0003111937192298
                        0.0003161554608287
                        0.0003398325087925
                        0.0003761161134071
                        0.0004253745788689
                        0.0004911036519598
                        0.0005785569354115
                        0.0006948584699871
                        0.0008499519572226
                        0.0010566895220444
                        0.0013221733000129
                        0.0016344062225466
                        0.0019701602269804
                        0.0023182974773067
                        0.0026847176226144
                        0.0030801813595308
                        0.0035116722949290
                        0.0039811068045404
                        0.0044864430191495
                        0.0050224508126312
                        0.0055808530667958
                        0.0061502323695373
                        0.0067160385024950
                        0.0072608855552537
                        0.0077652351269919
                        0.0082084930061162
                        0.0085704695319515
                        0.0088330665358017
                        0.0089819745449499
                        0.0090686217850018
                        0.0003281052718085
                        0.0003147030073268
                        0.0003193535906071
                        0.0003432293693269
                        0.0003799793423171
                        0.0004297941901228
                        0.0004961313039171
                        0.0005842619843304
                        0.0007013369511928
                        0.0008573160531841
                        0.0010650209145330
                        0.0013313668229828
                        0.0016441730993277
                        0.0019803073198261
                        0.0023288606228388
                        0.0026958134389721
                        0.0030918669524356
                        0.0035239201442470
                        0.0039938246944496
                        0.0044994900101382
                        0.0050356430018301
                        0.0055939651660575
                        0.0061629999273115
                        0.0067281631496526
                        0.0072720443347324
                        0.0077750942601821
                        0.0082167257545932
                        0.0085767770594645
                        0.0088371998520852
                        0.0089837551494049
                        0.0090679554941796
                        0.0003272960381715
                        0.0003207380458995
                        0.0003254957202705
                        0.0003498270548390
                        0.0003877017290171
                        0.0004389336568426
                        0.0005068582226974
                        0.0005967697429705
                        0.0007158742002410
                        0.0008741769368756
                        0.0010844808902935
                        0.0013534434217408
                        0.0016685385550316
                        0.0020066284312485
                        0.0023570570829270
                        0.0027259276968697
                        0.0031238766831394
                        0.0035576758528698
                        0.0040290506240567
                        0.0045357898288477
                        0.0050724996970374
                        0.0056307411333190
                        0.0061989434612187
                        0.0067624252576587
                        0.0073037079564929
                        0.0078032163300271
                        0.0082403905681591
                        0.0085951571409284
                        0.0088496183632952
                        0.0089897425264983
                        0.0090672891098996
                        0.0003205728067482
                        0.0003242090083558
                        0.0003308474153730
                        0.0003560651199455
                        0.0003954073630235
                        0.0004484994869021
                        0.0005184938207600
                        0.0006106629504300
                        0.0007322386337422
                        0.0008932353543164
                        0.0011063797695430
                        0.0013780079605612
                        0.0016952654982574
                        0.0020351473122573
                        0.0023873822280364
                        0.0027582119736256
                        0.0031581577407851
                        0.0035938174458489
                        0.0040667634163479
                        0.0045746490930767
                        0.0051119496949110
                        0.0056700967093557
                        0.0062373976908989
                        0.0067990680609005
                        0.0073375580420626
                        0.0078332668812507
                        0.0082656669233518
                        0.0086147822500730
                        0.0088628795407235
                        0.0089961515656725
                        0.0090666232078465
                        0.0003080283318237
                        0.0003232660932860
                        0.0003335456771690
                        0.0003603936132874
                        0.0004015311786675
                        0.0004567889256923
                        0.0005291561209929
                        0.0006238303151000
                        0.0007480104576563
                        0.0009116510971305
                        0.0011273163737537
                        0.0014009698372363
                        0.0017195306714274
                        0.0020603639924947
                        0.0024137507894628
                        0.0027860703680867
                        0.0031876589119998
                        0.0036248922651790
                        0.0040991764512042
                        0.0046080365734556
                        0.0051458320907484
                        0.0057038827459580
                        0.0062703917449646
                        0.0068304866213157
                        0.0073665576201328
                        0.0078589837500137
                        0.0082872671304564
                        0.0086315181890891
                        0.0088741474288552
                        0.0090015429276623
                        0.0090659580782156
                        0.0002905603364572
                        0.0003176582706243
                        0.0003329826847619
                        0.0003624303173279
                        0.0004058426881171
                        0.0004636233879029
                        0.0005386929780448
                        0.0006361350457482
                        0.0007630463696984
                        0.0009292404081178
                        0.0011470291635878
                        0.0014219672979366
                        0.0017408797533827
                        0.0020817579518739
                        0.0024355974656313
                        0.0028089031358628
                        0.0032117515286318
                        0.0036502480702503
                        0.0041256206294975
                        0.0046352747370599
                        0.0051734710895800
                        0.0057314369869604
                        0.0062972900628558
                        0.0068560861365163
                        0.0073901669770312
                        0.0078798961113407
                        0.0083048016093110
                        0.0086450666042821
                        0.0088832216612736
                        0.0090058171322687
                        0.0090652938110028
                        0.0002689019070057
                        0.0003074626603576
                        0.0003288641203019
                        0.0003619921778716
                        0.0004083647204005
                        0.0004691664552742
                        0.0005473781596407
                        0.0006479489266830
                        0.0007777981526267
                        0.0009465112271464
                        0.0011660645631883
                        0.0014415878714181
                        0.0017599633385811
                        0.0021000633144354
                        0.0024537435899236
                        0.0028276118278393
                        0.0032314092283634
                        0.0036709229313198
                        0.0041471893847405
                        0.0046575002712595
                        0.0051960306521137
                        0.0057539305204280
                        0.0063192466335466
                        0.0068769756705894
                        0.0074094197423662
                        0.0078969303279299
                        0.0083190580684394
                        0.0086560476609028
                        0.0088905306047723
                        0.0090091931037637
                        0.0090646304025854
                        0.0002436225179531
                        0.0002928578476783
                        0.0003209508958363
                        0.0003588228657219
                        0.0004090556160363
                        0.0004735855834161
                        0.0005555524153424
                        0.0006597590174353
                        0.0007928663492304
                        0.0009641420375722
                        0.0011851565020134
                        0.0014606264561123
                        0.0017776643829100
                        0.0021162728541366
                        0.0024692924084949
                        0.0028433990111128
                        0.0032479222207882
                        0.0036882838168454
                        0.0041653137953007
                        0.0046761919448880
                        0.0052150160973727
                        0.0057728690865055
                        0.0063377367176639
                        0.0068945650418800
                        0.0074256225053150
                        0.0079112509185172
                        0.0083310212928946
                        0.0086652324517174
                        0.0088966039757526
                        0.0090119400792218
                        0.0090639678107837
                        0.0002150231731243
                        0.0002741055819202
                        0.0003090147220170
                        0.0003524625595890
                        0.0004075815649060
                        0.0004767826330246
                        0.0005633368295212
                        0.0006718583177935
                        0.0008086524397944
                        0.0009825775223007
                        0.0012047479955676
                        0.0014795199938179
                        0.0017944438349834
                        0.0021309027520351
                        0.0024828244632620
                        0.0028569040514233
                        0.0032619812822169
                        0.0037030665739567
                        0.0041807679843482
                        0.0046921534341021
                        0.0052312492913582
                        0.0057890785004886
                        0.0063535730291809
                        0.0069096343483905
                        0.0074395014192582
                        0.0079235079111087
                        0.0083412433900931
                        0.0086730551794913
                        0.0089017413784829
                        0.0090142110153646
                        0.0090633059876932
                        0.0001836388580918
                        0.0002516448698262
                        0.0002930634270255
                        0.0003425611328556
                        0.0004036616061598
                        0.0004788275845646
                        0.0005712029038175
                        0.0006850553408659
                        0.0008262013400154
                        0.0010030103503868
                        0.0012261340237180
                        0.0014996743866872
                        0.0018118555382274
                        0.0021456784363223
                        0.0024962309222578
                        0.0028701641220412
                        0.0032757498676265
                        0.0037175416965417
                        0.0041959069813094
                        0.0047077959325774
                        0.0052471622559970
                        0.0058049692040963
                        0.0063690955822707
                        0.0069243992602729
                        0.0074530909719627
                        0.0079354977367947
                        0.0083512292975586
                        0.0086806830585855
                        0.0089067369502235
                        0.0090164055988278
                        0.0090626448756610
                        0.0001491571934971
                        0.0002260656490320
                        0.0002731198039850
                        0.0003282807358369
                        0.0003958945598718
                        0.0004781874615797
                        0.0005776916692167
                        0.0006979271510099
                        0.0008439630138501
                        0.0010235821606769
                        0.0012470078988418
                        0.0015182824136920
                        0.0018266391249523
                        0.0021569764223489
                        0.0025055941384674
                        0.0028790081583567
                        0.0032848351257726
                        0.0037271303904609
                        0.0042060119595564
                        0.0047183189305274
                        0.0052579442859005
                        0.0058158044448800
                        0.0063797366929561
                        0.0069345642034744
                        0.0074624742133015
                        0.0079437863123338
                        0.0083581230914036
                        0.0086859176407828
                        0.0089101064812616
                        0.0090177827892702
                        0.0090619844856617
                        0.0001127381924368
                        0.0001975151875215
                        0.0002498826249495
                        0.0003104148526294
                        0.0003854371662622
                        0.0004772206546062
                        0.0005869726724043
                        0.0007164870030530
                        0.0008695152278286
                        0.0010532251633609
                        0.0012776531841060
                        0.0015470845318247
                        0.0018520211814788
                        0.0021794051684616
                        0.0025267403227541
                        0.0029003248999271
                        0.0033070478662996
                        0.0037504133239645
                        0.0042302454645094
                        0.0047432301396202
                        0.0052831582918769
                        0.0058408604456699
                        0.0064040986925430
                        0.0069576372813340
                        0.0074836295072716
                        0.0079623948381832
                        0.0083735966229974
                        0.0086977531166887
                        0.0089179289982389
                        0.0090213814985397
                        0.0090613246029064
                        0.0000759071635667
                        0.0001693075210672
                        0.0002237060223976
                        0.0002861214839465
                        0.0003650769650292
                        0.0004635287066785
                        0.0005812855498512
                        0.0007176917933870
                        0.0008745265237601
                        0.0010580721139785
                        0.0012781877677448
                        0.0015398536535255
                        0.0018356738651512
                        0.0021552034391627
                        0.0024971520490673
                        0.0028673881378106
                        0.0032719555301661
                        0.0037138297287941
                        0.0041926551077910
                        0.0047051232585090
                        0.0052450978995870
                        0.0058034949020196
                        0.0063681515863480
                        0.0069238846491491
                        0.0074528668061872
                        0.0079353952348178
                        0.0083510633351061
                        0.0086802700336129
                        0.0089059149869073
                        0.0090150541098202
                        0.0090606658830440
                        0.0000450745917555
                        0.0001377155576600
                        0.0001903258532555
                        0.0002446410158081
                        0.0003107433132553
                        0.0003933974607421
                        0.0004934091805571
                        0.0006102357007313
                        0.0007448750545953
                        0.0009020395245110
                        0.0010898921571240
                        0.0013137968109245
                        0.0015700305707451
                        0.0018522469667062
                        0.0021605833612671
                        0.0025002941016466
                        0.0028767531794809
                        0.0032930742602754
                        0.0037497780756418
                        0.0042448914538340
                        0.0047738609136614
                        0.0053292889413238
                        0.0059006719795081
                        0.0064743077299653
                        0.0070334976748334
                        0.0075591314605633
                        0.0080306891592803
                        0.0084276261199543
                        0.0087310189115802
                        0.0089252685371518
                        0.0090600053569588
                        0.0000264369250455
                        0.0001005198605416
                        0.0001525119193791
                        0.0001949804358596
                        0.0002389472666749
                        0.0002920851886187
                        0.0003580771956219
                        0.0004384456162965
                        0.0005345817957813
                        0.0006495496830204
                        0.0007888291345798
                        0.0009569657117142
                        0.0011530833852202
                        0.0013745159023148
                        0.0016227059698492
                        0.0019025283391259
                        0.0022191701319574
                        0.0025765510533493
                        0.0029769837133503
                        0.0034210847629606
                        0.0039075453915852
                        0.0044327592037712
                        0.0049904259220190
                        0.0055712571219127
                        0.0061628966211389
                        0.0067501529911911
                        0.0073156135085045
                        0.0078406584739761
                        0.0083068236638085
                        0.0086973800867210
                        0.0090593312068998
                        0.0000295512849982
                        0.0000754690204511
                        0.0001287142180909
                        0.0001757069017887
                        0.0002210081771988
                        0.0002724922477085
                        0.0003353316829715
                        0.0004116538331586
                        0.0005025089282345
                        0.0006102632904874
                        0.0007400742566405
                        0.0008969734268792
                        0.0010809199824929
                        0.0012901323638057
                        0.0015264854191982
                        0.0017947744512205
                        0.0021000479929665
                        0.0024462974227731
                        0.0028361410316020
                        0.0032706826598394
                        0.0037492356454401
                        0.0042689174325955
                        0.0048242191943231
                        0.0054066655382222
                        0.0060046731954540
                        0.0066037084981585
                        0.0071868202497255
                        0.0077355783767495
                        0.0082313801226469
                        0.0086570068658772
                        0.0090586469466014
                        0.0000370713129140
                        0.0000625032282096
                        0.0001149652051895
                        0.0001750529938445
                        0.0002379280097480
                        0.0003071923850735
                        0.0003876049103065
                        0.0004812155912850
                        0.0005883072703556
                        0.0007109089762217
                        0.0008554615851219
                        0.0010291880755085
                        0.0012327747089840
                        0.0014643126715755
                        0.0017256931918151
                        0.0020215785395194
                        0.0023566170806585
                        0.0027341740535316
                        0.0031559945643819
                        0.0036219952182991
                        0.0041299234301338
                        0.0046749133727869
                        0.0052490541118656
                        0.0058410944430054
                        0.0064364017341971
                        0.0070172775409339
                        0.0075636990248397
                        0.0080544949169279
                        0.0084688812237733
                        0.0087881913790795
                        0.0090579630331484
                        0.0000403210508961
                        0.0000531718927957
                        0.0000965992074265
                        0.0001595510022050
                        0.0002347494309672
                        0.0003207703312243
                        0.0004188119826852
                        0.0005285194014779
                        0.0006481344190078
                        0.0007790187131574
                        0.0009294744130196
                        0.0011098221087389
                        0.0013219559291006
                        0.0015639935340941
                        0.0018377713994622
                        0.0021476089383025
                        0.0024976121132842
                        0.0028905535135285
                        0.0033275378917599
                        0.0038077369968451
                        0.0043280070614478
                        0.0048824384442874
                        0.0054619524099221
                        0.0060540672189217
                        0.0066429493671057
                        0.0072098484753607
                        0.0077339746118883
                        0.0081938097711706
                        0.0085687565729807
                        0.0088409359756283
                        0.0090572767783365
                        0.0000427082840486
                        0.0000476358846893
                        0.0000802001144021
                        0.0001396775013214
                        0.0002229340770821
                        0.0003275779782819
                        0.0004502869217291
                        0.0005842273751934
                        0.0007217966840724
                        0.0008627069325698
                        0.0010188114782898
                        0.0012055516310456
                        0.0014265674135209
                        0.0016798495619768
                        0.0019670165634035
                        0.0022918574697348
                        0.0026577530071740
                        0.0030667321116288
                        0.0035191362864194
                        0.0040132900199671
                        0.0045450775865683
                        0.0051074966732335
                        0.0056902995029819
                        0.0062798373074913
                        0.0068592186926702
                        0.0074088721217656
                        0.0079075570081018
                        0.0083337949394444
                        0.0086676007769471
                        0.0088923042538646
                        0.0090565888837516
                        0.0000440801241788
                        0.0000429416368991
                        0.0000639576190386
                        0.0001167335827356
                        0.0002052870398962
                        0.0003300253194504
                        0.0004826932713289
                        0.0006459041538440
                        0.0008032563094189
                        0.0009530030539246
                        0.0011121877021065
                        0.0013027197018187
                        0.0015304699764711
                        0.0017933312853778
                        0.0020925368006677
                        0.0024311211737279
                        0.0028115768922291
                        0.0032351089581728
                        0.0037012783903611
                        0.0042075897454639
                        0.0047490196445581
                        0.0053175745408816
                        0.0059019783493575
                        0.0064875951159262
                        0.0070566892056270
                        0.0075891032847111
                        0.0080633837162196
                        0.0084583055700122
                        0.0087546563117541
                        0.0089370518444193
                        0.0090559001804903
                </DataArray>
            </PointData>
        </Piece>
    </StructuredGrid>
</VTKFile>