<?xml version="1.0"?>
<VTKFile type="StructuredGrid" version="0.1" byte_order="LittleEndian">
    <StructuredGrid WholeExtent="0 30 0 40 0 0">
        <Piece Extent="0 30 0 40 0 0">
            <Points>
                <DataArray type="Float32" NumberOfComponents="3" format="ascii">
                        0.1743981466764331        0.0304729537369731    0.0
                        0.1751348061469472        0.0304729537369731    0.0
                        0.1760006045648577        0.0304729537369731    0.0
                        0.1770176788318044        0.0304729537369731    0.0
                        0.1782117686867159        0.0304729537369731    0.0
                        0.1796127297044630        0.0304729537369731    0.0
                        0.1812550908223316        0.0304729537369731    0.0
                        0.1831786482320289        0.0304729537369731    0.0
                        0.1854290810441087        0.0304729537369731    0.0
                        0.1880585653491200        0.0304729537369731    0.0
                        0.1911263516635327        0.0304729537369731    0.0
                        0.1946992558165165        0.0304729537369731    0.0
                        0.1988519948580537        0.0304729537369731    0.0
                        0.2036672777098056        0.0304729537369731    0.0
                        0.2092355359182031        0.0304729537369731    0.0
                        0.2156541550233872        0.0304729537369731    0.0
                        0.2230260453836913        0.0304729537369731    0.0
                        0.2314573785793268        0.0304729537369731    0.0
                        0.2410543199840992        0.0304729537369731    0.0
                        0.2519186202135893        0.0304729537369731    0.0
                        0.2641419995417987        0.0304729537369731    0.0
                        0.2777993802557369        0.0304729537369731    0.0
                        0.2929411969164262        0.0304729537369731    0.0
                        0.3095852369507009        0.0304729537369731    0.0
                        0.3277087100459126        0.0304729537369731    0.0
                        0.3472414698330124        0.0304729537369731    0.0
                        0.3680614523149974        0.0304729537369731    0.0
                        0.3899933826440310        0.0304729537369731    0.0
                        0.4128115800184513        0.0304729537369731    0.0
                        0.4362472457047448        0.0304729537369731    0.0
                        0.4600000000000000        0.0304729537369731    0.0
                        0.1746475824762137        0.0304876659620586    0.0
                        0.1753803518624626        0.0304854602895806    0.0
                        0.1763148660785219        0.0304996316658603    0.0
                        0.1774234180590002        0.0305282770389450    0.0
                        0.1786912661215573        0.0305678276321564    0.0
                        0.1801217026475368        0.0306137878084785    0.0
                        0.1817390175076295        0.0306595535327534    0.0
                        0.1835931853704644        0.0306974730497889    0.0
                        0.1857525571112257        0.0307225000147619    0.0
                        0.1882893834361213        0.0307350859288780    0.0
                        0.1912751001451636        0.0307398637610101    0.0
                        0.1947849728549750        0.0307423953835559    0.0
                        0.1988979606766719        0.0307457537730043    0.0
                        0.2036930917140902        0.0307497815991939    0.0
                        0.2092531226067778        0.0307538506850749    0.0
                        0.2156690935366130        0.0307577747322885    0.0
                        0.2230403574045062        0.0307615288051258    0.0
                        0.2314715561164534        0.0307651033520764    0.0
                        0.2410683371416215        0.0307684840647108    0.0
                        0.2519323156247182        0.0307716551145923    0.0
                        0.2641551879535900        0.0307746021016320    0.0
                        0.2778118779336367        0.0307773133142662    0.0
                        0.2929528268355911        0.0307797802208349    0.0
                        0.3095958309901759        0.0307819976572070    0.0
                        0.3277181114603692        0.0307839638418737    0.0
                        0.3472495363205334        0.0307856802625353    0.0
                        0.3680680594817446        0.0307871514715060    0.0
                        0.3899984275532203        0.0307883848374112    0.0
                        0.4128149844684155        0.0307893903358161    0.0
                        0.4362489588764952        0.0307901804301131    0.0
                        0.4600000000000000        0.0307907673589157    0.0
                        0.1748706363709940        0.0305004581031071    0.0
                        0.1756365253170317        0.0305027192179457    0.0
                        0.1766656947295323        0.0305419437268999    0.0
                        0.1778591538251296        0.0306083236877286    0.0
                        0.1791684054253469        0.0306906046864106    0.0
                        0.1805892483241938        0.0307772480243931    0.0
                        0.1821571071145999        0.0308562646307874    0.0
                        0.1839407691490707        0.0309177553612359    0.0
                        0.1860234095869688        0.0309573453654952    0.0
                        0.1884856129825877        0.0309776715250212    0.0
                        0.1914043876807611        0.0309862008974096    0.0
                        0.1948611932029330        0.0309915086195310    0.0
                        0.1989396129924632        0.0309984201531733    0.0
                        0.2037168060534502        0.0310066069689370    0.0
                        0.2092694225932700        0.0310149711072545    0.0
                        0.2156830057883389        0.0310231708028784    0.0
                        0.2230537241371640        0.0310311533934113    0.0
                        0.2314848312956852        0.0310388991644139    0.0
                        0.2410815005687634        0.0310463817493321    0.0
                        0.2519452207773810        0.0310535717874852    0.0
                        0.2641676636494912        0.0310604414553796    0.0
                        0.2778237513417609        0.0310669665485204    0.0
                        0.2929639280336470        0.0310731273823185    0.0
                        0.3096059948668063        0.0310789092268599    0.0
                        0.3277271800086885        0.0310843024797329    0.0
                        0.3472573616496404        0.0310893026425929    0.0
                        0.3680745073843432        0.0310939101587132    0.0
                        0.3900033813459992        0.0310981301909591    0.0
                        0.4128183487616770        0.0311019724898775    0.0
                        0.4362506629034351        0.0311054514530947    0.0
                        0.4600000000000000        0.0311085809808583    0.0
                        0.1750683083351507        0.0305115064667889    0.0
                        0.1759169004750631        0.0305288476957280    0.0
                        0.1770559730646108        0.0306050068080895    0.0
                        0.1783104171553788        0.0307146518384888    0.0
                        0.1796216461806065        0.0308363391057665    0.0
                        0.1810022160444289        0.0309531423843669    0.0
                        0.1825104405717730        0.0310524375983530    0.0
                        0.1842302899661963        0.0311267293358274    0.0
                        0.1862502144263068        0.0311743190198642    0.0
                        0.1886524362488183        0.0311996178507851    0.0
                        0.1915164670697092        0.0312114354696400    0.0
                        0.1949286245973491        0.0312197660485076    0.0
                        0.1989771277274625        0.0312303502267060    0.0
                        0.2037384738079853        0.0312427313054746    0.0
                        0.2092844643074152        0.0312554945999296    0.0
                        0.2156959079955809        0.0312681821811160    0.0
                        0.2230661489539079        0.0312807186961483    0.0
                        0.2314971943455003        0.0312930793349256    0.0
                        0.2410937883197126        0.0313052333370569    0.0
                        0.2519573033636098        0.0313171462436264    0.0
                        0.2641793863535544        0.0313287849533849    0.0
                        0.2778349550762909        0.0313401202130270    0.0
                        0.2929744531284128        0.0313511277633394    0.0
                        0.3096156824885800        0.0313617889485802    0.0
                        0.3277358740204555        0.0313720910277282    0.0
                        0.3472649112499612        0.0313820272667922    0.0
                        0.3680807704188766        0.0313915968846279    0.0
                        0.3900082280621068        0.0314008049604632    0.0
                        0.4128216657056544        0.0314096625170665    0.0
                        0.4362523566148080        0.0314181869432499    0.0
                        0.4600000000000000        0.0314263946028010    0.0
                        0.1752507015122429        0.0305214614588377    0.0
                        0.1762367112106172        0.0305692940007106    0.0
                        0.1774834331666262        0.0306933780654684    0.0
                        0.1787603327495181        0.0308463703114722    0.0
                        0.1800385135187402        0.0309993654220512    0.0
                        0.1813634645273186        0.0311355113129190    0.0
                        0.1828137962508319        0.0312459902849983    0.0
                        0.1844793011156397        0.0313271454157411    0.0
                        0.1864474470271155        0.0313795189563144    0.0
                        0.1887996620253871        0.0314084886227686    0.0
                        0.1916170476934409        0.0314233970240298    0.0
                        0.1949902060590416        0.0314348705756864    0.0
                        0.1990119558521138        0.0314491359401051    0.0
                        0.2037588791979057        0.0314656541942390    0.0
                        0.2092987718095740        0.0314827946497582    0.0
                        0.2157082311029223        0.0315000099882075    0.0
                        0.2230780249580534        0.0315172064600574    0.0
                        0.2315090124521314        0.0315343587764016    0.0
                        0.2411055402698858        0.0315514386999922    0.0
                        0.2519688718838611        0.0315684148223074    0.0
                        0.2641906294912616        0.0315852575468014    0.0
                        0.2778457249050348        0.0316019418096972    0.0
                        0.2929845989877370        0.0316184484545548    0.0
                        0.3096250520251678        0.0316347650579382    0.0
                        0.3277443146525980        0.0316508864566039    0.0
                        0.3472722723977787        0.0316668150672407    0.0
                        0.3680869064270444        0.0316825610903771    0.0
                        0.3900130016262202        0.0316981427407793    0.0
                        0.4128249515397648        0.0317135867919302    0.0
                        0.4362540450444414        0.0317289296852487    0.0
                        0.4600000000000000        0.0317442082247436    0.0
                        0.1753880193278465        0.0305288315574683    0.0
                        0.1766149331016388        0.0306307312040168    0.0
                        0.1779236790276596        0.0308058113760374    0.0
                        0.1791635694233644        0.0309894339475717    0.0
                        0.1803748048749121        0.0311554037461921    0.0
                        0.1816366462126213        0.0312949684971260    0.0
                        0.1830361681809752        0.0314057744436036    0.0
                        0.1846598980953153        0.0314871847225275    0.0
                        0.1865906258449694        0.0315406341136931    0.0
                        0.1889073793257238        0.0315714940290952    0.0
                        0.1916915052443092        0.0315888778174228    0.0
                        0.1950363666603616        0.0316033190898243    0.0
                        0.1990383178101540        0.0316210719085120    0.0
                        0.2037744238572441        0.0316415166271443    0.0
                        0.2093097418374407        0.0316629084550765    0.0
                        0.2157177624848280        0.0316846540618566    0.0
                        0.2230873016814675        0.0317066623184025    0.0
                        0.2315183374111302        0.0317289301927014    0.0
                        0.2411149085005785        0.0317514605040112    0.0
                        0.2519781924920257        0.0317742593048645    0.0
                        0.2641997904409596        0.0317973412460798    0.0
                        0.2778546067823661        0.0318207337325776    0.0
                        0.2929930765276899        0.0318444803961274    0.0
                        0.3096329937324086        0.0318686447539115    0.0
                        0.3277515825657212        0.0318933145877541    0.0
                        0.3472787222519669        0.0319186076133888    0.0
                        0.3680923881222337        0.0319446793095291    0.0
                        0.3900173597740541        0.0319717343501789    0.0
                        0.4128280257214441        0.0320000442074121    0.0
                        0.4362556692121919        0.0320299753337299    0.0
                        0.4600000000000000        0.0320620218466862    0.0
                        0.1756132762905928        0.0305410412367395    0.0
                        0.1770830740379582        0.0307258669364895    0.0
                        0.1783989525399356        0.0309562003224674    0.0
                        0.1795954736237158        0.0311748900017390    0.0
                        0.1807576617241116        0.0313632506840597    0.0
                        0.1819741351353283        0.0315174419255111    0.0
                        0.1833308907255138        0.0316378880307975    0.0
                        0.1849112517053614        0.0317257038995611    0.0
                        0.1867961000600760        0.0317836343655914    0.0
                        0.1890649489604924        0.0318179248739375    0.0
                        0.1918020361403419        0.0318381821223218    0.0
                        0.1951060427828601        0.0318553165205051    0.0
                        0.1990790302651361        0.0318759714864369    0.0
                        0.2037990719994811        0.0318996219819005    0.0
                        0.2093273687209173        0.0319243918879642    0.0
                        0.2157329125957764        0.0319495865923296    0.0
                        0.2231016890551343        0.0319750760104873    0.0
                        0.2315324091553181        0.0320008447057860    0.0
                        0.2411286748356919        0.0320268906592363    0.0
                        0.2519915443658763        0.0320532168878394    0.0
                        0.2642125920164807        0.0320798355436577    0.0
                        0.2778667163071801        0.0321067718873884    0.0
                        0.2930043504826003        0.0321340677168683    0.0
                        0.3096432885696782        0.0321617849146603    0.0
                        0.3277607568068701        0.0321900096019675    0.0
                        0.3472866392758439        0.0322188574297462    0.0
                        0.3680989195375080        0.0322484808226743    0.0
                        0.3900223891572401        0.0322790795310201    0.0
                        0.4128314524399932        0.0323109169058220    0.0
                        0.4362574120216678        0.0323443459823914    0.0
                        0.4600000000000000        0.0323798354686288    0.0
                        0.1761289896497808        0.0305942616311187    0.0
                        0.1776190915668431        0.0308674733672343    0.0
                        0.1788910431263413        0.0311521670877992    0.0
                        0.1800466123292492        0.0314106449524000    0.0
                        0.1811778913907451        0.0316319981667401    0.0
                        0.1823681212657531        0.0318145553415311    0.0
                        0.1836951984497995        0.0319579479699234    0.0
                        0.1852363227365410        0.0320623261184696    0.0
                        0.1870705725928726        0.0321307407048413    0.0
                        0.1892802727083861        0.0321707606883328    0.0
                        0.1919559212123258        0.0321933753861808    0.0
                        0.1952050437820438        0.0322105913434562    0.0
                        0.1991383829778858        0.0322302299686009    0.0
                        0.2038359663885496        0.0322525941606545    0.0
                        0.2093539947831939        0.0322760099255816    0.0
                        0.2157554110022857        0.0322997695012451    0.0
                        0.2231224038584458        0.0323237268402098    0.0
                        0.2315520076514546        0.0323478644005546    0.0
                        0.2411472540447839        0.0323721818298996    0.0
                        0.2520090461999539        0.0323966842991235    0.0
                        0.2642289229010609        0.0324213864591366    0.0
                        0.2778817750201226        0.0324463165337630    0.0
                        0.2930180347794734        0.0324715196463736    0.0
                        0.3096554984532657        0.0324970611137943    0.0
                        0.3277713977733297        0.0325230302462598    0.0
                        0.3472956258899898        0.0325495451929773    0.0
                        0.3681061791836181        0.0325767596329733    0.0
                        0.3900278657040691        0.0326048726269938    0.0
                        0.4128351095192020        0.0326341439644737    0.0
                        0.4362592356185172        0.0326649188845859    0.0
                        0.4600000000000000        0.0326976490905715    0.0
                        0.1767535220151408        0.0307167546954266    0.0
                        0.1781588410589170        0.0310596591160090    0.0
                        0.1793716362952804        0.0313927269348812    0.0
                        0.1804836569776525        0.0316875770507762    0.0
                        0.1815819941168642        0.0319387286697367    0.0
                        0.1827432573373361        0.0321455509423901    0.0
                        0.1840392370087785        0.0323072662687263    0.0
                        0.1855427368874226        0.0324241680696549    0.0
                        0.1873307803664651        0.0325002858278376    0.0
                        0.1894868196433631        0.0325443895533076    0.0
                        0.1921059496915203        0.0325683228331785    0.0
                        0.1953035100414681        0.0325846798404662    0.0
                        0.1991987151926333        0.0326022040490504    0.0
                        0.2038742292465933        0.0326220670096503    0.0
                        0.2093819574139533        0.0326428924356933    0.0
                        0.2157791012099748        0.0326639993406797    0.0
                        0.2231441460243125        0.0326852367470243    0.0
                        0.2315724771719764        0.0327065886754236    0.0
                        0.2411665637458474        0.0327280582307275    0.0
                        0.2520271544158195        0.0327496538455919    0.0
                        0.2642457510760635        0.0327713934122317    0.0
                        0.2778972353637457        0.0327933085671880    0.0
                        0.2930320371639005        0.0328154479206948    0.0
                        0.3096679539852956        0.0328378800980626    0.0
                        0.3277822222843890        0.0328606971981979    0.0
                        0.3473047436885095        0.0328840192210571    0.0
                        0.3681135269210361        0.0329080002485153    0.0
                        0.3900333960994227        0.0329328376550877    0.0
                        0.4128387946484270        0.0329587866028707    0.0
                        0.4362610694754040        0.0329861835008420    0.0
                        0.4600000000000000        0.0330154627125141    0.0
                        0.1773391282732455        0.0308926054066187    0.0
                        0.1786775100149402        0.0313009494694117    0.0
                        0.1798294493035640        0.0316749652407109    0.0
                        0.1808930528736395        0.0319986030528787    0.0
                        0.1819521469732181        0.0322708749428245    0.0
                        0.1830788854929907        0.0324924817500295    0.0
                        0.1843414538943794        0.0326637460094931    0.0
                        0.1858094794145898        0.0327864992900727    0.0
                        0.1875574517066813        0.0328661595989962    0.0
                        0.1896682841476934        0.0329122522014886    0.0
                        0.1922396757282402        0.0329367616039412    0.0
                        0.1953929660174382        0.0329522575961162    0.0
                        0.1992547092757147        0.0329679489048713    0.0
                        0.2039104789326158        0.0329856563131472    0.0
                        0.2094088733199293        0.0330042516359121    0.0
                        0.2158021137310955        0.0330230727821090    0.0
                        0.2231653619292795        0.0330419603392987    0.0
                        0.2315925038769106        0.0330608977081875    0.0
                        0.2411854943432794        0.0330798901719556    0.0
                        0.2520449401363780        0.0330989484812192    0.0
                        0.2642623088986603        0.0331180928500468    0.0
                        0.2779124734032479        0.0331373573352611    0.0
                        0.2930458611095424        0.0331567929576368    0.0
                        0.3096802705596067        0.0331764705023425    0.0
                        0.3277929426964734        0.0331964836538764    0.0
                        0.3473137873910234        0.0332169530225891    0.0
                        0.3681208255201513        0.0332380318309971    0.0
                        0.3900388971616351        0.0332599144953864    0.0
                        0.4128424651059466        0.0332828502749259    0.0
                        0.4362628983294005        0.0333071654723470    0.0
                        0.4600000000000000        0.0333332763344567    0.0
                        0.1779189546064840        0.0311303376135277    0.0
                        0.1791758776117145        0.0315912890888977    0.0
                        0.1802617905955535        0.0319973719273704    0.0
                        0.1812730417461252        0.0323415259158608    0.0
                        0.1822895052417495        0.0326264954635926    0.0
                        0.1833800280678566        0.0328549777311928    0.0
                        0.1846099243630718        0.0330293763262170    0.0
                        0.1860456309299700        0.0331535028971046    0.0
                        0.1877586901976613        0.0332339877430093    0.0
                        0.1898307201979273        0.0332806435882553    0.0
                        0.1923609712246776        0.0333051133124855    0.0
                        0.1954755905012357        0.0333195520022408    0.0
                        0.1993075643172092        0.0333333493389800    0.0
                        0.2039454612915407        0.0333488575647687    0.0
                        0.2094352881640563        0.0333651855899747    0.0
                        0.2158248907728074        0.0333816940934435    0.0
                        0.2231864246720939        0.0333982155304264    0.0
                        0.2316124051457080        0.0334147319733878    0.0
                        0.2412043145678920        0.0334312502809824    0.0
                        0.2520626286280522        0.0334477829803541    0.0
                        0.2642787826479858        0.0334643519990166    0.0
                        0.2779276405306209        0.0334809930890828    0.0
                        0.2930596269847772        0.0334977588360382    0.0
                        0.3096925412369567        0.0335147212282448    0.0
                        0.3278036283913059        0.0335319744857662    0.0
                        0.3473228062756568        0.0335496387061256    0.0
                        0.3681281076872994        0.0335678650778655    0.0
                        0.3900443884999552        0.0335868438553610    0.0
                        0.4128461307879378        0.0336068171840020    0.0
                        0.4362647256073731        0.0336281000675478    0.0
                        0.4600000000000000        0.0336510899563993    0.0
                        0.1784754821150416        0.0314258306631712    0.0
                        0.1796467951649339        0.0319283479019243    0.0
                        0.1806632467490151        0.0323563679893459    0.0
                        0.1816192406086519        0.0327113626693873    0.0
                        0.1825914561570821        0.0330000506562441    0.0
                        0.1836460665868751        0.0332279437605442    0.0
                        0.1848454072466894        0.0334000240508866    0.0
                        0.1862524089572869        0.0335219759103980    0.0
                        0.1879354535475746        0.0336012092326557    0.0
                        0.1899745116139363        0.0336473644163064    0.0
                        0.1924697001852498        0.0336713686335813    0.0
                        0.1955509944018911        0.0336846758244210    0.0
                        0.1993569052805764        0.0336966348712957    0.0
                        0.2039789093888508        0.0337100227669159    0.0
                        0.2094610182670454        0.0337241688342105    0.0
                        0.2158472945780682        0.0337384577855218    0.0
                        0.2232072228241469        0.0337527137148979    0.0
                        0.2316320880143562        0.0337669164997789    0.0
                        0.2412229465109809        0.0337810738861905    0.0
                        0.2520801549990670        0.0337951995911685    0.0
                        0.2642951188651713        0.0338093166264098    0.0
                        0.2779426933529047        0.0338234617119001    0.0
                        0.2930733002365595        0.0338376881654811    0.0
                        0.3097047391786510        0.0338520682515237    0.0
                        0.3278142591907825        0.0338666957189473    0.0
                        0.3473317858225770        0.0338816890842691    0.0
                        0.3681353635971297        0.0338971963909280    0.0
                        0.3900498640522546        0.0339134025946309    0.0
                        0.4128497884970443        0.0339305415809128    0.0
                        0.4362665501167832        0.0339489159169064    0.0
                        0.4600000000000000        0.0339689035783419    0.0
                        0.1790052054497402        0.0317790500700631    0.0
                        0.1800856466268054        0.0323096961532372    0.0
                        0.1810300228569329        0.0327481851486417    0.0
                        0.1819296022997220        0.0331038398921554    0.0
                        0.1828581216713490        0.0333877815572006    0.0
                        0.1838788561844324        0.0336087613800673    0.0
                        0.1850506123405059        0.0337742548264080    0.0
                        0.1864325753168836        0.0338913737866478    0.0
                        0.1880900122543757        0.0339678209338570    0.0
                        0.1901011821399297        0.0340126835213652    0.0
                        0.1925666561580589        0.0340358985672048    0.0
                        0.1956194644218036        0.0340480138474584    0.0
                        0.1994027999810299        0.0340581745788473    0.0
                        0.2040108444410943        0.0340695000784261    0.0
                        0.2094860853769729        0.0340815273722179    0.0
                        0.2158693493909266        0.0340936671191156    0.0
                        0.2232277798898564        0.0341057352523216    0.0
                        0.2316515737564489        0.0341177088062037    0.0
                        0.2412414088265304        0.0341295958262198    0.0
                        0.2520975352603739        0.0341414106979052    0.0
                        0.2643113310044795        0.0341531769500904    0.0
                        0.2779576429027021        0.0341649316083845    0.0
                        0.2930868896477325        0.0341767279593754    0.0
                        0.3097168711233633        0.0341886376882088    0.0
                        0.3278248400256583        0.0342007531401452    0.0
                        0.3473407294171069        0.0342131902582369    0.0
                        0.3681425953721270        0.0342260929062186    0.0
                        0.3900553249730934        0.0342396396814486    0.0
                        0.4128534387179503        0.0342540551411163    0.0
                        0.4362683719635387        0.0342696283571840    0.0
                        0.4600000000000000        0.0342867172002846    0.0
                        0.1795008812332575        0.0321875467032460    0.0
                        0.1804873732947004        0.0327317918638471    0.0
                        0.1813587550808207        0.0331683274196466    0.0
                        0.1822027425468979        0.0335144400652824    0.0
                        0.1830899214405403        0.0337859789428322    0.0
                        0.1840799340859596        0.0339948151193076    0.0
                        0.1852274947590681        0.0341504043838835    0.0
                        0.1865880161045633        0.0342606952930460    0.0
                        0.1882238760470320        0.0343332223583609    0.0
                        0.1902117139457074        0.0343762133062798    0.0
                        0.1926523076808337        0.0343984121065934    0.0
                        0.1956811144450793        0.0344093127243225    0.0
                        0.1994452201780684        0.0344177355249643    0.0
                        0.2040412231123563        0.0344270752856619    0.0
                        0.2095104606406401        0.0344370649453041    0.0
                        0.2158910370268904        0.0344471427296543    0.0
                        0.2232480830930137        0.0344571167493207    0.0
                        0.2316708526032837        0.0344669606633127    0.0
                        0.2412596937849861        0.0344766822849000    0.0
                        0.2521147632305614        0.0344862961877927    0.0
                        0.2643274141046268        0.0344958258949541    0.0
                        0.2779724851921104        0.0345053081256259    0.0
                        0.2931003920144835        0.0345147954280533    0.0
                        0.3097289345075932        0.0345243581148819    0.0
                        0.3278353688652369        0.0345340862618182    0.0
                        0.3473496354819384        0.0345440923156058    0.0
                        0.3681498018296222        0.0345545149971304    0.0
                        0.3900607704295947        0.0345655255575276    0.0
                        0.4128570809305816        0.0345773382278351    0.0
                        0.4362701909060307        0.0345902275942730    0.0
                        0.4600000000000000        0.0346045308222272    0.0
                        0.1799563256609844        0.0326486992931337    0.0
                        0.1808475903722342        0.0331904780082633    0.0
                        0.1816470602237069        0.0336121144896860    0.0
                        0.1824382679424375        0.0339390304557529    0.0
                        0.1832878733290906        0.0341915845137398    0.0
                        0.1842509835777955        0.0343840969534967    0.0
                        0.1853778833696688        0.0345272513793565    0.0
                        0.1867204079794071        0.0346292310125987    0.0
                        0.1883383824041404        0.0346970072200614    0.0
                        0.1903070041304670        0.0347377092445504    0.0
                        0.1927271185030124        0.0347587384552238    0.0
                        0.1957360937741143        0.0347684289061108    0.0
                        0.1994841735252756        0.0347751868326672    0.0
                        0.2040700251391159        0.0347826286504970    0.0
                        0.2095341289031178        0.0347906723691991    0.0
                        0.2159123484601460        0.0347987851511202    0.0
                        0.2232681266721781        0.0348067677532967    0.0
                        0.2316899205265335        0.0348145900463187    0.0
                        0.2412777984317731        0.0348222591411688    0.0
                        0.2521318366862637        0.0348297893652552    0.0
                        0.2643433664497124        0.0348372037589306    0.0
                        0.2779872188538906        0.0348445381754179    0.0
                        0.2931138062075808        0.0348518437755235    0.0
                        0.3097409283685185        0.0348591887689018    0.0
                        0.3278458448731015        0.0348666601626379    0.0
                        0.3473585032916613        0.0348743660537920    0.0
                        0.3681569823576558        0.0348824391283647    0.0
                        0.3900661999369721        0.0348910423750130    0.0
                        0.4128607147960557        0.0349003787715754    0.0
                        0.4362720067692535        0.0349107074969311    0.0
                        0.4600000000000000        0.0349223444441698    0.0
                        0.1803652160669568        0.0331588857098492    0.0
                        0.1811624506465876        0.0336809164268592    0.0
                        0.1818933634248504        0.0340747502946235    0.0
                        0.1826363884144830        0.0343737706282964    0.0
                        0.1834531710256649        0.0346018961064304    0.0
                        0.1843935377530917        0.0347748288556464    0.0
                        0.1855033150888487        0.0349036538513606    0.0
                        0.1868311225789711        0.0349962409866328    0.0
                        0.1884346236588413        0.0350586750250760    0.0
                        0.1903877958539395        0.0350968033309290    0.0
                        0.1927914841245248        0.0351165755046629    0.0
                        0.1957845366149907        0.0351250906849551    0.0
                        0.1995196684114572        0.0351302761174051    0.0
                        0.2040972290667668        0.0351359262021161    0.0
                        0.2095570704066196        0.0351421336096495    0.0
                        0.2159332688425679        0.0351483954311758    0.0
                        0.2232878991484626        0.0351545056195797    0.0
                        0.2317087683274747        0.0351604299478951    0.0
                        0.2412957152798672        0.0351661744123352    0.0
                        0.2521487495025048        0.0351717527028047    0.0
                        0.2643591830233755        0.0351771869453909    0.0
                        0.2780018397853536        0.0351825116183476    0.0
                        0.2931271288869456        0.0351877759025423    0.0
                        0.3097528500121811        0.0351930452354242    0.0
                        0.3278562659116882        0.0351984028214072    0.0
                        0.3473673311950842        0.0352039516222479    0.0
                        0.3681641357345936        0.0352098174658866    0.0
                        0.3900716126536257        0.0352161542309220    0.0
                        0.4128643398053482        0.0352231527821059    0.0
                        0.4362738193269773        0.0352310560335643    0.0
                        0.4600000000000000        0.0352401580661124    0.0
                        0.1807215076669111        0.0337136506063462    0.0
                        0.1814288143510193        0.0341977445733877    0.0
                        0.1820968363717789        0.0345514777238643    0.0
                        0.1827977446803744        0.0348151292516705    0.0
                        0.1835870803543094        0.0350144900499083    0.0
                        0.1845089954295837        0.0351653841113391    0.0
                        0.1856051208331885        0.0352785066528683    0.0
                        0.1869213287709887        0.0353609455340727    0.0
                        0.1885135345928761        0.0354176424828194    0.0
                        0.1904547394107242        0.0354530253304118    0.0
                        0.1928457677045824        0.0354715143333812    0.0
                        0.1958265810762927        0.0354789226474548    0.0
                        0.1995517244558492        0.0354826526644098    0.0
                        0.2041228187521347        0.0354866412415879    0.0
                        0.2095792652681794        0.0354911455094840    0.0
                        0.2159537808847402        0.0354956930917682    0.0
                        0.2233073860272243        0.0355000717580592    0.0
                        0.2317273838418538        0.0355042429772870    0.0
                        0.2413134341135682        0.0355082112765563    0.0
                        0.2521654931209614        0.0355119893600441    0.0
                        0.2643748566937896        0.0355155980528197    0.0
                        0.2780163420939027        0.0355190699993736    0.0
                        0.2931403552451505        0.0355224518640060    0.0
                        0.3097646955872186        0.0355258057029830    0.0
                        0.3278666289743555        0.0355292102478862    0.0
                        0.3473761169302332        0.0355327626056246    0.0
                        0.3681712603486063        0.0355365809894608    0.0
                        0.3900770075239153        0.0355408093861480    0.0
                        0.4128679553615940        0.0355456257509131    0.0
                        0.4362756283373038        0.0355512559349175    0.0
                        0.4600000000000000        0.0355579716880550    0.0
                        0.1810194953431914        0.0343075658308504    0.0
                        0.1816442597154589        0.0347351125963707    0.0
                        0.1822572562655706        0.0350375761117509    0.0
                        0.1829232566751400        0.0352597537155829    0.0
                        0.1836908831588205        0.0354270483976968    0.0
                        0.1845986488604000        0.0355541392651633    0.0
                        0.1856844888830347        0.0356506305317860    0.0
                        0.1869920598878705        0.0357224431395023    0.0
                        0.1885759474948257        0.0357731794461726    0.0
                        0.1905084289976340        0.0358057487859363    0.0
                        0.1928903198858500        0.0358229906497282    0.0
                        0.1958623778685412        0.0358294005179821    0.0
                        0.1995803760619223        0.0358318250934361    0.0
                        0.2041467848088851        0.0358343146218945    0.0
                        0.2096006939491999        0.0358372805568746    0.0
                        0.2159738648475429        0.0358402813239514    0.0
                        0.2233265695498370        0.0358430992276001    0.0
                        0.2317457515681375        0.0358456913400543    0.0
                        0.2413309415595008        0.0358480604265300    0.0
                        0.2521820561087749        0.0358502179014740    0.0
                        0.2643903777930594        0.0358521829465841    0.0
                        0.2780307177204286        0.0358539859635796    0.0
                        0.2931534786901903        0.0358556706184683    0.0
                        0.3097764598352963        0.0358572950369900    0.0
                        0.3278769300053535        0.0358589328699829    0.0
                        0.3473848575099826        0.0358606747138970    0.0
                        0.3681783541399495        0.0358626304742597    0.0
                        0.3900823832635882        0.0358649335259547    0.0
                        0.4128715607913724        0.0358677481760794    0.0
                        0.4362774335595074        0.0358712824666168    0.0
                        0.4600000000000000        0.0358757853099977    0.0
                        0.1812540226876509        0.0349342199530677    0.0
                        0.1818071001865402        0.0352866786633303    0.0
                        0.1823749643899184        0.0355283054836743    0.0
                        0.1830141331265091        0.0357043412266051    0.0
                        0.1837659555842403        0.0358372360446148    0.0
                        0.1846637928382045        0.0359393850818375    0.0
                        0.1857425741976591        0.0360187129507901    0.0
                        0.1870443096824012        0.0360796714536070    0.0
                        0.1886226685857665        0.0361243817868195    0.0
                        0.1905494574313652        0.0361541700922500    0.0
                        0.1929255136290615        0.0361702667820581    0.0
                        0.1958921104254964        0.0361758345695806    0.0
                        0.1996056839206885        0.0361771457171585    0.0
                        0.2041691316287332        0.0361783398644632    0.0
                        0.2096213419345706        0.0361799726541640    0.0
                        0.2159935019151132        0.0361816333791288    0.0
                        0.2233454312413650        0.0361830997651240    0.0
                        0.2317638546259970        0.0361843245376360    0.0
                        0.2413482225971283        0.0361853084786542    0.0
                        0.2521984253226724        0.0361860614548101    0.0
                        0.2644057350142299        0.0361866007066439    0.0
                        0.2780449571320540        0.0361869540333592    0.0
                        0.2931664913833845        0.0361871616751910    0.0
                        0.3097881365122398        0.0361872773366192    0.0
                        0.3278871642325836        0.0361873690405412    0.0
                        0.3473935494864779        0.0361875202785245    0.0
                        0.3681854148098334        0.0361878320153323    0.0
                        0.3900877385195492        0.0361884263505131    0.0
                        0.4128751554563315        0.0361894532553905    0.0
                        0.4362792348137448        0.0361911022593896    0.0
                        0.4600000000000000        0.0361935989319403    0.0
                        0.1814207042771489        0.0355862356402906    0.0
                        0.1819165218567323        0.0358455917898043    0.0
                        0.1824510835692472        0.0360189062005157    0.0
                        0.1830721003790988        0.0361456058277085    0.0
                        0.1838139816609755        0.0362426875887856    0.0
                        0.1847059094051416        0.0363193378741258    0.0
                        0.1857806524871485        0.0363813363724870    0.0
                        0.1870791580211881        0.0364314451277341    0.0
                        0.1886545768868222        0.0364702133288522    0.0
                        0.1905784894894996        0.0364973510119022    0.0
                        0.1929517948266688        0.0365124728098514    0.0
                        0.1959160279167144        0.0365174085406125    0.0
                        0.1996277567266271        0.0365178470455804    0.0
                        0.2041898926366563        0.0365179971772353    0.0
                        0.2096412112600426        0.0365185485959669    0.0
                        0.2160126833566960        0.0365191215122754    0.0
                        0.2233639593722527        0.0365194902459636    0.0
                        0.2317816808807029        0.0365196034180597    0.0
                        0.2413652655860467        0.0365194596930369    0.0
                        0.2522145900224932        0.0365190671805854    0.0
                        0.2644209187594962        0.0365184409272524    0.0
                        0.2780590520274636        0.0365176058184944    0.0
                        0.2931793864035707        0.0365165982949662    0.0
                        0.3097997200961045        0.0365154672062034    0.0
                        0.3278973274910022        0.0365142744590501    0.0
                        0.3474021899502504        0.0365130959044053    0.0
                        0.3681924405464072        0.0365120229894478    0.0
                        0.3900930723660295        0.0365111659263765    0.0
                        0.4128787390559421        0.0365106597072228    0.0
                        0.4362810321204292        0.0365106746794532    0.0
                        0.4600000000000000        0.0365114125538829    0.0
                        0.1815161694652509        0.0362553718237330    0.0
                        0.1819733430357403        0.0364050287530321    0.0
                        0.1824882648116260        0.0365051322900832    0.0
                        0.1830999244344916        0.0365807412914659    0.0
                        0.1838373220335760        0.0366414475771008    0.0
                        0.1847269416777369        0.0366925588253946    0.0
                        0.1858003313728112        0.0367373765446855    0.0
                        0.1870979370155701        0.0367768338308091    0.0
                        0.1886727549292372        0.0368098647725616    0.0
                        0.1905963629500989        0.0368345594650940    0.0
                        0.1929697586660658        0.0368489296959954    0.0
                        0.1959345029112061        0.0368534852499945    0.0
                        0.1996467964859967        0.0368533300113136    0.0
                        0.2042091676678298        0.0368527244339871    0.0
                        0.2096603522033027        0.0368524819178840    0.0
                        0.2160314376575344        0.0368522538218310    0.0
                        0.2233821722137968        0.0368518126545866    0.0
                        0.2317992428228544        0.0368511034265913    0.0
                        0.2413820791711242        0.0368501226560362    0.0
                        0.2522305561376454        0.0368488765391143    0.0
                        0.2644359330560161        0.0368473777199296    0.0
                        0.2780730051545872        0.0368456479063405    0.0
                        0.2931921656935790        0.0368437194182011    0.0
                        0.3098112120719590        0.0368416358726097    0.0
                        0.3279074210443056        0.0368394526307621    0.0
                        0.3474107800813165        0.0368372374258242    0.0
                        0.3681994324948467        0.0368350716672871    0.0
                        0.3900983858817387        0.0368330531206555    0.0
                        0.4128823124980907        0.0368313012013521    0.0
                        0.4362828260472403        0.0368299664424519    0.0
                        0.4600000000000000        0.0368292261758255    0.0
                        0.1815382897931254        0.0369327103481970    0.0
                        0.1819818538109831        0.0369609142123707    0.0
                        0.1824916328573696        0.0369855492855608    0.0
                        0.1831018206365527        0.0370094985691858    0.0
                        0.1838392193019244        0.0370338674288215    0.0
                        0.1847294151835731        0.0370596914119278    0.0
                        0.1858036305869978        0.0370876084146116    0.0
                        0.1871022898618808        0.0371166618268913    0.0
                        0.1886785378183501        0.0371441663530669    0.0
                        0.1906041360645456        0.0371666080003145    0.0
                        0.1929802021660936        0.0371804198938373    0.0
                        0.1959480935843436        0.0371848110651129    0.0
                        0.1996631700068379        0.0371843025260642    0.0
                        0.2042271980930307        0.0371831903007139    0.0
                        0.2096789359458711        0.0371824012003103    0.0
                        0.2160498973256542        0.0371816181624290    0.0
                        0.2234001778996786        0.0371806138717607    0.0
                        0.2318166304488854        0.0371793304556624    0.0
                        0.2413987384701639        0.0371777623553365    0.0
                        0.2522463861144899        0.0371759137451906    0.0
                        0.2644508294220034        0.0371737946982694    0.0
                        0.2780868585615665        0.0371714235254517    0.0
                        0.2932048630816738        0.0371688281552951    0.0
                        0.3098226391412613        0.0371660466524198    0.0
                        0.3279174654415381        0.0371631274670482    0.0
                        0.3474193351607041        0.0371601298080641    0.0
                        0.3682064014823239        0.0371571246040149    0.0
                        0.3901036861953979        0.0371541966974255    0.0
                        0.4128858799137039        0.0371514494190112    0.0
                        0.4362846183707903        0.0371490129503736    0.0
                        0.4600000000000000        0.0371470397977681    0.0
                        0.1814863558689498        0.0376089251908183    0.0
                        0.1819469942127579        0.0375158979232313    0.0
                        0.1824655587087849        0.0374653172728183    0.0
                        0.1830809154167282        0.0374377226667763    0.0
                        0.1838219132641232        0.0374258264303562    0.0
                        0.1847150097648966        0.0374264038187412    0.0
                        0.1857918715528984        0.0374374241113405    0.0
                        0.1870932977192622        0.0374560481769481    0.0
                        0.1886728347635276        0.0374779850892593    0.0
                        0.1906025834354609        0.0374981302569202    0.0
                        0.1929837834595299        0.0375113530739168    0.0
                        0.1959573502550195        0.0375155721405706    0.0
                        0.1996773291451255        0.0375147251605563    0.0
                        0.2042443562774484        0.0375131298993876    0.0
                        0.2096972771114939        0.0375118171515728    0.0
                        0.2160683343513212        0.0375105015992431    0.0
                        0.2234182138504531        0.0375089578245330    0.0
                        0.2318340508331917        0.0375071256993167    0.0
                        0.2414154228726774        0.0375049976406135    0.0
                        0.2522622337346498        0.0375025757060630    0.0
                        0.2644657378724886        0.0374998672537185    0.0
                        0.2781007202436940        0.0374968870126009    0.0
                        0.2932175662794111        0.0374936582945484    0.0
                        0.3098340705200194        0.0374902133514675    0.0
                        0.3279275132916279        0.0374865934355132    0.0
                        0.3474278932112841        0.0374828489265923    0.0
                        0.3682133731138239        0.0374790399596068    0.0
                        0.3901089888049226        0.0374752381429144    0.0
                        0.4128894491231099        0.0374715304203987    0.0
                        0.4362864117396361        0.0374680263395306    0.0
                        0.4600000000000000        0.0374648534197108    0.0
                        0.1813611710473154        0.0382746119124080    0.0
                        0.1818644306868416        0.0380732845808499    0.0
                        0.1824061195027752        0.0379504112298501    0.0
                        0.1830342961154989        0.0378721094436463    0.0
                        0.1837832461140350        0.0378240244152766    0.0
                        0.1846820855366166        0.0377991384285488    0.0
                        0.1857637919431615        0.0377929454546932    0.0
                        0.1870700016339597        0.0378008021443865    0.0
                        0.1886549549105387        0.0378168430744319    0.0
                        0.1905912645780195        0.0378343827908400    0.0
                        0.1929802919950734        0.0378467303234585    0.0
                        0.1959622497229714        0.0378505133834746    0.0
                        0.1996893691816777        0.0378490837952973    0.0
                        0.2042607906791747        0.0378467709935712    0.0
                        0.2097155386995333        0.0378447021630689    0.0
                        0.2160869093862620        0.0378426232007446    0.0
                        0.2234364317384091        0.0378403113435403    0.0
                        0.2318516437683295        0.0378377043615121    0.0
                        0.2414322586956075        0.0378347925524027    0.0
                        0.2522782108459193        0.0378315757360272    0.0
                        0.2644807552286689        0.0378280584207554    0.0
                        0.2781146718402032        0.0378242515916649    0.0
                        0.2932303419843691        0.0378201737538037    0.0
                        0.3098455585985208        0.0378158511377725    0.0
                        0.3279376037024404        0.0378113175837906    0.0
                        0.3474364814638268        0.0378066144393772    0.0
                        0.3682203645082206        0.0378017908687023    0.0
                        0.3901143028080865        0.0377969051115860    0.0
                        0.4128930235697086        0.0377920276486657    0.0
                        0.4362882065205490        0.0377872473934596    0.0
                        0.4600000000000000        0.0377826670416534    0.0
                        0.1811650415511722        0.0389206407263353    0.0
                        0.1817288839009674        0.0386293887362415    0.0
                        0.1823073600327507        0.0384399196657648    0.0
                        0.1829571389465448        0.0383130333188246    0.0
                        0.1837195120809889        0.0382294650919830    0.0
                        0.1846277654688681        0.0381791832124679    0.0
                        0.1857171271551814        0.0381555719312637    0.0
                        0.1870306250110542        0.0381523472509055    0.0
                        0.1886235451012984        0.0381621411252996    0.0
                        0.1905692120199739        0.0381767184484128    0.0
                        0.1929691040432831        0.0381878427238652    0.0
                        0.1959624403430408        0.0381908571464325    0.0
                        0.1996991110540965        0.0381885304195757    0.0
                        0.2042764093796267        0.0381851962932546    0.0
                        0.2097336689680237        0.0381820713904892    0.0
                        0.2161055911619379        0.0381789317995416    0.0
                        0.2234548127064684        0.0381755575663040    0.0
                        0.2318693987152713        0.0381718842106170    0.0
                        0.2414492410149278        0.0381678997237857    0.0
                        0.2522943161056610        0.0381636015564447    0.0
                        0.2644958821640288        0.0381589912478360    0.0
                        0.2781287148637147        0.0381540759026933    0.0
                        0.2932431917077811        0.0381488690632863    0.0
                        0.3098571043413913        0.0381433907734792    0.0
                        0.3279477368073637        0.0381376673010365    0.0
                        0.3474450991656740        0.0381317308226867    0.0
                        0.3682273741728853        0.0381256194324761    0.0
                        0.3901196262905099        0.0381193779586479    0.0
                        0.4128966013781685        0.0381130604481572    0.0
                        0.4362900014499003        0.0381067353019891    0.0
                        0.4600000000000000        0.0381004806635960    0.0
                        0.1809016593345753        0.0395384934474664    0.0
                        0.1815391674199028        0.0391769833594055    0.0
                        0.1821660017875365        0.0389293797171743    0.0
                        0.1828461094882059        0.0387576310632072    0.0
                        0.1836278871160503        0.0386402338197548    0.0
                        0.1845497436414038        0.0385651913266835    0.0
                        0.1856500086474127        0.0385242963947636    0.0
                        0.1869736825807391        0.0385098777987501    0.0
                        0.1885774781217835        0.0385131893634226    0.0
                        0.1905356371977731        0.0385245124132634    0.0
                        0.1929497299039375        0.0385341041087237    0.0
                        0.1959576533644109        0.0385360464261023    0.0
                        0.1997064071204632        0.0385325368495285    0.0
                        0.2042911141280235        0.0385279073547794    0.0
                        0.2097515899581380        0.0385234564876207    0.0
                        0.2161243143710323        0.0385189891853638    0.0
                        0.2234733019263914        0.0385142882735741    0.0
                        0.2318872698891383        0.0385092867957557    0.0
                        0.2414663317672222        0.0385039702382388    0.0
                        0.2523105180088113        0.0384983335677281    0.0
                        0.2645110927541310        0.0384923752627275    0.0
                        0.2781428281596657        0.0384860984462273    0.0
                        0.2932560983903777        0.0384795115823519    0.0
                        0.3098686942168474        0.0384726284084202    0.0
                        0.3279579021159959        0.0384654675087369    0.0
                        0.3474537384427096        0.0384580518028577    0.0
                        0.3682343964692270        0.0384504082685741    0.0
                        0.3901249554997352        0.0384425683318438    0.0
                        0.4129001803546890        0.0384345696847935    0.0
                        0.4362917955808299        0.0384264603805948    0.0
                        0.4600000000000000        0.0384182942855386    0.0
                        0.1805758992188421        0.0401205327458984    0.0
                        0.1812963017185264        0.0397085100083396    0.0
                        0.1819806794413999        0.0394135046651556    0.0
                        0.1826990887994052        0.0392023037458319    0.0
                        0.1835063015324997        0.0390537964813616    0.0
                        0.1844462131501668        0.0389552930746810    0.0
                        0.1855609230398611        0.0388976596179812    0.0
                        0.1868979624441526        0.0388721847754857    0.0
                        0.1885158544458575        0.0388689276901319    0.0
                        0.1904899499366529        0.0388767929925880    0.0
                        0.1929218489737104        0.0388846004310194    0.0
                        0.1959477504311302        0.0388852150312791    0.0
                        0.1997111964752472        0.0388802852130997    0.0
                        0.2043048586150800        0.0388741354753513    0.0
                        0.2097692549778169        0.0388681376380942    0.0
                        0.2161430341377757        0.0388621238503885    0.0
                        0.2234918589677424        0.0388558796595411    0.0
                        0.2319052220225896        0.0388493354225331    0.0
                        0.2414835006563332        0.0388424739487585    0.0
                        0.2523267908132542        0.0388352876385816    0.0
                        0.2645263653899591        0.0388277718554894    0.0
                        0.2781569938673668        0.0388199256819881    0.0
                        0.2932690475651126        0.0388117524360067    0.0
                        0.3098803168137044        0.0388032594795946    0.0
                        0.3279680909398983        0.0387944576562350    0.0
                        0.3474623929908394        0.0387853605960015    0.0
                        0.3682414271264649        0.0387759841671573    0.0
                        0.3901302878300752        0.0387663464519250    0.0
                        0.4129037591716256        0.0387564689095870    0.0
                        0.4362935884591311        0.0387463794438018    0.0
                        0.4600000000000000        0.0387361079074813    0.0
                        0.1801935384871193        0.0406602174315628    0.0
                        0.1810025202330285        0.0402169053669755    0.0
                        0.1817511050566846        0.0398868965971626    0.0
                        0.1825146043875819        0.0396433307899147    0.0
                        0.1833530208669922        0.0394675922865502    0.0
                        0.1843155430641833        0.0393476676277039    0.0
                        0.1854484603324141        0.0392742963491287    0.0
                        0.1868023319556200        0.0392381746799127    0.0
                        0.1884378575511594        0.0392284179588401    0.0
                        0.1904316565512717        0.0392327085005986    0.0
                        0.1928852435951865        0.0392385324432027    0.0
                        0.1959326850792596        0.0392376063722209    0.0
                        0.1997134856926383        0.0392310626225059    0.0
                        0.2043176410575582        0.0392232123311897    0.0
                        0.2097866475394373        0.0392154906002562    0.0
                        0.2161617280730414        0.0392077548513560    0.0
                        0.2235104613577707        0.0391997932970247    0.0
                        0.2319232346230239        0.0391915334374824    0.0
                        0.2415007296315432        0.0391829552735267    0.0
                        0.2523431189098433        0.0391740485958047    0.0
                        0.2645416868005193        0.0391648056416174    0.0
                        0.2781712009273144        0.0391552214413097    0.0
                        0.2932820302442455        0.0391452941504824    0.0
                        0.3098919650604069        0.0391350247422866    0.0
                        0.3279782979480845        0.0391244163199211    0.0
                        0.3474710590203461        0.0391134732503099    0.0
                        0.3682484636705805        0.0391022003565974    0.0
                        0.3901356218701756        0.0390906024905406    0.0
                        0.4129073372002333        0.0390786850501252    0.0
                        0.4362953799338045        0.0390664560292504    0.0
                        0.4600000000000000        0.0390539215294239    0.0
                        0.1797610407241495        0.0411521081650844    0.0
                        0.1806610891769510        0.0406956704091863    0.0
                        0.1814778605078292        0.0403440813472331    0.0
                        0.1822916180371453        0.0400768263631915    0.0
                        0.1831664175344141        0.0398790148295126    0.0
                        0.1841560605163141        0.0397405652217630    0.0
                        0.1853111256630021        0.0396529852354298    0.0
                        0.1866855864387812        0.0396069329322631    0.0
                        0.1883426406185774        0.0395909113432132    0.0
                        0.1903602807642657        0.0395915935579567    0.0
                        0.1928397470125202        0.0395952788528855    0.0
                        0.1959124693596047        0.0395926328955058    0.0
                        0.1997133274476618        0.0395843166614296    0.0
                        0.2043294904122357        0.0395746214558515    0.0
                        0.2098037720870549        0.0395650343167808    0.0
                        0.2161803896168727        0.0395554357215665    0.0
                        0.2235290995669029        0.0395456164856027    0.0
                        0.2319412981130693        0.0395355011204552    0.0
                        0.2415180098945998        0.0395250667294682    0.0
                        0.2523594944921245        0.0395143004924613    0.0
                        0.2645570502289082        0.0395031915550958    0.0
                        0.2781854436419879        0.0394917309333696    0.0
                        0.2932950417714857        0.0394799116588044    0.0
                        0.3099036352987527        0.0394677283599427    0.0
                        0.3279885204124226        0.0394551764609664    0.0
                        0.3474797346398217        0.0394422511540671    0.0
                        0.3682555049277763        0.0394289463438588    0.0
                        0.3901409570188569        0.0394152538251394    0.0
                        0.4129109142416064        0.0394011631627407    0.0
                        0.4362971700138948        0.0393866627310925    0.0
                        0.4600000000000000        0.0393717351513665    0.0
                        0.1792850088990494        0.0415921623975342    0.0
                        0.1802761485151401        0.0411390481900600    0.0
                        0.1811624247969014        0.0407795730124274    0.0
                        0.1820295276125180        0.0404986660515646    0.0
                        0.1829448579702317        0.0402853328821728    0.0
                        0.1839658711909410        0.0401322768641796    0.0
                        0.1851471549416557        0.0400326604987221    0.0
                        0.1865462929778815        0.0399777585853493    0.0
                        0.1882292102209495        0.0399558919851760    0.0
                        0.1902752857688192        0.0399530142058942    0.0
                        0.1927851951972566        0.0399544398415150    0.0
                        0.1958871450109915        0.0399499170565819    0.0
                        0.1997108032910227        0.0399396933864513    0.0
                        0.2043404560952886        0.0399280330959284    0.0
                        0.2098206475783945        0.0399164627114000    0.0
                        0.2161990236530674        0.0399048833700782    0.0
                        0.2235477737787590        0.0398930884028980    0.0
                        0.2319594113627677        0.0398809992216995    0.0
                        0.2415353399881099        0.0398685899804348    0.0
                        0.2523759160655453        0.0398558452886017    0.0
                        0.2645724542616694        0.0398427512795259    0.0
                        0.2781997207484108        0.0398292950421544    0.0
                        0.2933080810795243        0.0398154645763050    0.0
                        0.3099153266834876        0.0398012482688995    0.0
                        0.3279987577189591        0.0397866339880011    0.0
                        0.3474884194591978        0.0397716079038998    0.0
                        0.3682625507075446        0.0397561531948746    0.0
                        0.3901462932432589        0.0397402488378612    0.0
                        0.4129144903601890        0.0397238688567348    0.0
                        0.4362989587816372        0.0397069823572041    0.0
                        0.4600000000000000        0.0396895487733091    0.0
                        0.1787730854271452        0.0419767167673249    0.0
                        0.1798529142996547        0.0415418826468503    0.0
                        0.1808075485309131        0.0411877368148278    0.0
                        0.1817286209307636        0.0409041100392424    0.0
                        0.1826870100638911        0.0406832097300448    0.0
                        0.1837429924399673        0.0405206918440386    0.0
                        0.1849545536782007        0.0404120437066917    0.0
                        0.1863828019773413        0.0403498543615903    0.0
                        0.1880964408053866        0.0403228031439719    0.0
                        0.1901760950546500        0.0403165160212850    0.0
                        0.1927214455663256        0.0403156008440695    0.0
                        0.1958567920031786        0.0403090691841721    0.0
                        0.1997060218748600        0.0402968291439960    0.0
                        0.2043506007828844        0.0402831098129853    0.0
                        0.2098372987185357        0.0402694637836558    0.0
                        0.2162176378689470        0.0402558103594241    0.0
                        0.2235664859303602        0.0402419452802678    0.0
                        0.2319775745570004        0.0402277867701453    0.0
                        0.2415527195153430        0.0402133060234660    0.0
                        0.2523923830097316        0.0401984851656439    0.0
                        0.2645878982095620        0.0401833074462427    0.0
                        0.2782140315829152        0.0401677561680023    0.0
                        0.2933211475938908        0.0401518144492470    0.0
                        0.3099270387695818        0.0401354646002471    0.0
                        0.3280090095720721        0.0401186871205530    0.0
                        0.3474971133335994        0.0401014593782665    0.0
                        0.3682696009991885        0.0400837540850250    0.0
                        0.3901516306324920        0.0400655377058226    0.0
                        0.4129180656925063        0.0400467690803798    0.0
                        0.4363007463502809        0.0400273984566912    0.0
                        0.4600000000000000        0.0400073623952517    0.0
                        0.1782294464266571        0.0423053745599531    0.0
                        0.1793962683705877        0.0419005851719918    0.0
                        0.1804166377736877        0.0415636380638391    0.0
                        0.1813897203724713        0.0412885530055758    0.0
                        0.1823913858752178        0.0410693903101242    0.0
                        0.1834847063543424        0.0409040252019562    0.0
                        0.1847303902262801        0.0407904326561603    0.0
                        0.1861926190071554        0.0407231386827324    0.0
                        0.1879425904487728        0.0406918449084977    0.0
                        0.1900617587772430        0.0406823892369390    0.0
                        0.1926481729782639        0.0406790588841005    0.0
                        0.1958214226032882        0.0406703721308400    0.0
                        0.1996990772429975        0.0406559912263790    0.0
                        0.2043599934699920        0.0406401025493984    0.0
                        0.2098537640179871        0.0406242719688302    0.0
                        0.2162362558138308        0.0406084348282220    0.0
                        0.2235852537454196        0.0405923891007828    0.0
                        0.2319958027512862        0.0405760496772736    0.0
                        0.2415701616489806        0.0405593847831228    0.0
                        0.2524089067588475        0.0405423741687925    0.0
                        0.2646033918022784        0.0405249983604078    0.0
                        0.2782283842162303        0.0405072370534824    0.0
                        0.2933342478045530        0.0404890686787876    0.0
                        0.3099387765790338        0.0404704696854228    0.0
                        0.3280192796712829        0.0404514134490308    0.0
                        0.3475058188147054        0.0404318688187835    0.0
                        0.3682766574051361        0.0404117983692104    0.0
                        0.3901569700554258        0.0403911564352715    0.0
                        0.4129216405982671        0.0403698871110636    0.0
                        0.4363025327938922        0.0403479222851317    0.0
                        0.4600000000000000        0.0403251760171944    0.0
                        0.1776711609501670        0.0425718023332852    0.0
                        0.1789142701074430        0.0422111802074812    0.0
                        0.1799958649375540        0.0419017117043086    0.0
                        0.1810169093034592        0.0416454642026965    0.0
                        0.1820594726757016        0.0414377807956617    0.0
                        0.1831905164019961        0.0412774222297091    0.0
                        0.1844733111998575        0.0411642231266812    0.0
                        0.1859744640497380        0.0410948756337189    0.0
                        0.1877669293173848        0.0410607621711134    0.0
                        0.1899321535322481        0.0410486171939836    0.0
                        0.1925656495164761        0.0410429301346889    0.0
                        0.1957813950882746        0.0410320547712635    0.0
                        0.1996902059857210        0.0410155260155823    0.0
                        0.2043687288878152        0.0409974756201091    0.0
                        0.2098700580036311        0.0409794665336755    0.0
                        0.2162548609734680        0.0409614473528851    0.0
                        0.2236040519026907        0.0409432182081502    0.0
                        0.2320140695439146        0.0409246906976111    0.0
                        0.2415876414141823        0.0409058302031906    0.0
                        0.2524254647272002        0.0408866143116974    0.0
                        0.2646189153200010        0.0408670210791000    0.0
                        0.2782427620365791        0.0408470268675737    0.0
                        0.2933473682765474        0.0408266057096764    0.0
                        0.3099505297734535        0.0408057285028760    0.0
                        0.3280295605626368        0.0407843618333759    0.0
                        0.3475145310042580        0.0407624663965500    0.0
                        0.3682837171527195        0.0407399950302179    0.0
                        0.3901623103496878        0.0407168903772957    0.0
                        0.4129252149426460        0.0406930822618003    0.0
                        0.4363043183744189        0.0406684847232482    0.0
                        0.4600000000000000        0.0406429896391370    0.0
                        0.1770674197794949        0.0427897838653131    0.0
                        0.1784051653058769        0.0424745236394504    0.0
                        0.1795470686138472        0.0422003101021050    0.0
                        0.1806100818646133        0.0419728348517888    0.0
                        0.1816870527380699        0.0417878167771552    0.0
                        0.1828524646330723        0.0416428890589332    0.0
                        0.1841737977249692        0.0415378569824274    0.0
                        0.1857195880040904        0.0414709937881251    0.0
                        0.1875628195241631        0.0414360249813584    0.0
                        0.1897830225629435        0.0414216515246368    0.0
                        0.1924716195094659        0.0414134094122656    0.0
                        0.1957357805171517        0.0413999728311244    0.0
                        0.1996791529908864        0.0413809171739795    0.0
                        0.2043768209013897        0.0413603303816332    0.0
                        0.2098862844014352        0.0413397727540885    0.0
                        0.2162735814305612        0.0413192080122442    0.0
                        0.2236230103551642        0.0412984380162895    0.0
                        0.2320324984943013        0.0412773703912311    0.0
                        0.2416052721796178        0.0412559674279350    0.0
                        0.2524421579196320        0.0412342045661261    0.0
                        0.2646345561305423        0.0412120575029460    0.0
                        0.2782572382043191        0.0411894994186003    0.0
                        0.2933605680071586        0.0411665001326575    0.0
                        0.3099623437812649        0.0411430252214409    0.0
                        0.3280398851906708        0.0411190347715141    0.0
                        0.3475232718790154        0.0410944816862501    0.0
                        0.3682907931336390        0.0410693095135231    0.0
                        0.3901676574989001        0.0410434497459363    0.0
                        0.4129287901911906        0.0410168185837726    0.0
                        0.4363061025532066        0.0409893129789726    0.0
                        0.4600000000000000        0.0409608032610796    0.0
                        0.1765597265847560        0.0429221644849531    0.0
                        0.1778977803060310        0.0426842521015820    0.0
                        0.1790877453258873        0.0424517803077927    0.0
                        0.1801898555707528        0.0422567700083063    0.0
                        0.1812976074253644        0.0420992446290499    0.0
                        0.1824942858015983        0.0419756384071615    0.0
                        0.1838539836728811        0.0418842847865178    0.0
                        0.1854475424618744        0.0418239195831026    0.0
                        0.1873465162255322        0.0417905261781528    0.0
                        0.1896267544964930        0.0417753188183471    0.0
                        0.1923743941809543        0.0417654891411015    0.0
                        0.1956891884873343        0.0417504698396467    0.0
                        0.1996678494522153        0.0417299951306419    0.0
                        0.2043847218694052        0.0417080250597329    0.0
                        0.2099022616928171        0.0416860537221175    0.0
                        0.2162920204717840        0.0416640445669007    0.0
                        0.2236416819366260        0.0416418013329600    0.0
                        0.2320506504053173        0.0416192292696776    0.0
                        0.2416226452533695        0.0415962885079321    0.0
                        0.2524586192060244        0.0415729529228973    0.0
                        0.2646499949576422        0.0415491963645083    0.0
                        0.2782715444872601        0.0415249893504577    0.0
                        0.2933736304216827        0.0415002980130989    0.0
                        0.3099740520218159        0.0414750831192279    0.0
                        0.3280501332802615        0.0414492987315748    0.0
                        0.3475319620008118        0.0414228903780531    0.0
                        0.3682978397561150        0.0413957926500694    0.0
                        0.3901729915287048        0.0413679261129635    0.0
                        0.4129323628341439        0.0413391934194168    0.0
                        0.4363078885515891        0.0413094743108524    0.0
                        0.4600000000000000        0.0412786168830222    0.0
                        0.1763267510839644        0.0429706689753771    0.0
                        0.1774634839598178        0.0428342098027733    0.0
                        0.1786627879506992        0.0426461575880662    0.0
                        0.1798118605091824        0.0424743114188522    0.0
                        0.1809660212052042        0.0423308847216358    0.0
                        0.1822047457156123        0.0422161468899679    0.0
                        0.1836052793157581        0.0421299975151548    0.0
                        0.1852411430927996        0.0420724924138152    0.0
                        0.1871847997001834        0.0420408363218107    0.0
                        0.1895112408666526        0.0420270875779358    0.0
                        0.1923037201894627        0.0420189389940607    0.0
                        0.1956566933759939        0.0420061510787954    0.0
                        0.1996617818996469        0.0419884487580340    0.0
                        0.2043929745841503        0.0419694985318062    0.0
                        0.2099165113677103        0.0419506128991485    0.0
                        0.2163080633416363        0.0419317195847602    0.0
                        0.2236578509097982        0.0419126248953443    0.0
                        0.2320663946284596        0.0418932371173310    0.0
                        0.2416377854121214        0.0418735174937811    0.0
                        0.2524730644242840        0.0418534402930324    0.0
                        0.2646636613222454        0.0418329792278785    0.0
                        0.2782843381258696        0.0418121039585662    0.0
                        0.2933854464900719        0.0417907788020542    0.0
                        0.3099847770527289        0.0417689614923687    0.0
                        0.3280596484962662        0.0417466015289493    0.0
                        0.3475401472281371        0.0417236379359937    0.0
                        0.3683045778136730        0.0416999962936523    0.0
                        0.3901781729113104        0.0416755848263559    0.0
                        0.4129358904314600        0.0416502892795266    0.0
                        0.4363096820990371        0.0416239660310765    0.0
                        0.4600000000000000        0.0415964305049648    0.0
                        0.1761767756834033        0.0430014139796256    0.0
                        0.1771168648427140        0.0429381997445890    0.0
                        0.1782841254512984        0.0427945531942030    0.0
                        0.1794774748026902        0.0426406709396339    0.0
                        0.1806882979423692        0.0425026300435053    0.0
                        0.1819757034984049        0.0423889251935283    0.0
                        0.1834165624578155        0.0423029265322371    0.0
                        0.1850884651253343        0.0422459289698920    0.0
                        0.1870669082134521        0.0422154920466716    0.0
                        0.1894279044533248        0.0422036293240795    0.0
                        0.1922534517061647        0.0421979411933251    0.0
                        0.1956343735004947        0.0421882290154880    0.0
                        0.1996586676364396        0.0421741519274315    0.0
                        0.2044002123158261        0.0421591644202897    0.0
                        0.2099280725669036        0.0421444637020038    0.0
                        0.2163209129369484        0.0421299707961032    0.0
                        0.2236707906626286        0.0421155163687483    0.0
                        0.2320790380388080        0.0421010358396694    0.0
                        0.2416500160646237        0.0420865188415235    0.0
                        0.2524848270573568        0.0420719712608338    0.0
                        0.2646749003646400        0.0420574029917097    0.0
                        0.2782949841053322        0.0420428255162772    0.0
                        0.2933954142992117        0.0420282518415749    0.0
                        0.3099939666251236        0.0420136968255569    0.0
                        0.3280679460699460        0.0419991775718351    0.0
                        0.3475474269293131        0.0419847139029000    0.0
                        0.3683107034684856        0.0419703290413441    0.0
                        0.3901829999231885        0.0419560506876465    0.0
                        0.4129392674461270        0.0419419128398368    0.0
                        0.4363114520490843        0.0419279587893869    0.0
                        0.4600000000000000        0.0419142441269075    0.0
                        0.1759808273361409        0.0430412675079318    0.0
                        0.1768057386425568        0.0430195846597870    0.0
                        0.1778927439870277        0.0429271777346103    0.0
                        0.1790837441356364        0.0428095643707451    0.0
                        0.1803333526710474        0.0426934964808704    0.0
                        0.1816707237746490        0.0425924248698057    0.0
                        0.1831611487902505        0.0425137931101335    0.0
                        0.1848813368470529        0.0424613137376810    0.0
                        0.1869079761249759        0.0424338376053695    0.0
                        0.1893168157472418        0.0424241486889456    0.0
                        0.1921872279728463        0.0424206341605505    0.0
                        0.1956050533175396        0.0424138373273554    0.0
                        0.1996540935005965        0.0424033840647927    0.0
                        0.2044087237327054        0.0423922925251128    0.0
                        0.2099419576755108        0.0423815707458974    0.0
                        0.2163363500669392        0.0423711342870580    0.0
                        0.2236862815905838        0.0423608366925654    0.0
                        0.2320940982000456        0.0423506269289222    0.0
                        0.2416644964706730        0.0423405020008440    0.0
                        0.2524986559503238        0.0423304733615489    0.0
                        0.2646880084049878        0.0423205561142038    0.0
                        0.2783072886971724        0.0423107668288703    0.0
                        0.2934068185742741        0.0423011234177795    0.0
                        0.3100043615315910        0.0422916453425201    0.0
                        0.3280772133614108        0.0422823538594168    0.0
                        0.3475554427398220        0.0422732723034849    0.0
                        0.3683173423787297        0.0422644265031373    0.0
                        0.3901881393633312        0.0422558454587297    0.0
                        0.4129427921934327        0.0422475625263515    0.0
                        0.4363132585147942        0.0422396173907120    0.0
                        0.4600000000000000        0.0422320577488501    0.0
                        0.1757677366935262        0.0430842447412007    0.0
                        0.1765227932433941        0.0430837857516933    0.0
                        0.1775220575947460        0.0430345019190484    0.0
                        0.1786753930720618        0.0429588202329625    0.0
                        0.1799385872073286        0.0428752814713729    0.0
                        0.1813191971879773        0.0427965507356280    0.0
                        0.1828639720686262        0.0427321230340132    0.0
                        0.1846414936070675        0.0426881434552648    0.0
                        0.1867260959547939        0.0426653393964026    0.0
                        0.1891916501296465        0.0426580223784282    0.0
                        0.1921138956026363        0.0426563052983584    0.0
                        0.1955731421770642        0.0426522216062885    0.0
                        0.1996492673979615        0.0426453936344793    0.0
                        0.2044179492168187        0.0426381826514469    0.0
                        0.2099568589743946        0.0426313455952347    0.0
                        0.2163528386426357        0.0426248033641038    0.0
                        0.2237027680424845        0.0426184417112060    0.0
                        0.2321100727121173        0.0426122234339952    0.0
                        0.2416798050299936        0.0426061488288664    0.0
                        0.2525132263216480        0.0426002292195530    0.0
                        0.2647017712655930        0.0425944784831619    0.0
                        0.2783201614500831        0.0425889112797359    0.0
                        0.2934187046618028        0.0425835428702457    0.0
                        0.3100151530190677        0.0425783891832978    0.0
                        0.3280867944492819        0.0425734668962208    0.0
                        0.3475636938524889        0.0425687935284832    0.0
                        0.3683241447056708        0.0425643876071120    0.0
                        0.3901933796649371        0.0425602689905658    0.0
                        0.4129463675955191        0.0425564595030897    0.0
                        0.4363150809558797        0.0425529840464946    0.0
                        0.4600000000000000        0.0425498713707927    0.0
                        0.1755272734862150        0.0431322918591272    0.0
                        0.1762555526660823        0.0431373305939853    0.0
                        0.1771761491957286        0.0431192702763945    0.0
                        0.1782655962841212        0.0430848163257663    0.0
                        0.1795086999314357        0.0430420430247935    0.0
                        0.1809128249005790        0.0429977610194987    0.0
                        0.1825102363928485        0.0429587854593202    0.0
                        0.1843547000745319        0.0429309754911427    0.0
                        0.1865108868282563        0.0429164232467985    0.0
                        0.1890462443307921        0.0429120392034046    0.0
                        0.1920304854159566        0.0429114907711147    0.0
                        0.1955375609526880        0.0429097043310249    0.0
                        0.1996440330820566        0.0429063866095419    0.0
                        0.2044281097897011        0.0429029064592471    0.0
                        0.2099731173674222        0.0428996819565257    0.0
                        0.2163707352000891        0.0428966580623638    0.0
                        0.2237205860600371        0.0428937675844345    0.0
                        0.2321272665702984        0.0428909891898420    0.0
                        0.2416962130584918        0.0428883229866393    0.0
                        0.2525287752487222        0.0428857751248879    0.0
                        0.2647163918718647        0.0428833529094799    0.0
                        0.2783337717010499        0.0428810637590005    0.0
                        0.2934312094427434        0.0428789150697159    0.0
                        0.3100264473247235        0.0428769142210715    0.0
                        0.3280967674964505        0.0428750685883476    0.0
                        0.3475722337067878        0.0428733855613251    0.0
                        0.3683311432544286        0.0428718725993712    0.0
                        0.3901987377051506        0.0428705373667258    0.0
                        0.4129499997221294        0.0428693880212546    0.0
                        0.4363169198876530        0.0428684337329523    0.0
                        0.4600000000000000        0.0428676849927353    0.0
                        0.1752581612855932        0.0431854986146780    0.0
                        0.1759926025005210        0.0431854986146780    0.0
                        0.1768557937949856        0.0431854986146780    0.0
                        0.1778698054111896        0.0431854986146780    0.0
                        0.1790602995796309        0.0431854986146780    0.0
                        0.1804570419729954        0.0431854986146780    0.0
                        0.1820944575537871        0.0431854986146780    0.0
                        0.1840122226779839        0.0431854986146780    0.0
                        0.1862558789055535        0.0431854986146780    0.0
                        0.1888774452125176        0.0431854986146780    0.0
                        0.1919359936980526        0.0431854986146780    0.0
                        0.1954981389930915        0.0431854986146780    0.0
                        0.1996383731569391        0.0431854986146780    0.0
                        0.2044391560551664        0.0431854986146780    0.0
                        0.2099906469234676        0.0431854986146780    0.0
                        0.2163899380511304        0.0431854986146780    0.0
                        0.2237396299091026        0.0431854986146780    0.0
                        0.2321455743699012        0.0431854986146780    0.0
                        0.2417136171183263        0.0431854986146780    0.0
                        0.2525452023748324        0.0431854986146780    0.0
                        0.2647317742220215        0.0431854986146780    0.0
                        0.2783480293382082        0.0431854986146780    0.0
                        0.2934442504140444        0.0431854986146780    0.0
                        0.3100381713142227        0.0431854986146780    0.0
                        0.3281070703531067        0.0431854986146780    0.0
                        0.3475810123889256        0.0431854986146780    0.0
                        0.3683383009881903        0.0431854986146780    0.0
                        0.3902041890970123        0.0431854986146780    0.0
                        0.4129536754919051        0.0431854986146780    0.0
                        0.4363187708558038        0.0431854986146780    0.0
                        0.4600000000000000        0.0431854986146780    0.0
                </DataArray>
            </Points>
            <PointData>
                <DataArray type="Float32" Name="orthogonality" NumberOfComponents="1" format="ascii">
                        0.9982241851315367
                        0.9991120668415048
                        0.9979757963408705
                        0.9940098503054505
                        0.9861232731612545
                        0.9713812128140758
                        0.9434887519091251
                        0.8923213496716948
                        0.8059810364169711
                        0.6740483155917308
                        0.4963300973478357
                        0.3078346611970965
                        0.1677147351510100
                        0.0932498938330938
                        0.0625696184571185
                        0.0523893783533634
                        0.0495436787076241
                        0.0484906127193751
                        0.0474057577066272
                        0.0458352938516565
                        0.0437140900866061
                        0.0410602708935563
                        0.0379050227200466
                        0.0342825166581730
                        0.0302310738788276
                        0.0257954443220548
                        0.0210284910398777
                        0.0159919341431957
                        0.0107560281222220
                        0.0053981605401515
                        0.0000000000000000
                        0.9972191825572278
                        0.9986440977237438
                        0.9966064985010633
                        0.9914557436920815
                        0.9816191134878771
                        0.9632387557462784
                        0.9295058515892260
                        0.8714632707348385
                        0.7801907906475335
                        0.6483205503873469
                        0.4773082330106822
                        0.2988262775455575
                        0.1652905781875720
                        0.0931913674948504
                        0.0630638238174114
                        0.0529194344867647
                        0.0499881014046887
                        0.0488360875694186
                        0.0476668592754549
                        0.0460309376672866
                        0.0438613044660965
                        0.0411730508732441
                        0.0379943736736442
                        0.0343566888584811
                        0.0302958061571219
                        0.0258542064880921
                        0.0210827388946737
                        0.0160413902184439
                        0.0107989951418053
                        0.0054318093911050
                        0.0000202992343376
                        0.9966256531577953
                        0.9983426482693827
                        0.9956075825148659
                        0.9891010868559974
                        0.9760775520535335
                        0.9515710997164581
                        0.9093159219734691
                        0.8436449716124185
                        0.7491783521996818
                        0.6200048579220640
                        0.4575528205486997
                        0.2897109761789790
                        0.1629120240442535
                        0.0932700322143162
                        0.0637378623646256
                        0.0536353619246354
                        0.0506094430054862
                        0.0493460142262988
                        0.0480803463006930
                        0.0463681608953148
                        0.0441405458678976
                        0.0414094003779027
                        0.0381997876926960
                        0.0345402631560733
                        0.0304640543293819
                        0.0260113307778380
                        0.0212309074896531
                        0.0161810343621421
                        0.0109291331253452
                        0.0055503387771111
                        0.0001235916316371
                        0.9973830046929266
                        0.9979866871264446
                        0.9944253222806956
                        0.9858658705723600
                        0.9682599701641477
                        0.9363421237531863
                        0.8861242017126879
                        0.8153772098739179
                        0.7201939662188497
                        0.5947444742337056
                        0.4403004172119144
                        0.2818324830335209
                        0.1610514770327349
                        0.0936996479269724
                        0.0647366951819115
                        0.0546548414880445
                        0.0515074724303825
                        0.0501056550343156
                        0.0487190944704342
                        0.0469091709872617
                        0.0446048770153815
                        0.0418146352206319
                        0.0385601428848755
                        0.0348669237888895
                        0.0307654992708473
                        0.0262936339911969
                        0.0214980318776611
                        0.0164351347321113
                        0.0111708794218708
                        0.0057792044046074
                        0.0003367035681841
                        0.9990845150909576
                        0.9976829106635495
                        0.9930388256683724
                        0.9815484286261139
                        0.9582171755918150
                        0.9188793041811589
                        0.8626438917381930
                        0.7891568562254246
                        0.6944010195237501
                        0.5724212078037997
                        0.4245723357790124
                        0.2737872603248019
                        0.1581893725370730
                        0.0930430946527741
                        0.0647941231570815
                        0.0548969664493331
                        0.0517708069233680
                        0.0503494545310163
                        0.0489402332248673
                        0.0471136931247378
                        0.0447998564649395
                        0.0420063667661612
                        0.0387538837412139
                        0.0350669233866868
                        0.0309750761160045
                        0.0265152777855371
                        0.0217335443246213
                        0.0166858270106759
                        0.0114378449478037
                        0.0060636251629591
                        0.0006378059526567
                        0.9999994362454799
                        0.9972540346934787
                        0.9902533357369223
                        0.9729530477205850
                        0.9409026761490340
                        0.8937735205146847
                        0.8336932477376854
                        0.7601254233829600
                        0.6681353328843927
                        0.5516805839200534
                        0.4120507077542664
                        0.2698348973614315
                        0.1595552921485678
                        0.0962772677560668
                        0.0682263911532678
                        0.0579875367539935
                        0.0544124026568781
                        0.0525739471347973
                        0.0508133238265451
                        0.0487006277659914
                        0.0461570491215466
                        0.0431809103953542
                        0.0397847920806446
                        0.0359865277329884
                        0.0318103235360487
                        0.0272889634279480
                        0.0224655698724893
                        0.0173946159146610
                        0.0121421163571921
                        0.0067848146344378
                        0.0013849569266865
                        0.9998667347782662
                        0.9965084611623096
                        0.9860937871970346
                        0.9626452948281054
                        0.9239308803594488
                        0.8721104061837812
                        0.8100177538399396
                        0.7369504229660006
                        0.6480414919708971
                        0.5375384041577586
                        0.4064160348860813
                        0.2726295845307618
                        0.1671226446547094
                        0.1049043546436817
                        0.0761668109725161
                        0.0647635903858951
                        0.0600326654235977
                        0.0571898391188377
                        0.0545951970908717
                        0.0518000065184039
                        0.0486998549657238
                        0.0452695339497653
                        0.0415016525041654
                        0.0373973199319041
                        0.0329666955170918
                        0.0282306667318044
                        0.0232221506704454
                        0.0179866920015116
                        0.0125822508023738
                        0.0070778807056204
                        0.0015279610857705
                        0.9999177912642177
                        0.9948476081233308
                        0.9797246344806417
                        0.9502721533563830
                        0.9059418872229327
                        0.8493475507074073
                        0.7832314630156273
                        0.7076920078163970
                        0.6192569891880203
                        0.5132271034394524
                        0.3904772047465866
                        0.2662802156369115
                        0.1674088510406747
                        0.1079296008233795
                        0.0797033695162105
                        0.0679759136192429
                        0.0627173752756029
                        0.0593665702191264
                        0.0563409847933430
                        0.0531939136432512
                        0.0498093577687725
                        0.0461493911060803
                        0.0421954221543705
                        0.0379390595915847
                        0.0333824200651093
                        0.0285395496597027
                        0.0234375057845834
                        0.0181167666302282
                        0.0126308463371309
                        0.0070447390017985
                        0.0014104229295233
                        0.9999006901946164
                        0.9907607933755280
                        0.9702612292950657
                        0.9341461383307756
                        0.8823710775163546
                        0.8179916256353736
                        0.7450340681050638
                        0.6654436808701079
                        0.5771765702979327
                        0.4762181099895822
                        0.3630721388348261
                        0.2502443867097042
                        0.1600666743961705
                        0.1050988446531978
                        0.0786563597945851
                        0.0675046349345359
                        0.0623956570141679
                        0.0590749430277745
                        0.0560574754173111
                        0.0529202294746843
                        0.0495502827567848
                        0.0459084706253762
                        0.0419744581605654
                        0.0377382582502750
                        0.0332005999252096
                        0.0283743375796036
                        0.0232855218664954
                        0.0179738014157293
                        0.0124920243495620
                        0.0069046021820824
                        0.0012645946194338
                        0.9986429867308568
                        0.9843296830171216
                        0.9577827541737415
                        0.9138421178797134
                        0.8530289172803195
                        0.7798647665576971
                        0.7004754859567976
                        0.6182523927586737
                        0.5316666118594494
                        0.4368162917900013
                        0.3336818308748741
                        0.2323227826717259
                        0.1511292149877052
                        0.1010991411713623
                        0.0767724133551666
                        0.0664067771155700
                        0.0615856857412079
                        0.0583960088006726
                        0.0554654241485937
                        0.0524010323306982
                        0.0490964824457685
                        0.0455138459568294
                        0.0416330153592119
                        0.0374440260515726
                        0.0329475580068685
                        0.0281563852348185
                        0.0230964782190642
                        0.0178074330522509
                        0.0123420887732836
                        0.0067648469737879
                        0.0011302860228739
                        0.9959691051521321
                        0.9758950464115158
                        0.9422179747042032
                        0.8891913910199378
                        0.8185342975186111
                        0.7371452442291446
                        0.6531579878707625
                        0.5703659208154941
                        0.4869221973865195
                        0.3987597207926926
                        0.3053895900000494
                        0.2148805875626447
                        0.1423133153383977
                        0.0971797067959253
                        0.0749992507907343
                        0.0654274235931119
                        0.0608835324546897
                        0.0578092457686293
                        0.0549505422115739
                        0.0519459265673453
                        0.0486956015937830
                        0.0451626172287802
                        0.0413268436249951
                        0.0371781324537844
                        0.0327169475563886
                        0.0279558452670151
                        0.0229205994441556
                        0.0176506501066818
                        0.0121987299262815
                        0.0066291441204420
                        0.0009978975743885
                        0.9915141781488404
                        0.9647650624999142
                        0.9225980825862555
                        0.8589392199559138
                        0.7777528755324915
                        0.6890866748458002
                        0.6024578794718235
                        0.5209789695521404
                        0.4419500014005404
                        0.3610371453065214
                        0.2773649955811369
                        0.1973585079268270
                        0.1332528056969187
                        0.0930713587258389
                        0.0731240085569974
                        0.0643952449929398
                        0.0601511309342677
                        0.0572036028671669
                        0.0544237332202250
                        0.0514836502683265
                        0.0482908724650181
                        0.0448098145346137
                        0.0410206034810148
                        0.0369131352428233
                        0.0324878477744542
                        0.0277572379234250
                        0.0227470126202602
                        0.0174965595381956
                        0.0120585847575810
                        0.0064973640359603
                        0.0008703539076027
                        0.9849815406992378
                        0.9503585897979180
                        0.8978969349780324
                        0.8219939086946062
                        0.7302424784260196
                        0.6360309089498928
                        0.5490210068410627
                        0.4706537429092223
                        0.3971315578171743
                        0.3238945575627699
                        0.2498028739192246
                        0.1799453921323148
                        0.1241051683304777
                        0.0888833497324068
                        0.0712209682946652
                        0.0633643577367497
                        0.0594303148676554
                        0.0566122956609940
                        0.0539115656313107
                        0.0510354514353903
                        0.0478992380615205
                        0.0444688845296098
                        0.0407248929370670
                        0.0366573007997781
                        0.0322666033138269
                        0.0275653078336391
                        0.0225791110080189
                        0.0173473908261633
                        0.0119228548433971
                        0.0063697709601550
                        0.0007470351607555
                        0.9757984927871257
                        0.9316411829531195
                        0.8665520815938169
                        0.7769120107106981
                        0.6753985648346192
                        0.5780579754298293
                        0.4930652701656157
                        0.4194813081800377
                        0.3524196316599540
                        0.2872214663766194
                        0.2226171332113582
                        0.1626186120712286
                        0.1148767387263081
                        0.0846167991216629
                        0.0692830873281724
                        0.0623251607652817
                        0.0587120685368132
                        0.0560277441548831
                        0.0534078845204659
                        0.0505963926980322
                        0.0475167668422724
                        0.0441367224478582
                        0.0404372882912280
                        0.0364087692659450
                        0.0320518247385182
                        0.0273790625617904
                        0.0224162427581828
                        0.0172027909835009
                        0.0117914572599058
                        0.0062465341318057
                        0.0006283513085720
                        0.9630342375437460
                        0.9070309191056978
                        0.8264245284852574
                        0.7221005497156788
                        0.6128171151197311
                        0.5154364610854518
                        0.4349240581270227
                        0.3676553407138213
                        0.3078756335443135
                        0.2510127939928400
                        0.1958070840519588
                        0.1454129350169082
                        0.1056115910525218
                        0.0803000111986342
                        0.0673239976808446
                        0.0612842521700282
                        0.0580002970405859
                        0.0554527462281743
                        0.0529148776554725
                        0.0501682320661216
                        0.0471448843485411
                        0.0438144909446775
                        0.0401587434532505
                        0.0361683285199515
                        0.0318441676150997
                        0.0271990519911188
                        0.0222588731736299
                        0.0170631575845300
                        0.0116647354827843
                        0.0061279534512352
                        0.0005145641637491
                        0.9450280487166307
                        0.8739571894652730
                        0.7745291799166435
                        0.6558227708231429
                        0.5422704515054452
                        0.4485146247110133
                        0.3749211828788023
                        0.3153443731673331
                        0.2635456386170803
                        0.2152585405949134
                        0.1693694357423890
                        0.1283575696282638
                        0.0963481604970332
                        0.0759575920538402
                        0.0653548877885545
                        0.0602464273718674
                        0.0572975192970314
                        0.0548890313567385
                        0.0524339174948835
                        0.0497521156378117
                        0.0467845681620220
                        0.0435030372481874
                        0.0398900045738493
                        0.0359366468414774
                        0.0316442409997531
                        0.0270258411812879
                        0.0221075360837247
                        0.0169290043501786
                        0.0115431932838177
                        0.0060145317968839
                        0.0004061801419322
                        0.9187207906934333
                        0.8281712129711566
                        0.7068473876713876
                        0.5764463074296909
                        0.4638864870959795
                        0.3778271590524140
                        0.3134636330507150
                        0.2627708771004451
                        0.2195236805340034
                        0.1799924240005592
                        0.1433348694723052
                        0.1115031909552029
                        0.0871384245405229
                        0.0716241203988529
                        0.0633947930986833
                        0.0592227708249584
                        0.0566113546775669
                        0.0543424914630739
                        0.0519697821575567
                        0.0493519794118953
                        0.0464390832842974
                        0.0432050851660136
                        0.0396333576346568
                        0.0357156553298349
                        0.0314536876927381
                        0.0268608380623216
                        0.0219634474500259
                        0.0168013897917500
                        0.0114277595677448
                        0.0059070902984648
                        0.0003039242206570
                        0.8781693505775221
                        0.7625344590166383
                        0.6183579875264336
                        0.4829107617688188
                        0.3783533448906952
                        0.3041776473333009
                        0.2510925269015706
                        0.2102455613116430
                        0.1759741632985111
                        0.1453062881717051
                        0.1177780786348020
                        0.0949298873064008
                        0.0780541122047987
                        0.0673489183886023
                        0.0614744104187489
                        0.0582337767038387
                        0.0559570859790693
                        0.0538252856485496
                        0.0515323841590517
                        0.0489759699469839
                        0.0461151502145389
                        0.0429261957002754
                        0.0393934181314086
                        0.0355091960849167
                        0.0312757144655361
                        0.0267067244129261
                        0.0218288517632064
                        0.0166821902902314
                        0.0113199964993165
                        0.0058069173466878
                        0.0002088328715091
                        0.8110311735226129
                        0.6652150706652005
                        0.5039219303651627
                        0.3755728954252400
                        0.2872167597792065
                        0.2287770155767609
                        0.1885787424225675
                        0.1582386717179754
                        0.1331847736019546
                        0.1113891422185899
                        0.0928469474463637
                        0.0787694010515498
                        0.0692036344843596
                        0.0632091292408482
                        0.0596465165042978
                        0.0573177926262296
                        0.0553645351386949
                        0.0533614425269209
                        0.0511413334624355
                        0.0486401579826297
                        0.0458259634182717
                        0.0426772153703768
                        0.0391791101461728
                        0.0353246130326160
                        0.0311163592218027
                        0.0265684503000798
                        0.0217077833133348
                        0.0165746581266463
                        0.0112224759656641
                        0.0057159779169684
                        0.0001223038478809
                        0.6899272338833687
                        0.5185243497703711
                        0.3611366974822367
                        0.2573924646344554
                        0.1932235377430937
                        0.1534224413372454
                        0.1270535717056786
                        0.1074785504573882
                        0.0916404854073209
                        0.0785830527391615
                        0.0688056919855566
                        0.0632393906896017
                        0.0607597694916763
                        0.0593323747609478
                        0.0580046286850537
                        0.0565463460145790
                        0.0548905940150856
                        0.0529970758948108
                        0.0508342514867665
                        0.0483752943717257
                        0.0455966700285519
                        0.0424787055591964
                        0.0390072302654612
                        0.0351755979972178
                        0.0309867367142256
                        0.0264549718524805
                        0.0216073673948290
                        0.0164843396390470
                        0.0111393527766924
                        0.0056371662280310
                        0.0000460406027816
                        0.4563292567189990
                        0.3050588249246039
                        0.1953821281692747
                        0.1346816774594072
                        0.1003363869806759
                        0.0804810733185658
                        0.0679995509186764
                        0.0589419901146640
                        0.0520133337793824
                        0.0473754360746044
                        0.0460328140782241
                        0.0486483642127944
                        0.0529700792956927
                        0.0559095944250008
                        0.0566956233923227
                        0.0560352038068406
                        0.0546284172975560
                        0.0528078623460286
                        0.0506727984926341
                        0.0482316401546897
                        0.0454682154557658
                        0.0423639769089642
                        0.0389048101017308
                        0.0350839923744942
                        0.0309043667703150
                        0.0263801736295779
                        0.0215383876105824
                        0.0164193237938972
                        0.0110763181079088
                        0.0055739761468451
                        0.0000185554401879
                        0.0508865718541767
                        0.0316482993532865
                        0.0197084907439200
                        0.0136618121273435
                        0.0111866375982926
                        0.0110922359815915
                        0.0119200866301803
                        0.0128397910054233
                        0.0143808399525101
                        0.0178006399993409
                        0.0245725881147591
                        0.0350681694281355
                        0.0459193500962257
                        0.0530182976063438
                        0.0557828523727252
                        0.0558349889730570
                        0.0546185918580319
                        0.0528264506729346
                        0.0506832356087594
                        0.0482302698395575
                        0.0454574451434080
                        0.0423464146037110
                        0.0388823902273775
                        0.0350579819413214
                        0.0308754663790767
                        0.0263486038426178
                        0.0215039516846941
                        0.0163814456000919
                        0.0110340500346510
                        0.0055259981726806
                        0.0000729461436722
                        0.3801584978630659
                        0.2481708397521083
                        0.1565830563971448
                        0.1070217788979493
                        0.0775684969959577
                        0.0579998459712044
                        0.0439436759755295
                        0.0330762674412186
                        0.0230508516400012
                        0.0115324151333768
                        0.0033920604493980
                        0.0217638270222695
                        0.0390851680590908
                        0.0502686172720811
                        0.0549598873216434
                        0.0556979745385283
                        0.0546586439221369
                        0.0528867296267076
                        0.0507290764483566
                        0.0482589304480822
                        0.0454719636914166
                        0.0423499248032182
                        0.0388772948529874
                        0.0350459792023611
                        0.0308576637440297
                        0.0263256127503680
                        0.0214759544543715
                        0.0163482334185840
                        0.0109950271883536
                        0.0054801761600318
                        0.0001259782059848
                        0.6453222989512529
                        0.4743883896308141
                        0.3251935986406902
                        0.2299210703735378
                        0.1701621476211884
                        0.1306973223379914
                        0.1028272179611717
                        0.0814106700500246
                        0.0623435130477687
                        0.0422158785525895
                        0.0186916269806701
                        0.0078882531259358
                        0.0318590974627603
                        0.0472026780790853
                        0.0538655261660936
                        0.0553318770830264
                        0.0545096817535689
                        0.0527927640015344
                        0.0506493897823635
                        0.0481853225024060
                        0.0454029306705948
                        0.0422849232980255
                        0.0388157892628707
                        0.0349873478965389
                        0.0308012113600752
                        0.0262705805453650
                        0.0214215168930098
                        0.0162934771811908
                        0.0109389058716280
                        0.0054214644343990
                        0.0001876992665784
                        0.7832858069518437
                        0.6326131882885336
                        0.4729304139836237
                        0.3497853587043652
                        0.2648429174683871
                        0.2065459435988216
                        0.1647555248010549
                        0.1323613339402778
                        0.1037320391440463
                        0.0744470400809232
                        0.0417991091540876
                        0.0066024631210417
                        0.0242407799120209
                        0.0438318087721352
                        0.0525102520576466
                        0.0547444901583744
                        0.0541773288222211
                        0.0525485650664420
                        0.0504469500010167
                        0.0480112461833386
                        0.0452513691515201
                        0.0421518081771220
                        0.0386977641049360
                        0.0348815609704536
                        0.0307052314557733
                        0.0261823268146851
                        0.0213391879967270
                        0.0162154734186797
                        0.0108637357928545
                        0.0053476593294380
                        0.0002605709191862
                        0.8590777258643612
                        0.7380690919147082
                        0.5925545722412482
                        0.4597330379939852
                        0.3574924838328421
                        0.2831393432063818
                        0.2282500053256047
                        0.1849728278558039
                        0.1465652063621586
                        0.1077463494976209
                        0.0655434081591576
                        0.0213832818482126
                        0.0164914739717803
                        0.0403559010384291
                        0.0510473453516019
                        0.0540566404685382
                        0.0537588294498624
                        0.0522331061593011
                        0.0501860592662894
                        0.0477890651240370
                        0.0450598832292806
                        0.0419851833777391
                        0.0385512436826355
                        0.0347512054898007
                        0.0305877866804774
                        0.0260751121434312
                        0.0212399893718542
                        0.0161224331280843
                        0.0107752298768302
                        0.0052621857739751
                        0.0003433469649831
                        0.9045994511823289
                        0.8091398922153586
                        0.6854331256789396
                        0.5561065585763219
                        0.4450230096833938
                        0.3585069640661764
                        0.2920918606522561
                        0.2384761033759492
                        0.1903353545683989
                        0.1417469023203514
                        0.0896261802788189
                        0.0362023265188084
                        0.0088073634206236
                        0.0369168728587694
                        0.0495804914759787
                        0.0533479906818188
                        0.0533177486672748
                        0.0518979683541844
                        0.0499088045167733
                        0.0475531683008172
                        0.0448565760801541
                        0.0418080040015821
                        0.0383949543680156
                        0.0346115198406701
                        0.0304612210502097
                        0.0259588579879494
                        0.0211317901814935
                        0.0160204579085063
                        0.0106779337481407
                        0.0051681805211695
                        0.0004342216517667
                        0.9341501499092017
                        0.8586408862436840
                        0.7565021784323819
                        0.6381049219417461
                        0.5255986075384433
                        0.4312878003777398
                        0.3554481445355771
                        0.2923880111791581
                        0.2347579662604239
                        0.1762547328511790
                        0.1138783674834421
                        0.0509036903313421
                        0.0013101555524791
                        0.0335971715015835
                        0.0481655724964941
                        0.0526595471431616
                        0.0528862384442876
                        0.0515691529595377
                        0.0496364371511777
                        0.0473209831969290
                        0.0446557597287416
                        0.0416320344795254
                        0.0382385721229875
                        0.0344704622902268
                        0.0303320733815484
                        0.0258389220853233
                        0.0210189557503505
                        0.0159130677020825
                        0.0105746336701321
                        0.0050677766706862
                        0.0005316718783689
                        0.9545356854904771
                        0.8944016022553126
                        0.8109271451275176
                        0.7065776634856146
                        0.5983112938592522
                        0.5005585612420045
                        0.4177476484483003
                        0.3464207084173141
                        0.2797054767086533
                        0.2111988052292510
                        0.1382200709894908
                        0.0653941091404057
                        0.0059251573719083
                        0.0304430334860112
                        0.0468300821433438
                        0.0520096859663537
                        0.0524781581531340
                        0.0512577790933650
                        0.0493780763691145
                        0.0471000438340711
                        0.0444636816320905
                        0.0414624723763097
                        0.0380864363547667
                        0.0343316698077288
                        0.0302034045035466
                        0.0257178912462528
                        0.0209036810360560
                        0.0158021311981429
                        0.0104669237585126
                        0.0049623329834371
                        0.0006345533051740
                        0.9692170460364768
                        0.9210969874935178
                        0.8529307126043050
                        0.7630584926251238
                        0.6628193229378370
                        0.5656250380169777
                        0.4785216414400487
                        0.4003593518219770
                        0.3251147287297080
                        0.2465612401327959
                        0.1626075826611713
                        0.0796033793931842
                        0.0128413412858642
                        0.0274862565277998
                        0.0455901769670325
                        0.0514078168243007
                        0.0521001211927989
                        0.0509690357001500
                        0.0491379627354925
                        0.0468938609945715
                        0.0442832656698456
                        0.0413017653220691
                        0.0379406079329918
                        0.0341968894438959
                        0.0300767071925334
                        0.0255970526102078
                        0.0207870872603252
                        0.0156886361204111
                        0.0103556846633958
                        0.0048526438321247
                        0.0007421466977247
                        0.9800586208764027
                        0.9415907945149230
                        0.8857635861781070
                        0.8093634010059553
                        0.7192840367779205
                        0.6260845390404587
                        0.5374908908485314
                        0.4541575827267916
                        0.3710788550558179
                        0.2824551983349526
                        0.1870907299260600
                        0.0935223909339702
                        0.0194239288894811
                        0.0247269835283008
                        0.0444380636241069
                        0.0508446803737536
                        0.0517438512457024
                        0.0506961167032320
                        0.0489106479650682
                        0.0466981208027260
                        0.0441111253629845
                        0.0411472842740457
                        0.0377990797345456
                        0.0340646292807444
                        0.0299509217287635
                        0.0254757152169244
                        0.0206688050373752
                        0.0155725011530655
                        0.0102411013692057
                        0.0047391483723986
                        0.0008537666820205
                        0.9879925332726012
                        0.9575338554118098
                        0.9116331468184438
                        0.8469631290271668
                        0.7677158645644485
                        0.6811518014062837
                        0.5938774138791944
                        0.5073069237291889
                        0.4173120383848269
                        0.3186969155638759
                        0.2114913598014677
                        0.1069763790411728
                        0.0255450374377703
                        0.0222456236333208
                        0.0434268324637399
                        0.0503590338532191
                        0.0514394479707959
                        0.0504629713997684
                        0.0487153078877184
                        0.0465281738309896
                        0.0439595166419320
                        0.0410087717832669
                        0.0376695451583326
                        0.0339409030024476
                        0.0298306741485709
                        0.0253573461419688
                        0.0205513189530644
                        0.0154553614624110
                        0.0101240561338119
                        0.0046220403825736
                        0.0009698698841485
                        0.9938328368655864
                        0.9703158938424887
                        0.9326289627893749
                        0.8779594071595310
                        0.8094560169978661
                        0.7315810433178328
                        0.6484644011514538
                        0.5608306231501805
                        0.4649323574574958
                        0.3562762433528585
                        0.2365123543482898
                        0.1204010284339886
                        0.0314991461081555
                        0.0198162667910826
                        0.0423761590230112
                        0.0498059873330064
                        0.0510704105707326
                        0.0501760151681344
                        0.0484768977439878
                        0.0463239886083203
                        0.0437805829815991
                        0.0408482701431289
                        0.0375221281608895
                        0.0338024736752011
                        0.0296982301596195
                        0.0252288281345401
                        0.0204254499917233
                        0.0153314695295681
                        0.0100018714608799
                        0.0045014754149133
                        0.0010876110249332
                        0.9971423912373351
                        0.9796287339086753
                        0.9489539120635051
                        0.9021399025450538
                        0.8425034576510383
                        0.7733793369406254
                        0.6962879330398612
                        0.6098528883508377
                        0.5096680266463636
                        0.3916744452325549
                        0.2593985320789505
                        0.1317730807266597
                        0.0358608770452484
                        0.0184721312943619
                        0.0420758528788404
                        0.0498098546888193
                        0.0511370529425726
                        0.0502377236785783
                        0.0485191391274997
                        0.0463454740377673
                        0.0437823799502702
                        0.0408315822697940
                        0.0374880630340743
                        0.0337521241853903
                        0.0296327546099487
                        0.0251494858445930
                        0.0203335875628474
                        0.0152284556644491
                        0.0098889771518389
                        0.0043797062275957
                        0.0012163140152911
                        0.9974987252048478
                        0.9836829776856204
                        0.9603309248010451
                        0.9199935769422657
                        0.8657555706276883
                        0.8017382639108687
                        0.7286692851733440
                        0.6432855611594671
                        0.5398367017306573
                        0.4140695669094058
                        0.2711432188682322
                        0.1341960868854154
                        0.0334600450150713
                        0.0222160983871702
                        0.0457344025361441
                        0.0529909210868637
                        0.0537957491187494
                        0.0524274177640396
                        0.0503113667802092
                        0.0478060658051672
                        0.0449665989967392
                        0.0417847035158819
                        0.0382469556905404
                        0.0343467408556539
                        0.0300873521464716
                        0.0254835839367342
                        0.0205626905003352
                        0.0153645578471411
                        0.0099408664220887
                        0.0043530784912817
                        0.0013176531419737
                        0.9945667801568681
                        0.9844864252894717
                        0.9686396702096515
                        0.9365144099859550
                        0.8882302669545360
                        0.8270747533192184
                        0.7543131225799625
                        0.6667992228251908
                        0.5585024285331477
                        0.4249727368677837
                        0.2726116942087830
                        0.1283575277559554
                        0.0248623744817438
                        0.0306284185169477
                        0.0530502448437745
                        0.0591325001518929
                        0.0588944578326997
                        0.0566457208780375
                        0.0537984767311462
                        0.0506883260590220
                        0.0473480917466910
                        0.0437504174834257
                        0.0398660518567483
                        0.0356753412358769
                        0.0311708068897605
                        0.0263582684598889
                        0.0212573837079472
                        0.0159014363999078
                        0.0103361314599068
                        0.0046172102719694
                        0.0011800134074573
                        0.9849859597025632
                        0.9844009487346577
                        0.9748956479559563
                        0.9521293547979426
                        0.9130850485832505
                        0.8573246327978273
                        0.7858384738899591
                        0.6965713588531545
                        0.5838064476438423
                        0.4428059162008372
                        0.2809080914993002
                        0.1288484779368403
                        0.0218409483256705
                        0.0343352750915454
                        0.0564983739823760
                        0.0621385122042689
                        0.0614715141561162
                        0.0588480851453007
                        0.0556836220196024
                        0.0523074813924521
                        0.0487448571779260
                        0.0449616117968975
                        0.0409229485049103
                        0.0366048338987035
                        0.0319964411235806
                        0.0271011597330917
                        0.0219370592620491
                        0.0165366505608359
                        0.0109457257398436
                        0.0052211322735400
                        0.0005700977240395
                        0.9760040345825368
                        0.9837134495426184
                        0.9773792803980685
                        0.9604554796873173
                        0.9295691924371690
                        0.8813034545092423
                        0.8141359755364521
                        0.7257227009991839
                        0.6105361651815510
                        0.4635240729092152
                        0.2928330275575909
                        0.1331218671968550
                        0.0223905375604183
                        0.0348833318330731
                        0.0572500539964804
                        0.0628788388356393
                        0.0621557760992957
                        0.0594703184749050
                        0.0562471870425195
                        0.0528176030752547
                        0.0492067618095459
                        0.0453802403084802
                        0.0413030450303866
                        0.0369510967083076
                        0.0323136705545349
                        0.0273943888968081
                        0.0222116608124540
                        0.0167984138388406
                        0.0112008994518428
                        0.0054764358076309
                        0.0003089508066222
                        0.9723076206765905
                        0.9833959586157717
                        0.9792808034585233
                        0.9667119262757490
                        0.9432254785407290
                        0.9038068315319008
                        0.8434916012736580
                        0.7577204542996462
                        0.6404862934200315
                        0.4864525714182405
                        0.3050577770239007
                        0.1363009734147173
                        0.0215836410367477
                        0.0365769042426235
                        0.0589134265960797
                        0.0643538362253574
                        0.0634397795247169
                        0.0605838811227593
                        0.0572122215017658
                        0.0536537213849825
                        0.0499308610540481
                        0.0460068310954439
                        0.0418447014817968
                        0.0374188723687604
                        0.0327174490233258
                        0.0277431619911174
                        0.0225137293744395
                        0.0170615058568373
                        0.0114322000686143
                        0.0056825330195088
                        0.0001229410117175
                        0.9753744585985245
                        0.9835483822052683
                        0.9807076109006760
                        0.9710534765313817
                        0.9533486092879910
                        0.9225859532700267
                        0.8712674578010820
                        0.7910632157876199
                        0.6735857743537466
                        0.5125291411009976
                        0.3189923871042628
                        0.1399388917573574
                        0.0209309532796145
                        0.0380692968762949
                        0.0603369764143015
                        0.0655931469167362
                        0.0645096467834735
                        0.0615070583520816
                        0.0580078495951677
                        0.0543378206578567
                        0.0505170672211832
                        0.0465069071827890
                        0.0422689477270517
                        0.0377764711508418
                        0.0330167485213298
                        0.0279918938824376
                        0.0227191542044132
                        0.0172304800414190
                        0.0115711600268547
                        0.0057974047118173
                        0.0000270945781081
                        0.9811757433973498
                        0.9851337178499226
                        0.9832824211595480
                        0.9753144149719995
                        0.9609430506596670
                        0.9358042602713302
                        0.8917462033610688
                        0.8180417454790082
                        0.7030496400809607
                        0.5374897489738712
                        0.3328267391511839
                        0.1435828783662209
                        0.0203750550470067
                        0.0393796331475717
                        0.0615524521105356
                        0.0666318186679722
                        0.0653967605236046
                        0.0622663077888160
                        0.0586565100246703
                        0.0548895843029737
                        0.0509833975308425
                        0.0468976493905137
                        0.0425927225917078
                        0.0380409902942214
                        0.0332290730500602
                        0.0281586327377630
                        0.0228465947106806
                        0.0173246435544002
                        0.0116377776870339
                        0.0058418226592090
                        0.0000000000000000
                </DataArray>
                <DataArray type="Float32" Name="aspect_ratio" NumberOfComponents="1" format="ascii">
                        1.9159219793306125
                        2.4992029153274704
                        2.3807450000229650
                        2.1093759890273657
                        1.9964363183537762
                        2.0929069751687965
                        2.4410625234720193
                        3.1175438421144187
                        4.2166135612881258
                        5.8041783570856606
                        7.7990825819812325
                        9.8582766875206514
                       11.7206132356934901
                       13.5162762293406984
                       15.4281276084086716
                       17.5339648132783060
                       19.8588326835816130
                       22.4097438873291277
                       25.1829255583838875
                       28.1633249072147462
                       31.3226220717702645
                       34.6170997572581117
                       37.9860208632801163
                       41.3511142351437596
                       44.6177296644125849
                       47.6781070234311834
                       50.4169618086729708
                       52.7192082527873756
                       54.4791653773416333
                       55.6101440896779115
                       56.4276441021764081
                        2.0029465537619045
                        2.4880452929725773
                        2.2921050028277332
                        2.0920405564450252
                        2.0637676604773416
                        2.2358025170398221
                        2.6572966021616428
                        3.4116432437724611
                        4.5939263357891853
                        6.2648010451417362
                        8.3459741786254923
                       10.5239293611439140
                       12.5414405568748715
                       14.4909453015968765
                       16.5391391623286488
                       18.7675779607795136
                       21.2062199173379548
                       23.8629128295888320
                       26.7310979803425917
                       29.7906610282475665
                       33.0069514111954581
                       36.3293080549689537
                       39.6899902766116974
                       43.0042776107270904
                       46.1723362679837615
                       49.0832490169702695
                       51.6213116732123822
                       53.6742902352584100
                       55.1428557486868978
                       55.9499967949695713
                       56.4235754118967259
                        2.2583824864433818
                        2.5016780292256097
                        2.2294135743589828
                        2.0745894764050737
                        2.1185342094478144
                        2.3790383529276861
                        2.9061147339474666
                        3.7758904917103395
                        5.0715802971752087
                        6.8452697187116395
                        9.0262813031233567
                       11.3364910614227126
                       13.5263580763290428
                       15.6501626573943265
                       17.8556800269091298
                       20.2269699867353982
                       22.7985541663464021
                       25.5786712136742441
                       28.5572328271978740
                       31.7081012735405918
                       34.9892171006600297
                       38.3418675310914269
                       41.6902588203386180
                       44.9423294599127601
                       47.9924354637152339
                       50.7262450399967538
                       53.0278307826937083
                       54.7885090060129160
                       55.9165002832149874
                       56.3461049129575786
                       56.4195029080902643
                        2.7720921500590410
                        2.4714002992448778
                        2.1650399109432354
                        2.0728288951176540
                        2.1952027149138014
                        2.5467983740345409
                        3.1750478759363506
                        4.1484522807900943
                        5.5435582576551409
                        7.4086426960317588
                        9.6820680253272101
                       12.1180277669642744
                       14.4745497262182683
                       16.7700810689801496
                       19.1322131490952248
                       21.6463919640161024
                       24.3516531520402915
                       27.2568487100759894
                       30.3485362437720488
                       33.5946410158319764
                       36.9456858961258773
                       40.3347853737940250
                       43.6778376795934041
                       46.8750353204647060
                       49.8143667889562017
                       52.3773933065420746
                       54.4471771999101112
                       55.9177669365052906
                       56.7041644268834831
                       56.7513515630615882
                       56.4154255697006748
                        4.0088783059033607
                        2.3808290511579091
                        2.1378941894099698
                        2.1532728265964195
                        2.4015448729922203
                        2.8996652317488581
                        3.6962010976964324
                        4.8628762437789853
                        6.4808256523253656
                        8.5995985186723964
                       11.1594842824342855
                       13.9212774703872358
                       16.6291026242012504
                       19.2684956397558654
                       21.9551963061406886
                       24.7802386785983772
                       27.7877807499170026
                       30.9848660043966247
                       34.3496722979546668
                       37.8369969384004303
                       41.3808990713201824
                       44.8956604805775563
                       48.2769179161786830
                       51.4043753728758652
                       54.1468449374823005
                       56.3698164236469280
                       57.9452258114914262
                       58.7625220328129052
                       58.7395893441187802
                       57.8317204213377571
                       56.4113419612008553
                        4.9068486618967595
                        2.2226147424840018
                        2.0265843051693485
                        2.0691779938899909
                        2.3188339431095524
                        2.7834483742067814
                        3.5017549760619536
                        4.5390695215730786
                        5.9697519019887737
                        7.8419378227049384
                       10.1213989011207518
                       12.6347658630379243
                       15.1678004247675938
                       17.6759719473415027
                       20.2420629875367712
                       22.9497823518959769
                       25.8472794599589429
                       28.9478674443555880
                       32.2362659215301462
                       35.6739264616355926
                       39.2015724163554008
                       42.7398244872740433
                       46.1897986859524004
                       49.4351621946259739
                       52.3464813602998741
                       54.7881646510432465
                       56.6277893893434825
                       57.7470298824847931
                       58.0528340939428344
                       57.4870732722480425
                       56.4073462636571481
                        3.1361521237795041
                        2.0474514129282188
                        1.8629272433357089
                        1.8348924739690006
                        1.9300588823881162
                        2.1631878099468807
                        2.5685360033203214
                        3.1944818205381936
                        4.0965985597264610
                        5.3196561089346871
                        6.8671148494762575
                        8.6595887938154566
                       10.5615148874630968
                       12.5150291641635221
                       14.5607783599318015
                       16.7635430039921009
                       19.1723199899136741
                       21.8122271101164349
                       24.6867800342927337
                       27.7812619390644104
                       31.0639488286909113
                       34.4854786958614420
                       37.9778592102776634
                       41.4544253571573036
                       44.8116193506355485
                       47.9331125800133948
                       50.6964331259803089
                       52.9818141803069364
                       54.6824654955660487
                       55.7150164670713437
                       56.4031756983478686
                        2.1080656277131814
                        1.8762851572017687
                        1.7499095456307109
                        1.7088523154293410
                        1.7579095370346031
                        1.9171412449976236
                        2.2154620228116007
                        2.6920389356366000
                        3.3932931860122823
                        4.3618880636173316
                        5.6187510460197534
                        7.1291191848391649
                        8.7948592073633593
                       10.5484275612285870
                       12.4063417267438401
                       14.4242308051445509
                       16.6531116474583252
                       19.1244306362982458
                       21.8499425213659538
                       24.8245088752369119
                       28.0270322848603128
                       31.4193905731111793
                       34.9447702119169924
                       38.5267092457511325
                       42.0697740265999231
                       45.4624937248223569
                       48.5828731865011258
                       51.3063937208670723
                       53.5159005465041785
                       55.1122746758967659
                       56.3988741600918663
                        1.8549899576813556
                        1.7731046978889962
                        1.6813226934275391
                        1.6568803432708125
                        1.7225944119788233
                        1.8972643548890870
                        2.2048510426707700
                        2.6776155592895592
                        3.3554380900686213
                        4.2798905476384203
                        5.4827426204815640
                        6.9528289537129274
                        8.6071342330463562
                       10.3652072254764828
                       12.2259748052789708
                       14.2405564677945884
                       16.4625360649628703
                       18.9263306111303160
                       21.6454922842554005
                       24.6158867457488566
                       27.8170973796639798
                       31.2115699494857469
                       34.7429874970648196
                       38.3352872280491986
                       41.8932909104915171
                       45.3055909111660300
                       48.4500221631544567
                       51.2016380647279088
                       53.4425963933671520
                       55.0728568188729011
                       56.3945560347595494
                        1.8115595673087817
                        1.7059395523608203
                        1.6189088687325392
                        1.6131198696108431
                        1.7033383341413759
                        1.9050256240651184
                        2.2379338179507328
                        2.7280180757896306
                        3.4091716284674348
                        4.3219506829630821
                        5.5069167745941870
                        6.9709460588931898
                        8.6419845737934121
                       10.4285283696111264
                       12.3143326446851834
                       14.3465871749606323
                       16.5812223337253551
                       19.0550373136759319
                       21.7825227629224132
                       24.7595078147229199
                       27.9651168584002195
                       31.3612032699478198
                       34.8908553415096370
                       38.4774938453000964
                       42.0255750583255082
                       45.4235469302142692
                       48.5493802805118223
                       51.2785808291025559
                       53.4940768652952290
                       55.0968763855574448
                       56.3902461414942216
                        1.7070520679569126
                        1.6226959746462503
                        1.5513264879904886
                        1.5648640418566986
                        1.6772216122195380
                        1.9018336970200531
                        2.2546879683691467
                        2.7564476659592353
                        3.4364783803069842
                        4.3349594709414612
                        5.4999639645612429
                        6.9533943291413237
                        8.6331758786152536
                       10.4396900270806639
                       12.3435391753577561
                       14.3878820849570851
                       16.6304923012654948
                       19.1103277507314131
                       21.8428571599488973
                       24.8240552730330259
                       28.0328296887234858
                       31.4306986043366415
                       34.9603986731237158
                       38.5450366786319896
                       42.0888375940723143
                       45.4801437490581129
                       48.5969826082217077
                       51.3151015581636036
                       53.5178573777856447
                       55.1068491533035212
                       56.3859391783031696
                        1.6128572543225224
                        1.5381727566121747
                        1.4816969949493160
                        1.5153962971099438
                        1.6509313671710188
                        1.8994248627142509
                        2.2729169046951326
                        2.7874618073227127
                        3.4690675826599447
                        4.3581109799711037
                        5.5091795668339412
                        6.9565034635126461
                        8.6463597798759565
                       10.4727565185068017
                       12.3949468577451682
                       14.4522807628032495
                       16.7040468480743164
                       19.1910796374739358
                       21.9296531669398722
                       24.9157743713997536
                       28.1280422043973421
                       31.5275553614380035
                       35.0566219851432031
                       38.6379711524802091
                       42.1755537647421573
                       45.5575926029177774
                       48.6621933315303173
                       51.3654060860863630
                       53.5511169072127625
                       55.1216519974459544
                       56.3816371010085088
                        1.5091415219222757
                        1.4478871092043210
                        1.4084254505619270
                        1.4632834605712946
                        1.6226882184670737
                        1.8950448381976672
                        2.2884199537898781
                        2.8151622253075725
                        3.4989974368297242
                        4.3809207140090830
                        5.5211556220197165
                        6.9640704068625247
                        8.6629793191853636
                       10.5070252087328421
                       12.4458305002784869
                       14.5152095347760717
                       16.7756489923192066
                       19.2695951568822571
                       22.0140078891254326
                       25.0048929653826553
                       28.2205417936692274
                       31.6216449576448608
                       35.1500949682281192
                       38.7282540926011168
                       42.2598058473213768
                       45.6328540316122582
                       48.7255753965886901
                       51.4143071865696547
                       53.5834407328816284
                       55.1359984437379899
                       56.3773398507406677
                        1.4004415299280537
                        1.3529307084933467
                        1.3319868233696663
                        1.4096954621831895
                        1.5944065810287137
                        1.8910292481296731
                        2.3039033528976417
                        2.8427203898439658
                        3.5298796216125585
                        4.4073195177908172
                        5.5401476291636091
                        6.9810114884611557
                        8.6889761810088238
                       10.5494066665673614
                       12.5038564060374848
                       14.5849675668237574
                       16.8541668234270027
                       19.3552503484920804
                       22.1057239217360359
                       25.1015296503581430
                       28.3206197230876770
                       31.7232542600559484
                       35.2508909574845482
                       38.8255088853549840
                       42.3505118017787673
                       45.7138777719749748
                       48.7938549383115199
                       51.4670760836109113
                       53.6184548461283007
                       55.1517350875999463
                       56.3730478803288522
                        1.2849074460109341
                        1.2530664549658181
                        1.2529327017213514
                        1.3558786586953645
                        1.5674359190830807
                        1.8884308276365479
                        2.3201976766227927
                        2.8708926246228089
                        3.5623766167271442
                        4.4377390345712036
                        5.5662933022051151
                        7.0073683562687360
                        8.7245799535372005
                       10.6003371606906682
                       12.5695659565414721
                       14.6621564607544171
                       16.9402562784143094
                       19.4487556399175973
                       22.2055637417864909
                       25.2064930453815013
                       28.4291212712468447
                       31.8332518961225745
                       35.3598845801441748
                       38.9305948092141497
                       42.4484906112526387
                       45.8014147522304646
                       48.8676855079888328
                       51.5242396970371339
                       53.6565322281938902
                       55.1690575361622626
                       56.3687615302313958
                        1.1626431457488349
                        1.1489837138730883
                        1.1728352168369733
                        1.3039935275663640
                        1.5437791916171749
                        1.8889129901473517
                        2.3388768449966423
                        2.9013675552993799
                        3.5983217472338777
                        4.4740919351479309
                        5.6015816976887831
                        7.0454037360326956
                        8.7725755157428066
                       10.6631314837804871
                       12.6466843221823923
                       14.7508355098839839
                       17.0382748135150605
                       19.5547372348117951
                       22.3183840007990935
                       25.3248174374572026
                       28.5511885929421182
                       31.9568003271851848
                       35.4821537337910429
                       39.0483850896297951
                       42.5582793438058544
                       45.8995287379576246
                       48.9505221795290808
                       51.5885193352048484
                       53.6995545321071649
                       55.1889292603067100
                       56.3644811847333907
                        1.0338486149809776
                        1.0420512547008343
                        1.0942256654890502
                        1.2567669117608056
                        1.5255969056192183
                        1.8941824979726289
                        2.3615733526416505
                        2.9359261867945269
                        3.6396917441863358
                        4.5185164388364295
                        5.6483273834940815
                        7.0977791594986168
                        8.8361826017151740
                       10.7415820133091049
                       12.7394700790699172
                       14.8556508624381645
                       17.1532132998731077
                       19.6784950259992868
                       22.4497488062347323
                       25.4622701901543311
                       28.6927121193278084
                       32.0998125459047581
                       35.6235137334432327
                       39.1844597501625142
                       42.6850722036548533
                       46.0128712447853703
                       49.0463190449422091
                       51.6630288218262019
                       53.7496744895523969
                       55.2124523690013492
                       56.3602071944637862
                        1.1115520096177208
                        1.0696080472826120
                        1.0208365710613060
                        1.2174800647232338
                        1.5152556707872597
                        1.9061488249800254
                        2.3902053231805864
                        2.9767214936577475
                        3.6889363279368625
                        4.5737565884498283
                        5.7096086774693906
                        7.1680675086459801
                        8.9196527318184530
                       10.8406324125697827
                       12.8534544892350761
                       14.9826320790148814
                       17.2915431323301874
                       19.8268932648258001
                       22.6068552431177536
                       25.6263009604242436
                       28.8612894761239120
                       32.2699038815400499
                       35.7914425905401480
                       39.3459829189653783
                       42.8355272162026564
                       46.1473948814540367
                       49.1601277596267035
                       51.7517395623245843
                       53.8096329910178290
                       55.2410275851987346
                       56.3559398070425333
                        1.3114039838120489
                        1.2016731594332784
                        1.0442100140999041
                        1.1896906628640064
                        1.5150640722449679
                        1.9266705491366337
                        2.4266887025010106
                        3.0259386222678992
                        3.7485730753685539
                        4.6426747818327359
                        5.7886773068279075
                        7.2600417310855321
                        9.0274270888693451
                       10.9654053062238392
                       12.9943504160171246
                       15.1379950961112865
                       17.4599227759985678
                       20.0069792835832176
                       22.7970751437994385
                       25.8245217103967068
                       29.0646642468733467
                       32.4748158161956777
                       35.9935219303402206
                       39.5401981994308256
                       43.0163575552319146
                       46.3090845726569488
                       49.2970127919409514
                       51.8586214110659849
                       53.8821617267987736
                       55.2760466662108855
                       56.3516790123194715
                        1.5912500725159574
                        1.3489668023822664
                        1.0982326257377226
                        1.1763271090030855
                        1.5262669321218934
                        1.9563799098395760
                        2.4715240018421839
                        3.0841049827135059
                        3.8191828462518588
                        4.7258784592520720
                        5.8861352795909771
                        7.3743072136876448
                        9.1601660044002211
                       11.1166414554036718
                       13.1629600226610403
                       15.3225771441322977
                       17.6592045189220755
                       20.2196039851692945
                       23.0212421866714223
                       26.0577326589651221
                       29.3035867184673025
                       32.7152327855704457
                       36.2303560462661901
                       39.7676183702597532
                       43.2279772954232382
                       46.4982538307028186
                       49.4571914334292051
                       51.9838063425974252
                       53.9673245781131969
                       55.3175280403848755
                       56.3474242383101064
                        1.9484275323264677
                        1.4842014693952090
                        1.1313705518556396
                        1.1764698521297345
                        1.5451853377100162
                        1.9899567963475574
                        2.5180502398763394
                        3.1432051264348158
                        3.8912499930300456
                        4.8120860005263002
                        5.9885196943105837
                        7.4947417179409625
                        9.2988292863669441
                       11.2724918873433302
                       13.3349186500190847
                       15.5097644952994669
                       17.8607258319258056
                       20.4342492377817971
                       23.2472315245123584
                       26.2925454728131983
                       29.5438624905112973
                       32.9567338846583412
                       36.4679974479371569
                       39.9955770290758140
                       43.4398916589403475
                       46.6875151367140123
                       49.6173146940095068
                       52.1088530024961510
                       54.0523341453387952
                       55.3589054446140435
                       56.3431737430029515
                        2.1931396430098598
                        1.5517027681732657
                        1.1423564340906295
                        1.1798279671330561
                        1.5566975578137897
                        2.0081419358425428
                        2.5427399136038218
                        3.1750615079401824
                        3.9314053080625319
                        4.8619094197914536
                        6.0491424868139981
                        7.5658424332676110
                        9.3782403182668176
                       11.3584519970539096
                       13.4273910620883972
                       15.6093240621749111
                       17.9675744509971485
                       20.5480203650277728
                       23.3670466388421577
                       26.4170512957233154
                       29.6712304348717668
                       33.0846578039549420
                       36.5937173615747190
                       40.1159442459200345
                       43.5514826429544435
                       46.7867945223961384
                       49.7008398196798257
                       52.1735036686902218
                       54.0955437303427561
                       55.3788640084334039
                       56.3389238939681738
                        2.0207884798233578
                        1.5069567985327076
                        1.1362930840278974
                        1.1761887596087693
                        1.5472072736157685
                        1.9940266212478156
                        2.5250565352585339
                        3.1551041024876231
                        3.9105522067069624
                        4.8410151859023882
                        6.0273653306003556
                        7.5394438208987293
                        9.3420708890594202
                       11.3103809510657990
                       13.3692570569126371
                       15.5439185417103809
                       17.8967986620739043
                       20.4729553884167063
                       23.2884841894250160
                       26.3358379032546238
                       29.5884136744038138
                       33.0015343313641267
                       36.5118382253582434
                       40.0370933639803868
                       43.4776293362637154
                       46.7200186848569538
                       49.6432309999321510
                       52.1270396753119418
                       54.0619594259809462
                       55.3595242754702287
                       56.3346713849055208
                        1.6656637740383434
                        1.3827698268015585
                        1.1090454825494183
                        1.1732617888784457
                        1.5269689931260084
                        1.9603544751484328
                        2.4804300398944270
                        3.1017066694641756
                        3.8503493622373725
                        4.7748613643174791
                        5.9532455233290186
                        7.4511727884771942
                        9.2321286772968863
                       11.1761132579097707
                       13.2137091684893993
                       15.3714216407257710
                       17.7104343065878293
                       20.2747764039745244
                       23.0803759745132277
                       26.1200819824867473
                       29.3679394596723149
                       32.7800042854301152
                       36.2936431384133174
                       39.8272751311489952
                       43.2817279955642860
                       46.5438409545755171
                       49.4925473127195801
                       52.0072296915308787
                       53.9776394833194861
                       55.3141996063198511
                       56.3304186389226778
                        1.3723670737313038
                        1.2378860981771626
                        1.0596364801916061
                        1.1828283880603953
                        1.5128657363064138
                        1.9285247572456457
                        2.4349915522851263
                        3.0461944323191886
                        3.7879528902540622
                        4.7073618469043531
                        5.8788143684375432
                        7.3627258220328724
                        9.1206579894415501
                       11.0381320894600559
                       13.0524396185805602
                       15.1917133311008348
                       17.5157411198302606
                       20.0673402135033618
                       22.8621939268299337
                       25.8935495579474244
                       29.1361389821290124
                       32.5468035849062024
                       36.0636939211277922
                       39.6059325296033395
                       43.0748884922658699
                       46.3576957074876817
                       49.3332582548112862
                       51.8805498007079311
                       53.8885130529307384
                       55.2663886378479022
                       56.3261695337788888
                        1.1617917922290818
                        1.1045380817751889
                        1.0024321730455082
                        1.2070296250238717
                        1.5101757020949634
                        1.9058516069465301
                        2.3978754464979698
                        2.9996419968112776
                        3.7366416805715659
                        4.6543738478455862
                        5.8229725420358041
                        7.2964885683298671
                        9.0337573215647852
                       10.9261820924438384
                       12.9185599592734871
                       15.0409611404806433
                       17.3516780229885677
                       19.8921287420717663
                       22.6775965193233564
                       25.7016011933658354
                       28.9394462982227763
                       32.3486468649010102
                       35.8680318178170438
                       39.4173362900635551
                       42.8984052053060327
                       46.1986380962245114
                       49.1969269802448496
                       51.7719064724574655
                       53.8118346547583913
                       55.2249432223785620
                       56.3219260629360780
                        1.0100146207875855
                        1.0079285048112398
                        1.0718268480611189
                        1.2430827334263583
                        1.5179412430129219
                        1.8920901268141909
                        2.3691045665195773
                        2.9622487321035541
                        3.6968380705183872
                        4.6166084001884576
                        5.7866929198306697
                        7.2535353677258542
                        8.9724890515367309
                       10.8413799154036015
                       12.8133357458469673
                       14.9206139620135742
                       17.2198802157533873
                       19.7509586575616632
                       22.5285722472371100
                       25.5463802510946625
                       28.7801329231295291
                       32.1878957911094754
                       35.7090585382624210
                       39.2638660443585003
                       42.7545626423422228
                       46.0687758586608142
                       49.0853978143093674
                       51.6827936780304455
                       53.7486661190619177
                       55.1904220614890270
                       56.3176888977536405
                        1.1145980984883075
                        1.1110494318210406
                        1.1467083803783275
                        1.2872345404554540
                        1.5337009428229377
                        1.8852399053099811
                        2.3466475706326513
                        2.9317945259205694
                        3.6661309907848032
                        4.5914670527191218
                        5.7670439468467702
                        7.2302775246878268
                        8.9324098483102913
                       10.7785368352974029
                       12.7310075513148979
                       14.8244386538109558
                       17.1136916197844852
                       19.6367975942333811
                       22.4077734801000780
                       25.4203063270932672
                       28.6504925103890728
                       32.0568500177212475
                       35.5792355419813476
                       39.1383212139335700
                       42.6366886072779280
                       45.9621611558452760
                       48.9936378597371267
                       51.6092663140937655
                       53.6962927394127207
                       55.1614420241076972
                       56.3134580875684699
                        1.2336149041214340
                        1.2123177514624958
                        1.2232344461689957
                        1.3358696142685387
                        1.5546791536383609
                        1.8829315225070601
                        2.3280951012002459
                        2.9056591399117248
                        3.6416893428763866
                        4.5759147332419321
                        5.7606114580957721
                        7.2225343328975878
                        8.9083558567706842
                       10.7316440340378678
                       12.6649105237483799
                       14.7452095302865822
                       17.0253743713439568
                       19.5414444673333030
                       22.3066040522005441
                       25.3144826758308936
                       28.5414519490157698
                       31.9464150932544050
                       35.4696317689334688
                       39.0321446829931912
                       42.5368293833137366
                       45.8716818262106265
                       48.9156103627901357
                       51.5465776777318926
                       53.6514379728902275
                       55.1363283870173274
                       56.3092334221679016
                        1.3487848991562746
                        1.3112082634480449
                        1.2992636151372980
                        1.3863199497353580
                        1.5786695087949146
                        1.8834150766549379
                        2.3118240375748541
                        2.8822042002749486
                        3.6219067357690341
                        4.5684407174681594
                        5.7658314800756882
                        7.2282816233246355
                        8.8976284339917815
                       10.6974793321199332
                       12.6114634254721123
                       14.6790443239077192
                       16.9507624323853497
                       19.4604690233513613
                       22.2204025660902458
                       25.2240658013290632
                       28.4480518570386143
                       31.8515997253705108
                       35.3753253918758248
                       38.9406010024281162
                       42.4505647769610144
                       45.7933683122056625
                       48.8479311703404301
                       51.4920548302926068
                       53.6122482035421042
                       55.1141291454845865
                       56.3050146536148772
                        1.4568857855818186
                        1.4063865372066493
                        1.3731322626037103
                        1.4358088149010150
                        1.6024364426338902
                        1.8832904968249671
                        2.2941209124017041
                        2.8573042898646077
                        3.6022972528917327
                        4.5642272260412981
                        5.7772951025714601
                        7.2409647392014991
                        8.8922966932441992
                       10.6669746958721374
                       12.5606943584993020
                       14.6151679940253682
                       16.8783341482446303
                       19.3816723982536365
                       22.1363948240741935
                       25.1358481037974018
                       28.3568370635865864
                       31.7589321404550329
                       35.2831022073639082
                       38.8510449574949798
                       42.3661566364123514
                       45.7167390010176461
                       48.7817167073535826
                       51.4387236817244423
                       53.5739176415789010
                       55.0923925705892934
                       56.3008014609890528
                        1.5754848564310595
                        1.5025275371934439
                        1.4467602260553379
                        1.4856135041547588
                        1.6277343834320000
                        1.8855754689010734
                        2.2794666585355316
                        2.8370103432529788
                        3.5907860480472420
                        4.5734382512999994
                        5.8074668364776925
                        7.2749487435876406
                        8.9083709031009804
                       10.6578465835264636
                       12.5320111460471182
                       14.5745561742675350
                       16.8304841957196165
                       19.3286991028060756
                       22.0792584283492158
                       25.0752546095405287
                       28.2936147453126394
                       31.6941542645913247
                       35.2181142365847234
                       38.7874495458298556
                       42.3057667208613540
                       45.6614990762662613
                       48.7335942408228245
                       51.3995776896899820
                       53.5453570572291167
                       55.0756415223002244
                       56.2965940197958776
                        1.6430906462507896
                        1.5843270381100659
                        1.5152771543803192
                        1.5292316328017888
                        1.6433973372098381
                        1.8735943293358986
                        2.2453522016397607
                        2.7928984616960854
                        3.5530033709684346
                        4.5554040211316207
                        5.8084048669663333
                        7.2738696605923670
                        8.8810744991565944
                       10.5978324501873174
                       12.4464521220883729
                       14.4720675921046380
                       16.7163699452875616
                       19.2056154250288598
                       21.9488153153494969
                       24.9390075085667035
                       28.1534821758894314
                       31.5525510878894462
                       35.0779653588457728
                       38.6521366163207512
                       42.1790160795827425
                       45.5472114008511709
                       48.6356218862435862
                       51.3214656617131286
                       53.4900732947734577
                       55.0453293189350789
                       56.2923908478856925
                        1.8978142018438819
                        1.7049547228835758
                        1.5973590807009847
                        1.5893140195464031
                        1.6848219819115136
                        1.9010261755428686
                        2.2681416519871435
                        2.8269406117568515
                        3.6188514095876380
                        4.6705521687871077
                        5.9731668316595264
                        7.4632671004425822
                        9.0664213063360432
                       10.7712031327013545
                       12.6146796762784360
                       14.6431152121434794
                       16.8943667487335248
                       19.3913871482176648
                       22.1413018375271409
                       25.1361021958053007
                       28.3523559644541908
                       31.7497606823529450
                       35.2695253752807611
                       38.8336263132188987
                       42.3457417208529433
                       45.6944257134232105
                       48.7587900514387627
                       51.4165571678620796
                       53.5538503502666265
                       55.0755978689388922
                       56.2881968851126819
                        2.8181770950854967
                        1.9131805670497481
                        1.7657927659576892
                        1.7804163011428950
                        1.9288784004406904
                        2.2244237614611596
                        2.7018127680802834
                        3.4093450236227579
                        4.3949706717874662
                        5.6822297964333871
                        7.2358977761821353
                        8.9481695461854371
                       10.7304107334392762
                       12.5961650693530318
                       14.6022178148178160
                       16.7969536229010562
                       19.2124748291195338
                       21.8641240309320413
                       24.7507813549896061
                       27.8554298241775453
                       31.1448176299532061
                       34.5682985155099816
                       38.0568055858616222
                       41.5229467383944650
                       44.8629596591013007
                       47.9609860231622570
                       50.6957869670304148
                       52.9495824145356765
                       54.6181970254374757
                       55.6212493157799923
                       56.2839901404850402
                        4.2613340344644816
                        2.1540656526297443
                        2.0394967637206577
                        2.1545366453394790
                        2.4702134809259716
                        2.9936617453451104
                        3.7653919465836329
                        4.8465363534819880
                        6.2959476292999811
                        8.1301719378287193
                       10.2642519420717532
                       12.5087769333939862
                       14.7490008219248734
                       17.0381267996731328
                       19.4634281489868719
                       22.0770697811740227
                       24.9021731714142895
                       27.9399203888809608
                       31.1715351804435901
                       34.5591835841795511
                       38.0460916319905989
                       41.5562480546840971
                       44.9947275143285906
                       48.2496357124986323
                       51.1963347132710746
                       53.7042101650134295
                       55.6457826701450681
                       56.9074322796396379
                       57.4004791156356537
                       57.0709866425181107
                       56.2796777140773419
                        3.5128725177300169
                        2.3239413907137441
                        2.1769211078705217
                        2.2659602004493797
                        2.5824436482723583
                        3.1406094015994604
                        3.9814215060222939
                        5.1694346200600224
                        6.7706928758108257
                        8.7986151740734429
                       11.1295021357911515
                       13.5150868878145916
                       15.8417151731163622
                       18.2044871673700144
                       20.7096998202604052
                       23.4078911631585126
                       26.3154808061292551
                       29.4273499262126805
                       32.7192497224028611
                       36.1481871819397030
                       39.6522921429275620
                       43.1506339450454269
                       46.5438971651642003
                       49.7168086584169720
                       52.5428954784192916
                       54.8917561765213258
                       56.6385578774039991
                       57.6749340043233059
                       57.9199489123510405
                       57.3294599791852842
                       56.2752786232775148
                        2.4943576450071124
                        2.3485441717103872
                        2.1475029796844093
                        2.1310464854491870
                        2.3256255619497691
                        2.7500430907452492
                        3.4443361582059437
                        4.4703339654288447
                        5.8945634812444666
                        7.7311631222576259
                        9.8430537120089966
                       11.9657692595944188
                       14.0086482276914569
                       16.0967390729522095
                       18.3414894958640292
                       20.7885808652686319
                       23.4517987944838450
                       26.3286692556436917
                       29.4023463940499412
                       32.6407600149818302
                       35.9954967712396822
                       39.4008739762318978
                       42.7738337285589342
                       46.0153526228260187
                       49.0138975367857069
                       51.6511801118868694
                       53.8100880720714601
                       55.3842082146976932
                       56.2878866050609317
                       56.4654188378788927
                       56.2709050812112526
                        2.0538555043623033
                        2.3394341008851676
                        2.1797813586431804
                        2.1041569935005928
                        2.2189386195722633
                        2.5558022259572418
                        3.1618298344877326
                        4.1055269941879374
                        5.4607002218796537
                        7.2430484510351604
                        9.2884769696417273
                       11.2931516307492244
                       13.1853949518904253
                       15.1291116996189215
                       17.2453874775157300
                       19.5755920113823787
                       22.1295518057108803
                       24.9045016017797218
                       27.8864561055514438
                       31.0482256610263291
                       34.3474509416656419
                       37.7251144915239217
                       41.1049429042758225
                       44.3942539223735213
                       47.4867458646551667
                       50.2675243284863850
                       52.6203341039046882
                       54.4365298112602377
                       55.6248549775036112
                       56.1207208984965426
                       56.2665201080317833
                        1.8256753038957930
                        2.2907747482508491
                        2.2074584785195780
                        2.0915645867442812
                        2.1326602938587464
                        2.3809999004941522
                        2.8907982257865120
                        3.7410590937611017
                        5.0181530433570003
                        6.7425418922227901
                        8.7202594762184102
                       10.6033247112730723
                       12.3430773730066665
                       14.1435782077110237
                       16.1333909062863191
                       18.3488377385597964
                       20.7959898344267594
                       23.4720495602428714
                       26.3660052663240364
                       29.4555368132455103
                       32.7042293468406251
                       36.0595245162384451
                       39.4516238721240673
                       42.7937705866610063
                       45.9843812761414352
                       48.9113695058822692
                       51.4587203051515875
                       53.5149663555828004
                       54.9827540126686918
                       55.7882799367070292
                       56.2621260900847284
                        1.7396812511931863
                        2.2630153232567788
                        2.2504233223249824
                        2.0738359376075887
                        2.0371595922378463
                        2.2160099432326987
                        2.6608515365864185
                        3.4472441658286986
                        4.6658810440794651
                        6.3429533672219880
                        8.2606063717544244
                       10.0314546346895166
                       11.6326046433086785
                       13.3061442805246600
                       15.1856805575716688
                       17.3018201244942538
                       19.6567362031814701
                       22.2472988237152750
                       25.0649216145032445
                       28.0914303833061463
                       31.2955318447258736
                       34.6302673894787998
                       38.0314829364217803
                       41.4176213223729784
                       44.6912821512722630
                       47.7429289686558215
                       50.4568818678238750
                       52.7193487224303307
                       54.4277881143489285
                       55.5004657334814389
                       56.2577271435733018
                </DataArray>
                <DataArray type="Float32" Name="jacobian" NumberOfComponents="1" format="ascii">
                        0.0000126398087376
                        0.0000097400897232
                        0.0000213075620398
                        0.0000569971270210
                        0.0001259985155035
                        0.0002365044745195
                        0.0003884229773945
                        0.0005675904104608
                        0.0007521808831655
                        0.0009294714949295
                        0.0011044655650112
                        0.0012960810280659
                        0.0015220537373398
                        0.0017869810949624
                        0.0020913639897692
                        0.0024370598616076
                        0.0028260933897619
                        0.0032594383101589
                        0.0037363861990935
                        0.0042540489792060
                        0.0048068781310751
                        0.0053862461863427
                        0.0059801811305877
                        0.0065733566300260
                        0.0071474355377638
                        0.0076818369031685
                        0.0081549425421019
                        0.0085456805855777
                        0.0088353339545022
                        0.0090093413505834
                        0.0091192036960005
                        0.0000133746459341
                        0.0000130872226078
                        0.0000337422352300
                        0.0000792923869552
                        0.0001516444376589
                        0.0002513523859241
                        0.0003765515082906
                        0.0005211768312389
                        0.0006757333863792
                        0.0008339731673239
                        0.0009995431598763
                        0.0011855753203570
                        0.0014040810376649
                        0.0016576993814600
                        0.0019472790460875
                        0.0022757251073149
                        0.0026462179007651
                        0.0030607985272341
                        0.0035197783726331
                        0.0040213438703030
                        0.0045611339404737
                        0.0051318120725496
                        0.0057227353467248
                        0.0063198384697821
                        0.0069058432189131
                        0.0074608786942690
                        0.0079635489674376
                        0.0083924104512619
                        0.0087277318140672
                        0.0089533229559989
                        0.0091185461579790
                        0.0000131671366947
                        0.0000166871616514
                        0.0000467836754535
                        0.0001003740202488
                        0.0001727693588154
                        0.0002605091381584
                        0.0003625105581893
                        0.0004785706918105
                        0.0006070887306017
                        0.0007467480040878
                        0.0009009610323207
                        0.0010786020600680
                        0.0012870609872765
                        0.0015273976475103
                        0.0018006756426654
                        0.0021105528796920
                        0.0024611227212906
                        0.0028553527655947
                        0.0032945177192026
                        0.0037778837531129
                        0.0043023341206673
                        0.0048619330496995
                        0.0054475345372370
                        0.0060465626737535
                        0.0066430823327678
                        0.0072182580278579
                        0.0077512569984811
                        0.0082205849481528
                        0.0086057559880322
                        0.0088891085472879
                        0.0091178879377783
                        0.0000116155604615
                        0.0000228632285038
                        0.0000631564278088
                        0.0001206834095087
                        0.0001870827753040
                        0.0002602926072070
                        0.0003432211667359
                        0.0004396167541590
                        0.0005508017747891
                        0.0006771405882933
                        0.0008218921559800
                        0.0009915998569804
                        0.0011907230242084
                        0.0014191489063303
                        0.0016779666772925
                        0.0019713032980602
                        0.0023038975998167
                        0.0026794123238605
                        0.0030998825128704
                        0.0035654706991934
                        0.0040741441231433
                        0.0046212472252010
                        0.0051990757306440
                        0.0057965816997476
                        0.0063993308944122
                        0.0069898164282891
                        0.0075481981315348
                        0.0080534774597438
                        0.0084850366918265
                        0.0088243823614604
                        0.0091172285568557
                        0.0000070325467653
                        0.0000322425400613
                        0.0000799001897147
                        0.0001323109682360
                        0.0001838394736633
                        0.0002376593564515
                        0.0003000577595146
                        0.0003757211979091
                        0.0004664769766578
                        0.0005733794788771
                        0.0006995866875702
                        0.0008500699051799
                        0.0010272681191578
                        0.0012303063534848
                        0.0014602389289549
                        0.0017213758264229
                        0.0020188546415312
                        0.0023569752713195
                        0.0027387077521965
                        0.0031655368070110
                        0.0036372234691891
                        0.0041514356290715
                        0.0047033410267468
                        0.0052852806402718
                        0.0058866344306016
                        0.0064939813255520
                        0.0070916346624284
                        0.0076625944426528
                        0.0081899008713426
                        0.0086583136595466
                        0.0091165672723101
                       -0.0000002747783085
                        0.0000487770782926
                        0.0001024317118086
                        0.0001539852679562
                        0.0002040574717305
                        0.0002590686275396
                        0.0003256234949135
                        0.0004075219630017
                        0.0005061233761144
                        0.0006227059543889
                        0.0007608976036413
                        0.0009255624877844
                        0.0011181454020344
                        0.0013367356899720
                        0.0015818735266512
                        0.0018578965971307
                        0.0021700663150143
                        0.0025225730375214
                        0.0029179888544202
                        0.0033571674650876
                        0.0038390653349249
                        0.0043604182005878
                        0.0049153806367205
                        0.0054952596915391
                        0.0060884586215780
                        0.0066807286962299
                        0.0072558000263663
                        0.0077964173929693
                        0.0082857468072078
                        0.0087090579186360
                        0.0091159146440735
                       -0.0000113315922875
                        0.0000727804532859
                        0.0001307445461858
                        0.0001902213994268
                        0.0002575673921558
                        0.0003408376706920
                        0.0004453641206831
                        0.0005726920665505
                        0.0007220588913440
                        0.0008938650280963
                        0.0010925818739512
                        0.0013238227261982
                        0.0015872986141402
                        0.0018778648416180
                        0.0021943332411500
                        0.0025412666767764
                        0.0029242528553820
                        0.0033467320657184
                        0.0038093182583090
                        0.0043099120418183
                        0.0048437150994314
                        0.0054030466559131
                        0.0059771355053660
                        0.0065520706165190
                        0.0071110429423670
                        0.0076349623145889
                        0.0081034788242905
                        0.0084963668550969
                        0.0087951463295191
                        0.0089847357854624
                        0.0091152387461531
                       -0.0000143912601596
                        0.0000965326676342
                        0.0001594029713165
                        0.0002238778533768
                        0.0003009062606941
                        0.0003991344095031
                        0.0005233212412784
                        0.0006745385543788
                        0.0008520374494607
                        0.0010567828447962
                        0.0012941434462618
                        0.0015694039756394
                        0.0018789089814332
                        0.0022130331775884
                        0.0025684656730228
                        0.0029502368969096
                        0.0033648242242485
                        0.0038156963481886
                        0.0043025886918604
                        0.0048219525176435
                        0.0053672530316532
                        0.0059289753797423
                        0.0064945743600566
                        0.0070485932390465
                        0.0075730919989559
                        0.0080484548148037
                        0.0084545802234109
                        0.0087723809885169
                        0.0089854388245440
                        0.0090815891991384
                        0.0091145451544994
                        0.0000162441718564
                        0.0001258285453709
                        0.0001878502198201
                        0.0002512319341402
                        0.0003267052052475
                        0.0004211659520310
                        0.0005387428028455
                        0.0006819050830519
                        0.0008526058948223
                        0.0010543045176125
                        0.0012937844772006
                        0.0015762293329145
                        0.0018955298232298
                        0.0022385753000738
                        0.0026001969404728
                        0.0029856775736559
                        0.0034024506371867
                        0.0038546550033208
                        0.0043422896683709
                        0.0048618393430913
                        0.0054067179820063
                        0.0059673437424339
                        0.0065311155866604
                        0.0070825443314199
                        0.0076036890640562
                        0.0080749708195687
                        0.0084763664661438
                        0.0087889088066995
                        0.0089963373139578
                        0.0090866746870627
                        0.0091138490857808
                        0.0000577112394278
                        0.0001584722259360
                        0.0002155792673201
                        0.0002753201069264
                        0.0003461755259817
                        0.0004334608621262
                        0.0005411991725000
                        0.0006731239863666
                        0.0008332204547566
                        0.0010269078779244
                        0.0012623066584852
                        0.0015449358428614
                        0.0018671712086208
                        0.0022132093814066
                        0.0025761752879400
                        0.0029613699079026
                        0.0033769841906643
                        0.0038277964608118
                        0.0043141662414124
                        0.0048327724106118
                        0.0053771581774187
                        0.0059378479972031
                        0.0065023306892770
                        0.0070551834260086
                        0.0075784975581280
                        0.0080526822394286
                        0.0084576512569673
                        0.0087743210739630
                        0.0089862659097610
                        0.0090813055587508
                        0.0091131540353095
                        0.0000965024700666
                        0.0001888464426701
                        0.0002410403567163
                        0.0002965233953398
                        0.0003624326379901
                        0.0004434221111508
                        0.0005436546289019
                        0.0006675645638847
                        0.0008202507193419
                        0.0010084237188175
                        0.0012413434558250
                        0.0015250047935809
                        0.0018506643212739
                        0.0022002014515527
                        0.0025651479991459
                        0.0029507593551141
                        0.0033658938412921
                        0.0038158983597459
                        0.0043014377479282
                        0.0048193375019399
                        0.0053632264741241
                        0.0059236961129723
                        0.0064882929593700
                        0.0070416395814301
                        0.0075658539967604
                        0.0080413468746454
                        0.0084480036165323
                        0.0087666806203558
                        0.0089808625106637
                        0.0090782564564356
                        0.0091124592763180
                        0.0001342527455092
                        0.0002175394624258
                        0.0002638202735635
                        0.0003141852998618
                        0.0003747773807197
                        0.0004498420504736
                        0.0005435495887311
                        0.0006606623207844
                        0.0008069575474577
                        0.0009900822472570
                        0.0012202611000423
                        0.0015040292938367
                        0.0018319054707329
                        0.0021838959370895
                        0.0025501127337298
                        0.0029356973352232
                        0.0033500627237672
                        0.0037990576649238
                        0.0042836302041546
                        0.0048007537170102
                        0.0053441525491939
                        0.0059044966625619
                        0.0064694005557761
                        0.0070235394971108
                        0.0075490611949519
                        0.0080263754231439
                        0.0084353305227590
                        0.0087567075785397
                        0.0089738801832367
                        0.0090744163979915
                        0.0091117651087202
                        0.0001700627263053
                        0.0002436580703888
                        0.0002834650831837
                        0.0003284697273693
                        0.0003840863799419
                        0.0004541040323275
                        0.0005424833824775
                        0.0006540904376592
                        0.0007951439671877
                        0.0009739946299903
                        0.0012016738598727
                        0.0014852470534683
                        0.0018147396188421
                        0.0021686369972658
                        0.0025358061558797
                        0.0029212419288578
                        0.0033348193149654
                        0.0037828232567530
                        0.0042664534685740
                        0.0047828185801714
                        0.0053257331905726
                        0.0058859429507926
                        0.0064511285526148
                        0.0070060171847307
                        0.0075327866744403
                        0.0080118477346642
                        0.0084230149597309
                        0.0087469988008819
                        0.0089670675441177
                        0.0090706564146559
                        0.0091110715441580
                        0.0002034539234366
                        0.0002667245524088
                        0.0002997103927124
                        0.0003395027095920
                        0.0003907350399850
                        0.0004565171835643
                        0.0005404686709282
                        0.0006474841802032
                        0.0007840978634590
                        0.0009591928092389
                        0.0011844568902784
                        0.0014674388332041
                        0.0017978564865397
                        0.0021529999890109
                        0.0025206816425640
                        0.0029057349297393
                        0.0033184091965767
                        0.0037653609961188
                        0.0042480129880522
                        0.0047636009757947
                        0.0053060297944024
                        0.0058661231095981
                        0.0064316305312243
                        0.0069873336542402
                        0.0075154423368118
                        0.0079963692569413
                        0.0084098951120170
                        0.0087366581479472
                        0.0089598182009383
                        0.0090666729487172
                        0.0091103786677474
                        0.0002340614212563
                        0.0002863013770071
                        0.0003124932455919
                        0.0003476148204989
                        0.0003952066736859
                        0.0004574910542234
                        0.0005377438975401
                        0.0006408940715189
                        0.0007737132641698
                        0.0009454829099939
                        0.0011684094040975
                        0.0014504549810495
                        0.0017811621738885
                        0.0021369158392963
                        0.0025046694107975
                        0.0028890969902844
                        0.0033007421610673
                        0.0037465700470501
                        0.0042281978278903
                        0.0047429807875516
                        0.0052849145398279
                        0.0058449037618303
                        0.0064107704354670
                        0.0069673537753305
                        0.0074968982377789
                        0.0079798200031393
                        0.0083958660029274
                        0.0087256006879630
                        0.0089520719392358
                        0.0090624344597540
                        0.0091096865483534
                        0.0002615011709521
                        0.0003020787846596
                        0.0003218800964190
                        0.0003531146712274
                        0.0003977905438413
                        0.0004571682461195
                        0.0005342805972109
                        0.0006341202211950
                        0.0007636351396030
                        0.0009323935294134
                        0.0011529931089529
                        0.0014337279284968
                        0.0017640641790448
                        0.0021197494159736
                        0.0024870795403851
                        0.0028705832938498
                        0.0032810233507952
                        0.0037256118071099
                        0.0042061335720605
                        0.0047200580795504
                        0.0052614750379229
                        0.0058213759830213
                        0.0063876613854611
                        0.0069452334823252
                        0.0074763753104563
                        0.0079615084349083
                        0.0083803451763977
                        0.0087133721620763
                        0.0089435179191708
                        0.0090577835776044
                        0.0091089952614687
                        0.0002853918256017
                        0.0003138580647373
                        0.0003280138795663
                        0.0003562522271453
                        0.0003986347940404
                        0.0004555581642708
                        0.0005299578439468
                        0.0006269112563030
                        0.0007534873360817
                        0.0009194454731660
                        0.0011376572185211
                        0.0014166612774363
                        0.0017459245406046
                        0.0021008092538839
                        0.0024671587006332
                        0.0028493792152416
                        0.0032583814632648
                        0.0037015645659485
                        0.0041808563993295
                        0.0046938379872115
                        0.0052346996415813
                        0.0057945289143404
                        0.0063613140159212
                        0.0069200282608489
                        0.0074529990625838
                        0.0079406558825804
                        0.0083626747308861
                        0.0086994578589648
                        0.0089338028249570
                        0.0090525408600685
                        0.0091083048777867
                        0.0003052623202407
                        0.0003215062543584
                        0.0003310327020624
                        0.0003571562694893
                        0.0003977291781347
                        0.0004525328491086
                        0.0005245451946804
                        0.0006189285217112
                        0.0007428194338248
                        0.0009060844751939
                        0.0011217596263198
                        0.0013985402980348
                        0.0017259593711384
                        0.0020792362275592
                        0.0024439688141994
                        0.0028244699790543
                        0.0032317303587594
                        0.0036732781411861
                        0.0041511621460439
                        0.0046630760167245
                        0.0052033212563383
                        0.0057630948171739
                        0.0063304859282110
                        0.0068905504790205
                        0.0074256684614171
                        0.0079162806666672
                        0.0083420241504063
                        0.0086832071703903
                        0.0089224794714772
                        0.0090464788860045
                        0.0091076154525080
                        0.0003204641329170
                        0.0003249106316273
                        0.0003310630000907
                        0.0003558690355445
                        0.0003949780698897
                        0.0004479121504869
                        0.0005177901356472
                        0.0006098367267286
                        0.0007312046886495
                        0.0008917927453781
                        0.0011046996314162
                        0.0013786925093930
                        0.0017034298623742
                        0.0020542226403712
                        0.0024166296342439
                        0.0027949025939443
                        0.0032000472924382
                        0.0036396657524703
                        0.0041159088477415
                        0.0046265875551136
                        0.0051661292491160
                        0.0057258579222845
                        0.0062939812249070
                        0.0068556527227007
                        0.0073933158421982
                        0.0078874273777591
                        0.0083175822110409
                        0.0086639823127847
                        0.0089091079199772
                        0.0090393731141630
                        0.0091069270010823
                        0.0003301138318779
                        0.0003241189161145
                        0.0003284425081636
                        0.0003525736433963
                        0.0003904588264005
                        0.0004417467956100
                        0.0005097277143998
                        0.0005996477196677
                        0.0007186293594745
                        0.0008765397648565
                        0.0010864505808498
                        0.0013571226890138
                        0.0016783899525681
                        0.0020258673412999
                        0.0023852677264915
                        0.0027608159075729
                        0.0031634742577560
                        0.0036008676114575
                        0.0040752317513350
                        0.0045845002306872
                        0.0051232411631676
                        0.0056829234347024
                        0.0062518908888523
                        0.0068154104179171
                        0.0073560004736029
                        0.0078541394095919
                        0.0082893776790773
                        0.0086417996379543
                        0.0088936951837173
                        0.0090312249522723
                        0.0091062394506323
                        0.0003337101197650
                        0.0003203647191970
                        0.0003245631301487
                        0.0003484168249365
                        0.0003853323694420
                        0.0004353198071952
                        0.0005017893718891
                        0.0005899667405329
                        0.0007069174735789
                        0.0008624393695848
                        0.0010695172169204
                        0.0013368392394474
                        0.0016544167857627
                        0.0019982940129703
                        0.0023544787426836
                        0.0027272054090720
                        0.0031273530562139
                        0.0035625253076402
                        0.0040350187469251
                        0.0045428796010333
                        0.0050808128958336
                        0.0056404307425541
                        0.0062102125434293
                        0.0067755388176093
                        0.0073190044134020
                        0.0078211117702943
                        0.0082613705522017
                        0.0086197520400774
                        0.0088783608432873
                        0.0090231091833894
                        0.0091055525412820
                        0.0003338813042089
                        0.0003181294987498
                        0.0003229435465427
                        0.0003467324895143
                        0.0003832272462896
                        0.0004326643857549
                        0.0004984821311933
                        0.0005858821873166
                        0.0007018951819600
                        0.0008562699908349
                        0.0010619121292526
                        0.0013273850068995
                        0.0016427427145096
                        0.0019843600413958
                        0.0023385540637308
                        0.0027096128897825
                        0.0031083344911386
                        0.0035422667600547
                        0.0040137149556613
                        0.0045207775012455
                        0.0050582314950161
                        0.0056177666490264
                        0.0061879362437083
                        0.0067541827296117
                        0.0072991425002124
                        0.0078033309568251
                        0.0082462354067466
                        0.0086077656073567
                        0.0088699257407869
                        0.0090184939274288
                        0.0091048657056344
                        0.0003354178789176
                        0.0003217120000141
                        0.0003262177167324
                        0.0003502018766507
                        0.0003871672541173
                        0.0004371686080948
                        0.0005036026731667
                        0.0005916878183134
                        0.0007084821683154
                        0.0008637517074011
                        0.0010703806239825
                        0.0013367583435705
                        0.0016527331099307
                        0.0019947425104375
                        0.0023493384794956
                        0.0027209142433342
                        0.0031202177079645
                        0.0035547094372621
                        0.0040266256662752
                        0.0045340136086114
                        0.0050716063816661
                        0.0056310519691493
                        0.0062008644197934
                        0.0067664523532886
                        0.0073104277877258
                        0.0078132956245415
                        0.0082545506216060
                        0.0086141309066133
                        0.0088740910056508
                        0.0090202800481398
                        0.0091041784147395
                        0.0003345815195401
                        0.0003278486979805
                        0.0003324984017515
                        0.0003569309634807
                        0.0003950264900248
                        0.0004464607879381
                        0.0005145003278714
                        0.0006043835476180
                        0.0007232245429155
                        0.0008808360148785
                        0.0010900957944810
                        0.0013591581743716
                        0.0016775046164622
                        0.0020215176111208
                        0.0023779971417704
                        0.0027514868610546
                        0.0031526843676187
                        0.0035889222645788
                        0.0040623063379561
                        0.0045707604203091
                        0.0051088956436672
                        0.0056682389216542
                        0.0062371901912648
                        0.0068010611176605
                        0.0073423962771055
                        0.0078416754383393
                        0.0082784217506560
                        0.0086326626696915
                        0.0088866044414515
                        0.0090263044926645
                        0.0091034910454575
                        0.0003276979971007
                        0.0003313243830577
                        0.0003379381331951
                        0.0003632659297151
                        0.0004028358781462
                        0.0004561498968029
                        0.0005262840302651
                        0.0006184508836641
                        0.0007397910402159
                        0.0009001285993341
                        0.0011122787626211
                        0.0013840936031774
                        0.0017046911940324
                        0.0020505294371591
                        0.0024088002400607
                        0.0027842275632748
                        0.0031874107399104
                        0.0036255044356321
                        0.0041004543504491
                        0.0046100448864438
                        0.0051487545545881
                        0.0057079804206378
                        0.0062760007896205
                        0.0068380246707805
                        0.0073765262015067
                        0.0078719606031480
                        0.0083038842478130
                        0.0086524232612338
                        0.0088999492033424
                        0.0090327447860651
                        0.0091028042040207
                        0.0003148860403851
                        0.0003302661268208
                        0.0003406274809999
                        0.0003676191746848
                        0.0004089986780169
                        0.0004645019264257
                        0.0005370405118619
                        0.0006317486677280
                        0.0007557353037273
                        0.0009187679759086
                        0.0011335129778997
                        0.0014074587233274
                        0.0017294429381934
                        0.0020762335132659
                        0.0024356029949832
                        0.0028124723477814
                        0.0032172738992828
                        0.0036569308493595
                        0.0041332116076260
                        0.0046437665293552
                        0.0051829563137253
                        0.0057420658292362
                        0.0063092692121507
                        0.0068696880965891
                        0.0074057373724245
                        0.0078978528917646
                        0.0083256217044941
                        0.0086692571295313
                        0.0089112752529112
                        0.0090381546289694
                        0.0091021181943177
                        0.0002970627431141
                        0.0003244311715996
                        0.0003399506956559
                        0.0003695993914446
                        0.0004132809682471
                        0.0004713375880644
                        0.0005466184562816
                        0.0006441432279716
                        0.0007709206712758
                        0.0009365813241527
                        0.0011535517255292
                        0.0014289079571303
                        0.0017513201644457
                        0.0020981221103187
                        0.0024578527174772
                        0.0028356351277873
                        0.0032416602558962
                        0.0036825657762034
                        0.0041599268459189
                        0.0046712667875808
                        0.0052108449632682
                        0.0057698532297023
                        0.0063363802819121
                        0.0068954764752727
                        0.0074295088444139
                        0.0079188984805890
                        0.0083432591233857
                        0.0086828774787863
                        0.0089203902451183
                        0.0090424386537646
                        0.0091014331096296
                        0.0002749667976631
                        0.0003139034839455
                        0.0003356118295216
                        0.0003690172080467
                        0.0004157029386503
                        0.0004768214768209
                        0.0005552952911238
                        0.0006560131881259
                        0.0007858098635839
                        0.0009540916786500
                        0.0011729593193330
                        0.0014490470693172
                        0.0017709910124664
                        0.0021169476659659
                        0.0024763915352055
                        0.0028546408255109
                        0.0032615686790714
                        0.0037034737307812
                        0.0041817206957033
                        0.0046937098929480
                        0.0052336119317564
                        0.0057925406248584
                        0.0063585138320640
                        0.0069165230978421
                        0.0074488962989146
                        0.0079360430688843
                        0.0083576003389365
                        0.0086939169606253
                        0.0089277310560624
                        0.0090458200909841
                        0.0091007489452373
                        0.0002491705171751
                        0.0002988675642802
                        0.0003273700152428
                        0.0003656068198616
                        0.0004162142945599
                        0.0004811164846991
                        0.0005634112937582
                        0.0006678499002979
                        0.0008010132471054
                        0.0009719923031350
                        0.0011924870628855
                        0.0014686876694456
                        0.0017893535234267
                        0.0021337184504135
                        0.0024923406450421
                        0.0028707124242841
                        0.0032783113598273
                        0.0037210444768431
                        0.0042000473553720
                        0.0047125976845943
                        0.0052527851937088
                        0.0058116556135875
                        0.0063771657888065
                        0.0069342568635019
                        0.0074652234416947
                        0.0079504659814394
                        0.0083696423314545
                        0.0087031560100583
                        0.0089338337146473
                        0.0090485713517690
                        0.0091000656563131
                        0.0002199754128194
                        0.0002795933944039
                        0.0003149976135098
                        0.0003588966314270
                        0.0004144643753685
                        0.0004841098806560
                        0.0005710782382306
                        0.0006799441800986
                        0.0008169381561529
                        0.0009907405163401
                        0.0012125937678969
                        0.0014882807747461
                        0.0018068789375133
                        0.0021489592134597
                        0.0025062901664864
                        0.0028845005080626
                        0.0032925914156410
                        0.0037360268025700
                        0.0042156941598061
                        0.0047287470890687
                        0.0052691996868540
                        0.0058280366797559
                        0.0063931608937310
                        0.0069494690185996
                        0.0074792264629461
                        0.0079628259575724
                        0.0083799444045386
                        0.0087110343563724
                        0.0089390015669995
                        0.0090508472773242
                        0.0090993831924207
                        0.0001879271470171
                        0.0002565333291729
                        0.0002985100444915
                        0.0003485286191464
                        0.0004101515018037
                        0.0004858492379584
                        0.0005787525400841
                        0.0006931014205985
                        0.0008346389105275
                        0.0010115475316985
                        0.0012345962405746
                        0.0015092519165104
                        0.0018251377442487
                        0.0021644122236984
                        0.0025201508305463
                        0.0028980642766052
                        0.0033065955143305
                        0.0037507146208875
                        0.0042310391722654
                        0.0047445915323392
                        0.0052853085126672
                        0.0058441138734323
                        0.0064088570122720
                        0.0069643910884802
                        0.0074929535319167
                        0.0079749308225201
                        0.0083900205500430
                        0.0087187259290601
                        0.0089440331638608
                        0.0090530497265137
                        0.0090987014932124
                        0.0001527053546935
                        0.0002302965536916
                        0.0002779494613926
                        0.0003336677561263
                        0.0004018530693669
                        0.0004847634735722
                        0.0005849357675295
                        0.0007058701138577
                        0.0008525517630269
                        0.0010325530337441
                        0.0012561899961429
                        0.0015287888787413
                        0.0018408496288121
                        0.0021764208072403
                        0.0025299649007964
                        0.0029071901719005
                        0.0033158880607843
                        0.0037604872335728
                        0.0042413232363509
                        0.0047552923674488
                        0.0052962655747946
                        0.0058551182796010
                        0.0064196579090092
                        0.0069747028142842
                        0.0075024670013652
                        0.0079833297666546
                        0.0083970019518095
                        0.0087240230013300
                        0.0089474383661081
                        0.0090544348120768
                        0.0090980205707864
                        0.0001155118253027
                        0.0002010324503409
                        0.0002540287175029
                        0.0003151172734657
                        0.0003907058133237
                        0.0004831630411725
                        0.0005937558385525
                        0.0007242626654450
                        0.0008782998111076
                        0.0010627627314226
                        0.0012877408418550
                        0.0015587203329742
                        0.0018673476384806
                        0.0021997258619367
                        0.0025517125482098
                        0.0029289322692244
                        0.0033384479781291
                        0.0037840907449020
                        0.0042658681569585
                        0.0047805077477362
                        0.0053217731604417
                        0.0058804525214703
                        0.0064442778534858
                        0.0069980087979686
                        0.0075238258852934
                        0.0080021089386816
                        0.0084126103350134
                        0.0087359555291962
                        0.0089553189857733
                        0.0090580523606865
                        0.0090973401996315
                        0.0000778811114094
                        0.0001721574306812
                        0.0002271785835703
                        0.0002901091724802
                        0.0003695642603631
                        0.0004686767763279
                        0.0005874138421569
                        0.0007251265071999
                        0.0008833812457377
                        0.0010680978450003
                        0.0012891218121018
                        0.0015525013980238
                        0.0018518610626313
                        0.0021759988577644
                        0.0025222268597630
                        0.0028958764088715
                        0.0033031463631312
                        0.0037472784182364
                        0.0042280589450297
                        0.0047422027723454
                        0.0052835397542496
                        0.0058429408763966
                        0.0064082118355498
                        0.0069641632622192
                        0.0074929937085693
                        0.0079750594930825
                        0.0083900421880219
                        0.0087184475754358
                        0.0089432853325198
                        0.0090517066044028
                        0.0090966610700705
                        0.0000463190540015
                        0.0001399024070077
                        0.0001931705536453
                        0.0002480377656016
                        0.0003146272318062
                        0.0003978687439373
                        0.0004987464082785
                        0.0006167685604607
                        0.0007527788340461
                        0.0009111761932200
                        0.0011000432977523
                        0.0013254980447955
                        0.0015846221572991
                        0.0018705563364866
                        0.0021824356207271
                        0.0025251239417825
                        0.0029040915380600
                        0.0033226259156487
                        0.0037813341210850
                        0.0042782439259202
                        0.0048087606240447
                        0.0053654372957170
                        0.0059377322434596
                        0.0065119274906524
                        0.0070713381847966
                        0.0075968997002808
                        0.0080681673837439
                        0.0084646928999015
                        0.0087676561012394
                        0.0089615509257344
                        0.0090959800557533
                        0.0000271366675245
                        0.0001019445287733
                        0.0001547214942158
                        0.0001978857194197
                        0.0002423858685354
                        0.0002959781858053
                        0.0003624975549524
                        0.0004435726315809
                        0.0005405850759679
                        0.0006564399416997
                        0.0007965244312464
                        0.0009658163124460
                        0.0011639826421000
                        0.0013880694567752
                        0.0016388912115926
                        0.0019210644252339
                        0.0022398235935305
                        0.0025991882213473
                        0.0030015173438591
                        0.0034474190241140
                        0.0039355469549665
                        0.0044622504805984
                        0.0050211923718012
                        0.0056030640688279
                        0.0061955132209740
                        0.0067833806378859
                        0.0073493146645399
                        0.0078747807714853
                        0.0083414138665436
                        0.0087325839569387
                        0.0090952846936959
                        0.0000302366091153
                        0.0000763763846894
                        0.0001302806089836
                        0.0001780355695954
                        0.0002239846470464
                        0.0002759819410892
                        0.0003393465638055
                        0.0004163618385823
                        0.0005081087059926
                        0.0006167887184278
                        0.0007473943803398
                        0.0009053328669926
                        0.0010911097672892
                        0.0013026930851116
                        0.0015414187024092
                        0.0018118713618179
                        0.0021191400639752
                        0.0024672953562734
                        0.0028589891015172
                        0.0032953128986706
                        0.0037755436868624
                        0.0042967568852317
                        0.0048534082781334
                        0.0054370025414537
                        0.0060359588868652
                        0.0066357731285649
                        0.0072195513809773
                        0.0077689445892927
                        0.0082654452767502
                        0.0086919308811176
                        0.0090945786162891
                        0.0000378411777395
                        0.0000631712451047
                        0.0001159664405258
                        0.0001767139391092
                        0.0002403749524460
                        0.0003104116587431
                        0.0003916599443114
                        0.0004863490464744
                        0.0005947866371506
                        0.0007187208002711
                        0.0008642590118102
                        0.0010390542105563
                        0.0012445362445350
                        0.0014785384200392
                        0.0017423863083075
                        0.0020405403142835
                        0.0023776879943358
                        0.0027572614486022
                        0.0031810261318307
                        0.0036488759596425
                        0.0041585140945533
                        0.0047050267921855
                        0.0052804636579287
                        0.0058735513906235
                        0.0064696594077109
                        0.0070511193338350
                        0.0075979658548001
                        0.0080891065793317
                        0.0085038459865143
                        0.0088235999020383
                        0.0090938728573292
                        0.0000410869653327
                        0.0000537589050658
                        0.0000971846198156
                        0.0001604665899141
                        0.0002363018405639
                        0.0003231793852679
                        0.0004223498536405
                        0.0005336163471287
                        0.0006551638340502
                        0.0007878635919852
                        0.0009394464986643
                        0.0011207417339052
                        0.0013346457633151
                        0.0015790416667146
                        0.0018552050710789
                        0.0021672737190729
                        0.0025193845061599
                        0.0029143560258250
                        0.0033532968417785
                        0.0038353469846356
                        0.0043573144885652
                        0.0049132405699473
                        0.0054940074539466
                        0.0060871129701952
                        0.0066767282509679
                        0.0072441359397786
                        0.0077686061629611
                        0.0082287010055832
                        0.0086039106712379
                        0.0088764351417944
                        0.0090931645723762
                        0.0000434745717248
                        0.0000482423839494
                        0.0000805564765530
                        0.0001399576515199
                        0.0002234268301958
                        0.0003286980888895
                        0.0004527209166346
                        0.0005889260478681
                        0.0007294337482490
                        0.0008729721841609
                        0.0010304237976534
                        0.0012179241282716
                        0.0014405266937750
                        0.0016960244698295
                        0.0019854759155285
                        0.0023125079469218
                        0.0026805176560415
                        0.0030915522323016
                        0.0035459357944504
                        0.0040419495159669
                        0.0045754241255792
                        0.0051393060483540
                        0.0057233082453494
                        0.0063137627333719
                        0.0068937851121013
                        0.0074438398559000
                        0.0079427493501856
                        0.0083691173143485
                        0.0087030467163849
                        0.0089279450678370
                        0.0090924545258026
                        0.0000448568358102
                        0.0000435958219678
                        0.0000641534043122
                        0.0001164314848566
                        0.0002046027159960
                        0.0003295118331294
                        0.0004836578476461
                        0.0006501022390194
                        0.0008117267468644
                        0.0009650993448818
                        0.0011258583614254
                        0.0013168761077508
                        0.0015459278872017
                        0.0018107762223042
                        0.0021121105085400
                        0.0024528197691134
                        0.0028353869155539
                        0.0032609981325087
                        0.0037291706823576
                        0.0042373519852942
                        0.0047804589631293
                        0.0053504443594965
                        0.0059359923795303
                        0.0065224488549287
                        0.0070920873103883
                        0.0076247893134306
                        0.0080991672155607
                        0.0084940806886782
                        0.0087904067040440
                        0.0089728390896848
                        0.0090917436206851
                </DataArray>
            </PointData>
        </Piece>
    </StructuredGrid>
</VTKFile>