<?xml version="1.0"?>
<VTKFile type="StructuredGrid" version="0.1" byte_order="LittleEndian" header_type="UInt32" compressor="vtkZLibDataCompressor">
  <StructuredGrid WholeExtent="0 30 0 40 0 0">
  <Piece Extent="0 30 0 40 0 0">
    <PointData>
      <DataArray type="Float32" Name="orthogonality" format="ascii" RangeMin="0" RangeMax="0.43161848187446594">
        0 0.021845989 0.043513987 0.06483132 0.08563389 0.10576977
        0.12510201 0.14351074 0.16089451 0.17717135 0.19227962 0.2061792
        0.21885301 0.23030898 0.24058214 0.24973607 0.25786325 0.2650838
        0.27154195 0.2774017 0.28284127 0.28804886 0.2932201 0.29855996
        0.30429122 0.31067514 0.31805867 0.3269968 0.33868498 0.356959
        0.3983152 1.7442117e-05 0.021938846 0.043717586 0.06514636 0.08606091
        0.10630934 0.12575479 0.14427748 0.16177616 0.17816906 0.1933949
        0.20741409 0.22021054 0.23179366 0.24220079 0.25149873 0.25978428
        0.2671829 0.27384537 0.2799434 0.28566432 0.29120702 0.29678047
        0.30260694 0.30893293 0.31605506 0.3243762 0.3345377 0.3477501
        0.366491 0.39602458 3.3383072e-05 0.02203435 0.043925002 0.06546643
        0.08649427 0.10685666 0.12641686 0.14505531 0.1626709 0.17918214
        0.19452816 0.20866998 0.22159246 0.23330657 0.24385187 0.25329837
        0.261747 0.26932845 0.2761998 0.28254 0.2885449 0.2944234
        0.30039647 0.30670124 0.31360346 0.3214248 0.33059844 0.3417737
        0.35594854 0.37415373 0.39460367 4.74921e-05 0.02213321 0.044137347
        0.0657931 0.086936034 0.10741442 0.1270917 0.14584854 0.16358416
        0.18021739 0.1956878 0.20995714 0.22301124 0.23486261 0.24555302
        0.25515544 0.26377475 0.27154642 0.27863336 0.28522113 0.29151306
        0.2977265 0.30409184 0.3108563 0.31829542 0.32673505 0.336586
        0.3483677 0.3625673 0.37876305 0.39358228 5.982284e-05 0.022234172
        0.044352144 0.066122636 0.087381214 0.10797628 0.12777154 0.14664796
        0.16450506 0.18126215 0.19685929 0.2112589 0.22444788 0.23644017
        0.24727955 0.2570418 0.26583537 0.27380005 0.28110376 0.28793782
        0.29451174 0.30104923 0.3077867 0.31497553 0.32288897 0.33183217
        0.3421408 0.35410947 0.36767733 0.38160232 0.39277792 7.054709e-05
        0.022336755 0.044568606 0.06645393 0.08782834 0.10854043 0.1284542
        0.14745094 0.16543064 0.18231298 0.19803865 0.21257079 0.22589724
        0.23803334 0.24902475 0.2589497 0.26791972 0.27607837 0.2835979
        0.29067412 0.29752117 0.30436674 0.3114492 0.31901696 0.32732806
        0.33664253 0.3471811 0.3589831 0.37156114 0.3833951 0.3921133
        7.985217e-05 0.022440797 0.044786584 0.06678686 0.08827731 0.10910677
        0.1291396 0.14825746 0.16636081 0.18336986 0.1992259 0.21389277
        0.22735932 0.23964211 0.25078845 0.26087874 0.27002713 0.27838024
        0.28611365 0.29342654 0.30053574 0.3076702 0.31506586 0.3229606
        0.3315845 0.34113288 0.35169163 0.3630669 0.37451228 0.3845581
        0.3915514 8.790555e-05 0.022546252 0.045006163 0.06712163 0.08872845
        0.10967577 0.12982832 0.14906825 0.1672965 0.18443386 0.20042227
        0.21522634 0.22883578 0.24126832 0.25257272 0.26283106 0.2721597
        0.28070754 0.28865245 0.29619554 0.30355448 0.31095633 0.31863
        0.32679552 0.33564404 0.34529358 0.35569525 0.36647436 0.37677538
        0.38533598 0.39107135 9.4846415e-05 0.022653122 0.045227475 0.0674585
        0.089182176 0.110247985 0.13052109 0.14988418 0.16823874 0.18550622
        0.20162922 0.21657312 0.2303285 0.24291408 0.2543798 0.26480916
        0.27431992 0.2830626 0.29121625 0.2989824 0.30657732 0.31422326
        0.3221373 0.33051503 0.33950064 0.34913036 0.35923553 0.3693229
        0.3785379 0.38587528 0.39065948 0.00010078739 0.02276141 0.04545065
        0.06779773 0.08963885 0.1108239 0.13121854 0.15070602 0.16918847
        0.18658803 0.20284803 0.21793462 0.23183917 0.24458128 0.2562118
        0.26681516 0.27651003 0.2854475 0.29380676 0.3017881 0.3096042
        0.31746927 0.32558438 0.33411524 0.34315443 0.3526591 0.36236522
        0.37171972 0.37993822 0.38626546 0.39030585 0.0001058191 0.022871127
        0.04567579 0.06813951 0.09009878 0.11140393 0.13192117 0.1515344
        0.17014644 0.18768018 0.20407973 0.219312 0.23336913 0.2462714
        0.2580703 0.26885074 0.2787316 0.28786376 0.29642507 0.30461305
        0.31263453 0.3206927 0.32896876 0.3375947 0.34661028 0.35590225
        0.36513922 0.37375668 0.38107687 0.38656247 0.39000273 0.00011001496
        0.022982273 0.045902975 0.06848399 0.09056219 0.111988366 0.13262938
        0.15236978 0.17111321 0.18878333 0.20532508 0.22070615 0.23491937
        0.24798557 0.25995654 0.2709172 0.28098595 0.29031232 0.2990718
        0.30745724 0.3156675 0.3238919 0.33228877 0.34095412 0.34987712
        0.35888624 0.36761057 0.3755099 0.38202664 0.38680205 0.38974413
        0.0001134352 0.023094844 0.046132248 0.068831295 0.091029234 0.11257744
        0.13334343 0.15321253 0.17208919 0.18989798 0.20658468 0.22211777
        0.2364907 0.24972466 0.26187143 0.27301544 0.2832738 0.2927938
        0.30174714 0.3103204 0.31870222 0.32706568 0.33554393 0.34419665
        0.3529669 0.3616393 0.36982802 0.37704113 0.3828404 0.38700768
        0.3895253 0.00011613 0.023208832 0.04636365 0.06918148 0.09150003
        0.11317131 0.13406353 0.15406288 0.1730747 0.1910245 0.20785895
        0.22354731 0.23808363 0.25148925 0.26381558 0.27514604 0.2855957
        0.2953086 0.30445117 0.3132021 0.32173792 0.33021337 0.33873507
        0.34732738 0.35589394 0.36418995 0.37183532 0.37840033 0.38355705
        0.38719532 0.38934255 0.00011814188 0.023324227 0.046597205 0.06953461
        0.091974676 0.113770075 0.13478984 0.15492103 0.17406996 0.19216312
        0.20914818 0.22499517 0.23969857 0.25327978 0.26578948 0.27730945
        0.287952 0.2978568 0.30718377 0.31610206 0.32477418 0.333335
        0.34186423 0.3503533 0.35867405 0.3665662 0.37367108 0.37962767
        0.38420564 0.38737616 0.38919297 0.00011950732 0.023441017 0.046832915
        0.0698907 0.09245321 0.11437383 0.13552245 0.15578708 0.1750751
        0.19331406 0.21045259 0.22646156 0.24133584 0.25509658 0.26779345
        0.279506 0.290343 0.30043858 0.30994493 0.31902003 0.32781094
        0.3364315 0.3449348 0.35328293 0.36132398 0.36879468 0.37536892
        0.38075563 0.38480818 0.3875584 0.38907444 0.000120258126 0.023559187
        0.04707079 0.07024979 0.09293568 0.11498263 0.13626143 0.15666114
        0.17609023 0.19447741 0.21177234 0.22794667 0.2429956 0.25693986
        0.26982772 0.28173593 0.29276878 0.30305403 0.31273466 0.3219561
        0.33084866 0.3395046 0.3479514 0.356126 0.36386102 0.37090045
        0.3769582 0.38181072 0.38538194 0.3877483 0.38898537 0.00012042227
        0.023678722 0.047310825 0.07061189 0.09342209 0.11559648 0.13700682
        0.15754324 0.17711541 0.19565324 0.2131075 0.2294506 0.24467799
        0.2588098 0.27189246 0.28399935 0.2952296 0.3057033 0.31555313
        0.32491064 0.33388838 0.34255683 0.35091972 0.35889336 0.3663025
        0.3729068 0.37846443 0.38281485 0.38594055 0.3879509 0.38892457
        0.00012002458 0.023799606 0.047553014 0.07097698 0.093912475 0.11621542
        0.13775863 0.15843341 0.17815068 0.19684163 0.21445811 0.23097341
        0.2463831 0.26070648 0.2739878 0.2862965 0.2977256 0.30838662
        0.31840065 0.32788435 0.33693168 0.34559163 0.35384637 0.3615964
        0.36866543 0.37483528 0.37990996 0.3837864 0.38649538 0.38817042
        0.38889134 0.00011908728 0.023921825 0.04779735 0.071345076 0.094406806
        0.116839446 0.13851687 0.15933166 0.17919604 0.19804253 0.21582422
        0.23251513 0.24811096 0.26263 0.27611384 0.28862745 0.30025694
        0.3111043 0.32127783 0.33087832 0.3399807 0.3486132 0.3567389
        0.36424714 0.37096664 0.3767059 0.3813146 0.3847412 0.38705608
        0.38841072 0.38888532 0.000117630305 0.024045363 0.048043817 0.07171616
        0.09490509 0.117468536 0.13928156 0.16023798 0.18025148 0.19925597
        0.21720578 0.23407575 0.24986158 0.2645803 0.27827063 0.29099238
        0.30282396 0.31385672 0.3241854 0.33389398 0.34303817 0.35162643
        0.3596054 0.3668579 0.37322244 0.37853715 0.38269597 0.38569292
        0.38763106 0.38867533 0.38890642 0.00011567168 0.024170205 0.048292402
        0.072090216 0.09540732 0.1181027 0.14005263 0.16115235 0.18131697
        0.20048189 0.21860276 0.23565523 0.25163496 0.2665575 0.2804583
        0.29339147 0.3054269 0.31664452 0.32712445 0.33693323 0.3461074
        0.35463682 0.36245465 0.36944112 0.37544858 0.38034633 0.3840701
        0.38665405 0.3882281 0.3889677 0.38895485 0.000113227696 0.024296334
        0.048543092 0.07246724 0.09591346 0.11874189 0.14083008 0.16207471
        0.18239245 0.20172025 0.22001511 0.23725353 0.25343102 0.26856157
        0.2826769 0.29582486 0.3080662 0.3194684 0.3300962 0.33999825
        0.34919208 0.35765055 0.36529595 0.37200952 0.37766045 0.38214964
        0.38545176 0.38763598 0.38885444 0.38929132 0.38903105 0.00011031314
        0.024423733 0.048795868 0.0728472 0.09642351 0.11938609 0.14161389
        0.16300504 0.18347788 0.20297097 0.22144273 0.23887055 0.25524974
        0.27059248 0.28492647 0.29829282 0.3107423 0.32232925 0.3331022
        0.34309164 0.3522966 0.36067426 0.36813885 0.37457573 0.37987295
        0.38396254 0.3868549 0.38864952 0.38951737 0.3896499 0.38913578
        0.00010694148 0.02455239 0.04905071 0.07323009 0.09693742 0.12003527
        0.14240398 0.16394328 0.18457316 0.20423396 0.22288555 0.2405062
        0.25709102 0.2726502 0.28720713 0.30079558 0.31345576 0.32522807
        0.33614424 0.34621638 0.35542557 0.36371505 0.37099338 0.3771525
        0.38210064 0.38579985 0.3882928 0.38970527 0.390224 0.39004734
        0.38926998 0.000103124985 0.024682287 0.049307603 0.073615864 0.09745517
        0.120689385 0.14320031 0.16488934 0.18567824 0.20550913 0.22434343
        0.24216036 0.25895473 0.2747347 0.28951895 0.30333346 0.31620723
        0.328166 0.33922434 0.34937575 0.35858417 0.36678046 0.37386975
        0.3797526 0.38435787 0.38767606 0.38977852 0.39081374 0.39098194
        0.39048806 0.3894349 9.88749e-05 0.024813408 0.049566522 0.07400451
        0.097976714 0.12134838 0.14400284 0.16584316 0.18679301 0.20679635
        0.22581626 0.2438329 0.26084083 0.27684593 0.291862 0.30590677
        0.31899738 0.33114445 0.34234473 0.3525734 0.3617779 0.36987835
        0.3767784 0.38238874 0.3866588 0.38960534 0.39132512 0.39198574
        0.39179915 0.39097682 0.3896321 9.4201605e-05 0.024945738 0.049827445
        0.074395984 0.098502025 0.12201222 0.14481148 0.16680466 0.18791735
        0.2080955 0.22730388 0.24552366 0.26274914 0.27898386 0.2942364
        0.30851588 0.32182708 0.33416483 0.34550795 0.3558132 0.3650126
        0.3730169 0.37973002 0.38507375 0.38901752 0.39160198 0.39294583
        0.3932327 0.3926844 0.39151916 0.38986346 8.911476e-05 0.025079258
        0.05009035 0.07479027 0.09903106 0.12268084 0.14562616 0.16777374
        0.18905117 0.20940644 0.22880611 0.24723247 0.26467952 0.28114837
        0.2966422 0.31116116 0.32469714 0.3372288 0.34871665 0.35909942
        0.36829445 0.3762046 0.3827355 0.3878205 0.39144817 0.39368042
        0.39465442 0.39456674 0.3936474 0.39212143 0.3901312 8.362351e-05
        0.025213953 0.050355207 0.075187325 0.09956377 0.12335418 0.14644681
        0.16875029 0.1901943 0.21072897 0.23032278 0.24895912 0.2666318
        0.2833394 0.29907957 0.31384304 0.32760853 0.34033808 0.3519737
        0.36243647 0.37162983 0.37945017 0.38580582 0.39064208 0.39396513
        0.3958555 0.3964653 0.39600107 0.3946991 0.39279106 0.390438
        7.773673e-05 0.025349801 0.050621986 0.0755871 0.100100085 0.124032155
        0.14727332 0.16973418 0.1913466 0.21206294 0.23185365 0.2507034
        0.26860577 0.28555685 0.3015485 0.31656197 0.33056226 0.3434945
        0.35528222 0.36582902 0.37502548 0.38276252 0.3889522 0.39355153
        0.3965829 0.3981425 0.39839393 0.39755034 0.3958521 0.39353687
        0.39078707 7.146329e-05 0.02548678 0.050890654 0.07598955 0.100639954
        0.124714695 0.14810558 0.17072527 0.1925079 0.21340811 0.2333985
        0.25246504 0.27060118 0.28780055 0.30404916 0.31931838 0.33355936
        0.34670007 0.35864538 0.36928198 0.3784882 0.38615075 0.39218593
        0.39656225 0.39931646 0.4005575 0.4004569 0.39923096 0.397121
        0.3943694 0.39118233 6.4812455e-05 0.025624868 0.051161166 0.076394625
        0.101183295 0.12540169 0.14894347 0.17172341 0.19367799 0.21476427
        0.23495701 0.25424373 0.2726178 0.29007033 0.3065815 0.3221127
        0.33660096 0.34995675 0.36206654 0.37280026 0.38202506 0.38962406
        0.39551848 0.3996877 0.40218112 0.4031174 0.40267238 0.4010614
        0.39852315 0.39530158 0.39162847 5.779441e-05 0.025764031 0.051433478
        0.07680224 0.10173002 0.12609302 0.14978683 0.17272842 0.19485663
        0.21613109 0.23652887 0.25603908 0.2746552 0.2923659 0.3091455
        0.32494533 0.33968806 0.35326666 0.3655491 0.3763891 0.38564315
        0.39319178 0.39896137 0.40294158 0.40519267 0.40584007 0.40506014
        0.40306288 0.40007913 0.39634958 0.39213133 5.042098e-05 0.025904234
        0.051707517 0.07721231 0.10228 0.12678854 0.15063548 0.17374001
        0.19604352 0.21750823 0.23811367 0.25785068 0.27671298 0.29468697
        0.3117411 0.32781658 0.3428217 0.3566318 0.36909643 0.38005352
        0.3893496 0.39686322 0.40252614 0.40633777 0.40836737 0.4087445
        0.40764213 0.40525976 0.40181383 0.3975338 0.39269832 4.270667e-05
        0.02604543 0.051983215 0.07762473 0.102833085 0.12748805 0.15148917
        0.17475794 0.19723831 0.21889526 0.2397109 0.25967798 0.27879056
        0.297033 0.31436798 0.33072665 0.3460028 0.36005414 0.37271196
        0.38379866 0.3931515 0.40064752 0.40622425 0.40989012 0.41172194
        0.41185075 0.41044235 0.4076802 0.4037577 0.39888078 0.3933388
        3.4670204e-05 0.026187554 0.05226045 0.07803933 0.103389084 0.12819128
        0.15234756 0.17578177 0.19844052 0.2202916 0.2413199 0.2615202
        0.28088722 0.29940334 0.31702572 0.33367547 0.349232 0.3635354
        0.37639877 0.38762936 0.3970556 0.40455365 0.41006687 0.41361237
        0.41527325 0.41517985 0.41348726 0.41035682 0.4059483 0.40042588
        0.39406538 2.6336837e-05 0.026330516 0.052539077 0.07845591 0.10394769
        0.12889789 0.15321024 0.17681098 0.19964948 0.2216965 0.24293977
        0.26337636 0.28300187 0.30179694 0.31971344 0.33666265 0.35250962
        0.36707696 0.38015965 0.39155003 0.40106815 0.40858984 0.41406447
        0.41751772 0.4190381 0.41875356 0.41680548 0.4133272 0.40843248
        0.40221766 0.39489514 1.7742006e-05 0.026474183 0.05281887 0.07887413
        0.104508504 0.12960735 0.15407653 0.17784478 0.20086427 0.22310883
        0.24456924 0.26524505 0.28513294 0.30421224 0.32242972 0.33968708
        0.3558353 0.3706794 0.3839965 0.39556417 0.4051945 0.41276327
        0.41822645 0.42161822 0.42303234 0.42259356 0.42042744 0.41663423
        0.41126886 0.4043251 0.39585245 8.937227e-06 0.026618363 0.05309948
        0.07929351 0.10507085 0.13031882 0.15494543 0.17888197 0.20208347
        0.22452697 0.24620643 0.26712415 0.28727818 0.3066468 0.32517213
        0.34274668 0.3592074 0.37434205 0.3879098 0.39967373 0.4094381
        0.41707918 0.4225599 0.42592362 0.42726976 0.42672017 0.424384
        0.42032582 0.41453096 0.40684983 0.3969736 0 0.026762694
        0.05338026 0.07971307 0.105633415 0.13103053 0.15581465 0.17991954
        0.2033032 0.22594586 0.24784476 0.26900497 0.28942603 0.30908537
        0.3279206 0.34581512 0.36259216 0.37802234 0.3918472 0.40381548
        0.41372406 0.42145002 0.4269637 0.43031797 0.43161848 0.43098468
        0.4285104 0.42422536 0.4180457 0.4096738 0.3983152
      </DataArray>
      <DataArray type="Float32" Name="aspect_ratio" format="ascii" RangeMin="1.269256830215454" RangeMax="8.7217435836792">
        7.993691 7.95241 7.8872404 7.779256 7.630945 7.445645
        7.2273707 6.980628 6.7102146 6.421036 6.117931 5.8055267
        5.4881186 5.1695857 4.853337 4.5422854 4.2388535 3.9449942
        3.6622307 3.3917007 3.1342056 2.8902557 2.6601107 2.4438164
        2.2412348 2.0520666 1.8758643 1.7120086 1.5595417 1.4162662
        1.2692568 8.010175 7.968643 7.9031386 7.794689 7.6457925
        7.459799 7.2407384 6.9931297 6.7217894 6.431638 6.1275325
        5.8141174 5.495707 5.1762013 4.8590293 4.5471244 4.242929
        3.9484127 3.6651123 3.394176 3.136411 2.892331 2.6621985
        2.4460666 2.2438145 2.0551863 1.8798406 1.7174624 1.5681914
        1.4345529 1.3069698 8.026739 7.9849424 7.919088 7.8101573
        7.6606603 7.4739594 7.254098 7.0056124 6.7333326 6.4421983
        6.1370826 5.822649 5.503231 5.182749 4.8646526 4.551898
        4.246948 3.9517891 3.6679747 3.396663 3.138669 2.8945117
        2.6644607 2.448581 2.24678 2.058865 1.884642 1.7241445
        1.5782381 1.4495214 1.3308195 8.043387 8.001312 7.9350924
        7.8256674 7.6755557 7.4881334 7.267459 7.018083 6.744853
        6.452725 6.1465898 5.8311286 5.5106955 5.189232 4.8702097
        4.5566077 4.2509093 3.9551227 3.6708155 3.3991587 3.1409767
        2.8967955 2.666894 2.451354 2.2501192 2.06307 1.8901587
        1.731664 1.5885915 1.4624918 1.3468462 8.060119 8.017774
        7.951197 7.8412843 7.6905646 7.5024266 7.280944 7.0306826
        6.756506 6.463386 6.1562324 5.8397446 5.518297 5.1958528
        4.8759074 4.561463 4.255026 3.958625 3.6738458 3.4018729
        3.1435404 2.899384 2.6696937 2.4545712 2.2539966 2.067918
        1.8963884 1.7397556 1.5987474 1.4737115 1.3583268 8.076934
        8.034333 7.967414 7.857026 7.7057104 7.516869 7.2945886
        7.0434504 6.768334 6.474229 6.1660614 5.8485503 5.526091
        5.202669 4.8818035 4.566522 4.2593555 3.9623544 3.677123
        3.4048607 3.1464133 2.9023266 2.6729023 2.4582617 2.258416
        2.073358 1.9031718 1.748107 1.6084154 1.4834567 1.3670697
        8.093832 8.050991 7.9837427 7.872893 7.720994 7.5314603
        7.308392 7.0563865 6.780339 6.4852543 6.176078 5.8575473
        5.5340796 5.209682 4.8879004 4.5717874 4.2639 3.9663115
        3.6806462 3.4081197 3.1495898 2.9056125 2.6765013 2.4623919
        2.2633152 2.079275 1.9103099 1.7564569 1.6174554 1.4919835
        1.3740932 8.110814 8.067745 8.000179 7.88888 7.736408
        7.546192 7.3223457 7.0694804 6.7925076 6.4964495 6.1862683
        5.866721 5.542247 5.2168765 4.8941817 4.577242 4.268641
        3.970477 3.684395 3.4116273 3.1530437 2.9092104 2.6804492
        2.4669042 2.268607 2.0855346 1.9176165 1.764617 1.6258217
        1.4995097 1.3799837 8.127881 8.084595 8.016721 7.90498
        7.751945 7.5610547 7.336437 7.082719 6.8048263 6.5077987
        6.1966157 5.876055 5.5505753 5.224234 4.9006286 4.5828667
        4.273559 3.9748302 3.6883466 3.4153574 3.156745 2.9130836
        2.684699 2.471733 2.2741983 2.0920074 1.9249362 1.7724644
        1.6335238 1.5062122 1.3850884 8.145032 8.101536 8.033363
        7.9211884 7.7675967 7.576039 7.350656 7.09609 6.817282
        6.519288 6.207106 5.885533 5.55905 5.231739 4.907224
        4.5886436 4.2786355 3.979351 3.6924787 3.4192848 3.1606638
        2.9171948 2.6892023 2.476813 2.2799988 2.0985787 1.9321489
        1.7799271 1.6405984 1.5122315 1.3896191 8.162267 8.11857
        8.050103 7.937501 7.783358 7.5911374 7.3649945 7.1095843
        6.829865 6.530908 6.217729 5.8951445 5.567659 5.239379
        4.913957 4.5945597 4.283856 3.984023 3.6967726 3.423388
        3.164773 2.921509 2.6939116 2.4820802 2.2859254 2.1051505
        1.9391663 1.786969 1.6470944 1.5176774 1.3937092 8.179588
        8.1356945 8.066939 7.953914 7.799225 7.606346 7.379447
        7.123196 6.842568 6.5426497 6.2284756 5.9048815 5.5763936
        5.247145 4.920817 4.6006055 4.289209 3.9888334 3.701213
        3.4276466 3.169047 2.9259927 2.698782 2.4874747 2.2919035
        2.1116426 1.9459261 1.7935771 1.6530621 1.5226353 1.3974452
        8.196995 8.15291 8.08387 7.970426 7.815194 7.621661
        7.3940086 7.136921 6.8553863 6.554509 6.239341 5.9147377
        5.5852485 5.255032 4.9277973 4.6067724 4.2946863 3.9937718
        3.705786 3.4320436 3.1734622 2.9306135 2.7037706 2.4929411
        2.2978675 2.1179905 1.9523863 1.7997537 1.6585497 1.5271714
        1.4008856 8.214488 8.170216 8.100895 7.9870353 7.831264
        7.6370792 7.408677 7.1507545 6.868316 6.566482 6.2503214
        5.9247103 5.59422 5.2630353 4.934895 4.6130567 4.300281
        3.998829 3.71048 3.4365623 3.1779962 2.935341 2.7088368
        2.4984283 2.3037608 2.1241438 1.9585202 1.8055091 1.6635996
        1.5313368 1.4040703 8.232068 8.187612 8.118012 8.003741
        7.847433 7.6526003 7.4234505 7.1646957 6.8813562 6.578567
        6.2614155 5.9347973 5.603307 5.2711535 4.9421062 4.6194544
        4.3059883 4.003998 3.7152839 3.4411871 3.1826272 2.9401455
        2.7139416 2.5038903 2.309535 2.1300638 1.9643118 1.8108577
        1.6682487 1.5351709 1.4070274 8.249735 8.205098 8.135224
        8.020542 7.863701 7.668222 7.4383273 7.178744 6.8945045
        6.5907626 6.272622 5.944998 5.612507 5.279385 4.94943
        4.6259627 4.3118043 4.009272 3.7201881 3.4459038 3.1873343
        2.9449985 2.719049 2.509285 2.315149 2.13572 1.9697529
        1.8158149 1.6725271 1.5387038 1.4097763 8.267491 8.222676
        8.152529 8.03744 7.880067 7.6839447 7.453308 7.1928973
        6.9077616 6.603069 6.283941 5.955312 5.621821 5.2877297
        4.956866 4.63258 4.317725 4.0146456 3.725183 3.4506974
        3.192097 2.9498727 2.724125 2.5145748 2.320568 2.14109
        1.9748393 1.8203955 1.6764598 1.5419583 1.4123307 8.285336
        8.240345 8.169928 8.054433 7.896531 7.6997685 7.468392
        7.207157 6.921127 6.6154857 6.295372 5.9657397 5.6312494
        5.296189 4.964413 4.639305 4.323748 4.0201125 3.7302592
        3.4555542 3.1968954 2.9547417 2.729138 2.5197265 2.3257635
        2.1461563 1.9795704 1.8246131 1.6800661 1.544951 1.4146996
        8.303269 8.258106 8.18742 8.071522 7.9130936 7.7156925
        7.483579 7.2215223 6.934601 6.628014 6.306917 5.9762826
        5.640794 5.3047624 4.9720726 4.6461377 4.3298707 4.025668
        3.7354078 3.4604604 3.20171 2.9595807 2.7340586 2.5247102
        2.3307104 2.150906 1.9839462 1.8284785 1.6833608 1.5476935
        1.4168879 8.321294 8.275959 8.205007 8.088708 7.9297547
        7.7317176 7.49887 7.235995 6.9481845 6.6406546 6.318577
        5.9869423 5.650455 5.313452 4.979845 4.653077 4.33609
        4.0313067 3.74062 3.4654024 3.206522 2.9643655 2.7388601
        2.5294998 2.3353884 2.155328 1.9879676 1.8320005 1.6863542
        1.5501932 1.4188976 8.339408 8.293905 8.222687 8.105989
        7.9465146 7.747844 7.5142655 7.250574 6.9618783 6.653409
        6.330353 5.9977202 5.6602354 5.3222594 4.9877315 4.660123
        4.3424053 4.0370235 3.7458868 3.470367 3.2113135 2.969074
        2.7435179 2.5340717 2.33978 2.1594143 1.991635 1.8351847
        1.6890529 1.5524539 1.420728 8.3576145 8.311945 8.240463
        8.123368 7.963374 7.764073 7.5297656 7.2652617 6.975684
        6.666278 6.342247 6.0086184 5.6701365 5.3311863 4.995733
        4.6672754 4.3488135 4.0428143 3.7512002 3.4753413 3.216067
        2.9736853 2.7480092 2.5384052 2.34387 2.163157 1.9949478
        1.8380345 1.6914598 1.5544758 1.4223757 8.375913 8.330078
        8.258335 8.140845 7.9803333 7.7804046 7.5453715 7.2800584
        6.989602 6.679263 6.3542604 6.0196385 5.680161 5.340235
        5.0038505 4.6745353 4.3553133 4.0486746 3.7565517 3.480313
        3.2207663 2.9781792 2.7523134 2.542482 2.3476448 2.1665492
        1.9979043 1.8405501 1.6935743 1.5562562 1.4238348 8.394303
        8.348306 8.276302 8.158421 7.997393 7.796839 7.561084
        7.2949653 7.0036345 6.692366 6.3663955 6.030783 5.690311
        5.3494077 5.012087 4.681902 4.3619027 4.0545993 3.761934
        3.4852707 3.2253957 2.9825382 2.756412 2.5462856 2.3510926
        2.169584 2.0005012 1.8427293 1.6953931 1.5577891 1.425097
        8.412787 8.366629 8.294367 8.176094 8.014554 7.813378
        7.576904 7.3099833 7.017782 6.7055893 6.378655 6.0420547
        5.700589 5.3587065 5.020443 4.6893773 4.368582 4.060585
        3.7673392 3.490203 3.2299402 2.9867449 2.7602878 2.549801
        2.354202 2.172254 2.0027335 1.8445672 1.6969092 1.5590658
        1.4261514 8.431366 8.385047 8.312529 8.193867 8.031817
        7.830022 7.592832 7.3251143 7.032047 6.718934 6.39104
        6.053456 5.710998 5.368134 5.0289216 4.6969614 4.375348
        4.0666275 3.7727606 3.4950988 3.2343867 2.9907842 2.7639256
        2.553015 2.3569632 2.1745522 2.0045946 1.846056 1.6981128
        1.5600746 1.4269842 8.450039 8.403562 8.330788 8.21174
        8.049183 7.8467712 7.60887 7.3403587 7.0464306 6.7324023
        6.4035535 6.0649886 5.721541 5.3776937 5.0375247 4.7046556
        4.3822017 4.0727243 3.7781916 3.4999495 3.2387226 2.994642
        2.767311 2.5559149 2.359366 2.1764693 2.0060759 1.8471854
        1.6989912 1.5608003 1.4275787 8.468806 8.4221735 8.349146
        8.229713 8.066652 7.863628 7.625019 7.355719 7.0609345
        6.745997 6.416198 6.076657 5.73222 5.3873878 5.0462546
        4.7124615 4.389142 4.078872 3.783626 3.504745 3.2429361
        2.9983053 2.770432 2.55849 2.3614004 2.1779969 2.007167
        1.8479421 1.6995279 1.5612246 1.4279146 8.487671 8.440883
        8.367603 8.247788 8.084226 7.8805923 7.64128 7.371196
        7.0755606 6.759719 6.4289756 6.088463 5.74304 5.39722
        5.0551147 4.7203813 4.396169 4.085069 3.7890594 3.509478
        3.2470174 3.0017626 2.7732768 2.5607295 2.363057 2.179124
        2.0078557 1.8483104 1.6997032 1.5613248 1.4279679 8.506631
        8.45969 8.386161 8.265965 8.101904 7.897666 7.657655
        7.3867917 7.090311 6.7735715 6.4418902 6.1004105 5.7540035
        5.4071946 5.0641084 4.7284164 4.403284 4.0913124 3.794487
        3.5141413 3.2509568 3.005004 2.7758355 2.5626237 2.364326
        2.1798406 2.0081272 1.8482713 1.6994938 1.5610747 1.4277093
        8.525689 8.478597 8.404819 8.284246 8.11969 7.9148498
        7.6741443 7.4025073 7.1051884 6.7875576 6.454944 6.112503
        5.7651143 5.4173145 5.0732384 4.7365704 4.4104877 4.0976024
        3.799905 3.5187287 3.254747 3.0080204 2.7780988 2.5641644
        2.3651984 2.180134 2.007966 1.8478032 1.6988722 1.5604424
        1.4271044 8.544845 8.497602 8.423578 8.302631 8.137583
        7.9321456 7.6907506 7.418346 7.1201944 6.801679 6.4681416
        6.1247444 5.7763777 5.4275846 5.08251 4.7448463 4.4177823
        4.103938 3.8053114 3.5232356 3.2583807 3.0108047 2.7800596
        2.565343 2.3656642 2.1799922 2.0073543 1.8468816 1.6978066
        1.5593904 1.4261113 8.564098 8.516709 8.44244 8.321121
        8.155584 7.949555 7.707475 7.4343095 7.135332 6.8159404
        6.481485 6.137139 5.7877975 5.4380107 5.0919275 4.753249
        4.4251704 4.1103206 3.8107042 3.5276577 3.261853 3.01335
        2.7817109 2.5661526 2.3657153 2.179402 2.0062726 1.8454785
        1.6962601 1.5578744 1.4246798 8.583451 8.535916 8.461406
        8.339719 8.173697 7.967079 7.7243214 7.4504004 7.150605
        6.8303447 6.49498 6.149691 5.7993793 5.4485974 5.101497
        4.7617826 4.432656 4.116752 3.8160837 3.5319939 3.2651603
        3.0156527 2.7830477 2.5665872 2.3653424 2.1783507 2.0047004
        1.8435638 1.6941905 1.5558414 1.422748 8.602904 8.555225
        8.480475 8.358424 8.191923 7.984722 7.7412915 7.4666224
        7.166017 6.8448963 6.508631 6.162408 5.81113 5.459352
        5.111225 4.7704544 4.4402437 4.123236 3.8214512 3.536243
        3.2683008 3.0177093 2.7840667 2.566642 2.364539 2.1768255
        2.0026166 1.8411039 1.6915498 1.5532281 1.4202396 8.6224575
        8.574638 8.499652 8.37724 8.210264 8.002485 7.758389
        7.4829793 7.1815724 6.859601 6.5224447 6.175295 5.823057
        5.470283 5.1211205 4.779272 4.4479423 4.1297784 3.8268106
        3.540407 3.2712746 3.0195196 2.7847667 2.566315 2.3632987
        2.174815 2.0000005 1.8380638 1.6882834 1.5499583 1.4170582
        8.642111 8.594155 8.518936 8.396169 8.228723 8.020374
        7.775619 7.4994774 7.197278 6.874466 6.536429 6.188362
        5.8351703 5.4814005 5.1311936 4.788246 4.45576 4.136387
        3.8321683 3.5444906 3.2740848 3.021086 2.785149 2.5656056
        2.361619 2.1723099 1.9968323 1.8344076 1.6843308 1.5459391
        1.4130803 8.661866 8.613777 8.538331 8.415214 8.247305
        8.038393 7.792988 7.5161233 7.2131424 6.8895006 6.550594
        6.20162 5.8474817 5.4927177 5.1414585 4.7973905 4.4637103
        4.1430736 3.8375344 3.548502 3.276739 3.0224142 2.7852192
        2.564518 2.359501 2.1693056 1.9930962 1.8301002 1.6796255
        1.5410565 1.4081427 8.681723 8.633507 8.55784 8.43438
        8.266017 8.05655 7.810505 7.532928 7.2291765 6.9047174
        6.564954 6.2150855 5.860009 5.504253 5.151934 4.8067245
        4.4718127 4.149856 3.8429246 3.552456 3.2792492 3.0235162
        2.784988 2.5630622 2.3569512 2.1658037 1.988783 1.8251116
        1.6740981 1.5351679 1.4020243 8.701682 8.653347 8.577468
        8.453674 8.284867 8.074858 7.8281837 7.549907 7.245399
        6.9201374 6.5795307 6.2287807 5.872776 5.516032 5.1626477
        4.8162756 4.480094 4.156761 3.8483644 3.5563748 3.2816377
        3.0244126 2.7844758 2.5612576 2.353988 2.1618168 1.9838954
        1.8194232 1.6676822 1.5280935 1.3944142 8.721744 8.673295
        8.597209 8.473089 8.303846 8.093303 7.84601 7.5670457
        7.261794 6.9357443 6.5943117 6.242697 5.88578 5.5280595
        5.173612 4.826069 4.488592 4.1638403 3.8539183 3.5603373
        3.283994 3.025205 2.7837946 2.5592263 2.3507423 2.1574838
        1.9785742 1.813165 1.6604571 1.5197165 1.3848587
      </DataArray>
      <DataArray type="Float32" Name="jacobian" format="ascii" RangeMin="0.004191206768155098" RangeMax="0.026416784152388573">
        0.024211626 0.024083572 0.023895573 0.023589762 0.023172276 0.022651248
        0.022036484 0.021339115 0.020571182 0.019745236 0.018873943 0.01796973
        0.017044468 0.016109234 0.015174102 0.014248022 0.013338739 0.012452772
        0.011595435 0.010770899 0.009982282 0.009231754 0.008520652 0.007849602
        0.0072186203 0.006627205 0.006074408 0.0055588647 0.005078734 0.0046311775
        0.004191207 0.024261555 0.024133498 0.023945298 0.023638915 0.023220504
        0.022698203 0.022081846 0.021382581 0.020612484 0.019784136 0.018910244
        0.018003283 0.017075183 0.016137086 0.0151991425 0.014270383 0.013358634
        0.012470492 0.011611338 0.010785396 0.009995825 0.009244824 0.008533767
        0.00786333 0.007233624 0.0066443537 0.0060950397 0.005585546 0.0051179808
        0.004704562 0.0043204026 0.024311725 0.024183718 0.023995362 0.023688458
        0.023269165 0.022745637 0.022127725 0.021426603 0.020654371 0.019823648
        0.01894718 0.01803749 0.01710657 0.016165627 0.015224893 0.01429348
        0.013379302 0.012489038 0.011628138 0.010800889 0.010010493 0.009259194
        0.008548411 0.007878888 0.007250876 0.0066643497 0.0061194175 0.005617253
        0.0051623937 0.004765798 0.0044021714 0.024362149 0.024234235 0.024045767
        0.023738384 0.023318253 0.022793539 0.02217411 0.021471165 0.020696828
        0.019863756 0.018984735 0.018072335 0.017138612 0.016194839 0.015251331
        0.014317291 0.01340072 0.012508384 0.011645811 0.01081735 0.01002626
        0.009274833 0.008564545 0.00789623 0.007270289 0.006686991 0.0061469763
        0.005652193 0.005207153 0.0048173866 0.0044573094 0.024412826 0.024284981
        0.024096385 0.023788508 0.023367522 0.02284161 0.022220653 0.021515874
        0.020739427 0.019904 0.019022422 0.018107314 0.017170787 0.016224196
        0.0152779315 0.01434129 0.013422366 0.012528015 0.011663847 0.01083428
        0.010042633 0.009291253 0.00858168 0.00791484 0.007291286 0.0067115254
        0.0061765076 0.005688203 0.005249519 0.004860689 0.0044969856 0.024463754
        0.024335941 0.024147177 0.023838773 0.023416905 0.022889765 0.022267256
        0.021560622 0.02078205 0.019944254 0.01906011 0.018142289 0.017202964
        0.016253559 0.015304554 0.014365337 0.0134441 0.01254779 0.011682103
        0.010851533 0.01005946 0.00930829 0.008599627 0.007934482 0.0073135234
        0.0067373933 0.006207041 0.0057238173 0.0052884375 0.004897308 0.004527326
        0.024514938 0.024387114 0.024198148 0.02388918 0.023466399 0.022938004
        0.02231392 0.021605413 0.020824697 0.019984523 0.019097805 0.018177267
        0.017235145 0.016282935 0.015331204 0.014389437 0.013465924 0.01256771
        0.011700578 0.010869098 0.010076716 0.009325896 0.008618302 0.007955004
        0.007336733 0.006764114 0.0062378016 0.0057581277 0.0053236997 0.004928652
        0.0045517692 0.024566375 0.024438508 0.024249306 0.02393975 0.023516025
        0.022986354 0.022360677 0.02165028 0.020867407 0.020024847 0.019135553
        0.0182123 0.017267382 0.016312376 0.015357938 0.0144136455 0.013487892
        0.012587823 0.011719311 0.0108870035 0.010094413 0.009344057 0.008637644
        0.007976276 0.00736066 0.0067912578 0.0062681925 0.00579063 0.0053554825
        0.0049558426 0.004572296 0.024618067 0.02449013 0.024300667 0.023990497
        0.023565814 0.023034848 0.022407562 0.021695266 0.020910231 0.020065282
        0.01917341 0.018247442 0.017299738 0.016341949 0.015384818 0.014438025
        0.013510065 0.012608184 0.011738348 0.010905283 0.010112564 0.009362756
        0.0086575905 0.007998155 0.0073850555 0.006818446 0.006297777 0.005821091
        0.0053841136 0.0049797334 0.004590082 0.024670014 0.024541983 0.024352241
        0.024041442 0.023615785 0.023083515 0.022454612 0.02174041 0.020953212
        0.020105872 0.019211426 0.01828275 0.017332269 0.01637171 0.015411906
        0.014462634 0.013532498 0.012628842 0.01175773 0.010923962 0.010131174
        0.009381964 0.008678063 0.008020494 0.0074096774 0.006845357 0.0063262535
        0.0058494476 0.0054099546 0.0050009643 0.0046058465 0.024722217 0.024594078
        0.024404043 0.0240926 0.023665959 0.023132378 0.022501854 0.021785747
        0.020996384 0.020146657 0.019249644 0.018318271 0.017365025 0.01640171
        0.015439249 0.014487521 0.013555234 0.012649837 0.011777484 0.010943054
        0.010150232 0.009401637 0.008698968 0.0080431355 0.0074342983 0.0068717254
        0.006353427 0.0058757346 0.0054333447 0.005020013 0.0046200473 0.02477468
        0.024646418 0.024456078 0.024143986 0.023716355 0.023181459 0.02254931
        0.0218313 0.021039778 0.020187672 0.0192881 0.018354042 0.017398044
        0.01643199 0.015466889 0.014512726 0.013578311 0.012671198 0.011797631
        0.010962563 0.010169719 0.00942172 0.008720205 0.00806592 0.0074587115
        0.0068973424 0.0063791843 0.005900041 0.005454583 0.0050372356 0.004632983
        0.024827402 0.02469901 0.024508355 0.024195608 0.023766983 0.02323077
        0.022597004 0.02187709 0.021083416 0.020228941 0.019326825 0.018390093
        0.01743136 0.016462583 0.015494863 0.014538282 0.013601758 0.012692946
        0.011818181 0.01098248 0.010189602 0.00944215 0.008741666 0.008088697
        0.007482736 0.006922048 0.0064034685 0.005922481 0.0054739225 0.005052899
        0.004644856 0.024880385 0.024751855 0.024560882 0.024247473 0.023817856
        0.023280328 0.022644944 0.021923136 0.02112732 0.020270487 0.01936584
        0.018426452 0.017465001 0.01649352 0.015523197 0.014564215 0.013625597
        0.012715097 0.0118391365 0.011002792 0.0102098435 0.009462852 0.0087632425
        0.008111321 0.007506215 0.006945724 0.0064262645 0.0059431717 0.005491572
        0.0050672046 0.004655806 0.024933632 0.024804957 0.02461366 0.024299592
        0.02386898 0.02333014 0.022693146 0.021969453 0.021171505 0.02031233
        0.019405166 0.018463142 0.017498992 0.016524825 0.015551917 0.014590549
        0.013649846 0.012737662 0.011860496 0.0110234795 0.010230399 0.009483756
        0.008784827 0.008133662 0.007529018 0.0069682873 0.0064475816 0.0059622275
        0.0055077015 0.0050803046 0.004665931 0.024987144 0.02485832 0.024666697
        0.024351967 0.023920365 0.023380218 0.02274162 0.022016052 0.021215986
        0.020354483 0.019444823 0.018500183 0.017533354 0.016556522 0.015581047
        0.014617305 0.013674523 0.012760647 0.011882254 0.011044519 0.01025122
        0.009504784 0.008806318 0.0081556 0.007551039 0.006989681 0.0064674467
        0.0059797517 0.0055224476 0.0050923135 0.0046753013 0.025040925 0.024911946
        0.024719996 0.024404604 0.023972014 0.023430567 0.022790374 0.022062942
        0.021260774 0.02039696 0.019484825 0.01853759 0.017568108 0.01658863
        0.015610605 0.0146445 0.013699638 0.012784055 0.011904403 0.011065884
        0.01027226 0.009525863 0.008827618 0.008177032 0.0075721913 0.007009871
        0.006485893 0.0059958366 0.0055359188 0.0051033176 0.004683964 0.025094973
        0.02496584 0.02477356 0.024457509 0.024023937 0.023481194 0.022839418
        0.022110136 0.021305881 0.02043978 0.01952519 0.018575385 0.01760327
        0.01662117 0.015640609 0.014672149 0.0137252025 0.012807893 0.01192693
        0.011087547 0.010293469 0.0095469225 0.00884864 0.008197866 0.0075924075
        0.0070288354 0.006502957 0.0060105585 0.005548199 0.0051133796 0.004691951
        0.025149291 0.025020001 0.024827393 0.024510687 0.024076134 0.023532107
        0.022888757 0.022157641 0.021351319 0.020482948 0.01956593 0.01861358
        0.01763886 0.016654158 0.01567108 0.014700269 0.013751228 0.012832158
        0.011949826 0.011109479 0.010314798 0.009567894 0.008869304 0.008218028
        0.007611635 0.007046566 0.0065186755 0.006023981 0.0055593527 0.005122544
        0.00469928 0.025203884 0.025074435 0.024881499 0.024564138 0.024128614
        0.02358331 0.0229384 0.022205466 0.021397095 0.02052648 0.01960706
        0.018652191 0.017674893 0.016687613 0.015702033 0.014728874 0.013777724
        0.012856853 0.011973078 0.011131652 0.010336202 0.009588714 0.008889537
        0.008237449 0.007629834 0.007063059 0.0065330807 0.0060361563 0.0055694263
        0.005130839 0.0047059585 0.02525875 0.025129145 0.02493588 0.02461787
        0.02418138 0.02363481 0.022988353 0.022253618 0.021443218 0.020570384
        0.01964859 0.018691234 0.017711386 0.016721552 0.015733484 0.014757978
        0.0138046965 0.012881978 0.011996676 0.011154039 0.010357636 0.009609326
        0.008909279 0.00825608 0.0076469737 0.007078317 0.006546201 0.0060471217
        0.005578452 0.0051382803 0.0047119837 0.025313893 0.02518413 0.02499054
        0.024671884 0.024234436 0.02368661 0.02303862 0.022302102 0.0214897
        0.020614672 0.019690532 0.01873072 0.017748354 0.016755993 0.01576545
        0.014787596 0.013832158 0.012907533 0.012020607 0.011176615 0.010379061
        0.009629678 0.008928473 0.008273873 0.0076630325 0.0070923427 0.0065580592
        0.006056905 0.0055864467 0.005144872 0.004717344 0.025369316 0.025239395
        0.02504548 0.024726184 0.024287786 0.023738716 0.02308921 0.022350928
        0.021536546 0.020659355 0.019732902 0.018770667 0.017785812 0.016790949
        0.015797948 0.014817741 0.013860117 0.012933521 0.01204486 0.011199356
        0.01040044 0.009649726 0.008947076 0.008290794 0.0076779937 0.007105141
        0.006568671 0.0060655214 0.0055934167 0.005150605 0.0047220183 0.025425019
        0.02529494 0.025100704 0.024780774 0.024341434 0.023791132 0.023140125
        0.022400102 0.021583766 0.02070444 0.019775707 0.018811086 0.017823778
        0.01682644 0.015830994 0.014848428 0.013888582 0.01295994 0.012069429
        0.011222241 0.01042174 0.009669429 0.008965048 0.008306815 0.007691846
        0.007116715 0.0065780473 0.006072977 0.0055993567 0.0051554632 0.0047259773
        0.025481004 0.025350772 0.025156217 0.024835655 0.024395386 0.023843864
        0.023191374 0.02244963 0.021631366 0.02074994 0.019818962 0.018851992
        0.017862264 0.01686248 0.015864605 0.014879671 0.0139175635 0.012986798
        0.012094306 0.0112452535 0.010442934 0.009688755 0.008982359 0.008321917
        0.007704582 0.007127067 0.0065861912 0.0060792686 0.0056042504 0.005159417
        0.0047291825 0.025537275 0.02540689 0.025212016 0.024890834 0.02444964
        0.023896914 0.023242958 0.022499517 0.021679355 0.02079586 0.019862678
        0.018893396 0.017901288 0.016899088 0.015898798 0.014911487 0.013947073
        0.013014097 0.012119486 0.011268377 0.010464 0.009707677 0.008998985
        0.008336082 0.0077161957 0.0071361973 0.0065931007 0.0060843835 0.005608071
        0.005162429 0.004731586 0.025593832 0.025463296 0.02526811 0.02494631
        0.024504203 0.023950286 0.023294885 0.02254977 0.021727739 0.020842211
        0.019906862 0.018935313 0.017940864 0.016936278 0.015933588 0.014943889
        0.013977124 0.013041843 0.012144968 0.011291603 0.010484919 0.009726176
        0.00901491 0.0083493 0.0077266837 0.0071441038 0.006598768 0.0060882997
        0.005610782 0.00516445 0.004733129 0.025650676 0.025519991 0.025324496
        0.025002087 0.024559079 0.024003984 0.023347158 0.022600396 0.021776527
        0.020889001 0.019951528 0.018977756 0.017981006 0.016974071 0.015968995
        0.014976897 0.0140077295 0.013070043 0.012170752 0.011314922 0.010505679
        0.009744237 0.009030121 0.008361568 0.0077360445 0.0071507827 0.0066031776
        0.006090987 0.005612336 0.0051654186 0.0047337394 0.025707813 0.025576983
        0.02538118 0.025058167 0.024614269 0.024058012 0.02339978 0.022651399
        0.021825723 0.02093624 0.019996686 0.019020734 0.01802173 0.017012479
        0.016005037 0.015010527 0.014038903 0.01309871 0.012196842 0.0113383345
        0.010526274 0.009761852 0.009044615 0.008372882 0.007744278 0.007156228
        0.006606311 0.0060924077 0.005612675 0.005165261 0.004733333 0.025765242
        0.025634266 0.025438162 0.025114553 0.024669774 0.024112374 0.023452757
        0.022702781 0.021875335 0.020983934 0.020042345 0.019064264 0.018063052
        0.017051522 0.016041731 0.015044796 0.014070662 0.013127855 0.012223245
        0.01136184 0.010546701 0.00977902 0.00905839 0.008383246 0.007751385
        0.007160432 0.006608144 0.006092514 0.0056117284 0.0051638903 0.0047318074
        0.025822965 0.025691848 0.025495445 0.025171248 0.024725601 0.02416707
        0.023506092 0.022754548 0.021925366 0.021032091 0.020088514 0.019108353
        0.018104983 0.017091215 0.016079096 0.0150797255 0.014103023 0.0131574925
        0.012249972 0.0113854455 0.010566965 0.009795744 0.0090714535 0.0083926665
        0.007757369 0.007163387 0.006608647 0.0060912515 0.005609415 0.005161202
        0.0047290414 0.025880983 0.02574973 0.02555303 0.02522825 0.024781747
        0.024222106 0.023559785 0.022806706 0.021975823 0.021080716 0.020135202
        0.019153018 0.01814754 0.017131574 0.01611715 0.015115333 0.014136008
        0.013187639 0.012277035 0.011409161 0.010587073 0.009812034 0.009083816
        0.0084011555 0.007762235 0.007165082 0.0066077877 0.0060885577 0.005605638
        0.005157072 0.0047248886 0.0259393 0.02580791 0.02561092 0.025285566
        0.024838215 0.024277478 0.02361384 0.022859253 0.022026708 0.021129813
        0.020182414 0.019198261 0.018190734 0.017172618 0.016155912 0.0151516395
        0.014169634 0.013218315 0.012304453 0.011433002 0.0106070405 0.0098279035
        0.009095494 0.008408726 0.00776599 0.0071655093 0.006605532 0.0060843616
        0.005600289 0.0051513542 0.0047191726 0.025997918 0.025866393 0.025669115
        0.025343193 0.024895007 0.02433319 0.023668258 0.022912193 0.022078024
        0.02117939 0.02023016 0.019244095 0.018234575 0.017214358 0.016195402
        0.015188666 0.014203927 0.013249542 0.012332246 0.011456987 0.010626886
        0.009843375 0.009106508 0.008415399 0.007768646 0.0071646622 0.0066018426
        0.0060785874 0.0055932407 0.0051438753 0.0047116764 0.026056837 0.02592518
        0.025727613 0.025401128 0.02495212 0.024389239 0.023723034 0.022965526
        0.02212977 0.021229442 0.020278439 0.019290527 0.018279074 0.01725681
        0.016235633 0.015226433 0.014238905 0.013281341 0.012360436 0.011481139
        0.010646634 0.009858471 0.009116886 0.008421198 0.0077702175 0.0071625365
        0.006596684 0.006071152 0.005584351 0.005134426 0.0047021327 0.02611606
        0.02598427 0.025786417 0.025459375 0.02500955 0.024445623 0.02377817
        0.023019245 0.022181945 0.021279974 0.020327253 0.019337557 0.01832424
        0.017299984 0.016276622 0.015264958 0.0142745925 0.013313739 0.012389048
        0.011505485 0.01066631 0.0098732235 0.009126658 0.008426152 0.0077707237
        0.007159132 0.0065900227 0.0060619693 0.005573458 0.0051227557 0.0046902034
        0.026175588 0.026043665 0.025845524 0.025517927 0.025067296 0.024502337
        0.023833655 0.023073345 0.022234539 0.021330977 0.020376597 0.019385185
        0.01837007 0.017343886 0.016318383 0.01530426 0.01431101 0.013346758
        0.012418109 0.011530051 0.010685946 0.009887664 0.009135856 0.008430293
        0.0077701905 0.0071544563 0.006581831 0.006050952 0.0055603823 0.005108558
        0.004675454 0.026235424 0.026103362 0.02590493 0.02557678 0.025125347
        0.024559367 0.023889478 0.023127813 0.02228754 0.021382436 0.020426461
        0.019433403 0.018416563 0.017388515 0.016360916 0.015344347 0.014348173
        0.0133804185 0.012447643 0.011554866 0.01070557 0.009901824 0.0091445185
        0.008433657 0.0077686473 0.007148523 0.006572089 0.0060380166 0.0055449274
        0.005091454 0.0046573114 0.026295567 0.02616336 0.025964627 0.025635919
        0.025183689 0.024616696 0.02394562 0.023182625 0.022340925 0.02143433
        0.020476822 0.019482188 0.0184637 0.017433861 0.01640422 0.015385222
        0.0143860895 0.013414735 0.012477668 0.01157995 0.0107252095 0.009915737
        0.009152679 0.008436281 0.007766129 0.0071413554 0.006560791 0.0060230927
        0.0055268854 0.0050709676 0.0046349955 0.02635602 0.026223652 0.026024606
        0.025695328 0.025242295 0.024674296 0.024002042 0.023237744 0.022394653
        0.021486614 0.020527637 0.019531501 0.018511444 0.017479893 0.016448269
        0.015426868 0.014424752 0.013449706 0.012508189 0.011605317 0.010744881
        0.009929422 0.009160365 0.008438197 0.007762671 0.0071329847 0.006547947
        0.0060061305 0.00550605 0.0050464887 0.004607407 0.026416784 0.026284248
        0.026084881 0.025755035 0.025301207 0.024732212 0.024058804 0.023293233
        0.022448795 0.021539371 0.020578992 0.019581437 0.018559901 0.017526722
        0.01649319 0.015469425 0.014464316 0.013485506 0.012539397 0.01163117
        0.010764805 0.009943117 0.009167828 0.008439675 0.0077585583 0.0071237097
        0.0065338616 0.005987407 0.005482553 0.00501751 0.004572935
      </DataArray>
    </PointData>
    <CellData>
    </CellData>
    <Points>
      <DataArray type="Float32" Name="Points" NumberOfComponents="3" format="ascii" RangeMin="1.0369016780010856" RangeMax="1.175441912400517">
        0.4368725 -0.0699406 0.9377718 0.45062405 -0.06992474 0.93755925
        0.4643033 -0.06991325 0.93740517 0.47784176 -0.06990556 0.93730193
        0.4911738 -0.06990083 0.93723863 0.5042376 -0.06989824 0.9372039
        0.51697654 -0.069896944 0.93718654 0.5293399 -0.06989641 0.93717927
        0.54128355 -0.069896184 0.93717635 0.5527704 -0.06989612 0.9371754
        0.56377053 -0.06989614 0.9371757 0.5742614 -0.069896236 0.937177
        0.58422756 -0.06989639 0.9371791 0.59365994 -0.069896586 0.9371818
        0.60255575 -0.06989681 0.9371847 0.6109177 -0.06989703 0.93718773
        0.6187532 -0.069897264 0.9371908 0.62607396 -0.06989748 0.9371937
        0.6328951 -0.06989769 0.9371965 0.6392346 -0.06989789 0.9371992
        0.6451124 -0.069898084 0.9372018 0.6505502 -0.06989827 0.9372043
        0.65557075 -0.06989845 0.93720675 0.66019726 -0.06989863 0.93720907
        0.6644534 -0.06989879 0.9372113 0.66836256 -0.06989895 0.9372134
        0.6719477 -0.069899105 0.93721545 0.6752314 -0.069899246 0.93721735
        0.67823523 -0.06989938 0.9372192 0.68097997 -0.069899514 0.93722093
        0.6834854 -0.06989963 0.93722254 0.4368725 -0.068650275 0.93786716
        0.4506524 -0.06863491 0.93765414 0.46435976 -0.06862382 0.9374999
        0.47792596 -0.06861642 0.93739665 0.49128515 -0.068611905 0.93733346
        0.50437546 -0.06860943 0.93729883 0.5171399 -0.06860818 0.9372816
        0.52952784 -0.06860761 0.93727446 0.54149485 -0.06860731 0.93727154
        0.5530037 -0.06860708 0.9372706 0.56402457 -0.06860689 0.93727094
        0.5745347 -0.068606704 0.9372723 0.58451855 -0.06860652 0.93727446
        0.59396714 -0.068606295 0.9372772 0.6028777 -0.06860603 0.9372801
        0.61125284 -0.0686057 0.9372833 0.6191003 -0.06860529 0.9372863
        0.62643176 -0.068604805 0.93728936 0.63326263 -0.06860426 0.9372922
        0.63961107 -0.06860368 0.93729496 0.6454973 -0.06860307 0.93729764
        0.6509433 -0.068602465 0.9373002 0.655972 -0.06860192 0.9373027
        0.6606071 -0.068601444 0.9373051 0.6648725 -0.06860112 0.93730736
        0.668792 -0.068601 0.93730956 0.67238927 -0.06860116 0.9373116
        0.6756876 -0.068601735 0.9373135 0.6787107 -0.06860293 0.9373153
        0.6814845 -0.068605185 0.9373169 0.6840469 -0.0686101 0.9373182
        0.4368725 -0.06735982 0.9379607 0.45068085 -0.067344934 0.93774724
        0.46441647 -0.06733422 0.93759286 0.47801057 -0.067327105 0.9374896
        0.49139708 -0.06732278 0.9374265 0.504514 -0.06732042 0.937392
        0.5173042 -0.06731921 0.9373749 0.5297168 -0.0673186 0.9373678
        0.5417073 -0.0673182 0.937365 0.5532384 -0.06731783 0.9373641
        0.5642801 -0.06731742 0.9373645 0.5748097 -0.06731696 0.93736583
        0.58481145 -0.067316435 0.93736804 0.5942764 -0.06731581 0.93737084
        0.6032018 -0.06731506 0.9373739 0.6115904 -0.06731418 0.93737704
        0.61945 -0.06731315 0.93738014 0.6267925 -0.067312 0.9373832
        0.6336334 -0.06731073 0.93738616 0.63999104 -0.06730939 0.93738896
        0.6458861 -0.06730801 0.9373917 0.6513408 -0.067306675 0.9373944
        0.6563783 -0.06730544 0.9373969 0.6610228 -0.06730442 0.9373993
        0.66529834 -0.06730369 0.93740165 0.66922945 -0.06730341 0.93740386
        0.6728403 -0.067303754 0.9374059 0.6761555 -0.067304984 0.9374078
        0.67920077 -0.0673075 0.93740946 0.68200576 -0.067312084 0.937411
        0.68460846 -0.06732042 0.9374121 0.4368725 -0.066069245 0.9380525
        0.45070946 -0.066054806 0.9378387 0.46447352 -0.06604445 0.93768406
        0.47809562 -0.0660376 0.9375808 0.4915096 -0.06603345 0.9375178
        0.5046532 -0.06603119 0.9374835 0.51746935 -0.06602999 0.93746644
        0.52990675 -0.06602935 0.9374594 0.54192096 -0.06602884 0.93745667
        0.5534745 -0.06602831 0.9374558 0.5645372 -0.06602769 0.93745625
        0.5750864 -0.066026956 0.9374576 0.58510625 -0.066026084 0.9374599
        0.5945878 -0.06602506 0.93746275 0.60352826 -0.066023834 0.93746585
        0.61193055 -0.06602242 0.937469 0.61980253 -0.06602079 0.93747216
        0.62715626 -0.06601898 0.9374753 0.63400745 -0.06601701 0.9374783
        0.6403748 -0.06601494 0.93748116 0.64627916 -0.06601283 0.93748397
        0.651743 -0.0660108 0.9374867 0.65678996 -0.06600896 0.9374893
        0.6614445 -0.066007435 0.9374918 0.6657312 -0.066006415 0.9374941
        0.669675 -0.066006094 0.93749636 0.6733009 -0.06600676 0.9374984
        0.67663467 -0.06600879 0.9375003 0.67970335 -0.06601277 0.9375019
        0.6825375 -0.066019595 0.9375032 0.68516994 -0.06603063 0.93750423
        0.4368725 -0.064778544 0.93814254 0.45073822 -0.06476453 0.9379283
        0.4645308 -0.064754516 0.9377735 0.47818112 -0.06474791 0.93767023
        0.49162272 -0.06474392 0.9376074 0.5047933 -0.06474173 0.9375732
        0.5176354 -0.064740546 0.93755627 0.53009784 -0.06473985 0.9375493
        0.5421359 -0.06473924 0.9375465 0.553712 -0.06473855 0.9375457
        0.564796 -0.0647377 0.93754625 0.5753649 -0.06473669 0.9375477
        0.585403 -0.064735495 0.93755 0.5949014 -0.06473406 0.93755287
        0.60385716 -0.06473238 0.937556 0.61227334 -0.064730436 0.93755925
        0.6201579 -0.06472823 0.93756247 0.6275231 -0.06472577 0.9375656
        0.634385 -0.06472313 0.93756866 0.6407624 -0.064720355 0.93757164
        0.6466764 -0.06471756 0.93757445 0.65215 -0.06471487 0.93757725
        0.657207 -0.064712465 0.9375799 0.6618723 -0.06471053 0.93758243
        0.666171 -0.06470929 0.93758476 0.6701286 -0.06470904 0.937587
        0.6737707 -0.06471013 0.93758905 0.67712384 -0.064713076 0.9375909
        0.68021584 -0.06471855 0.93759245 0.683076 -0.06472743 0.9375937
        0.6857315 -0.06474071 0.9375946 0.4368725 -0.063487716 0.93823075
        0.4507671 -0.06347411 0.9380161 0.46458843 -0.06346442 0.93786114
        0.47826704 -0.06345804 0.9377579 0.49173644 -0.0634542 0.93769515
        0.504934 -0.06345208 0.93766105 0.51780236 -0.063450895 0.93764424
        0.53028995 -0.063450135 0.93763745 0.5423521 -0.0634494 0.93763465
        0.55395097 -0.06344855 0.93763393 0.5650563 -0.06344748 0.93763447
        0.5756452 -0.06344621 0.9376359 0.5857018 -0.063444674 0.9376383
        0.5952171 -0.063442856 0.9376412 0.60418844 -0.063440725 0.9376444
        0.61261874 -0.06343826 0.9376477 0.6205162 -0.06343548 0.937651
        0.62789327 -0.06343241 0.93765414 0.63476604 -0.06342911 0.9376573
        0.6411538 -0.06342567 0.9376603 0.647078 -0.06342222 0.93766314
        0.6525617 -0.06341893 0.937666 0.6576294 -0.06341603 0.9376687
        0.6623062 -0.06341374 0.9376712 0.6666177 -0.06341236 0.9376736
        0.6705898 -0.06341226 0.93767583 0.6742489 -0.06341389 0.9376779
        0.67762184 -0.06341781 0.9376797 0.6807361 -0.06342475 0.9376812
        0.683619 -0.063435465 0.93768233 0.686293 -0.06345066 0.9376831
        0.4368725 -0.062196773 0.9383172 0.45079616 -0.06218356 0.9381021
        0.46464634 -0.062174164 0.93794703 0.4783534 -0.062168002 0.9378438
        0.49185073 -0.06216429 0.93778116 0.5050756 -0.062162224 0.9377472
        0.51797026 -0.062161036 0.93773055 0.5304832 -0.062160213 0.93772376
        0.54256946 -0.06215936 0.9377211 0.5541913 -0.062158335 0.93772036
        0.5653183 -0.062157065 0.93772095 0.5759273 -0.062155515 0.93772244
        0.5860026 -0.062153656 0.9377248 0.5955351 -0.062151458 0.9377278
        0.60452217 -0.062148888 0.937731 0.61296684 -0.062145937 0.93773437
        0.62087744 -0.062142607 0.9377377 0.6282666 -0.062138937 0.937741
        0.6351507 -0.06213501 0.9377441 0.64154917 -0.06213094 0.9377472
        0.6474838 -0.06212688 0.9377501 0.65297824 -0.062123045 0.9377529
        0.6580571 -0.06211969 0.93775564 0.662746 -0.06211711 0.93775827
        0.6670709 -0.06211568 0.9377607 0.6710583 -0.06211581 0.9377629
        0.6747348 -0.062118016 0.93776494 0.6781272 -0.062122945 0.9377667
        0.68126243 -0.062131274 0.93776816 0.6841651 -0.06214364 0.9377692
        0.68685454 -0.062160496 0.9377699 0.4368725 -0.060905706 0.9384019
        0.45082536 -0.060892876 0.9381864 0.4647045 -0.060883768 0.93803114
        0.47844023 -0.060877815 0.9379279 0.49196565 -0.060874216 0.9378654
        0.50521785 -0.060872197 0.9378315 0.518139 -0.06087099 0.93781495
        0.5306775 -0.0608701 0.93780833 0.54278815 -0.06086913 0.93780565
        0.5544331 -0.060867943 0.937805 0.5655818 -0.060866456 0.9378056
        0.5762112 -0.060864646 0.93780714 0.5863054 -0.060862478 0.93780965
        0.59585536 -0.060859915 0.9378126 0.60485834 -0.06085692 0.9378159
        0.61331767 -0.060853496 0.93781924 0.6212416 -0.060849637 0.93782264
        0.62864316 -0.06084541 0.9378259 0.6355388 -0.060840882 0.9378291
        0.6419484 -0.06083622 0.9378322 0.647894 -0.06083158 0.93783516
        0.6533995 -0.060827248 0.9378381 0.65849006 -0.060823504 0.9378408
        0.6631916 -0.060820706 0.9378435 0.6675305 -0.06081927 0.9378459
        0.6715335 -0.060819685 0.93784815 0.67522746 -0.06082253 0.9378501
        0.678639 -0.060828436 0.93785185 0.68179345 -0.060838073 0.9378532
        0.6847135 -0.06085191 0.93785423 0.687416 -0.060870208 0.9378549
        0.4368725 -0.05961453 0.9384848 0.4508547 -0.059602052 0.9382689
        0.46476302 -0.05959323 0.93811345 0.47852752 -0.059587464 0.9380103
        0.49208114 -0.05958398 0.93794787 0.50536084 -0.059581995 0.93791413
        0.5183087 -0.059580777 0.93789774 0.5308729 -0.059579816 0.93789107
        0.5430081 -0.059578728 0.9378885 0.55467635 -0.059577376 0.93788785
        0.56584704 -0.05957569 0.9378885 0.57649696 -0.059573624 0.9378901
        0.58661026 -0.05957116 0.9378926 0.5961778 -0.059568245 0.93789566
        0.605197 -0.059564855 0.937899 0.6136712 -0.059560966 0.93790233
        0.62160885 -0.05955662 0.9379057 0.629023 -0.059551846 0.93790907
        0.6359306 -0.059546765 0.93791234 0.6423516 -0.05954153 0.93791544
        0.6483086 -0.05953638 0.9379185 0.6538256 -0.05953158 0.93792146
        0.6589283 -0.059527498 0.93792427 0.6636429 -0.05952453 0.9379268
        0.66799617 -0.05952316 0.93792933 0.6720151 -0.059523914 0.93793154
        0.67572635 -0.0595274 0.9379335 0.679156 -0.059534278 0.93793523
        0.6823282 -0.0595451 0.9379366 0.6852635 -0.059560247 0.93793756
        0.68797755 -0.059579812 0.9379382 0.4368725 -0.058323234 0.9385659
        0.4508842 -0.058311112 0.93834966 0.4648218 -0.05830256 0.938194
        0.47861522 -0.05829697 0.9380908 0.49219722 -0.058293592 0.9380285
        0.50550467 -0.058291648 0.93799496 0.5184794 -0.0582904 0.9379787
        0.53106934 -0.058289364 0.9379721 0.5432293 -0.058288164 0.93796957
        0.55492103 -0.05828666 0.93796897 0.5661139 -0.058284774 0.9379696
        0.57678455 -0.058282476 0.9379713 0.58691716 -0.058279727 0.93797386
        0.5965026 -0.058276474 0.9379769 0.60553825 -0.0582727 0.9379803
        0.6140275 -0.058268387 0.9379837 0.6219791 -0.05826356 0.93798715
        0.6294062 -0.05825828 0.9379905 0.636326 -0.058252674 0.93799376
        0.64275885 -0.058246918 0.9379969 0.6487274 -0.05824128 0.938
        0.6542564 -0.058236085 0.938003 0.6593716 -0.05823171 0.9380058
        0.6640997 -0.058228634 0.9380084 0.6684676 -0.05822737 0.93801093
        0.6725024 -0.058228493 0.9380132 0.67623067 -0.058232635 0.9380151
        0.67967755 -0.058240414 0.9380168 0.6828659 -0.05825233 0.93801814
        0.68581486 -0.058268633 0.9380191 0.6885391 -0.05828929 0.93801963
        0.4368725 -0.057031833 0.9386453 0.45091382 -0.057020053 0.9384286
        0.46488085 -0.05701175 0.9382728 0.47870335 -0.05700634 0.9381696
        0.49231392 -0.05700306 0.93810743 0.5056492 -0.057001144 0.93807405
        0.51865095 -0.05699987 0.93805784 0.5312669 -0.056998767 0.9380514
        0.5434518 -0.05699746 0.93804884 0.5551672 -0.0569958 0.9380483
        0.5663824 -0.05699373 0.938049 0.57707405 -0.056991205 0.9380507
        0.58722615 -0.05698818 0.93805325 0.59682965 -0.056984615 0.93805635
        0.60588205 -0.056980487 0.93805975 0.6143867 -0.056975763 0.9380632
        0.6223525 -0.056970492 0.9380667 0.6297928 -0.056964736 0.9380701
        0.6367252 -0.056958638 0.9380734 0.6431701 -0.056952413 0.9380766
        0.6491507 -0.056946337 0.9380797 0.654692 -0.056940775 0.9380827
        0.65982 -0.056936175 0.9380855 0.6645618 -0.056933027 0.93808824
        0.66894454 -0.056931905 0.9380907 0.67299515 -0.056933418 0.93809295
        0.6767398 -0.056938194 0.9380949 0.6802029 -0.056946825 0.9380966
        0.68340605 -0.056959733 0.93809783 0.68636715 -0.05697705 0.9380988
        0.6891006 -0.056998663 0.9380994 0.4368725 -0.055740323 0.93872285
        0.4509436 -0.055728875 0.9385057 0.46494022 -0.05572082 0.9383498
        0.47879195 -0.055715572 0.9382466 0.49243122 -0.055712387 0.93818456
        0.5057945 -0.0557105 0.9381513 0.5188234 -0.055709198 0.9381352
        0.53146565 -0.05570803 0.9381288 0.54367554 -0.055706613 0.9381264
        0.5554148 -0.055704817 0.93812585 0.5666526 -0.05570257 0.93812656
        0.57736546 -0.055699825 0.9381283 0.5875373 -0.05569655 0.9381309
        0.59715915 -0.05569269 0.9381341 0.6062284 -0.05568822 0.9381375
        0.6147487 -0.05568312 0.938141 0.622729 -0.055677436 0.9381445
        0.63018286 -0.05567124 0.9381479 0.63712806 -0.055664696 0.93815124
        0.64358544 -0.055658024 0.93815446 0.6495784 -0.05565156 0.9381576
        0.65513223 -0.055645686 0.93816066 0.66027343 -0.05564089 0.9381635
        0.66502917 -0.05563772 0.93816614 0.6694267 -0.05563677 0.9381687
        0.67349285 -0.05563868 0.9381709 0.6772533 -0.055644073 0.9381729
        0.6807316 -0.055653486 0.9381745 0.68394816 -0.05566727 0.9381758
        0.68692034 -0.055685483 0.93817675 0.68966216 -0.055707928 0.9381773
        0.4368725 -0.054448705 0.93879867 0.45097354 -0.05443758 0.93858117
        0.46499988 -0.054429766 0.93842506 0.478881 -0.05442468 0.9383219
        0.49254912 -0.054421574 0.9382599 0.5059406 -0.05441971 0.9382268
        0.51899683 -0.054418396 0.93821084 0.5316654 -0.054417156 0.9382045
        0.5439006 -0.054415643 0.93820214 0.55566394 -0.05441371 0.9382016
        0.5669245 -0.0544113 0.9382024 0.5776587 -0.054408357 0.9382041
        0.5878506 -0.054404844 0.9382068 0.59749097 -0.054400712 0.93821
        0.60657746 -0.054395925 0.93821347 0.6151137 -0.05439048 0.938217
        0.62310874 -0.054384407 0.9382205 0.63057643 -0.05437781 0.93822396
        0.63753474 -0.054370854 0.9382273 0.6440049 -0.054363787 0.9382306
        0.65001047 -0.05435697 0.93823373 0.65557724 -0.05435083 0.9382368
        0.6607318 -0.054345887 0.93823963 0.66550153 -0.054342724 0.9382423
        0.66991377 -0.054341972 0.9382448 0.67399514 -0.054344278 0.9382471
        0.6777707 -0.054350242 0.93824905 0.6812631 -0.05436037 0.93825066
        0.68449205 -0.05437494 0.938252 0.6874742 -0.054393925 0.93825287
        0.69022363 -0.054417085 0.9382534 0.4368725 -0.053156987 0.9388727
        0.45100358 -0.053146172 0.9386548 0.46505985 -0.05313859 0.93849844
        0.47897053 -0.053133655 0.9383953 0.49266768 -0.053130638 0.9383335
        0.5060875 -0.053128798 0.93830055 0.51917124 -0.05312746 0.9382847
        0.5318664 -0.053126153 0.93827844 0.544127 -0.053124547 0.9382761
        0.55591464 -0.053122494 0.93827564 0.56719816 -0.053119924 0.9382764
        0.577954 -0.053116802 0.93827826 0.58816606 -0.053113073 0.93828094
        0.5978253 -0.05310869 0.9382841 0.60692924 -0.05310362 0.93828756
        0.6154816 -0.053097848 0.93829113 0.62349176 -0.053091425 0.9382947
        0.6309736 -0.053084463 0.93829817 0.63794535 -0.05307713 0.93830156
        0.6444285 -0.05306971 0.93830484 0.6504471 -0.053062588 0.938308
        0.6560269 -0.05305622 0.9383111 0.661195 -0.053051166 0.938314
        0.6659788 -0.053048044 0.9383167 0.67040557 -0.0530475 0.9383192
        0.67450166 -0.053050194 0.9383214 0.6782915 -0.0530567 0.93832344
        0.6817971 -0.053067468 0.938325 0.6850374 -0.05308272 0.9383263
        0.6880287 -0.05310237 0.93832725 0.69078517 -0.053126138 0.93832785
        0.4368725 -0.05186517 0.93894494 0.45103383 -0.05185466 0.9387266
        0.46512014 -0.051847298 0.93857014 0.47906047 -0.051842514 0.938467
        0.49278682 -0.051839575 0.93840533 0.5062351 -0.05183776 0.9383725
        0.51934654 -0.051836394 0.93835676 0.53206843 -0.05183503 0.9383506
        0.54435474 -0.051833335 0.9383483 0.5561668 -0.05183117 0.9383478
        0.56747353 -0.051828463 0.93834865 0.57825124 -0.051825173 0.9383505
        0.58848375 -0.051821247 0.93835324 0.59816206 -0.05181663 0.9383565
        0.6072838 -0.051811296 0.93836 0.61585265 -0.051805243 0.93836355
        0.62387806 -0.051798504 0.9383671 0.63137436 -0.051791206 0.93837065
        0.63835984 -0.051783543 0.938374 0.64485633 -0.051775817 0.9383773
        0.6508881 -0.051768426 0.9383805 0.6564812 -0.051761873 0.9383836
        0.66166294 -0.051756747 0.9383865 0.66646075 -0.05175369 0.93838924
        0.67090183 -0.051753365 0.93839175 0.6750121 -0.05175642 0.938394
        0.67881554 -0.051763415 0.9383959 0.68233335 -0.051774755 0.9383976
        0.68558407 -0.051790595 0.9383989 0.68858373 -0.051810812 0.9383998
        0.6913467 -0.051835094 0.93840045 0.4368725 -0.050573252 0.9390154
        0.45106423 -0.050563037 0.93879664 0.4651807 -0.050555903 0.93864006
        0.47915092 -0.05055125 0.938537 0.49290657 -0.05054839 0.9384754
        0.5063836 -0.050546594 0.93844265 0.51952285 -0.05054521 0.9384271
        0.5322716 -0.0505438 0.938421 0.5445838 -0.050542023 0.9384186
        0.55642056 -0.05053975 0.93841827 0.5677507 -0.050536923 0.9384191
        0.57855046 -0.050533477 0.9384211 0.5888037 -0.050529376 0.9384238
        0.5985014 -0.050524555 0.9384271 0.6076411 -0.050518986 0.93843055
        0.61622673 -0.05051267 0.9384342 0.6242678 -0.050505657 0.93843776
        0.63177884 -0.05049806 0.9384413 0.6387783 -0.05049011 0.9384447
        0.6452884 -0.05048211 0.93844795 0.6513336 -0.0504745 0.93845123
        0.65694016 -0.050467804 0.9384543 0.66213554 -0.050462637 0.9384572
        0.6669473 -0.050459657 0.93845993 0.67140234 -0.050459553 0.9384625
        0.67552626 -0.05046295 0.93846476 0.67934245 -0.05047039 0.9384667
        0.68287164 -0.050482225 0.93846834 0.6861319 -0.050498568 0.93846965
        0.68913925 -0.050519247 0.9384706 0.69190824 -0.050543945 0.93847126
        0.4368725 -0.04928124 0.9390841 0.45109475 -0.049271315 0.9388649
        0.4652416 -0.04926439 0.9387081 0.47924182 -0.04925988 0.93860507
        0.49302697 -0.04925709 0.9385436 0.5065328 -0.04925532 0.9385111
        0.51970017 -0.049253915 0.93849564 0.532476 -0.049252454 0.9384896
        0.5448142 -0.049250606 0.9384873 0.55667585 -0.049248245 0.93848693
        0.56802964 -0.0492453 0.9384878 0.57885176 -0.04924172 0.9384898
        0.589126 -0.049237464 0.93849254 0.5988432 -0.049232464 0.9384959
        0.60800123 -0.049226694 0.9384994 0.6166039 -0.04922015 0.93850297
        0.624661 -0.049212888 0.93850654 0.632187 -0.049205042 0.9385101
        0.63920087 -0.049196836 0.9385136 0.64572483 -0.049188614 0.9385169
        0.6517836 -0.049180824 0.93852013 0.65740377 -0.04917402 0.93852323
        0.66261286 -0.049168833 0.93852615 0.6674383 -0.04916596 0.9385289
        0.67190695 -0.04916607 0.93853146 0.67604387 -0.04916978 0.9385337
        0.6798721 -0.049177606 0.9385357 0.6834118 -0.049189862 0.9385373
        0.68668085 -0.04920662 0.9385387 0.68969524 -0.049227677 0.9385396
        0.6924697 -0.049252704 0.93854034 0.4368725 -0.047989134 0.93915105
        0.45112544 -0.047979496 0.9389314 0.4653028 -0.047972772 0.93877447
        0.4793332 -0.0479684 0.93867147 0.49314803 -0.047965676 0.93861014
        0.5066828 -0.04796393 0.9385777 0.51987845 -0.047962505 0.9385624
        0.5326816 -0.047961 0.93855643 0.54504603 -0.04795909 0.93855417
        0.5569328 -0.047956653 0.93855387 0.5683104 -0.04795361 0.9385547
        0.5791551 -0.047949914 0.93855673 0.5894506 -0.047945525 0.93855953
        0.59918773 -0.04794037 0.93856287 0.60836434 -0.04793442 0.9385664
        0.6169844 -0.04792769 0.9385701 0.6250577 -0.04792022 0.93857366
        0.63259906 -0.047912158 0.9385772 0.6396275 -0.047903746 0.93858063
        0.64616555 -0.04789534 0.93858397 0.65223813 -0.04788741 0.9385872
        0.657872 -0.04788053 0.9385903 0.6630947 -0.04787536 0.93859327
        0.66793364 -0.04787259 0.93859607 0.67241544 -0.047872905 0.93859863
        0.6765648 -0.047876906 0.93860084 0.68040425 -0.047885064 0.93860286
        0.6839537 -0.047897667 0.93860453 0.68723077 -0.047914747 0.93860584
        0.69025165 -0.0479361 0.9386069 0.69303125 -0.047961365 0.93860763
        0.4368725 -0.04669694 0.93921614 0.4511563 -0.046687577 0.93899614
        0.4653643 -0.046681058 0.938839 0.47942504 -0.046676803 0.9387361
        0.49326968 -0.046674155 0.9386748 0.5068337 -0.046672422 0.93864256
        0.5200577 -0.046670992 0.93862736 0.53288835 -0.04666945 0.93862146
        0.5452792 -0.046667486 0.93861926 0.5571913 -0.04666498 0.93861896
        0.568593 -0.046661854 0.9386199 0.57946056 -0.04665807 0.9386219
        0.5897775 -0.04665356 0.93862474 0.59953487 -0.046648283 0.9386281
        0.6087304 -0.04664219 0.93863165 0.6173681 -0.046635296 0.9386353
        0.625458 -0.04662766 0.9386389 0.63301504 -0.046619426 0.93864244
        0.64005834 -0.046610847 0.9386459 0.6466107 -0.046602298 0.9386493
        0.6526972 -0.046594266 0.9386525 0.6583448 -0.046587344 0.9386556
        0.6635811 -0.04658221 0.93865865 0.66843325 -0.046579562 0.9386614
        0.6729277 -0.04658007 0.93866396 0.67708886 -0.04658432 0.9386662
        0.6809388 -0.04659276 0.93866825 0.6844972 -0.046605635 0.93867
        0.68778163 -0.04662296 0.9386713 0.6908084 -0.046644513 0.93867236
        0.6935928 -0.046669938 0.93867314 0.4368725 -0.04540465 0.9392795
        0.45118728 -0.045395557 0.9390591 0.46542612 -0.045389235 0.93890184
        0.4795173 -0.045385107 0.93879884 0.49339202 -0.045382526 0.93873775
        0.50698537 -0.045380816 0.9387057 0.5202379 -0.04537938 0.9386906
        0.53309625 -0.045377806 0.93868476 0.5455138 -0.045375798 0.93868256
        0.5574514 -0.04537324 0.93868226 0.5688775 -0.04537005 0.9386832
        0.5797681 -0.045366183 0.9386853 0.5901069 -0.045361593 0.93868816
        0.59988475 -0.045356207 0.9386915 0.6090994 -0.045350004 0.93869513
        0.6177552 -0.045342986 0.93869877 0.62586194 -0.045335215 0.9387024
        0.6334349 -0.045326848 0.9387059 0.6404934 -0.04531815 0.9387094
        0.6470602 -0.0453095 0.9387128 0.6531609 -0.045301408 0.93871605
        0.65882224 -0.04529448 0.93871915 0.66407186 -0.0452894 0.93872213
        0.66893697 -0.04528687 0.93872494 0.6734436 -0.045287553 0.9387275
        0.6776159 -0.04529202 0.93872976 0.6814756 -0.04530068 0.93873185
        0.68504226 -0.045313757 0.9387336 0.68833345 -0.045331247 0.93873495
        0.69136566 -0.045352913 0.9387361 0.6941543 -0.04537842 0.93873686
        0.4368725 -0.044112276 0.9393411 0.45121846 -0.044103455 0.9391203
        0.46548828 -0.044097316 0.9389629 0.47961012 -0.044093315 0.9388599
        0.49351496 -0.044090796 0.93879896 0.5071379 -0.044089112 0.93876696
        0.5204192 -0.044087663 0.93875194 0.5333054 -0.044086073 0.9387463
        0.54574984 -0.044084027 0.93874407 0.5577132 -0.044081423 0.9387438
        0.56916386 -0.044078186 0.93874484 0.5800778 -0.04407427 0.93874687
        0.59043866 -0.04406961 0.9387498 0.6002373 -0.044064157 0.9387532
        0.60947156 -0.044057872 0.93875676 0.6181456 -0.04405076 0.93876046
        0.6262696 -0.0440429 0.93876404 0.6338588 -0.04403444 0.9387677
        0.6409327 -0.044025663 0.93877107 0.64751434 -0.04401696 0.93877447
        0.6536292 -0.044008844 0.93877774 0.65930426 -0.04400194 0.9387809
        0.6645671 -0.043996934 0.9387838 0.6694448 -0.043994527 0.9387867
        0.6739631 -0.043995373 0.93878925 0.6781459 -0.04400001 0.9387916
        0.68201464 -0.04400884 0.93879366 0.68558884 -0.044022046 0.9387954
        0.68888617 -0.044039614 0.9387968 0.69192326 -0.044061314 0.93879795
        0.69471586 -0.044086814 0.93879884 0.4368725 -0.042819824 0.9394009
        0.45124975 -0.04281126 0.93917966 0.46555072 -0.042805307 0.93902206
        0.4797034 -0.04280142 0.9389191 0.4936386 -0.042798966 0.93885833
        0.50729126 -0.042797305 0.9388265 0.5206015 -0.04279586 0.93881166
        0.5335158 -0.04279425 0.938806 0.5459873 -0.04279218 0.93880385
        0.55797666 -0.04278955 0.9388036 0.56945217 -0.042786285 0.9388046
        0.58038974 -0.042782325 0.9388067 0.590773 -0.04277763 0.93880963
        0.60059273 -0.04277213 0.93881303 0.6098468 -0.042765796 0.93881667
        0.6185395 -0.04275864 0.93882036 0.626681 -0.042750724 0.938824
        0.63428676 -0.042742223 0.9388276 0.6413764 -0.042733405 0.93883103
        0.64797294 -0.042724688 0.93883437 0.6541021 -0.042716585 0.93883765
        0.65979093 -0.042709734 0.9388408 0.6650668 -0.042704824 0.93884385
        0.6699567 -0.042702533 0.93884665 0.6744861 -0.042703517 0.9388492
        0.6786787 -0.042708296 0.93885154 0.68255585 -0.042717226 0.9388536
        0.6861369 -0.04273049 0.9388554 0.6894398 -0.042748064 0.9388569
        0.6924812 -0.042769715 0.9388581 0.6952774 -0.04279512 0.93885905
        0.4368725 -0.04152729 0.9394589 0.45128125 -0.041518975 0.93923724
        0.46561354 -0.041513205 0.9390795 0.47979718 -0.04150944 0.9389766
        0.49376288 -0.041507047 0.9389159 0.5074454 -0.04150541 0.9388842
        0.52078485 -0.041503966 0.9388695 0.5337274 -0.041502345 0.9388639
        0.5462262 -0.041500267 0.93886185 0.55824184 -0.04149762 0.93886167
        0.56974244 -0.04149434 0.9388626 0.5807039 -0.041490372 0.9388648
        0.5911098 -0.041485656 0.9388677 0.60095096 -0.041480146 0.93887115
        0.6102252 -0.041473795 0.9388748 0.6189369 -0.04146662 0.9388785
        0.62709635 -0.0414587 0.9388821 0.6347189 -0.04145019 0.9388856
        0.6418244 -0.04144139 0.93888915 0.6484362 -0.041432694 0.93889254
        0.6545797 -0.041424643 0.93889576 0.6602822 -0.04141787 0.938899
        0.66557086 -0.041413065 0.93890196 0.67047256 -0.041410904 0.93890476
        0.6750126 -0.041412003 0.9389074 0.67921436 -0.041416876 0.93890977
        0.68309915 -0.041425854 0.93891186 0.68668646 -0.04143911 0.9389137
        0.6899943 -0.041456603 0.93891525 0.6930396 -0.041478116 0.93891644
        0.69583887 -0.04150335 0.93891746 0.4368725 -0.04023467 0.9395152
        0.45131287 -0.040226612 0.9392931 0.46567664 -0.040221017 0.9391352
        0.47989142 -0.04021736 0.9390323 0.4938878 -0.040215027 0.93897176
        0.5076004 -0.04021342 0.9389402 0.5209692 -0.040211987 0.9389256
        0.53394026 -0.040210366 0.9389201 0.5464666 -0.040208284 0.938918
        0.5585087 -0.04020564 0.9389178 0.5700346 -0.04020236 0.93891895
        0.5810203 -0.040198404 0.9389211 0.59144914 -0.0401937 0.9389241
        0.60131204 -0.040188204 0.9389275 0.61060685 -0.040181875 0.9389311
        0.6193379 -0.040174726 0.93893474 0.62751555 -0.040166833 0.93893844
        0.63515526 -0.04015836 0.93894196 0.642277 -0.040149614 0.9389455
        0.648904 -0.04014099 0.93894887 0.6550621 -0.04013303 0.93895215
        0.66077805 -0.04012637 0.9389553 0.66607934 -0.040121682 0.93895835
        0.67099243 -0.040119637 0.93896115 0.67554253 -0.040120833 0.9389638
        0.6797528 -0.040125757 0.93896616 0.68364465 -0.040134728 0.9389683
        0.6872375 -0.040147893 0.93897015 0.6905497 -0.040165227 0.93897176
        0.69359845 -0.040186524 0.93897307 0.6964004 -0.040211495 0.9389741
        0.4368725 -0.038941976 0.93956965 0.45134467 -0.038934167 0.9393471
        0.46574008 -0.038928743 0.9391891 0.4799862 -0.038925193 0.9390862
        0.49401343 -0.038922925 0.9390258 0.5077563 -0.03892135 0.9389944
        0.5211546 -0.038919926 0.9389799 0.53415436 -0.038918313 0.9389745
        0.54670846 -0.038916238 0.9389724 0.5587773 -0.03891361 0.9389723
        0.57032883 -0.038910355 0.9389734 0.581339 -0.038906425 0.9389755
        0.59179115 -0.03890176 0.93897855 0.6016761 -0.03889631 0.93898195
        0.6109918 -0.038890034 0.93898565 0.6197425 -0.038882952 0.9389893
        0.62793875 -0.038875137 0.938993 0.635596 -0.038866755 0.9389965
        0.64273417 -0.038858097 0.939 0.6493767 -0.03884959 0.93900335
        0.65554917 -0.038841758 0.9390066 0.66127867 -0.03883523 0.93900985
        0.66659224 -0.038830675 0.9390128 0.67151636 -0.03882874 0.9390157
        0.67607594 -0.038830016 0.93901837 0.68029416 -0.038834948 0.9390208
        0.6841923 -0.03884385 0.93902296 0.6877901 -0.03885686 0.93902487
        0.691106 -0.038873956 0.9390265 0.69415766 -0.038894944 0.9390279
        0.69696194 -0.038919568 0.9390289 0.4368725 -0.037649214 0.9396223
        0.45137665 -0.03764164 0.93939936 0.46580383 -0.03763638 0.9392412
        0.48008147 -0.03763294 0.93913835 0.4941397 -0.037630733 0.9390781
        0.50791305 -0.037629187 0.9390468 0.5213411 -0.03762779 0.9390325
        0.5343697 -0.037626192 0.9390271 0.54695183 -0.037624136 0.93902504
        0.55904764 -0.03762154 0.939025 0.57062507 -0.037618324 0.93902606
        0.58166 -0.03761445 0.93902826 0.5921357 -0.03760985 0.9390313
        0.60204315 -0.03760448 0.93903476 0.61138004 -0.037598293 0.9390384
        0.62015086 -0.037591316 0.9390421 0.628366 -0.037583616 0.9390457
        0.63604105 -0.037575364 0.9390493 0.643196 -0.037566856 0.93905276
        0.6498541 -0.037558503 0.9390561 0.65604115 -0.037550837 0.93905944
        0.661784 -0.037544474 0.9390626 0.6671096 -0.037540063 0.9390656
        0.6720443 -0.037538238 0.9390685 0.6766128 -0.037539564 0.9390712
        0.6808383 -0.037544467 0.93907356 0.68474215 -0.03755324 0.9390758
        0.68834424 -0.037566017 0.93907773 0.6916633 -0.03758279 0.93907946
        0.69471735 -0.037603382 0.9390809 0.6975235 -0.037627567 0.939082
        0.4368725 -0.03635638 0.93967324 0.45140877 -0.036349043 0.93944985
        0.4658679 -0.036343943 0.9392915 0.4801772 -0.036340605 0.9391887
        0.4942667 -0.03633846 0.9391286 0.50807065 -0.036336947 0.9390975
        0.5215286 -0.036335573 0.9390832 0.5345864 -0.036334004 0.93907785
        0.5471967 -0.036331985 0.93907595 0.55931973 -0.036329433 0.9390758
        0.5709233 -0.036326278 0.939077 0.5819833 -0.03632248 0.9390792
        0.592483 -0.036317974 0.9390822 0.6024132 -0.03631271 0.93908566
        0.6117717 -0.036306657 0.93908936 0.620563 -0.03629982 0.93909305
        0.6287974 -0.036292285 0.9390967 0.6364906 -0.036284216 0.9391002
        0.64366245 -0.036275897 0.9391037 0.65033644 -0.036267746 0.9391071
        0.65653807 -0.03626028 0.9391104 0.66229415 -0.036254108 0.93911356
        0.6676315 -0.03624985 0.9391166 0.6725763 -0.036248133 0.9391195
        0.6771532 -0.03624948 0.9391222 0.6813854 -0.03625431 0.93912464
        0.6852943 -0.0362629 0.9391269 0.6889 -0.03627538 0.9391289
        0.69222164 -0.03629174 0.93913066 0.6952775 -0.036311846 0.9391321
        0.698085 -0.03633549 0.93913335 0.4368725 -0.03506347 0.93972236
        0.45144105 -0.035056364 0.93949854 0.46593234 -0.035051428 0.93934005
        0.48027346 -0.03504819 0.93923724 0.49439433 -0.03504611 0.9391773
        0.50822914 -0.03504464 0.9391464 0.52171725 -0.03504329 0.9391322
        0.53480434 -0.035041753 0.93912697 0.5474431 -0.035039783 0.939125
        0.55959356 -0.03503729 0.93912494 0.5712237 -0.035034224 0.93912613
        0.58230907 -0.03503052 0.93912834 0.592833 -0.035026137 0.9391314
        0.6027863 -0.035021015 0.9391349 0.6121668 -0.03501513 0.9391386
        0.62097895 -0.035008483 0.9391422 0.629233 -0.035001148 0.93914586
        0.63694465 -0.03499331 0.93914944 0.64413375 -0.034985233 0.9391529
        0.6508237 -0.034977328 0.9391563 0.65704 -0.0349701 0.9391595
        0.6628092 -0.03496414 0.93916273 0.66815805 -0.03496006 0.9391658
        0.6731125 -0.03495844 0.9391687 0.6776973 -0.034959793 0.93917143
        0.6819355 -0.03496451 0.9391739 0.6858487 -0.034972847 0.9391762
        0.6894575 -0.03498495 0.9391782 0.6927811 -0.03500082 0.9391801
        0.6958382 -0.035020344 0.9391816 0.69864655 -0.03504334 0.9391829
        0.4368725 -0.0337705 0.93976974 0.4514735 -0.03376362 0.93954545
        0.46599713 -0.033758838 0.9393868 0.48037025 -0.0337557 0.9392841
        0.4945227 -0.033753682 0.93922424 0.5083885 -0.03375225 0.9391935
        0.521907 -0.03375094 0.9391794 0.5350236 -0.033749446 0.93917423
        0.54769105 -0.033747535 0.9391723 0.5598693 -0.03374512 0.9391723
        0.5715261 -0.033742156 0.9391735 0.5826372 -0.033738583 0.9391757
        0.5931857 -0.033734348 0.9391788 0.6031626 -0.0337294 0.9391823
        0.61256546 -0.03372372 0.939186 0.6213988 -0.0337173 0.9391897
        0.6296729 -0.033710223 0.93919325 0.6374033 -0.033702657 0.9391968
        0.64461 -0.033694874 0.9392003 0.65131605 -0.033687256 0.9392036
        0.65754694 -0.033680312 0.93920696 0.6633292 -0.033674594 0.9392102
        0.6686892 -0.033670694 0.93921316 0.673653 -0.033669177 0.9392161
        0.67824507 -0.033670504 0.9392188 0.6824887 -0.033675067 0.93922144
        0.68640566 -0.033683103 0.93922377 0.69001675 -0.033694755 0.9392258
        0.6933417 -0.03371004 0.93922764 0.69639945 -0.033728875 0.93922925
        0.699208 -0.03375113 0.9392306 0.4368725 -0.03247747 0.9398153
        0.45150614 -0.032470807 0.93959063 0.46606222 -0.03246618 0.9394318
        0.48046753 -0.03246314 0.93932915 0.49465173 -0.03246118 0.9392694
        0.50854874 -0.032459795 0.9392388 0.5220977 -0.032458533 0.93922484
        0.53524417 -0.032457087 0.9392197 0.54794055 -0.032455247 0.93921787
        0.5601468 -0.032452937 0.93921787 0.57183063 -0.032450087 0.939219
        0.58296776 -0.032446664 0.9392214 0.59354126 -0.03244261 0.9392244
        0.60354203 -0.032437876 0.93922794 0.61296767 -0.032432433 0.93923163
        0.62182266 -0.03242629 0.93923527 0.6301172 -0.032419518 0.9392389
        0.63786674 -0.03241228 0.9392424 0.6450912 -0.03240483 0.9392459
        0.65181357 -0.032397553 0.9392493 0.6580591 -0.032390922 0.93925256
        0.66385424 -0.03238548 0.9392558 0.6692252 -0.032381784 0.9392588
        0.67419785 -0.032380354 0.93926173 0.6787967 -0.032381643 0.9392645
        0.68304515 -0.032386005 0.9392671 0.68696517 -0.03239368 0.9392694
        0.6905779 -0.032404803 0.93927157 0.6939035 -0.032419413 0.9392735
        0.6969613 -0.032437462 0.93927515 0.69976956 -0.032458853 0.9392766
        0.4368725 -0.031184372 0.93985915 0.45153892 -0.031177929 0.93963397
        0.46612766 -0.031173445 0.939475 0.48056534 -0.031170504 0.93937236
        0.4947815 -0.031168612 0.93931276 0.5087099 -0.031167272 0.9392823
        0.52228963 -0.03116606 0.9392685 0.5354661 -0.031164682 0.93926346
        0.5481916 -0.031162927 0.9392616 0.5604261 -0.031160727 0.9392616
        0.57213736 -0.031158026 0.9392628 0.58330077 -0.031154774 0.93926513
        0.59389967 -0.031150935 0.9392683 0.60392463 -0.031146444 0.93927175
        0.6133735 -0.031141281 0.9392755 0.6222505 -0.03113546 0.93927914
        0.6305659 -0.03112904 0.9392828 0.638335 -0.031122174 0.9392863
        0.6455775 -0.031115122 0.9392897 0.65231633 -0.03110823 0.9392931
        0.65857667 -0.03110196 0.93929636 0.6643845 -0.031096816 0.9392996
        0.6697661 -0.031093333 0.9393026 0.67474717 -0.031091992 0.9393056
        0.67935234 -0.031093225 0.9393084 0.68360496 -0.031097349 0.93931097
        0.6875275 -0.0311046 0.9393134 0.6911412 -0.03111512 0.9393156
        0.69446677 -0.03112896 0.9393176 0.69752383 -0.031146105 0.9393194
        0.7003311 -0.031166513 0.93932086 0.4368725 -0.029891213 0.9399011
        0.4515719 -0.029884983 0.93967557 0.46619347 -0.02988065 0.93951637
        0.48066366 -0.0298778 0.93941385 0.49491194 -0.029875975 0.9393544
        0.508872 -0.02987469 0.939324 0.52248263 -0.029873531 0.93931043
        0.53568935 -0.029872226 0.93930537 0.5484443 -0.029870577 0.9393036
        0.56070733 -0.029868508 0.9393036 0.57244617 -0.029865967 0.9393049
        0.5836363 -0.029862927 0.9393072 0.5942609 -0.029859321 0.9393104
        0.6043106 -0.029855115 0.9393138 0.61378306 -0.02985028 0.9393175
        0.6226825 -0.029844819 0.9393212 0.6310191 -0.029838797 0.93932486
        0.63880813 -0.029832361 0.9393283 0.646069 -0.029825749 0.93933177
        0.6528245 -0.029819295 0.93933517 0.6590996 -0.029813427 0.93933845
        0.66492003 -0.029808624 0.93934166 0.6703121 -0.029805364 0.9393447
        0.67530125 -0.02980412 0.9393477 0.6799121 -0.029805267 0.9393505
        0.6841684 -0.029809121 0.93935317 0.68809265 -0.02981589 0.9393556
        0.6917067 -0.029825723 0.9393579 0.69503146 -0.029838694 0.9393599
        0.69808704 -0.029854821 0.9393617 0.7008926 -0.029874109 0.93936324
        0.4368725 -0.028598003 0.93994135 0.45160502 -0.028591983 0.9397154
        0.4662596 -0.02858779 0.93955606 0.4807625 -0.028585037 0.9394535
        0.4950431 -0.028583277 0.93939424 0.50903493 -0.02858205 0.939364
        0.5226768 -0.028580956 0.93935055 0.53591394 -0.028579734 0.93934554
        0.54869854 -0.028578198 0.93934375 0.56099045 -0.028576277 0.9393438
        0.57275724 -0.02857393 0.93934506 0.58397436 -0.028571114 0.9393475
        0.59462506 -0.028567784 0.9393506 0.6046998 -0.028563896 0.9393541
        0.61419636 -0.028559422 0.9393578 0.6231187 -0.028554374 0.9393615
        0.631477 -0.028548807 0.9393651 0.6392863 -0.028542854 0.9393686
        0.64656585 -0.028536739 0.93937206 0.6533382 -0.02853077 0.9393754
        0.6596281 -0.028525349 0.9393787 0.6654611 -0.02852091 0.9393819
        0.67086333 -0.028517906 0.939385 0.6758601 -0.02851675 0.939388
        0.6804763 -0.028517805 0.9393908 0.6847356 -0.028521342 0.9393935
        0.688661 -0.028527576 0.93939596 0.6922746 -0.028536642 0.9393983
        0.69559777 -0.02854864 0.93940043 0.69865113 -0.028563624 0.9394023
        0.70145416 -0.02858165 0.9394039 0.4368725 -0.027304737 0.9399798
        0.45163834 -0.027298924 0.9397534 0.46632606 -0.027294869 0.9395939
        0.48086187 -0.02729221 0.9394914 0.495175 -0.027290517 0.93943226
        0.5091988 -0.027289351 0.9394022 0.5228721 -0.027288333 0.9393889
        0.53613985 -0.027287208 0.9393839 0.5489544 -0.0272858 0.9393822
        0.5612754 -0.02728405 0.93938226 0.57307047 -0.02728191 0.93938357
        0.584315 -0.02727935 0.93938595 0.5949921 -0.027276324 0.9393891
        0.6050924 -0.027272789 0.9393926 0.6146134 -0.027268726 0.9393963
        0.6235592 -0.027264137 0.93939996 0.6319396 -0.027259076 0.9394036
        0.6397695 -0.02725366 0.9394071 0.6470681 -0.027248098 0.93941057
        0.6538575 -0.027242672 0.9394139 0.66016227 -0.027237741 0.9394172
        0.6660078 -0.027233705 0.9394204 0.67142 -0.027230972 0.9394235
        0.6764241 -0.027229918 0.93942654 0.68104506 -0.027230859 0.9394294
        0.68530685 -0.02723405 0.93943214 0.6892327 -0.027239684 0.93943465
        0.6928451 -0.027247904 0.939437 0.6961659 -0.02725882 0.9394392
        0.6992161 -0.02727253 0.9394411 0.7020157 -0.027289137 0.9394428
        0.4368725 -0.026011417 0.9400165 0.45167184 -0.026005806 0.9397896
        0.46639287 -0.02600189 0.93963 0.4809618 -0.025999326 0.9395275
        0.4953076 -0.025997702 0.93946856 0.5093636 -0.025996601 0.93943864
        0.5230685 -0.025995666 0.9394254 0.5363672 -0.025994647 0.9394205
        0.5492119 -0.025993386 0.9394188 0.56156236 -0.025991824 0.9394189
        0.57338595 -0.025989918 0.9394202 0.5846582 -0.025987642 0.93942267
        0.5953622 -0.025984954 0.9394259 0.6054884 -0.025981814 0.9394294
        0.6150344 -0.025978198 0.9394331 0.624004 -0.025974115 0.93943673
        0.632407 -0.025969613 0.9394403 0.640258 -0.025964795 0.9394438
        0.6475759 -0.025959842 0.9394472 0.6543827 -0.025955014 0.9394506
        0.6607024 -0.025950624 0.9394539 0.6665604 -0.025947029 0.9394571
        0.6719822 -0.025944592 0.9394603 0.67699337 -0.02594364 0.93946326
        0.6816187 -0.02594446 0.9394662 0.6858824 -0.02594727 0.9394689
        0.689808 -0.025952252 0.9394715 0.69341856 -0.025959542 0.9394739
        0.6967361 -0.025969269 0.93947613 0.69978213 -0.025981555 0.9394781
        0.70257723 -0.02599657 0.93947995 0.4368725 -0.024718048 0.9400514
        0.4517055 -0.024712635 0.9398241 0.46646008 -0.024708856 0.9396643
        0.48106223 -0.024706384 0.9395619 0.49544093 -0.024704834 0.9395031
        0.50952935 -0.024703806 0.93947333 0.523266 -0.024702959 0.93946016
        0.5365959 -0.024702063 0.93945533 0.5494711 -0.024700962 0.93945366
        0.5618512 -0.024699606 0.9394538 0.5737037 -0.02469796 0.93945515
        0.58500403 -0.024695996 0.9394576 0.5957353 -0.024693675 0.93946075
        0.6058879 -0.024690969 0.9394644 0.6154593 -0.02468785 0.939468
        0.62445325 -0.024684327 0.9394717 0.63287926 -0.024680438 0.9394753
        0.64075184 -0.024676273 0.9394788 0.64808947 -0.024671992 0.9394822
        0.6549138 -0.024667813 0.93948555 0.6612486 -0.024664016 0.9394889
        0.66711897 -0.024660908 0.93949205 0.6725504 -0.024658794 0.9394952
        0.6775682 -0.02465796 0.93949825 0.68219745 -0.024658645 0.93950117
        0.6864625 -0.024661046 0.9395039 0.69038737 -0.024665318 0.93950653
        0.6939951 -0.0246716 0.93950903 0.69730854 -0.024680015 0.9395113
        0.7003494 -0.024690725 0.9395133 0.7031387 -0.024703952 0.93951523
        0.4368725 -0.023424637 0.9400845 0.4517393 -0.02341942 0.93985677
        0.46652758 -0.02341577 0.93969685 0.48116323 -0.023413394 0.93959445
        0.495575 -0.02341192 0.9395358 0.509696 -0.023410968 0.9395062
        0.52346474 -0.023410222 0.9394932 0.536826 -0.023409458 0.9394884
        0.5497319 -0.023408536 0.9394868 0.56214195 -0.023407407 0.9394869
        0.5740237 -0.023406044 0.9394883 0.58535254 -0.023404421 0.93949074
        0.5961115 -0.023402505 0.93949395 0.6062909 -0.023400268 0.93949753
        0.6158882 -0.023397693 0.9395012 0.624907 -0.02339478 0.93950486
        0.6333566 -0.02339156 0.93950844 0.6412511 -0.023388112 0.93951195
        0.6486088 -0.023384562 0.9395154 0.655451 -0.0233811 0.9395187
        0.6618011 -0.023377948 0.939522 0.66768384 -0.023375368 0.93952525
        0.6731247 -0.023373606 0.9395284 0.6781489 -0.023372903 0.93953145
        0.6827817 -0.023373453 0.9395344 0.68704766 -0.023375416 0.9395372
        0.69097096 -0.02337893 0.93953985 0.6945753 -0.023384115 0.93954235
        0.69788355 -0.023391103 0.93954474 0.700918 -0.02340007 0.9395468
        0.70370024 -0.023411287 0.9395488 0.4368725 -0.022131177 0.9401158
        0.45177332 -0.022126151 0.93988764 0.4665955 -0.022122636 0.93972754
        0.48126477 -0.022120357 0.9396252 0.49570978 -0.02211896 0.93956673
        0.5098636 -0.022118093 0.9395373 0.5236646 -0.022117455 0.93952435
        0.5370575 -0.022116838 0.93951964 0.5499944 -0.022116112 0.9395181
        0.56243473 -0.022115232 0.9395182 0.57434607 -0.022114176 0.9395196
        0.5857037 -0.022112923 0.93952215 0.5964907 -0.022111448 0.93952537
        0.60669744 -0.022109726 0.9395289 0.61632115 -0.022107737 0.93953264
        0.6253653 -0.022105485 0.9395363 0.63383895 -0.022102997 0.93953985
        0.641756 -0.022100324 0.9395433 0.64913416 -0.022097575 0.93954676
        0.6559945 -0.022094889 0.9395501 0.66236 -0.022092441 0.93955344
        0.6682552 -0.022090439 0.93955666 0.67370534 -0.022089068 0.9395598
        0.6787358 -0.022088513 0.9395629 0.6833717 -0.022088924 0.93956584
        0.6876381 -0.022090431 0.9395687 0.6915594 -0.022093136 0.93957144
        0.6951594 -0.022097146 0.93957394 0.6984615 -0.022102583 0.9395763
        0.7014883 -0.022109624 0.93957853 0.7042618 -0.022118576 0.93958056
        0.4368725 -0.020837678 0.94014543 0.45180753 -0.020832842 0.93991673
        0.46666375 -0.02082946 0.9397565 0.4813668 -0.020827273 0.93965423
        0.49584532 -0.020825962 0.9395958 0.5100321 -0.020825189 0.93956655
        0.52386564 -0.020824669 0.93955386 0.53729045 -0.02082421 0.9395492
        0.5502585 -0.020823698 0.9395476 0.5627295 -0.020823091 0.9395478
        0.5746707 -0.020822369 0.9395492 0.58605754 -0.02082152 0.9395518
        0.59687304 -0.020820519 0.939555 0.6071076 -0.020819347 0.93955857
        0.6167582 -0.020817997 0.93956226 0.62582827 -0.020816462 0.9395659
        0.6343266 -0.020814763 0.93956953 0.6422666 -0.020812934 0.93957293
        0.6496657 -0.02081105 0.9395764 0.6565445 -0.020809209 0.9395797
        0.66292566 -0.020807533 0.93958306 0.6688334 -0.020806156 0.9395863
        0.67429274 -0.020805215 0.9395895 0.67932916 -0.020804834 0.9395926
        0.68396795 -0.020805115 0.9395956 0.68823427 -0.020806147 0.93959844
        0.6921529 -0.020808002 0.9396012 0.6957479 -0.020810759 0.93960375
        0.6990428 -0.020814518 0.9396062 0.7020605 -0.020819437 0.93960845
        0.7048233 -0.020825822 0.9396106 0.4368725 -0.019544138 0.94017315
        0.45184186 -0.019539492 0.9399441 0.46673235 -0.019536242 0.9397837
        0.48146942 -0.019534156 0.9396815 0.49598157 -0.019532932 0.93962324
        0.51020163 -0.01953226 0.9395941 0.5240678 -0.019531872 0.93958145
        0.53752476 -0.01953159 0.93957686 0.5505244 -0.01953131 0.9395753
        0.5630262 -0.019530995 0.93957555 0.57499766 -0.019530635 0.93957704
        0.5864141 -0.019530216 0.93957955 0.59725857 -0.01952973 0.9395828
        0.60752136 -0.019529158 0.9395864 0.6171994 -0.019528491 0.9395901
        0.626296 -0.019527731 0.9395938 0.63481945 -0.019526882 0.9395973
        0.6427829 -0.019525966 0.9396008 0.6502035 -0.01952502 0.9396042
        0.65710115 -0.019524096 0.93960756 0.66349816 -0.019523252 0.93961096
        0.6694185 -0.019522564 0.9396142 0.6748871 -0.019522099 0.93961734
        0.6799294 -0.01952192 0.9396205 0.6845708 -0.01952208 0.9396235
        0.68883675 -0.019522626 0.9396264 0.6927522 -0.019523595 0.9396292
        0.6963414 -0.01952503 0.9396318 0.6996281 -0.019526988 0.93963426
        0.7026351 -0.01952958 0.9396366 0.70538485 -0.019533029 0.93963873
        0.4368725 -0.01825056 0.9401992 0.45187643 -0.018246105 0.93996966
        0.46680132 -0.018242989 0.9398091 0.48157257 -0.018241005 0.9397069
        0.4961186 -0.018239878 0.9396488 0.5103721 -0.018239316 0.93961984
        0.5242712 -0.018239073 0.9396073 0.53776056 -0.018238984 0.9396028
        0.550792 -0.018238954 0.9396013 0.5633249 -0.01823896 0.93960154
        0.575327 -0.018238988 0.93960303 0.58677346 -0.01823904 0.9396056
        0.5976473 -0.018239103 0.9396089 0.6079388 -0.018239172 0.9396125
        0.6176449 -0.018239245 0.9396162 0.62676847 -0.018239316 0.93961984
        0.6353177 -0.018239385 0.9396234 0.6433053 -0.018239453 0.93962693
        0.6507478 -0.018239519 0.9396303 0.65766466 -0.018239584 0.93963367
        0.6640779 -0.018239649 0.939637 0.67001104 -0.018239712 0.9396403
        0.6754888 -0.018239774 0.9396435 0.68053687 -0.018239835 0.9396466
        0.68518066 -0.018239895 0.93964964 0.6894459 -0.01823995 0.9396526
        0.6933577 -0.018240007 0.9396554 0.6969405 -0.018240059 0.9396581
        0.70021796 -0.018240107 0.9396606 0.70321274 -0.018240154 0.939663
        0.7059464 -0.018240197 0.9396652
        <InformationKey name="L2_NORM_RANGE" location="vtkDataArray" length="2">
          <Value index="0">
            1.036901678
          </Value>
          <Value index="1">
            1.1754419124
          </Value>
        </InformationKey>
      </DataArray>
    </Points>
  </Piece>
  </StructuredGrid>
</VTKFile>
