<?xml version="1.0"?>
<VTKFile type="StructuredGrid" version="0.1" byte_order="LittleEndian" header_type="UInt32" compressor="vtkZLibDataCompressor">
  <StructuredGrid WholeExtent="0 30 0 40 0 0">
  <Piece Extent="0 30 0 40 0 0">
    <PointData>
      <DataArray type="Float32" Name="orthogonality" format="ascii" RangeMin="0" RangeMax="0.9196417927742004">
        0 0.016348723 0.032496825 0.04832732 0.063737735 0.07863493
        0.092935614 0.10656707 0.11946747 0.13158566 0.14288057 0.15332022
        0.1628804 0.17154291 0.17929293 0.18611422 0.19197801 0.19681689
        0.20046553 0.20253652 0.2021863 0.19771421 0.18593185 0.16119814
        0.113812186 0.027041689 0.12561758 0.3611038 0.62086797 0.8116725
        0.9196418 0.0001018572 0.016479386 0.032662887 0.048535757 0.06399562
        0.0789492 0.093312964 0.10701395 0.11999 0.13218965 0.14357151
        0.15410331 0.16376057 0.17252484 0.18038101 0.18731229 0.19328874
        0.19823995 0.20199303 0.20414355 0.2038128 0.19923815 0.18714741
        0.16186082 0.113957666 0.028220301 0.11710062 0.33446586 0.58229685
        0.7839486 0.912836 0.00025140925 0.01666347 0.03288814 0.048809376
        0.06432497 0.07934155 0.09377549 0.107553616 0.12061359 0.13290375
        0.14438255 0.15501761 0.16478436 0.1736643 0.18164232 0.18870142
        0.19481088 0.19989783 0.20378289 0.20604631 0.205778 0.20116103
        0.18885466 0.16317037 0.11501515 0.030682754 0.10724844 0.3071986
        0.5417923 0.75392705 0.90579456 0.00044151512 0.016898412 0.033174824
        0.049155578 0.06473881 0.0798313 0.094349496 0.10822027 0.12138137
        0.13378122 0.14537844 0.15614088 0.1660443 0.17507064 0.18320529
        0.19043168 0.19671911 0.20199333 0.20607014 0.20851758 0.2084002
        0.20385905 0.19151148 0.16571729 0.11782304 0.035740096 0.094069
        0.27717972 0.49811155 0.71896756 0.8938431 0.00066416344 0.017175786
        0.033514086 0.049565088 0.06522745 0.08040829 0.09502433 0.109002784
        0.12228168 0.13480987 0.14654644 0.15745987 0.16752668 0.17672972
        0.18505545 0.1924884 0.19899872 0.20451204 0.2088413 0.2115459
        0.21167208 0.20733337 0.1951348 0.1695445 0.12245258 0.04345236
        0.07754445 0.24411073 0.45045957 0.6774724 0.87511665 0.0009106304
        0.01748592 0.033895284 0.050026216 0.06577806 0.081058465 0.095784634
        0.10988429 0.123296075 0.13596947 0.14786442 0.15895033 0.16920492
        0.17861241 0.18716088 0.19483666 0.20161162 0.20741253 0.21205156
        0.21508354 0.21554442 0.21153626 0.19968379 0.17462352 0.1288801
        0.053751983 0.057807066 0.20788878 0.39815918 0.6274495 0.84685415
        0.0011710781 0.01781682 0.03430416 0.050522313 0.06637142 0.08175977
        0.096605256 0.11083627 0.12439223 0.13722354 0.14929117 0.16056581
        0.17102669 0.1806598 0.1894553 0.19740185 0.20447387 0.21060038
        0.21559499 0.21901213 0.21988592 0.21632403 0.20500341 0.18078566
        0.13690281 0.066342615 0.03526321 0.16876905 0.34093592 0.56673986
        0.80509603 0.0014361555 0.01815612 0.034725215 0.051034503 0.066984996
        0.082485735 0.09745534 0.11182301 0.12552907 0.13852493 0.15077281
        0.16224483 0.1729219 0.18279208 0.19184785 0.20008065 0.20746791
        0.21394198 0.21931979 0.22315942 0.22450176 0.22147697 0.21084541
        0.18774304 0.1461585 0.08071413 0.010605103 0.12746198 0.27929646
        0.49357474 0.7445677 0.0016949419 0.018488165 0.03513785 0.051536977
        0.0675874 0.083198875 0.09829079 0.112793155 0.12664716 0.13980527
        0.15223092 0.16389768 0.17478816 0.18489246 0.1942055 0.20272149
        0.21042119 0.2172408 0.22300215 0.22727059 0.22910166 0.2266638
        0.21682835 0.19504464 0.15608177 0.096109696 0.015179786 0.08511447
        0.21459752 0.40763214 0.6590722 0.0019421686 0.018802948 0.03552716
        0.05200963 0.06815298 0.08386762 0.09907356 0.11370151 0.12769346
        0.14100277 0.15359393 0.16544181 0.17653055 0.18685211 0.19640353
        0.20518172 0.21317057 0.2203104 0.22642897 0.23110192 0.23340644
        0.23156296 0.2225766 0.2022366 0.16609058 0.11173991 0.041036677
        0.043089963 0.14893949 0.31035662 0.54166746 0.0021733239 0.019093752
        0.03588412 0.052441034 0.06866771 0.08447507 0.09978366 0.1145247
        0.12864079 0.14208603 0.15482573 0.16683581 0.17810169 0.18861681
        0.19838013 0.20739077 0.21563557 0.22305897 0.22949548 0.23453373
        0.23727882 0.23601538 0.22790079 0.20908023 0.17585744 0.12713064
        0.06630462 0.002316946 0.08419113 0.20517106 0.38893872 0.0023796563
        0.019350884 0.036198076 0.052819457 0.0691187 0.0850071 0.10040553
        0.115245596 0.12947029 0.1430342 0.1559033 0.1680542 0.17947328
        0.1901552 0.20010033 0.20930971 0.21777275 0.22543797 0.23214734
        0.23750494 0.2406497 0.23994134 0.23270464 0.21544813 0.18519406
        0.14199194 0.09056127 0.03653446 0.022078099 0.09842508 0.21056242
        0.0025549536 0.019569132 0.036464825 0.053141724 0.06950382 0.08546263
        0.10093923 0.11586542 0.13018443 0.14385113 0.15683189 0.16910383
        0.18065403 0.19147797 0.20157716 0.21095416 0.21960069 0.22746933
        0.23441026 0.24004547 0.24355319 0.24337816 0.23702452 0.22136451
        0.19408998 0.15625125 0.11365348 0.07312985 0.03618291 0.003247456
        0.028594794 0.0026925895 0.019744476 0.03668302 0.053409245 0.06982733
        0.08584894 0.101395234 0.11639811 0.1308009 0.14455864 0.15763791
        0.17001621 0.18168108 0.19262864 0.20286131 0.21238296 0.22118749
        0.22923164 0.23637477 0.24225923 0.24610803 0.2464601 0.24100901
        0.2269869 0.20270151 0.1700583 0.13573419 0.10757229 0.09014418
        0.09515864 0.13399844 0.0027864694 0.019873146 0.03685126 0.053623043
        0.0700928 0.08617225 0.101782605 0.116855755 0.13133508 0.14517571
        0.15834433 0.17081872 0.18258676 0.19364512 0.20399697 0.21364738
        0.22259241 0.2307933 0.23811947 0.24423617 0.24841626 0.24930114
        0.24478173 0.23244275 0.21115214 0.18353342 0.15693913 0.13999516
        0.13965769 0.17508706 0.26531237 0.0028304497 0.019950302 0.036966033
        0.053780947 0.07029943 0.086433224 0.10210351 0.117242165 0.13179255
        0.14570981 0.15896074 0.1715233 0.18338566 0.19454493 0.20500499
        0.21477206 0.22384438 0.23218799 0.23968333 0.24602082 0.25052768
        0.2519548 0.2483959 0.23777781 0.21947294 0.19669631 0.17729837
        0.1704471 0.18469682 0.24276543 0.36492807 0.002818698 0.019970668
        0.03702261 0.05387878 0.070443586 0.08662876 0.10235542 0.1175554
        0.132172 0.14616035 0.1594873 0.17213093 0.18407965 0.19533099
        0.20588946 0.2157624 0.2249503 0.23342422 0.24107651 0.24762471
        0.2524542 0.25443068 0.251854 0.24298002 0.22763102 0.20949832
        0.19677158 0.19892578 0.22534432 0.29911685 0.4380365 0.0027457809
        0.019929063 0.03701606 0.05391183 0.07052075 0.086754516 0.10253418
        0.11779146 0.13246958 0.14652361 0.15992044 0.17263822 0.18466556
        0.19600035 0.20664768 0.21661595 0.22590794 0.23450002 0.24229708
        0.2490454 0.25419155 0.2567201 0.2551378 0.24801503 0.23557171
        0.22187217 0.21530546 0.22543705 0.26179975 0.34558854 0.49077427
        0.0026060957 0.019820252 0.036941506 0.053875532 0.07052665 0.0868065
        0.10263601 0.11794679 0.13268195 0.1467965 0.16025728 0.17304249
        0.18514095 0.19655079 0.20727766 0.217331 0.22671591 0.23541419
        0.24334387 0.25028124 0.25573635 0.25881553 0.25823164 0.25285426
        0.24325232 0.23377146 0.23287845 0.25003853 0.2943756 0.38373697
        0.5283235 0.0023948173 0.01963958 0.03679444 0.05376547 0.07045691
        0.086780295 0.10265644 0.1180168 0.13280436 0.14697403 0.16049258
        0.17333826 0.18549995 0.19697605 0.2077727 0.21790032 0.22736627
        0.236158 0.244207 0.25132048 0.25707364 0.2606959 0.2611042
        0.2574511 0.2506095 0.24512535 0.2494384 0.2727525 0.3233519
        0.41490924 0.55455285 0.0021025834 0.019379148 0.036568396 0.053576503
        0.07030763 0.086673215 0.10259396 0.11800117 0.13283768 0.14705828
        0.1606297 0.17353015 0.1857486 0.1972837 0.20814197 0.21833482
        0.2278719 0.23674631 0.24490342 0.2521821 0.25822386 0.2623823
        0.2637757 0.26182488 0.25766653 0.25597632 0.2650767 0.29377732
        0.34921214 0.4404117 0.5722373 0.0017295991 0.019037586 0.03626041
        0.053303972 0.07007234 0.086476855 0.10243807 0.11788712 0.13276668
        0.14703138 0.16064785 0.17359424 0.18585955 0.1974425 0.20835003
        0.21859437 0.22818738 0.23712777 0.24537475 0.25279903 0.25910836
        0.2637794 0.26612622 0.26582065 0.26422432 0.2660805 0.2795202
        0.31285903 0.37187582 0.46084306 0.583285 0.001240324 0.018586898
        0.03584977 0.052933972 0.069743626 0.08619008 0.10219384 0.117685944
        0.13260897 0.14691746 0.16057798 0.17356865 0.18587853 0.19750649
        0.20845981 0.21875161 0.22839598 0.23739736 0.2457291 0.25329423
        0.25986776 0.2650499 0.26834846 0.26967502 0.2705857 0.27583796
        0.293305 0.33072993 0.39242798 0.4776364 0.5890384 0.0006774665
        0.018082734 0.035405006 0.05254819 0.06941678 0.08592242 0.10198584
        0.11753829 0.1325225 0.1468932 0.16061717 0.17367284 0.18604957
        0.19774675 0.2087724 0.21914093 0.22886914 0.23796794 0.24642599
        0.2541807 0.26107788 0.26684707 0.27119634 0.27427876 0.27783054
        0.28658155 0.30807582 0.3493679 0.4131103 0.4935703 0.59179765
        0.00016852791 0.01764225 0.03503376 0.052246287 0.069184825 0.08576145
        0.10189725 0.117523804 0.13258421 0.14703362 0.16083919 0.17397986
        0.1864457 0.19823685 0.2093624 0.2198385 0.22968525 0.23892084
        0.24755068 0.25554934 0.26283854 0.26928574 0.27481085 0.2798175
        0.28621462 0.29866526 0.32429767 0.3693053 0.43439353 0.50974524
        0.59418786 0.00024311681 0.017292587 0.034747437 0.052024443 0.06902898
        0.085673474 0.10187931 0.11757839 0.13271411 0.14724195 0.16112955
        0.17435636 0.18691307 0.19880067 0.21002936 0.22061712 0.23058753
        0.23996663 0.24877775 0.2570353 0.26474234 0.2719136 0.27869347
        0.28574532 0.29514122 0.31143 0.34122422 0.3896729 0.45536155
        0.52563083 0.5976633 0.0005831646 0.0170072 0.034518607 0.051854044
        0.068919204 0.08562678 0.10189841 0.117666215 0.13287388 0.1474772
        0.16144419 0.1747548 0.18740031 0.19938254 0.2107128 0.22141093
        0.2315042 0.24102694 0.25002176 0.25854596 0.26669025 0.2746278
        0.28274286 0.2919703 0.30453488 0.32481596 0.35879663 0.41040438
        0.47607952 0.54121554 0.60202885 0.0008499183 0.016790433 0.034354102
        0.051744238 0.068866834 0.08563482 0.101970054 0.11780488 0.13308324
        0.14776124 0.16180727 0.17520177 0.18793668 0.20001458 0.21144797
        0.22225863 0.23247774 0.24214847 0.2513341 0.26013795 0.2687449
        0.27749804 0.2870375 0.29858223 0.31449762 0.33893102 0.37710738
        0.43155694 0.49664485 0.5567175 0.60739774 0.0010501563 0.01663598
        0.034248024 0.051689405 0.0688664 0.085692175 0.10208879 0.117988795
        0.13333638 0.14808796 0.16221231 0.17569037 0.18851466 0.20068865
        0.212226 0.22315052 0.2334975 0.24331956 0.25270203 0.26179764
        0.27089235 0.28051165 0.29156926 0.30558234 0.32504416 0.35379824
        0.39616784 0.45312667 0.5171302 0.57224464 0.6138251 0.0011885373
        0.016540218 0.0341977 0.05168773 0.06891687 0.08579852 0.10225492
        0.11821887 0.13363479 0.14845942 0.16266191 0.17622368 0.18913794
        0.20140897 0.2130517 0.22409205 0.23456964 0.24454708 0.25413334
        0.26353392 0.27314317 0.28368217 0.29635742 0.31300032 0.33621776
        0.36946818 0.41601503 0.47513908 0.5376304 0.58795387 0.6214412
        0.0012703402 0.016498515 0.0341991 0.051735707 0.069015205 0.0859512
        0.102466166 0.11849312 0.13397676 0.1488741 0.16315477 0.17680064
        0.1898056 0.20217481 0.2139245 0.22508274 0.2356938 0.24583086
        0.25562796 0.26534706 0.27549833 0.28701252 0.30140975 0.32085392
        0.34805053 0.3859809 0.43667722 0.49762186 0.5582472 0.6039925
        0.6303821 0.0013006836 0.016506318 0.034248196 0.05182978 0.06915825
        0.08614746 0.1027201 0.118809424 0.13436042 0.14933045 0.16368952
        0.17742011 0.19051673 0.20298547 0.21484387 0.22612235 0.23686992
        0.24717104 0.25718632 0.26723775 0.2779591 0.2905055 0.30673343
        0.32916015 0.3605743 0.40337667 0.4581853 0.52061474 0.5790937
        0.6205127 0.6407944 0.0012846019 0.016559005 0.03434074 0.051966038
        0.069342405 0.08638394 0.10301359 0.11916488 0.13478307 0.14982589
        0.1642638 0.1780798 0.19126916 0.20383888 0.21580791 0.22720903
        0.23809631 0.248566 0.25880682 0.26920438 0.28052393 0.29416037
        0.31233108 0.33793095 0.37381655 0.4216932 0.48057166 0.544168
        0.60028976 0.6376579 0.6528081 0.0012269217 0.01665204 0.034472466
        0.05214044 0.06956382 0.08665699 0.103343144 0.119556084 0.1352414
        0.1503572 0.16487442 0.17877664 0.19205983 0.20473205 0.21681361
        0.22833982 0.23936997 0.25001273 0.26048633 0.27124348 0.2831889
        0.29797304 0.3182008 0.34717333 0.38780102 0.44096684 0.5038726
        0.5683429 0.6219574 0.65555423 0.6665162 0.0011321999 0.016781049
        0.03463915 0.0523489 0.069818534 0.0869627 0.10370491 0.11997923
        0.13573161 0.15092058 0.16551752 0.17950669 0.1928848 0.2056609
        0.21785682 0.22951044 0.2406865 0.25150657 0.26221982 0.27334937
        0.28594714 0.30193532 0.3243354 0.3568883 0.4025471 0.4612335
        0.5281295 0.59320885 0.64421225 0.6742959 0.6819474 0.0010046702
        0.016941883 0.034836706 0.052587375 0.0701025 0.08729703 0.10409478
        0.12043015 0.13624945 0.15151164 0.16618863 0.18026528 0.19373916
        0.20662035 0.21893223 0.23071529 0.24203995 0.25304115 0.26400018
        0.27551383 0.28878844 0.3060345 0.3307214 0.36707017 0.4180701
        0.4825304 0.5533905 0.61883837 0.6671513 0.69392896 0.69904095
        0.0008482196 0.017130645 0.035061214 0.05285188 0.07041165 0.08765581
        0.10450847 0.12090438 0.13679025 0.15212546 0.16688251 0.18104692
        0.1946171 0.20760418 0.22003314 0.23194721 0.24342261 0.254608
        0.265818 0.2777256 0.29169872 0.31025246 0.3373382 0.3777058
        0.43438202 0.5048982 0.57970953 0.6452991 0.69083816 0.71443284
        0.71762145 0.00066639227 0.017343687 0.035308894 0.053138494 0.0707419
        0.08803472 0.1049414 0.121397056 0.1373488 0.1527565 0.16759321
        0.18184516 0.1955116 0.2086048 0.22115132 0.23319721 0.2448246
        0.25619623 0.26766077 0.27996987 0.29465914 0.31456465 0.34415698
        0.3887741 0.45149267 0.5283839 0.60714525 0.6726415 0.7152853
        0.73570275 0.7373795 0.0004624272 0.01757756 0.035576068 0.05344327
        0.07108899 0.088429175 0.10538861 0.1219028 0.13791925 0.15339833
        0.1683137 0.18265228 0.19641419 0.20961285 0.22227646 0.23445389
        0.24623325 0.25779158 0.26951212 0.282227 0.29764503 0.3189389
        0.35113925 0.40024528 0.46941182 0.5530439 0.63575584 0.7008833
        0.7404349 0.75753385 0.7578592 0.0002393322 0.017828917 0.035859022
        0.053762104 0.07144839 0.08883416 0.10584454 0.122415416 0.13849473
        0.15404335 0.1690355 0.18345883 0.19731437 0.21061663 0.2233955
        0.23570265 0.24763218 0.25937548 0.2713507 0.28447157 0.30062428
        0.32333362 0.35823524 0.41208047 0.4881524 0.5789478 0.6655904
        0.7299887 0.76614046 0.77961016 0.7784514 0 0.018095952
        0.036157057 0.054095406 0.07182164 0.08925236 0.10631304 0.122939944
        0.13908142 0.15469885 0.16976704 0.18427433 0.19822262 0.21162759
        0.22452068 0.23695639 0.24903478 0.26096147 0.27318946 0.2867139
        0.30359873 0.32772267 0.36532992 0.4239091 0.50675577 0.6042358
        0.69414735 0.75767565 0.7908961 0.8009503 0.7979474
      </DataArray>
      <DataArray type="Float32" Name="aspect_ratio" format="ascii" RangeMin="1.5590786933898926" RangeMax="25.010650634765625">
        24.13215 23.948126 23.703762 23.342531 22.871696 22.300549
        21.640001 20.902153 20.099827 19.246122 18.35401 17.435974
        16.503723 15.567975 14.638309 13.723091 12.829482 11.963528
        11.130369 10.334587 9.58068 8.873546 8.218581 7.620403
        7.078038 6.5714474 6.026781 5.288867 4.3791504 3.755602
        3.7981164 24.144499 23.923212 23.641739 23.244114 22.738188
        22.133774 21.442251 20.6761 19.848438 18.972569 18.061579
        17.127983 16.183445 15.23857 14.3027725 13.384204 12.489769
        11.625206 10.795278 10.004055 9.2553005 8.552807 7.900261
        7.2995667 6.745364 6.2120147 5.6318173 4.9090366 4.114424
        3.5907145 3.6035256 24.156872 23.901106 23.585356 23.154171
        22.61594 21.98096 21.261034 20.468988 19.618206 18.72217
        17.794064 16.846426 15.890867 14.937885 13.996732 13.075355
        12.180414 11.317359 10.490584 9.703669 8.959654 8.261255
        7.610538 7.006965 6.4416313 5.8855395 5.278992 4.569852
        3.8551283 3.3976715 3.3621259 24.169273 23.88482 23.540445
        23.081118 22.515673 21.854826 21.110737 20.29654 19.42585
        18.512321 17.569233 16.609156 15.643679 14.683218 13.736902
        12.812519 11.916529 11.054135 10.229413 9.445487 8.704726
        8.008829 7.3583546 6.7506337 6.174051 5.5982223 4.972533
        4.275319 3.6121645 3.192427 3.0902174 24.181713 23.875011
        23.508331 23.026949 22.44006 21.758705 20.99534 20.163343
        19.276531 18.348705 17.393236 16.422737 15.4487915 14.4817705
        13.530718 12.603304 11.705838 10.843326 10.019567 9.237281
        8.498212 7.8031 7.151127 6.5377903 5.949539 5.3561163
        4.7160306 4.027987 3.394339 2.9855397 2.8052375 24.194197
        23.872427 23.490517 22.993938 22.392132 21.69637 20.91932
        20.074545 19.176016 18.237654 17.272913 16.294455 15.313874
        14.341529 13.386416 12.456137 11.556896 10.693555 9.869691
        9.087665 8.34864 7.652466 6.997056 6.3763685 5.77559
        5.165675 4.513634 3.831065 3.210084 2.7886682 2.524894
        24.20673 23.877344 23.487572 22.982952 22.373056 21.669292
        20.884453 20.03222 19.126669 18.181805 17.211157 16.227432
        15.242262 14.266013 13.30768 12.374836 11.473636 10.608845
        9.783869 9.000756 8.260136 7.5610113 6.900137 6.270185
        5.65565 5.029433 4.366117 3.6849651 3.0645332 2.612174
        2.2632987 24.219315 23.89022 23.500416 22.995378 22.384693
        21.679792 20.893505 20.039555 19.132069 18.185102 17.212238
        16.226236 15.238777 14.260267 13.299732 12.364769 11.461531
        10.594741 9.767684 8.982139 8.238237 7.5341773 6.865631
        6.2241955 5.594132 4.950743 4.2752056 3.5910623 2.9627087
        2.4667716 2.0341852 24.231955 23.909485 23.525936 23.026615
        22.421024 21.720535 20.937935 20.08693 19.181652 18.236181
        17.264135 16.27833 15.2905 14.311115 13.349267 12.412607
        11.50733 10.638157 9.808288 9.019266 8.270748 7.5601473
        6.882108 6.2273345 5.5802374 4.918849 4.230116 3.539843
        2.8993056 2.35491 1.8415034 24.244644 23.932653 23.559196
        23.069351 22.472475 21.779823 21.004097 20.158945 19.258476
        18.31677 17.347479 16.363457 15.376507 14.397176 13.434634
        12.496612 11.589363 10.717634 9.884562 9.091466 8.337531
        7.6193895 6.930696 6.2614193 5.5964713 4.916897 4.214808
        3.5171876 2.8641636 2.2740092 1.6847948 24.257381 23.9611
        23.602959 23.12771 22.544493 21.864365 21.09988 20.264576
        19.372494 18.437689 17.47382 16.49379 15.509468 14.531492
        13.569134 12.63023 11.721128 10.846628 10.0098295 9.21185
        8.451403 7.7243276 7.023299 6.3376613 5.6530976 4.9538646
        4.2368293 3.5298278 2.8645127 2.2362592 1.5850064 24.270155
        23.995502 23.658585 23.203737 22.639784 21.977505 21.229227
        20.40832 19.528704 18.604378 17.648989 16.675478 15.695788
        14.720662 13.7595005 12.820274 11.90946 11.031947 10.190827
        9.387035 8.618811 7.881177 7.1658154 6.461518 5.7549577
        5.033781 4.2994046 3.5807238 2.9038537 2.2495058 1.5590787
        24.282963 24.035027 23.724403 23.294933 22.755037 22.115152
        21.387312 20.584661 19.720966 18.810135 17.86579 16.9009
        15.927494 14.95643 13.997259 13.058115 12.145636 11.264827
        10.418803 9.608325 8.831153 8.081467 7.3499312 6.6248527
        5.894105 5.1489286 4.3952475 3.6634476 2.9768443 2.3107402
        1.6080399 24.295797 24.079615 23.800278 23.401041 22.889854
        22.276741 21.57338 20.792643 19.948105 19.053558 18.122591
        17.168201 16.202507 15.236506 14.279922 13.341082 12.426814
        11.542277 10.690635 9.872488 9.085112 8.321814 7.572223
        6.8242164 6.067064 5.2958035 4.520922 3.7748222 3.0804076
        2.415778 1.7257788 24.308659 24.129065 23.885756 23.52133
        23.043192 22.46088 21.785677 21.03014 20.207619 19.331778
        18.41616 17.473806 16.516932 15.5567 14.603031 13.664483
        12.748109 11.85925 11.001146 10.17426 9.375375 8.596909
        7.827435 7.0544596 6.268823 5.4695544 4.6717944 3.9104629
        3.2099488 2.5568728 1.898387 24.32154 24.183262 23.980566
        23.655329 23.21434 22.666605 22.022953 21.295597 20.497644
        19.64262 18.744026 17.814949 16.867733 15.913725 14.963081
        14.024618 13.105652 12.211743 11.346237 10.509473 9.697749
        8.902574 8.111457 7.3115773 6.495504 5.66642 4.8442283
        4.0667977 3.361383 2.7261639 2.1112065 24.334446 24.241917
        24.084093 23.802061 23.401943 22.892157 22.283047 21.586456
        20.815235 19.982767 19.102528 18.187662 17.250668 16.303104
        15.355399 14.416662 13.494507 12.594749 11.720866 10.8730955
        10.0472555 9.233934 8.419568 7.591051 6.7428017 5.882305
        5.0343294 4.2400317 3.5304132 2.9160686 2.3512957 24.347372
        24.304934 24.1961 23.961115 23.60538 23.136683 22.564863
        21.901371 21.158794 20.350386 19.489595 18.589666 17.663265
        16.722204 15.777213 14.837732 13.91171 13.005249 12.12199
        11.262089 10.420891 9.588056 8.748938 7.890173 7.008127
        6.11471 5.2396617 4.427691 3.7139974 3.1209273 2.6093695
        24.36032 24.37207 24.316065 24.131662 23.8235 23.39871
        22.8666 22.238222 21.525906 20.74278 19.9023 19.017817
        18.102207 17.167568 16.224962 15.284203 14.353603 13.439586
        12.545984 11.672892 10.815188 9.961604 9.096396 8.205958
        7.2886734 6.360977 5.4576902 4.6272597 3.9091792 3.335927
        2.8783362 24.373283 24.444786 24.446814 24.317778 24.061502
        23.68443 23.195305 22.604778 21.924927 21.168772 20.349794
        19.481495 18.577 17.648731 16.708136 15.765442 14.829374
        13.906718 13.0015335 12.113878 11.23818 10.362225 9.469148
        8.545084 7.5904794 6.626413 5.692948 4.842468 4.1186028
        3.5617585 3.1578965 24.386265 24.521124 24.584467 24.513739
        24.31193 23.984776 23.54047 22.98926 22.342987 21.614582
        20.817587 19.965675 19.072256 18.150112 17.211105 16.265907
        15.3236885 14.391621 13.474015 12.570914 11.676302 10.777017
        9.855058 8.896282 7.9032164 6.9016557 5.9370174 5.0657067
        4.335084 3.790958 3.4392862 24.399263 24.611265 24.748802
        24.748226 24.611584 24.343822 23.952534 23.44755 22.84048
        22.144218 21.372414 20.539001 19.657757 18.741928 17.803896
        16.854889 15.904616 14.960738 14.027893 13.106164 12.189101
        11.262551 10.307272 9.308747 8.271614 7.226633 6.2250233
        5.3276124 4.585037 4.0457735 3.7475955 24.412273 24.698727
        24.907764 24.974712 24.900719 24.689997 24.349562 23.888863
        23.319305 22.653746 21.905954 21.09012 20.220387 19.310448
        18.37319 17.420372 16.462238 15.506906 14.559335 13.619639
        12.680945 11.728124 10.740704 9.703774 8.624031 7.537156
        6.5001397 5.578122 4.824309 4.286849 4.0376816 24.425303
        24.71967 24.936382 25.01065 24.943508 24.739063 24.404257
        23.948479 23.3831 22.72096 21.975838 21.161942 20.293451
        19.384104 18.446846 17.493486 16.534311 15.577459 14.627838
        13.685384 12.74284 11.784473 10.789196 9.742161 8.65177
        7.5571165 6.518614 5.6031666 4.864637 4.348405 4.115735
        24.43838 24.673716 24.833927 24.854996 24.73862 24.48946
        24.114862 23.624493 23.02985 22.34378 21.579947 20.752344
        19.874857 18.960863 18.022902 17.072355 16.119072 15.170752
        14.23189 13.302043 12.373644 11.430758 10.452334 9.424049
        8.355581 7.2877607 6.281918 5.404099 4.706735 4.229305
        3.981586 24.451508 24.620792 24.717663 24.67898 24.507215
        24.207655 23.788134 23.258635 22.630829 21.917576 21.132425
        20.289146 19.401295 18.481852 17.54291 16.595373 15.648601
        14.709814 13.783064 12.867528 11.955364 11.030528 10.072105
        9.066303 8.023896 6.987091 6.017721 5.1804605 4.5251174
        4.082111 3.8187044 24.464678 24.577095 24.619106 24.528378
        24.30809 23.96413 23.504797 22.940401 22.282806 21.54493
        20.740255 19.882387 18.984621 18.059618 17.119091 16.17354
        15.231904 14.300993 13.38447 12.481181 11.58304 10.673893
        9.7329035 8.746699 7.727033 6.7174945 5.780563 4.979563
        4.3607554 3.9431565 3.6677232 24.477888 24.535265 24.523966
        24.382454 24.114634 23.727001 23.228346 22.629328 21.942026
        21.179445 20.355036 19.482256 18.574175 17.643148 16.700539
        15.75646 14.8194475 13.895915 12.9891615 12.097727 11.213322
        10.319721 9.396183 8.42968 7.4327765 6.4502625 5.54514
        4.7790785 4.1937137 3.7960916 3.5086064 24.491137 24.49781
        24.437185 24.248482 23.936296 23.507725 22.97203 22.340237
        21.624653 20.838392 19.9949 19.107529 18.189152 17.251867
        16.306719 15.363471 14.430297 13.513251 12.6153 11.73472
        10.863054 9.984035 9.076993 8.129146 7.1536922 6.196505
        5.32107 4.587148 4.030859 3.6475544 3.349084 24.504417
        24.464165 24.357702 24.124971 23.771229 23.304144 22.733456
        22.070547 21.327969 20.51896 19.65699 18.755327 17.82669
        16.882944 15.934856 14.991875 14.061842 13.150485 12.260478
        11.389867 10.530071 9.664809 8.773474 7.8434033 6.8882337
        5.954772 5.106921 4.402242 3.870658 3.4969094 3.1880898
        24.517733 24.434532 24.285965 24.012634 23.620422 23.117546
        22.514196 21.82211 21.054085 20.2235 19.343859 18.428389
        17.48967 16.539373 15.588023 14.644789 13.717217 12.810744
        11.927788 11.066206 10.217338 9.364918 8.488376 7.5750327
        6.63873 5.727048 4.90425 4.2254305 3.713937 3.3455215
        3.0273004 24.53108 24.408842 24.221872 23.911383 23.483833
        22.947952 22.314365 21.595146 20.803339 19.952467 19.056093
        18.127407 17.178894 16.22206 15.267212 14.323278 13.397545
        12.495195 11.618426 10.764955 9.926083 9.085597 8.222931
        7.32523 6.406264 5.514196 4.7135916 4.0568824 3.560805
        3.1941373 2.867749 24.544456 24.387001 24.16528 23.821056
        23.361319 22.795267 22.133936 21.389719 20.575893 19.706135
        18.794073 17.852884 16.894974 15.931708 14.97322 14.028222
        13.103774 12.204842 11.333445 10.487199 9.657423 8.82799
        7.9783044 7.0951443 6.191879 5.3170176 4.535386 3.896679
        3.4113681 3.0435138 2.7106247 24.55786 24.368847 24.115894
        23.741264 23.252426 22.659014 21.97243 21.205372 20.371342
        19.484163 18.557535 17.604637 16.637815 15.6683235 14.706141
        13.759799 12.8361635 11.940019 11.073242 10.233403 9.411884
        8.592689 7.755157 6.8854795 5.996218 5.135928 4.369682
        3.7445545 3.265501 2.8942287 2.5569737 24.571291 24.35416
        24.073317 23.671461 23.156492 22.53844 21.829046 21.041285
        20.188866 19.285757 18.345732 17.38198 16.406803 15.431368
        14.46552 13.51764 12.59443 11.700522 10.8377 10.003527
        9.189513 8.379839 7.553745 6.6965795 5.819598 4.971006
        4.216169 3.5999272 3.122874 2.7467036 2.407682 24.58475
        24.342697 24.037079 23.610985 23.072699 22.432602 21.702742
        20.896345 20.027319 19.10976 18.157516 17.183798 16.200874
        15.219838 14.250428 13.300895 12.377806 11.485675 10.626226
        9.797073 8.989916 8.18917 7.373945 6.5284557 5.662026
        4.8219953 4.0741615 3.4618828 2.982942 2.6011872 2.2633965
        24.598232 24.334194 24.006681 23.559126 23.00015 22.340448
        21.592342 20.769287 19.885365 18.954798 17.991505 17.008717
        16.018682 15.0324335 14.059623 13.108392 12.185196 11.294465
        10.4379 9.613218 8.812381 8.020109 7.21536 6.380878
        5.523276 4.688349 3.9426162 3.3291879 2.8449593 2.4577513
        2.1244662 24.611738 24.328405 23.981653 23.515202 22.937979
        22.260952 21.496685 20.65884 19.761656 18.819466 17.846258
        16.85529 15.858791 14.86775 13.891744 12.938825 12.015362
        11.125727 10.271637 9.45097 8.656027 7.87192 7.077444
        6.253494 5.402991 4.569286 3.8201437 3.2003021 2.707998
        2.3162851 1.9908836 24.625267 24.325129 23.961594 23.478636
        22.885445 22.19323 21.414768 20.5639 19.655006 18.702524
        17.720503 16.722223 15.719909 14.724507 13.745539 12.790984
        11.867145 10.97836 10.126406 9.309376 8.52 7.743886
        6.9596744 6.145982 5.3008018 4.46385 3.705016 3.0733898
        2.5709708 2.1764789 1.862228 24.638819 24.324228 23.946247
        23.449057 22.84207 22.136705 21.345928 20.483732 19.564627
        18.603136 17.613367 16.60863 15.601138 14.601815 13.620133
        12.664018 11.739722 10.851583 10.00147 9.187757 8.403697
        7.6355166 6.861743 6.0582294 5.2164683 4.370956 3.5951397
        2.94632 2.4326413 2.0377936 1.7376117 24.65239 24.324514
        23.933254 23.422981 22.803316 22.085869 21.283777 20.411177
        19.48269 18.512932 17.516054 16.50539 15.493158 14.49025
        13.506094 12.54857 11.623896 10.736418 9.888137 9.077767
        8.29921 7.539523 6.7774067 5.985984 5.149233 4.294758
        3.5000174 2.8329222 2.3081863 1.9122517 1.6225569
      </DataArray>
      <DataArray type="Float32" Name="jacobian" format="ascii" RangeMin="0.0007139543886296451" RangeMax="0.009786020964384079">
        0.009547446 0.009521506 0.00946933 0.009367689 0.009218809 0.009025824
        0.008792633 0.008523746 0.008224112 0.007898939 0.0075535253 0.0071931025
        0.0068226983 0.006447023 0.0060703848 0.005696627 0.0053290897 0.0049705864
        0.004623394 0.0042892424 0.003969314 0.0036642498 0.00337419 0.0030988946
        0.0028379736 0.0025909222 0.0023552508 0.0021137742 0.001793908 0.0013000577
        0.0007139544 0.009552332 0.009541156 0.009503826 0.00941684 0.009282184
        0.009102758 0.008882258 0.008625017 0.008335839 0.00801983 0.0076822187
        0.007328206 0.00696282 0.0065908027 0.0062165176 0.0058438824 0.005476319
        0.005116719 0.004767402 0.004430078 0.0041057817 0.0037948212 0.0034967628
        0.003210509 0.0029344012 0.0026659365 0.0024006616 0.0021276406 0.0018062369
        0.0013685159 0.0008011197 0.009557226 0.009559774 0.009536295 0.009463044
        0.009341774 0.00917517 0.008966732 0.0087206215 0.008441506 0.008134381
        0.007804407 0.007456743 0.007096411 0.0067281746 0.0063564405 0.0059851874
        0.005617907 0.0052575506 0.0049064667 0.004566313 0.0042379336 0.0039212387
        0.0036151356 0.0033175994 0.003025767 0.0027356553 0.0024422363 0.0021412338
        0.0018183651 0.0014305887 0.0008826457 0.009562132 0.009576143 0.00956433
        0.00950274 0.009392938 0.0092374245 0.009039525 0.008803252 0.0085331425
        0.00823409 0.007911177 0.007569519 0.007214113 0.006849726 0.0064807893
        0.0061113187 0.0057448507 0.0053843716 0.005032226 0.004689981 0.0043582385
        0.004036436 0.0037227375 0.0034141461 0.0031067242 0.0027956273 0.0024766007
        0.0021522006 0.0018282554 0.0014856632 0.0009731322 0.009567052 0.009589986
        0.009587321 0.009534948 0.009434282 0.0092876805 0.009098331 0.00887012
        0.008607475 0.008315201 0.007998311 0.0076618693 0.0073108487 0.006950005
        0.0065837763 0.0062161987 0.005850831 0.005490669 0.0051380256 0.004794341
        0.004459926 0.004133683 0.003812974 0.0034938266 0.0031714349 0.0028407595
        0.0024994535 0.0021567359 0.0018329154 0.0015300335 0.0010697301 0.009571989
        0.00960099 0.009604593 0.0095585855 0.0094642835 0.009323943 0.009140656
        0.008918219 0.00866098 0.008373674 0.008061261 0.0077287625 0.007381123
        0.007023084 0.0066590807 0.006293153 0.0059288633 0.0055691972 0.005216408
        0.004871781 0.004535298 0.004205288 0.003878284 0.0035493989 0.00321324
        0.0028652467 0.0025058328 0.0021503316 0.0018285994 0.0015592326 0.0011652994
        0.009576945 0.009609031 0.009615866 0.009573183 0.0094822515 0.009345273
        0.009165287 0.008946041 0.008691834 0.008407363 0.008097547 0.0077673807
        0.007421787 0.0070654913 0.0067029186 0.0063381027 0.0059745954 0.005615353
        0.005262552 0.0049173 0.0045792316 0.0042460896 0.0039136037 0.0035760952
        0.003227922 0.0028656158 0.0024928593 0.0021301773 0.0018128038 0.0015700497
        0.0012503008 0.009581921 0.009613918 0.009620734 0.0095780995 0.009487289
        0.009350501 0.00917077 0.008951834 0.008697986 0.008413905 0.008104503
        0.00777476 0.007429584 0.007073689 0.0067114863 0.006346996 0.0059837466
        0.0056246505 0.0052717933 0.0049260957 0.004586843 0.0042512156 0.003914216
        0.003569558 0.0032117118 0.0028387934 0.0024578879 0.0020934911 0.001782835
        0.0015597865 0.0013118777 0.009586917 0.009616279 0.009620462 0.00957524
        0.009481929 0.009342766 0.00916082 0.008939855 0.00868418 0.008398492
        0.008087705 0.007756802 0.0074106846 0.0070540574 0.0066913175 0.006326464
        0.0059629953 0.0056037707 0.005250778 0.0049047493 0.0045646373 0.0042271093
        0.0038865476 0.003536265 0.0031711662 0.0027912585 0.0024068418 0.0020450891
        0.0017427851 0.0015330845 0.0013466483 0.009591934 0.0096171135 0.009617078
        0.00956767 0.009470271 0.0093271835 0.009141529 0.008917118 0.0086583
        0.008369798 0.008056544 0.0077235275 0.007375653 0.007017615 0.0066537955
        0.0062881703 0.005924203 0.005564696 0.0052115372 0.004865278 0.0045245644
        0.0041856053 0.0038422747 0.0034876692 0.0031173679 0.002733396 0.00234889
        0.0019925623 0.0016992294 0.0014974347 0.0013578959 0.009596968 0.009615866
        0.009609466 0.009553712 0.009450088 0.009300991 0.0091096265 0.008879881
        0.008616165 0.008323248 0.008006095 0.007669715 0.007319017 0.00695869
        0.006593099 0.0062261904 0.005861387 0.005501429 0.0051481025 0.0048017907
        0.0044608666 0.00412116 0.003776171 0.0034189734 0.0030460013 0.0026612706
        0.0022802197 0.0019320414 0.0016486183 0.0014518132 0.001340135 0.009602018
        0.009612264 0.009597093 0.009532586 0.009420367 0.009262964 0.009063702
        0.0088265715 0.00855607 0.008257032 0.007934474 0.0075934324 0.0072388262
        0.006875339 0.0065073133 0.0061386614 0.0057727564 0.0054122675 0.005058879
        0.00471282 0.004372235 0.0040326654 0.0036873864 0.003329626 0.002956779
        0.00257468 0.002200441 0.0018628164 0.0015902325 0.0013977791 0.0012950273
        0.00960708 0.009606646 0.009580671 0.009505411 0.0093826605 0.009215107
        0.009006224 0.008760126 0.008481418 0.0081750145 0.007845989 0.0074994112
        0.00714021 0.0067730583 0.0064022723 0.006031718 0.0056647086 0.005303836
        0.00495068 0.0046053296 0.0042657442 0.003927263 0.003583063 0.003226656
        0.0028564134 0.002479729 0.0021147877 0.0017892432 0.0015279357 0.0013403479
        0.0012332359 0.009612155 0.009599039 0.0095603 0.009472395 0.009337324
        0.009157959 0.008937946 0.008681542 0.00839347 0.008078736 0.0077424706
        0.007389775 0.0070255836 0.0066545503 0.00628095 0.0059085907 0.0055407127
        0.0051798183 0.00482738 0.0044833585 0.0041455654 0.0038092134 0.0034674855
        0.003114262 0.0027488426 0.0023798805 0.0020261067 0.0017136397 0.0014638492
        0.0012819866 0.0011637036 0.00961724 0.009589536 0.009536211 0.00943396
        0.009285009 0.009092442 0.008860087 0.008592362 0.008294109 0.007970426
        0.0076264967 0.0072674453 0.006898198 0.006523373 0.00614719 0.005773382
        0.0054050963 0.0050447336 0.004693654 0.004351696 0.0040165572 0.0036833805
        0.0033454339 0.0029970044 0.0026382313 0.002278731 0.0019373655 0.0016384926
        0.0014002993 0.0012248567 0.0010939307 0.009622336 0.0095781945 0.009508574
        0.009390431 0.009226243 0.009019318 0.00877368 0.008493904 0.008184954
        0.007852006 0.0075002885 0.0071349298 0.00676083 0.006382554 0.0060042404
        0.0056295274 0.0052614533 0.0049023014 0.0045533087 0.0042142 0.0038825811
        0.0035535719 0.0032205756 0.002878296 0.0025275988 0.002178796 0.0018505738
        0.0015654595 0.0013388207 0.0011701896 0.0010281901 0.009627442 0.009565143
        0.009477699 0.009342346 0.009161824 0.008939675 0.008680115 0.008387873
        0.008068019 0.007725793 0.0073664454 0.006995088 0.006616569 0.0062353746
        0.0058555426 0.005480592 0.0051134345 0.0047562183 0.0044100536 0.004074551
        0.003747245 0.003423266 0.003096184 0.0027611048 0.002419503 0.0020821586
        0.0017673725 0.0014958803 0.0012806086 0.0011189225 0.0009686519 0.009632559
        0.009550437 0.009443748 0.009290017 0.009092253 0.008854224 0.008580332
        0.008275438 0.007944702 0.0075934017 0.0072267815 0.006849908 0.006467552
        0.006084092 0.0057034413 0.0053289793 0.0049634688 0.004608913 0.004266285
        0.0039350875 0.0036127954 0.0032945757 0.0029741828 0.0026470989 0.0023152926
        0.0019898235 0.0016884718 0.0014302807 0.0012260856 0.0010713201 0.00091568456
        0.009637684 0.0095341895 0.009406996 0.009233918 0.009018225 0.008763899
        0.008475503 0.008158008 0.007816627 0.0074566486 0.007083278 0.0067015057
        0.006315994 0.005930989 0.0055502537 0.0051770066 0.0048138476 0.0044626226
        0.004124164 0.0037978673 0.0034811627 0.0031692707 0.002856139 0.002537592
        0.002215989 0.0019025194 0.0016143621 0.0013690001 0.0011754874 0.0010275039
        0.0008690126 0.009642818 0.009515848 0.009366432 0.009172667 0.008938064
        0.008666795 0.008363552 0.008033383 0.007681519 0.0073132133 0.006933597
        0.006547546 0.0061595794 0.00577378 0.005393732 0.0050224722 0.0046624187
        0.0043152473 0.003981643 0.0036608963 0.0033504032 0.0030454535 0.002740195
        0.002430763 0.002119812 0.0018185285 0.0015434291 0.0013105582 0.0011274522
        0.0009862297 0.0008267938 0.00964796 0.009496197 0.009323632 0.0091086095
        0.008854845 0.008566658 0.008248826 0.007906424 0.007544657 0.007168707
        0.0067835874 0.0063940273 0.0060043735 0.0056185215 0.0052398597 0.004871227
        0.0045148516 0.0041722334 0.0038439115 0.003529077 0.003225101 0.0029273534
        0.0026301795 0.0023299896 0.0020296532 0.0017402647 0.0014776677 0.0012566166
        0.0010833628 0.0009486197 0.0007896805 0.00965311 0.00947134 0.0092712585
        0.009031418 0.008755688 0.008448475 0.008114577 0.0077590267 0.0073869303
        0.007003322 0.0066130306 0.0062205726 0.0058300616 0.0054451493 0.0050689797
        0.0047041527 0.0043526716 0.004015835 0.0036940172 0.0033863047 0.003090051
        0.0028007247 0.0025128832 0.0022231904 0.0019346443 0.0016581118 0.0014086758
        0.0011998601 0.0010368361 0.00090923504 0.0007516369 0.009658264 0.009447654
        0.009221484 0.008958425 0.008662425 0.008337901 0.007989611 0.0076224916
        0.0072415117 0.0068515274 0.0064571635 0.006062709 0.005672042 0.005288574
        0.0049152123 0.0045543304 0.004207722 0.0038765003 0.0035608937 0.0032598977
        0.0029708592 0.002689344 0.0024101038 0.0021300176 0.0018521647 0.0015871697
        0.0013494274 0.0011514116 0.0009973968 0.0008760115 0.0007205156 0.009663424
        0.009449481 0.009220237 0.0089543685 0.0086558405 0.008329083 0.007978857
        0.0076100985 0.007227768 0.0068367105 0.0064415326 0.006046505 0.005655484
        0.005271856 0.004898506 0.0045377845 0.0041914624 0.003860636 0.0035455201
        0.0032451071 0.002956756 0.0026760672 0.0023978613 0.0021191433 0.0018431824
        0.0015807789 0.0013462685 0.0011516638 0.0010004413 0.00087964296 0.00072799926
        0.0096686 0.009476989 0.009267722 0.009019395 0.00873595 0.008421843
        0.008081905 0.007721178 0.0073447605 0.0069576614 0.0065646702 0.0061702505
        0.005778456 0.0053928727 0.0050165756 0.004652096 0.0043013724 0.0039656484
        0.0036452606 0.0033392862 0.003045119 0.0027583404 0.00247373 0.002188347
        0.0019057903 0.001637472 0.0013982763 0.0012002295 0.0010459363 0.0009207781
        0.0007751081 0.009673793 0.009507374 0.00932093 0.0090928925 0.008827121
        0.008528046 0.008200525 0.007849681 0.007480733 0.0070988475 0.006708999
        0.0063158553 0.005923685 0.005536293 0.00515697 0.0047884556 0.0044328826
        0.004091669 0.0037652992 0.003452959 0.0031520955 0.0028582793 0.0025662452
        0.0022730983 0.0019827741 0.0017073582 0.0014623771 0.0012599013 0.0011015857
        0.00097216654 0.000833143 0.009679003 0.009534381 0.009367999 0.0091580795
        0.008908342 0.0086231325 0.008307283 0.007965933 0.0076043666 0.007227855
        0.0068415063 0.0064501464 0.006058219 0.0056697116 0.0052881013 0.004916311
        0.004556648 0.0042106933 0.003879073 0.0035610877 0.0032542557 0.0029541655
        0.0026555343 0.0023555134 0.002058332 0.0017766804 0.001526663 0.0013203121
        0.0011583774 0.0010261013 0.00089400576 0.009684227 0.009560827 0.00941424
        0.009222436 0.00898895 0.008718005 0.008414353 0.008083115 0.007729602
        0.0073591536 0.0069769844 0.006588055 0.006196964 0.0058078696 0.0054244264
        0.0050497353 0.004686279 0.004335804 0.0039990875 0.0036755598 0.0033628338
        0.0030565432 0.0027514067 0.0024446137 0.0021406496 0.0018527753 0.0015976637
        0.0013872843 0.001221627 0.0010873148 0.0009631844 0.009689466 0.00958572
        0.009457704 0.009283118 0.00906529 0.00880828 0.008516734 0.008195712
        0.007850518 0.0074865245 0.0071090176 0.0067230607 0.0063333837 0.0059442893
        0.0055595906 0.005182552 0.0048158206 0.0044613034 0.004119932 0.0037912799
        0.003473079 0.0031610453 0.0028499288 0.0025369492 0.0022267872 0.0019331912
        0.0016733482 0.0014591402 0.0012900634 0.0011549161 0.0010396932 0.00969472
        0.009609256 0.009498727 0.009340549 0.009137826 0.008894439 0.008614898
        0.008304177 0.007967539 0.007610359 0.0072379657 0.0068554985 0.006467789
        0.0060792654 0.0056938785 0.005315041 0.0049455534 0.004587478 0.0042419056
        0.003908565 0.0035853393 0.0032680694 0.0029515743 0.0026330962 0.0023174302
        0.0020187004 0.0017545335 0.0015367337 0.00136468 0.001229989 0.0011248811
        0.009699987 0.009631338 0.009537067 0.009394318 0.0092059625 0.008975691
        0.008707864 0.008407349 0.008079342 0.0077291946 0.0073622516 0.006983702
        0.006598455 0.0062110387 0.005825523 0.0054454505 0.0050737625 0.004712669
        0.0043634204 0.0040259184 0.0036982328 0.003376382 0.003055302 0.002732252
        0.0024120382 0.0021090014 0.0018411005 0.0016201147 0.0014457911 0.0013130512
        0.0012192957 0.009705267 0.009651972 0.009572701 0.009444327 0.009269502
        0.0090517225 0.00879519 0.008504649 0.008185214 0.007842196 0.0074809315
        0.0071066334 0.0067242673 0.0063384394 0.0059533175 0.005572557 0.0051992247
        0.0048356713 0.0044833072 0.0041422253 0.0038107235 0.0034850615 0.0031603547
        0.0028338789 0.0025103237 0.0022040347 0.0019331579 0.0017095607 0.0015339411
        0.0014048206 0.0013236305 0.009710559 0.009671179 0.009605623 0.009490516
        0.009328298 0.009122277 0.008876492 0.0085955635 0.008284513 0.0079485895
        0.0075931074 0.007223287 0.0068441276 0.006460293 0.006076031 0.0056950906
        0.0053206505 0.004955193 0.0046002907 0.0042562494 0.0039216415 0.003593044
        0.0032658335 0.0029373094 0.0026118963 0.002303666 0.0020307626 0.001805329
        0.0016296786 0.0015059956 0.0014383752 0.009715863 0.009689008 0.009635896
        0.0095329285 0.009382344 0.009187271 0.008951596 0.008679809 0.008376834
        0.008047853 0.0076981424 0.0073329145 0.0069571855 0.0065756617 0.00619265
        0.00581198 0.0054369266 0.005070096 0.004713227 0.0043668603 0.0040298975
        0.0036993264 0.003370884 0.0030419193 0.0027164202 0.0024078323 0.0021340535
        0.0019077769 0.0017336545 0.0016173117 0.0015638348 0.009721178 0.0097055305
        0.009663635 0.009571684 0.0094317375 0.009246759 0.009020488 0.008757289
        0.008461986 0.00813969 0.007795632 0.0074350047 0.0070628296 0.006683839
        0.006302386 0.0059223636 0.005547133 0.005179416 0.0048211236 0.0044730566
        0.004134511 0.00380299 0.0034747196 0.0031471485 0.0028236418 0.0025165754
        0.0022432874 0.0020173942 0.0018466401 0.0017395207 0.0017000235 0.009726503
        0.009720833 0.009688984 0.009606962 0.009476669 0.009300914 0.009083301
        0.0088280765 0.00853997 0.008224018 0.007885402 0.007529289 0.007160695
        0.0067843674 0.006404693 0.006025617 0.005650575 0.0052824016 0.004923183
        0.004574015 0.0042346553 0.0039032486 0.0035766682 0.0032525507 0.002933443
        0.0026301055 0.0023589088 0.0021348672 0.0019695726 0.0018733883 0.0018465782
        0.0097318385 0.009735011 0.009712108 0.00963898 0.009517379 0.009349981
        0.009140265 0.008892369 0.008610932 0.00830092 0.007967462 0.0076156943
        0.007250623 0.0068770023 0.0064992425 0.0061213314 0.005746771 0.005378504
        0.0050188033 0.0046690903 0.004329666 0.003999458 0.003676186 0.0033578128
        0.0030458793 0.0027488584 0.0024816163 0.0022611453 0.002103602 0.0020196887
        0.0020026565 0.009737184 0.009748151 0.009733173 0.009667954 0.009554123
        0.009394233 0.009191653 0.008950422 0.008675094 0.008370568 0.008041926
        0.0076942695 0.007332591 0.0069616456 0.006585859 0.006209256 0.005835397
        0.005467332 0.0051075323 0.004757782 0.004419011 0.0040910933 0.0037728392
        0.003462749 0.0031611966 0.0028735467 0.0026124388 0.002397518 0.0022501498
        0.0021792082 0.002166848 0.0097425375 0.0097603295 0.009752314 0.0096940715
        0.00958712 0.009433908 0.009237706 0.009002464 0.008732661 0.008433135
        0.0081089195 0.007765086 0.0074066087 0.007038241 0.0066644205 0.0062892
        0.005916196 0.0055485656 0.00518899 0.0048396587 0.004502222 0.0041776863
        0.0038662504 0.0035672656 0.0032798331 0.0030052138 0.0027528259 0.0025457146
        0.002410991 0.0023527762 0.0023371275 0.009747899 0.009771591 0.009769615
        0.009717443 0.009616499 0.00946914 0.009278553 0.00904861 0.008783722
        0.008488674 0.008168454 0.007828106 0.007472586 0.007106642 0.0067347204
        0.006360898 0.005988844 0.0056218244 0.0052627446 0.0049142395 0.0045787827
        0.004258719 0.003956003 0.0036712864 0.0034023991 0.0031452947 0.0029047718
        0.0027080427 0.0025883764 0.0025413637 0.0025109136 0.009753269 0.009782411
        0.009786021 0.009739475 0.009644109 0.009502198 0.009316845 0.009091856
        0.008831578 0.008540743 0.008224299 0.007887262 0.0075345696 0.0071709654
        0.006800902 0.0064284806 0.0060574226 0.005691107 0.0053326814 0.0049852734
        0.004652283 0.0043376163 0.004045399 0.0037781477 0.0035325496 0.0032977206
        0.0030708872 0.0028821705 0.0027726325 0.0027312285 0.0026764565
      </DataArray>
    </PointData>
    <CellData>
    </CellData>
    <Points>
      <DataArray type="Float32" Name="Points" NumberOfComponents="3" format="ascii" RangeMin="1.0369016876765833" RangeMax="1.1789386322002604">
        0.4368725 -0.01825056 0.9401992 0.45187643 -0.018246105 0.93996966
        0.46680132 -0.018242989 0.9398091 0.48157257 -0.018241005 0.9397069
        0.4961186 -0.018239878 0.9396488 0.5103721 -0.018239316 0.93961984
        0.5242712 -0.018239073 0.9396073 0.53776056 -0.018238984 0.9396028
        0.550792 -0.018238954 0.9396013 0.5633249 -0.01823896 0.93960154
        0.575327 -0.018238988 0.93960303 0.58677346 -0.01823904 0.9396056
        0.5976473 -0.018239103 0.9396089 0.6079388 -0.018239172 0.9396125
        0.6176449 -0.018239245 0.9396162 0.62676847 -0.018239316 0.93961984
        0.6353177 -0.018239385 0.9396234 0.6433053 -0.018239453 0.93962693
        0.6507478 -0.018239519 0.9396303 0.65766466 -0.018239584 0.93963367
        0.6640779 -0.018239649 0.939637 0.67001104 -0.018239712 0.9396403
        0.6754888 -0.018239774 0.9396435 0.68053687 -0.018239835 0.9396466
        0.68518066 -0.018239895 0.93964964 0.6894459 -0.01823995 0.9396526
        0.6933577 -0.018240007 0.9396554 0.6969405 -0.018240059 0.9396581
        0.70021796 -0.018240107 0.9396606 0.70321274 -0.018240154 0.939663
        0.7059464 -0.018240197 0.9396652 0.4368725 -0.017783033 0.94020814
        0.4518841 -0.017777203 0.9399785 0.46681663 -0.017772768 0.93981797
        0.48159543 -0.017769536 0.9397158 0.49614882 -0.01776723 0.9396578
        0.51040953 -0.017765569 0.9396289 0.5243156 -0.017764308 0.9396164
        0.53781164 -0.017763285 0.9396119 0.5508494 -0.017762404 0.9396104
        0.56338847 -0.017761638 0.93961066 0.5753962 -0.017760973 0.9396122
        0.5868479 -0.017760407 0.93961483 0.59772664 -0.017759921 0.9396181
        0.6080226 -0.017759508 0.9396217 0.61773264 -0.01775916 0.93962544
        0.6268598 -0.017758867 0.9396291 0.63541204 -0.017758628 0.93963265
        0.6434022 -0.017758438 0.9396362 0.65084666 -0.017758304 0.9396396
        0.6577647 -0.017758243 0.93964297 0.6641777 -0.01775828 0.9396463
        0.6701085 -0.017758485 0.9396496 0.6755802 -0.017758956 0.93965274
        0.6806155 -0.01775984 0.93965584 0.6852357 -0.017761294 0.9396589
        0.68945926 -0.017763495 0.93966174 0.6933003 -0.017767012 0.9396644
        0.6967698 -0.017775437 0.93966687 0.6998963 -0.017804874 0.9396687
        0.7027593 -0.017884057 0.9396695 0.70546675 -0.018012943 0.9396692
        0.4368725 -0.0173155 0.9402169 0.4518918 -0.017307568 0.9399872
        0.466832 -0.017301075 0.9398266 0.4816184 -0.017295834 0.9397245
        0.49617934 -0.01729158 0.93966657 0.5104474 -0.017288031 0.9396377
        0.52436054 -0.017284956 0.9396253 0.53786343 -0.017282192 0.93962085
        0.55090785 -0.017279647 0.9396194 0.56345314 -0.017277287 0.9396198
        0.5754668 -0.0172751 0.93962127 0.5869241 -0.017273076 0.9396239
        0.59780794 -0.017271202 0.93962723 0.60810864 -0.01726946 0.93963087
        0.617823 -0.01726784 0.9396346 0.62695396 -0.017266331 0.9396383
        0.63550967 -0.017264925 0.93964195 0.64350265 -0.017263621 0.9396454
        0.6509493 -0.017262429 0.9396489 0.6578687 -0.01726138 0.93965226
        0.6642818 -0.017260544 0.9396556 0.6702103 -0.017260054 0.9396589
        0.67567563 -0.01726013 0.9396621 0.6806976 -0.017261073 0.9396652
        0.68529314 -0.0172632 0.9396682 0.6894741 -0.017266857 0.939671
        0.6932453 -0.017273134 0.9396736 0.6966089 -0.017288595 0.9396758
        0.6995983 -0.017341124 0.9396772 0.70232755 -0.017483875 0.9396767
        0.7049733 -0.017734898 0.93967414 0.4368725 -0.016847963 0.94022536
        0.45189953 -0.016837306 0.9399956 0.46684748 -0.01682811 0.9398351
        0.48164162 -0.0168202 0.939733 0.49621013 -0.01681332 0.93967515
        0.5104856 -0.016807191 0.9396464 0.5244061 -0.01680159 0.9396341
        0.53791606 -0.016796356 0.9396297 0.5509672 -0.0167914 0.9396283
        0.563519 -0.016786689 0.9396286 0.5755388 -0.016782207 0.9396302
        0.58700186 -0.016777944 0.9396329 0.5978912 -0.016773881 0.93963623
        0.6081969 -0.016770002 0.93964 0.6179159 -0.016766287 0.93964374
        0.62705106 -0.016762728 0.9396475 0.6356104 -0.016759314 0.93965113
        0.6436066 -0.016756043 0.93965465 0.6510558 -0.016752928 0.93965816
        0.65797687 -0.016750023 0.93966156 0.66439015 -0.016747443 0.93966496
        0.6703165 -0.016745396 0.9396683 0.67577547 -0.01674424 0.9396715
        0.68078375 -0.01674444 0.9396746 0.6853538 -0.016746482 0.93967754
        0.6894916 -0.016750833 0.93968034 0.6931946 -0.016759038 0.93968284
        0.69646007 -0.016779939 0.939685 0.69932544 -0.016849337 0.93968594
        0.7019219 -0.017039197 0.9396845 0.7044721 -0.01739746 0.93968
        0.4368725 -0.016380424 0.94023365 0.45190728 -0.016366536 0.9400039
        0.46686304 -0.016354118 0.93984336 0.48166496 -0.016342998 0.9397413
        0.49624115 -0.016332923 0.93968356 0.5105242 -0.016323633 0.9396549
        0.52445215 -0.016314905 0.93964267 0.5379693 -0.016306583 0.93963826
        0.5510275 -0.016298577 0.93963695 0.56358594 -0.016290862 0.93963736
        0.5756121 -0.016283412 0.939639 0.5870813 -0.016276216 0.9396418
        0.59797627 -0.016269257 0.9396452 0.60828733 -0.016262513 0.9396489
        0.61801124 -0.016255964 0.93965274 0.62715083 -0.016249595 0.93965656
        0.6357142 -0.016243394 0.93966025 0.6437139 -0.01623736 0.9396638
        0.65116596 -0.016231518 0.9396674 0.65808904 -0.016225934 0.9396708
        0.6645029 -0.01622078 0.93967426 0.6704273 -0.016216353 0.9396776
        0.67587984 -0.016213153 0.9396809 0.6808742 -0.01621183 0.93968403
        0.68541855 -0.016213033 0.93968695 0.68951327 -0.016217312 0.93968976
        0.69315076 -0.016226506 0.9396922 0.696326 -0.016251007 0.93969417
        0.6990801 -0.016331121 0.9396949 0.70154774 -0.016551044 0.9396929
        0.7039731 -0.016992994 0.93968695 0.4368725 -0.015912877 0.9402417
        0.45191512 -0.01589539 0.9400118 0.4668787 -0.01587936 0.93985134
        0.48168844 -0.015864622 0.9397494 0.49627244 -0.015850931 0.9396918
        0.5105632 -0.015838036 0.9396631 0.52449864 -0.015825717 0.93965095
        0.5380232 -0.015813826 0.9396467 0.5510885 -0.015802277 0.9396454
        0.5636539 -0.015791032 0.9396459 0.57568663 -0.01578008 0.9396476
        0.5871621 -0.0157694 0.9396504 0.598063 -0.015758973 0.9396539
        0.6083796 -0.015748769 0.9396577 0.6181087 -0.015738776 0.93966156
        0.62725306 -0.015728965 0.93966544 0.6358208 -0.01571933 0.9396692
        0.64382434 -0.015709866 0.9396728 0.6512796 -0.015700603 0.93967646
        0.65820503 -0.01569164 0.93968 0.6646198 -0.01568319 0.93968344
        0.67054254 -0.015675666 0.93968683 0.6759888 -0.015669711 0.9396902
        0.6809693 -0.015666185 0.93969333 0.68548787 -0.015665883 0.9396963
        0.6895405 -0.01566938 0.93969905 0.69311595 -0.015678609 0.93970144
        0.69620943 -0.015704716 0.93970335 0.69886494 -0.015789539 0.93970394
        0.70121145 -0.016022567 0.93970186 0.7034902 -0.016516704 0.9396951
        0.4368725 -0.015445327 0.94024944 0.45192295 -0.015424021 0.94001955
        0.46689442 -0.015404141 0.9398591 0.48171204 -0.015385535 0.9397572
        0.49630395 -0.015367969 0.93969965 0.5106025 -0.015351191 0.9396712
        0.52454555 -0.015334992 0.93965906 0.5380776 -0.015319225 0.9396549
        0.5511502 -0.015303808 0.93965364 0.5637226 -0.015288705 0.93965423
        0.57576215 -0.015273896 0.93965596 0.58724403 -0.015259363 0.9396588
        0.5981511 -0.01524508 0.9396624 0.6084735 -0.015231024 0.9396663
        0.61820805 -0.015217165 0.93967026 0.6273574 -0.015203483 0.9396741
        0.6359298 -0.015189961 0.9396779 0.64393747 -0.015176596 0.93968165
        0.65139633 -0.015163432 0.9396853 0.6583244 -0.015150587 0.9396889
        0.66474044 -0.015138336 0.93969244 0.67066175 -0.015127194 0.93969595
        0.67610204 -0.015117987 0.93969923 0.6810689 -0.0151117705 0.93970245
        0.6855624 -0.015109483 0.9397055 0.68957466 -0.015111649 0.93970823
        0.6930925 -0.015120042 0.9397106 0.6961132 -0.015145775 0.9397124
        0.6986829 -0.015229673 0.93971306 0.7009195 -0.0154598635 0.93971103
        0.70304114 -0.01596956 0.9397042 0.4368725 -0.014977776 0.940257
        0.4519308 -0.01495257 0.9400271 0.46691024 -0.014928757 0.9398666
        0.48173583 -0.01490619 0.93976486 0.49633563 -0.014884641 0.9397074
        0.510642 -0.01486387 0.9396789 0.5245928 -0.014843669 0.9396669
        0.5381324 -0.014823899 0.9396628 0.5512124 -0.014804471 0.9396617
        0.56379193 -0.014785358 0.9396623 0.5758384 -0.014766531 0.9396641
        0.5873269 -0.0147479735 0.93966705 0.59824026 -0.014729654 0.9396706
        0.60856867 -0.01471155 0.93967456 0.6183088 -0.014693624 0.9396786
        0.62746346 -0.014675852 0.93968254 0.6360407 -0.014658215 0.9396864
        0.6440528 -0.014640713 0.93969023 0.6515155 -0.014623394 0.9396939
        0.6584465 -0.014606406 0.9396976 0.66486406 -0.014590085 0.9397012
        0.67078435 -0.014575062 0.9397047 0.67621905 -0.014562346 0.9397081
        0.68117285 -0.014553201 0.93971133 0.68564224 -0.014548688 0.9397144
        0.6896166 -0.014549187 0.9397171 0.6930822 -0.01455606 0.9397195
        0.69603944 -0.0145796165 0.93972135 0.69853616 -0.014657684 0.939722
        0.70067734 -0.014871345 0.9397204 0.70264417 -0.015358888 0.9397141
        0.4368725 -0.01451022 0.94026434 0.45193872 -0.0144812055 0.9400344
        0.4669261 -0.014453549 0.93987393 0.4817597 -0.0144271115 0.9397722
        0.49636745 -0.014401668 0.9397148 0.5106817 -0.014376987 0.9396865
        0.5246403 -0.014352866 0.93967456 0.53818756 -0.014329172 0.9396705
        0.55127496 -0.014305815 0.9396694 0.5638617 -0.014282765 0.93967
        0.57591516 -0.014259996 0.93967193 0.58741033 -0.014237485 0.939675
        0.59833014 -0.0142152 0.9396786 0.6086646 -0.014193109 0.9396826
        0.61841047 -0.01417118 0.9396867 0.6275705 -0.014149381 0.93969065
        0.63615274 -0.014127689 0.9396946 0.64416945 -0.014106106 0.93969846
        0.6516362 -0.014084687 0.9397022 0.6585704 -0.014063611 0.9397059
        0.66498977 -0.014043278 0.9397096 0.67090935 -0.014024439 0.9397132
        0.676339 -0.01400829 0.9397166 0.68128043 -0.013996311 0.93971986
        0.6857273 -0.01398965 0.9397229 0.68966675 -0.013988458 0.9397257
        0.6930859 -0.013993428 0.939728 0.69598913 -0.014013432 0.9397299
        0.6984259 -0.014081839 0.93973076 0.70048845 -0.014268498 0.9397295
        0.7023165 -0.0147015285 0.9397243 0.4368725 -0.014042661 0.94027144
        0.45194665 -0.014010009 0.9400414 0.46694204 -0.013978684 0.93988097
        0.48178366 -0.01394855 0.9397793 0.4963994 -0.013919393 0.939722
        0.51072156 -0.013890981 0.93969375 0.524688 -0.013863124 0.9396819
        0.5382429 -0.013835686 0.9396779 0.5513377 -0.013808584 0.9396768
        0.56393176 -0.013781784 0.93967754 0.5759922 -0.013755258 0.9396795
        0.58749413 -0.013728981 0.93968254 0.5984204 -0.01370292 0.93968624
        0.60876095 -0.013677037 0.9396903 0.61851263 -0.0136512965 0.9396944
        0.6276782 -0.013625666 0.93969846 0.6362656 -0.013600116 0.9397024
        0.64428693 -0.01357465 0.9397063 0.65175784 -0.013549334 0.93971014
        0.6586955 -0.013524379 0.93971395 0.66511697 -0.013500244 0.9397176
        0.6710361 -0.013477815 0.9397212 0.6764611 -0.013458471 0.93972474
        0.6813912 -0.0134439 0.939728 0.6858171 -0.013435318 0.9397311
        0.689725 -0.013432555 0.9397338 0.6931036 -0.0134354215 0.93973625
        0.6959618 -0.013450855 0.93973815 0.6983508 -0.013506859 0.9397391
        0.70035243 -0.013659543 0.9397385 0.70206654 -0.014012389 0.93973464
        0.4368725 -0.013575098 0.94027835 0.4519546 -0.013539051 0.9400482
        0.46695805 -0.013504304 0.93988776 0.48180765 -0.013470728 0.93978614
        0.4964314 -0.013438111 0.9397289 0.5107615 -0.013406232 0.9397007
        0.52473575 -0.013374902 0.9396889 0.5382983 -0.013343993 0.939685
        0.5514006 -0.013313418 0.9396839 0.5640019 -0.013283147 0.9396847
        0.57606936 -0.013253147 0.9396867 0.58757806 -0.013223393 0.9396898
        0.59851074 -0.013193848 0.93969357 0.6088575 -0.013164471 0.9396976
        0.61861503 -0.013135224 0.9397018 0.62778616 -0.013106067 0.93970585
        0.63637865 -0.013076974 0.9397099 0.6444048 -0.013047948 0.93971384
        0.65187997 -0.013019064 0.9397177 0.65882117 -0.012990562 0.9397215
        0.6652448 -0.012962976 0.9397252 0.6711639 -0.012937309 0.93972886
        0.6765848 -0.012915135 0.93973243 0.68150437 -0.012898342 0.9397358
        0.6859113 -0.012888179 0.93973875 0.6897909 -0.012884085 0.9397415
        0.6931347 -0.012884812 0.93974394 0.6959561 -0.01289503 0.9397459
        0.69830865 -0.0129369125 0.9397471 0.70026666 -0.013051889 0.93974704
        0.7018982 -0.013308012 0.9397448 0.4368725 -0.01310753 0.94028497
        0.4519626 -0.013068466 0.9400548 0.46697405 -0.013030686 0.9398943
        0.4818317 -0.012994064 0.93979275 0.49646342 -0.012958394 0.93973553
        0.51080143 -0.012923464 0.93970746 0.52478343 -0.012889087 0.9396957
        0.5383536 -0.0128551405 0.9396917 0.5514634 -0.01282154 0.9396908
        0.56407195 -0.012788251 0.9396916 0.5761463 -0.012755244 0.9396936
        0.5876617 -0.012722487 0.9396968 0.5986008 -0.012689942 0.9397005
        0.6089537 -0.012657566 0.9397046 0.6187171 -0.012625318 0.9397088
        0.62789357 -0.012593156 0.93971294 0.63649124 -0.012561052 0.939717
        0.64452213 -0.012529007 0.9397209 0.65200156 -0.012497113 0.93972486
        0.6589463 -0.012465634 0.9397287 0.66537225 -0.012435176 0.93973243
        0.6712915 -0.012406863 0.9397361 0.6767087 -0.012382456 0.9397397
        0.6816188 -0.012364029 0.939743 0.6860086 -0.012352835 0.9397461
        0.6898635 -0.01234786 0.9397488 0.69317794 -0.0123467 0.9397512
        0.6959703 -0.012351599 0.93975323 0.6982967 -0.01237891 0.93975466
        0.70022726 -0.012455867 0.9397551 0.7018109 -0.012612059 0.93975425
        0.4368725 -0.012639959 0.94029135 0.45197058 -0.012598352 0.9400611
        0.46699005 -0.012558024 0.93990064 0.48185572 -0.012518852 0.9397991
        0.49649543 -0.01248064 0.9397419 0.5108413 -0.012443178 0.93971384
        0.52483106 -0.01240629 0.93970215 0.5384088 -0.012369851 0.9396983
        0.55152595 -0.012333779 0.9396973 0.5641416 -0.012298042 0.9396981
        0.5762229 -0.012262604 0.9397002 0.58774483 -0.0122274365 0.93970335
        0.5986903 -0.012192496 0.93970716 0.60904914 -0.012157739 0.9397113
        0.61881816 -0.012123119 0.93971545 0.6280001 -0.012088594 0.9397196
        0.63660276 -0.012054133 0.9397237 0.6446383 -0.012019743 0.93972766
        0.6521219 -0.01198552 0.9397316 0.6590701 -0.011951763 0.9397354
        0.6654984 -0.01191914 0.9397392 0.6714179 -0.011888896 0.9397429
        0.67683196 -0.011862963 0.93974644 0.68173355 -0.011843586 0.9397498
        0.6861082 -0.011831996 0.9397528 0.6899417 -0.011826688 0.93975556
        0.6932318 -0.011824057 0.93975794 0.696002 -0.011823931 0.93976
        0.6983113 -0.0118372 0.9397616 0.7002287 -0.011878369 0.9397626
        0.7017967 -0.011942115 0.93976307 0.4368725 -0.012172388 0.9402975
        0.4519786 -0.01212881 0.9400672 0.4670061 -0.012086522 0.93990666
        0.48187974 -0.012045401 0.9398051 0.49652737 -0.012005259 0.939748
        0.51088107 -0.011965892 0.93972003 0.5248785 -0.011927127 0.93970835
        0.5384637 -0.011888845 0.9397044 0.5515881 -0.011850964 0.9397035
        0.5642108 -0.01181345 0.93970436 0.5762988 -0.011776267 0.93970644
        0.5878272 -0.0117393825 0.9397096 0.5987788 -0.011702752 0.9397134
        0.60914356 -0.011666331 0.93971753 0.6189181 -0.01163007 0.9397217
        0.62810516 -0.011593925 0.9397259 0.6367127 -0.011557861 0.9397299
        0.6447527 -0.011521889 0.9397339 0.65224034 -0.011486117 0.93973786
        0.6591919 -0.011450869 0.93974173 0.6656225 -0.011416876 0.9397455
        0.6715424 -0.011385492 0.93974924 0.6769537 -0.0113588115 0.93975276
        0.6818478 -0.011339222 0.9397561 0.6862092 -0.011327911 0.9397591
        0.6900245 -0.011322867 0.9397618 0.69329494 -0.011319301 0.9397642
        0.696049 -0.011314762 0.93976635 0.69834894 -0.011315304 0.9397681
        0.700265 -0.01132482 0.93976945 0.7018437 -0.011310949 0.9397709
        0.4368725 -0.011704812 0.94030344 0.4519866 -0.01165993 0.940073
        0.4670221 -0.01161636 0.93991244 0.48190373 -0.011573982 0.93981093
        0.4965592 -0.011532609 0.93975383 0.51092064 -0.011492047 0.9397259
        0.52492565 -0.011452127 0.93971425 0.53851825 -0.011412729 0.9397104
        0.55164975 -0.011373775 0.9397094 0.5642793 -0.011335229 0.93971026
        0.57637393 -0.011297055 0.93971235 0.5879086 -0.011259215 0.9397155
        0.5988662 -0.011221664 0.9397193 0.6092366 -0.011184356 0.93972343
        0.61901647 -0.011147238 0.93972766 0.6282086 -0.011110264 0.9397318
        0.63682073 -0.0110733975 0.93973583 0.64486504 -0.011036651 0.9397398
        0.6523565 -0.011000143 0.93974376 0.65931123 -0.010964223 0.9397476
        0.66574407 -0.010929675 0.9397513 0.67166454 -0.010897957 0.9397551
        0.6770735 -0.010871306 0.9397586 0.6819611 -0.010852233 0.9397619
        0.68631107 -0.010841859 0.9397649 0.6901111 -0.010837671 0.9397676
        0.6933661 -0.010833757 0.93977 0.69610924 -0.010825598 0.9397721
        0.6984063 -0.010815194 0.939774 0.70033056 -0.010798259 0.9397757
        0.70193887 -0.010724681 0.93977785 0.4368725 -0.011237233 0.94030917
        0.45199463 -0.011191807 0.94007856 0.4670381 -0.011147722 0.939918
        0.48192766 -0.011104859 0.9398165 0.49659094 -0.0110630365 0.93975943
        0.51096004 -0.011022062 0.9397314 0.5249725 -0.010981773 0.93971986
        0.5385723 -0.010942053 0.939716 0.55171084 -0.010902824 0.939715
        0.5643471 -0.010864045 0.9397158 0.57644814 -0.010825678 0.9397179
        0.587989 -0.010787685 0.93972105 0.5989523 -0.010750021 0.9397248
        0.60932815 -0.010712632 0.939729 0.61911315 -0.010675466 0.9397332
        0.62831 -0.010638471 0.93973726 0.6369266 -0.010601613 0.9397413
        0.64497495 -0.010564903 0.9397453 0.65247005 -0.010528468 0.9397492
        0.6594279 -0.0104926815 0.939753 0.6658628 -0.010458378 0.9397568
        0.67178386 -0.010427107 0.93976045 0.67719096 -0.0104012275 0.939764
        0.68207306 -0.010383355 0.93976724 0.68641335 -0.010374527 0.9397703
        0.6902009 -0.01037175 0.9397729 0.6934442 -0.010368072 0.9397753
        0.6961808 -0.010357182 0.93977743 0.69848037 -0.010337832 0.93977946
        0.70042026 -0.010300032 0.9397813 0.7020701 -0.010184738 0.93978393
        0.4368725 -0.01076965 0.94031465 0.45200264 -0.010724527 0.94008386
        0.4670541 -0.010680772 0.9399233 0.48195148 -0.01063827 0.9398217
        0.49662253 -0.010596842 0.9397647 0.5109992 -0.010556298 0.9397368
        0.52501893 -0.010516482 0.93972516 0.5386259 -0.010477276 0.9397212
        0.5517712 -0.0104386015 0.9397203 0.564414 -0.010400416 0.9397211
        0.5765213 -0.010362683 0.93972313 0.588068 -0.010325356 0.93972623
        0.59903693 -0.0102883885 0.93973005 0.609418 -0.010251724 0.93973416
        0.6192079 -0.0102153085 0.93973833 0.6284093 -0.010179089 0.93974245
        0.6370301 -0.010143027 0.93974644 0.6450823 -0.010107135 0.9397504
        0.6525808 -0.010071549 0.93975425 0.65954155 -0.010036662 0.93975806
        0.66597855 -0.010003352 0.9397618 0.6719003 -0.009973247 0.93976545
        0.6773059 -0.009948818 0.93976897 0.6821834 -0.00993276 0.9397722
        0.68651575 -0.009926021 0.93977517 0.6902933 -0.00992515 0.9397778
        0.69352806 -0.009922257 0.9397802 0.696262 -0.009909523 0.9397823
        0.69856846 -0.009883252 0.9397844 0.70052946 -0.009830047 0.9397865
        0.7022271 -0.009689363 0.93978924 0.4368725 -0.010302066 0.94031984
        0.45201063 -0.010258168 0.940089 0.46707007 -0.0102156615 0.9399283
        0.48197526 -0.010174426 0.9398267 0.49665394 -0.010134287 0.93976974
        0.511038 -0.01009506 0.93974173 0.525065 -0.010056589 0.9397301
        0.5386789 -0.010018757 0.93972623 0.5518309 -0.009981486 0.9397253
        0.56448 -0.009944732 0.93972605 0.57659334 -0.009908452 0.939728
        0.58814573 -0.0098726 0.9397311 0.59912 -0.009837125 0.9397349
        0.6095061 -0.009801968 0.9397389 0.61930066 -0.009767073 0.9397431
        0.62850636 -0.009732383 0.93974715 0.63713115 -0.009697861 0.9397512
        0.64518696 -0.0096635185 0.9397551 0.6526887 -0.009629496 0.9397589
        0.6596522 -0.009596206 0.9397627 0.66609114 -0.009564568 0.9397664
        0.6720137 -0.0095362775 0.93977004 0.6774181 -0.009513896 0.9397735
        0.682292 -0.009500186 0.9397768 0.68661785 -0.009496001 0.9397797
        0.6903878 -0.009497461 0.93978226 0.69361687 -0.009495846 0.9397847
        0.6963514 -0.009482104 0.93978685 0.6986682 -0.009450826 0.93978894
        0.70065415 -0.0093872445 0.9397911 0.70240194 -0.009235133 0.939794
        0.4368725 -0.009834479 0.9403249 0.45201868 -0.009792812 0.9400939
        0.467086 -0.009752537 0.93993306 0.48199895 -0.0097135315 0.9398315
        0.49668518 -0.009675624 0.93977445 0.51107657 -0.009638633 0.9397465
        0.5251106 -0.009602404 0.9397349 0.5387313 -0.009566823 0.93973094
        0.5518898 -0.009531811 0.9397299 0.56454504 -0.009497319 0.93973064
        0.57666415 -0.009463304 0.9397326 0.5882221 -0.009429716 0.93973565
        0.59920144 -0.009396501 0.9397394 0.6095923 -0.0093636 0.93974346
        0.6193913 -0.0093309535 0.9397476 0.62860113 -0.0092985025 0.9397516
        0.6372296 -0.009266208 0.93975556 0.6452888 -0.009234085 0.93975943
        0.65279365 -0.009202277 0.9397633 0.65975964 -0.009171217 0.939767
        0.6662005 -0.009141852 0.9397707 0.6721239 -0.009115942 0.93977433
        0.67752767 -0.00909613 0.93977773 0.6823986 -0.009085221 0.9397809
        0.68671954 -0.009083978 0.9397838 0.69048375 -0.009088126 0.93978643
        0.6937097 -0.00908822 0.93978876 0.6964475 -0.009074235 0.93979096
        0.69877744 -0.0090396935 0.93979305 0.7007909 -0.008970184 0.9397953
        0.7025883 -0.008818216 0.9397981 0.4368725 -0.0093668895 0.9403297
        0.4520267 -0.009328525 0.94009846 0.46710184 -0.00929152 0.9399376
        0.4820225 -0.009255748 0.93983597 0.49671617 -0.009221042 0.9397789
        0.5111148 -0.009187222 0.93975097 0.5251558 -0.00915414 0.93973935
        0.538783 -0.009121681 0.93973535 0.55194783 -0.009089765 0.9397343
        0.56460905 -0.009058347 0.939735 0.5767338 -0.009027374 0.9397369
        0.58829695 -0.0089968 0.93973994 0.59928125 -0.008966569 0.93974364
        0.60967666 -0.008936619 0.93974763 0.61947984 -0.008906892 0.9397517
        0.6286935 -0.008877326 0.9397557 0.6373255 -0.008847882 0.9397596
        0.64538795 -0.008818577 0.9397635 0.65289557 -0.008789563 0.93976724
        0.65986395 -0.00876128 0.939771 0.6663067 -0.008734713 0.93977463
        0.6722311 -0.0087116705 0.9397782 0.6776345 -0.008694861 0.9397816
        0.68250334 -0.008687134 0.93978477 0.68682057 -0.008689146 0.9397876
        0.6905809 -0.008696269 0.9397902 0.6938058 -0.008698433 0.9397925
        0.6965491 -0.0086848745 0.9397947 0.6988944 -0.008648603 0.93979686
        0.7009369 -0.008576985 0.9397991 0.7027816 -0.008434478 0.9398018
        0.4368725 -0.008899298 0.9403342 0.4520347 -0.008865444 0.9401029
        0.4671177 -0.00883286 0.9399419 0.48204592 -0.008801419 0.9398402
        0.49674696 -0.008770961 0.93978316 0.5111526 -0.008741312 0.93975514
        0.52520037 -0.008712327 0.9397435 0.5388341 -0.008683897 0.93973947
        0.55200493 -0.008655942 0.9397384 0.56467193 -0.008628415 0.93973905
        0.5768021 -0.00860127 0.9397409 0.5883702 -0.008574456 0.93974394
        0.5993592 -0.008547917 0.9397476 0.6097589 -0.008521597 0.9397515
        0.6195661 -0.008495431 0.9397556 0.62878335 -0.008469364 0.93975955
        0.6374187 -0.008443356 0.9397634 0.6454841 -0.008417426 0.9397672
        0.65299433 -0.008391732 0.93977094 0.65996504 -0.008366733 0.93977463
        0.6664095 -0.008343434 0.93977827 0.67233485 -0.008323692 0.9397818
        0.67773825 -0.008310269 0.9397851 0.68260574 -0.008306041 0.9397883
        0.6869204 -0.008311575 0.9397911 0.6906786 -0.008321918 0.93979365
        0.69390434 -0.008326467 0.939796 0.69665504 -0.008313931 0.9397982
        0.69901717 -0.00827728 0.93980026 0.70108944 -0.008206759 0.93980247
        0.7029778 -0.008081323 0.9398051 0.4368725 -0.008431705 0.94033855
        0.4520427 -0.008403557 0.940107 0.46713346 -0.00837652 0.93994594
        0.48206922 -0.008350473 0.93984425 0.49677747 -0.008325258 0.93978715
        0.51119006 -0.008300719 0.93975914 0.5252444 -0.008276713 0.9397474
        0.5388844 -0.00825314 0.93974334 0.5520612 -0.008229928 0.9397422
        0.56473374 -0.008207028 0.9397428 0.576869 -0.0081844 0.9397447
        0.588442 -0.0081619965 0.93974763 0.59943545 -0.008139764 0.93975127
        0.60983926 -0.008117647 0.93975514 0.6196501 -0.008095588 0.93975914
        0.6288709 -0.008073532 0.93976307 0.63750935 -0.008051442 0.9397669
        0.6455775 -0.008029344 0.93977064 0.65309024 -0.008007402 0.93977433
        0.660063 -0.007986085 0.939778 0.6665092 -0.007966427 0.93978155
        0.6724357 -0.007950321 0.93978506 0.67783934 -0.007940576 0.9397884
        0.6827061 -0.00794009 0.9397915 0.6870194 -0.007949331 0.9397943
        0.69077677 -0.007963058 0.93979686 0.694005 -0.007970224 0.93979913
        0.6967645 -0.007959188 0.9398013 0.6991449 -0.007923264 0.9398034
        0.7012472 -0.007856457 0.9398056 0.70317525 -0.0077538365 0.939808
        0.4368725 -0.007964108 0.94034255 0.4520507 -0.00794338 0.94011086
        0.46714914 -0.007923472 0.93994975 0.4820923 -0.007904276 0.93984795
        0.49680763 -0.007885657 0.9397908 0.511227 -0.007867476 0.9397628
        0.5252877 -0.0078496095 0.9397511 0.5389337 -0.0078319665 0.9397469
        0.55211616 -0.007814488 0.9397458 0.56479394 -0.0077971388 0.9397463
        0.57693416 -0.0077798823 0.9397481 0.58851165 -0.0077626817 0.939751
        0.59950924 -0.007745492 0.9397546 0.60991687 -0.0077282637 0.9397585
        0.61973125 -0.007710947 0.9397624 0.6289552 -0.007693493 0.9397663
        0.6375964 -0.007675873 0.93977004 0.64566714 -0.007658119 0.9397738
        0.65318215 -0.0076404023 0.9397775 0.66015685 -0.0076232087 0.93978107
        0.6666046 -0.0076075946 0.9397846 0.67253226 -0.007595484 0.93978804
        0.6779364 -0.0075897295 0.9397914 0.682803 -0.0075932327 0.9397944
        0.6871158 -0.0076063783 0.9397972 0.69087356 -0.007623669 0.9397997
        0.69410557 -0.0076336963 0.939802 0.6968751 -0.0076246313 0.93980414
        0.69927424 -0.0075903926 0.9398063 0.7014059 -0.0075292424 0.9398084
        0.70336837 -0.007454693 0.9398106 0.4368725 -0.00749651 0.9403464
        0.45205867 -0.00748428 0.94011456 0.46716478 -0.00747248 0.93995327
        0.48211527 -0.00746103 0.93985146 0.4968376 -0.007449825 0.9397943
        0.51126355 -0.007438745 0.9397662 0.52533054 -0.0074276957 0.9397545
        0.53898245 -0.007416604 0.9397503 0.5521704 -0.00740543 0.93974906
        0.5648533 -0.0073941518 0.9397496 0.57699823 -0.007382745 0.9397513
        0.58858013 -0.007371187 0.9397542 0.5995818 -0.0073594428 0.93975776
        0.60999304 -0.0073474743 0.9397615 0.61981076 -0.007335241 0.93976545
        0.6290377 -0.0073227044 0.93976927 0.63768166 -0.0073098443 0.93977296
        0.6457548 -0.0072967 0.93977666 0.6532719 -0.0072834566 0.9397803
        0.6602485 -0.007270612 0.9397839 0.6666978 -0.0072592422 0.93978745
        0.6726267 -0.007251303 0.93979084 0.6780316 -0.0072496776 0.9397941
        0.68289864 -0.0072572725 0.93979716 0.6872119 -0.0072743837 0.9397999
        0.6909712 -0.0072952826 0.9398024 0.6942082 -0.007308264 0.9398047
        0.6969889 -0.007301441 0.9398068 0.6994077 -0.0072695985 0.9398089
        0.7015685 -0.0072158403 0.93981105 0.7035618 -0.0071722963 0.9398129
        0.4368725 -0.007028911 0.94035 0.4520667 -0.007024404 0.940118
        0.46718052 -0.0070200176 0.9399566 0.4821384 -0.0070156856 0.9398548
        0.49686784 -0.007011324 0.9397976 0.51130056 -0.007006837 0.9397695
        0.52537394 -0.007002143 0.9397577 0.5390318 -0.0069971895 0.93975353
        0.5522254 -0.0069919443 0.9397523 0.5649136 -0.0069863973 0.9397527
        0.57706344 -0.0069805356 0.9397544 0.58864987 -0.0069743446 0.9397572
        0.5996556 -0.006967798 0.93976074 0.6100707 -0.0069608674 0.93976456
        0.61989194 -0.006953518 0.9397684 0.629122 -0.0069457204 0.9397722
        0.63776886 -0.0069374605 0.9397759 0.6458446 -0.0069287857 0.9397795
        0.65336394 -0.0069198883 0.9397831 0.6603426 -0.0069112787 0.9397866
        0.6667937 -0.006904049 0.9397901 0.6727241 -0.0069001787 0.9397935
        0.67813045 -0.0069025736 0.93979675 0.68299866 -0.0069141383 0.9397998
        0.6873134 -0.006935076 0.9398025 0.6910758 -0.00695943 0.93980503
        0.69431955 -0.006975244 0.9398073 0.6971134 -0.006970731 0.93980944
        0.6995539 -0.006941975 0.93981147 0.7017449 -0.0068978467 0.93981355
        0.70376897 -0.0068854108 0.9398153 0.4368725 -0.0065613086 0.94035345
        0.4520747 -0.006563112 0.94012123 0.46719638 -0.0065648425 0.9399598
        0.48216185 -0.006566444 0.9398579 0.4968985 -0.006567842 0.9398007
        0.5113382 -0.006568952 0.9397726 0.52541816 -0.0065697045 0.9397608
        0.5390823 -0.0065700524 0.9397566 0.5522818 -0.006569972 0.93975526
        0.5649755 -0.0065694563 0.9397557 0.5771305 -0.006568499 0.9397574
        0.58872175 -0.006567088 0.9397602 0.599732 -0.006565203 0.93976367
        0.6101512 -0.006562819 0.9397674 0.61997616 -0.0065599056 0.93977123
        0.62920964 -0.006556438 0.939775 0.6378596 -0.006552407 0.9397787
        0.64593816 -0.0065478617 0.9397823 0.65346014 -0.0065430026 0.93978584
        0.6604411 -0.006538345 0.93978935 0.6668944 -0.006534994 0.9397928
        0.6728269 -0.006534943 0.93979615 0.6782352 -0.006541114 0.9397994
        0.68310565 -0.0065563954 0.93980247 0.6874232 -0.006580892 0.9398052
        0.6911905 -0.0066084256 0.9398076 0.6944432 -0.006626844 0.93980986
        0.69725287 -0.006624662 0.939812 0.6997178 -0.006599824 0.9398141
        0.70194083 -0.0065676738 0.93981606 0.7039972 -0.006585055 0.93981755
        0.4368725 -0.006093706 0.94035655 0.45208284 -0.00610077 0.9401243
        0.4672124 -0.0061076446 0.93996274 0.48218548 -0.0061142743 0.9398608
        0.49692956 -0.0061205924 0.93980366 0.5113763 -0.00612652 0.9397756
        0.52546304 -0.006131995 0.9397638 0.53913367 -0.0061369734 0.9397595
        0.55233926 -0.006141436 0.9397582 0.56503874 -0.0061453762 0.93975854
        0.57719916 -0.0061487895 0.93976027 0.5887954 -0.006151665 0.93976307
        0.5998103 -0.0061539845 0.93976647 0.61023384 -0.0061557256 0.9397702
        0.6200628 -0.0061568604 0.939774 0.6293 -0.006157365 0.93977773
        0.63795334 -0.0061572324 0.9397814 0.64603496 -0.0061565153 0.939785
        0.6535598 -0.0061554154 0.9397885 0.6605434 -0.006154452 0.939792
        0.6669992 -0.0061547356 0.93979543 0.6729342 -0.006158267 0.93979883
        0.67834526 -0.006167973 0.93980205 0.683219 -0.006186715 0.939805
        0.68754107 -0.006214494 0.9398077 0.6913151 -0.0062449262 0.9398102
        0.69457924 -0.0062657325 0.9398124 0.69740736 -0.0062659597 0.93981457
        0.6998993 -0.0062459325 0.93981665 0.7021559 -0.006227569 0.93981856
        0.70424545 -0.0062739574 0.9398199 0.4368725 -0.0056261006 0.9403595
        0.45209098 -0.005637346 0.940127 0.4672285 -0.005648344 0.9399655
        0.48220938 -0.0056590433 0.93986356 0.49696097 -0.005669378 0.9398064
        0.511415 -0.0056792763 0.9397783 0.52550876 -0.005688676 0.9397665
        0.539186 -0.0056975377 0.9397623 0.5523979 -0.0057058404 0.9397609
        0.5651034 -0.0057135783 0.93976134 0.57726943 -0.0057207453 0.93976295
        0.588871 -0.0057273307 0.9397657 0.5998908 -0.0057333163 0.93976915
        0.61031896 -0.005738679 0.93977284 0.62015224 -0.005743391 0.93977666
        0.62939334 -0.00574743 0.93978035 0.6380503 -0.0057507893 0.939784
        0.64613533 -0.005753522 0.9397876 0.6536633 -0.005755828 0.9397911
        0.6606499 -0.0057582287 0.9397946 0.6671086 -0.005761832 0.939798
        0.6730467 -0.0057686376 0.93980134 0.6784614 -0.0057815597 0.93980455
        0.68333966 -0.005803426 0.93980753 0.68766797 -0.0058341296 0.9398103
        0.69145113 -0.0058671036 0.9398127 0.6947294 -0.0058900327 0.93981504
        0.697579 -0.005892759 0.93981713 0.70010084 -0.005878494 0.93981916
        0.7023927 -0.005875461 0.939821 0.7045168 -0.0059493855 0.93982226
        0.4368725 -0.005158495 0.94036216 0.45209914 -0.005172931 0.9401296
        0.46724474 -0.00518711 0.939968 0.4822335 -0.005200978 0.93986607
        0.49699277 -0.0052144728 0.93980896 0.5114542 -0.0052275234 0.9397809
        0.5255551 -0.0052400725 0.9397691 0.5392392 -0.00525208 0.93976486
        0.5524577 -0.005263523 0.9397635 0.5651694 -0.005274396 0.9397639
        0.5773413 -0.0052846884 0.9397656 0.5889485 -0.005294389 0.9397683
        0.5999735 -0.0053034783 0.9397717 0.6104065 -0.005311932 0.9397754
        0.6202443 -0.005319723 0.93977916 0.62948966 -0.0053268266 0.93978286
        0.6381506 -0.0053332355 0.93978655 0.6462393 -0.005339001 0.93979007
        0.6537707 -0.0053443233 0.9397936 0.6607606 -0.0053497176 0.93979704
        0.6672227 -0.0053562834 0.9398005 0.67316455 -0.0053660064 0.93980384
        0.67858374 -0.005381776 0.939807 0.68346804 -0.0054063704 0.93981
        0.6878046 -0.0054395767 0.9398127 0.69159955 -0.005474677 0.93981516
        0.694895 -0.0054994314 0.9398175 0.6977695 -0.0055047697 0.93981963
        0.7003242 -0.005497208 0.93982166 0.7026532 -0.005510612 0.93982345
        0.7048134 -0.0056102565 0.9398246 0.4368725 -0.004690888 0.9403646
        0.45210737 -0.004707589 0.94013196 0.46726108 -0.004724053 0.93997025
        0.4822578 -0.0047402256 0.9398684 0.4970249 -0.0047560474 0.9398113
        0.5114939 -0.004771449 0.9397833 0.52560216 -0.0047863764 0.9397715
        0.53929335 -0.004800787 0.93976724 0.5525186 -0.0048146606 0.93976593
        0.56523675 -0.004827986 0.9397663 0.5774149 -0.004840752 0.9397679
        0.5890278 -0.0048529445 0.9397707 0.6000583 -0.0048645413 0.9397741
        0.6104965 -0.0048755184 0.9397778 0.62033916 -0.004885847 0.93978155
        0.629589 -0.0048955004 0.93978524 0.6382542 -0.004904471 0.93978894
        0.64634687 -0.0049128076 0.93979245 0.6538821 -0.0049207057 0.939796
        0.6608757 -0.00492867 0.9397994 0.66734165 -0.0049377866 0.9398028
        0.6732879 -0.004950012 0.93980616 0.6787128 -0.0049681934 0.9398094
        0.6836047 -0.004995044 0.93981236 0.6879518 -0.00503025 0.9398151
        0.69176155 -0.0050669885 0.9398176 0.6950778 -0.0050932304 0.93981993
        0.69798094 -0.005101298 0.9398221 0.70057166 -0.005101315 0.9398241
        0.70294 -0.0051317867 0.9398258 0.70513797 -0.0052547264 0.9398269
        0.4368725 -0.0042232797 0.9403668 0.45211565 -0.0042413925 0.94013405
        0.46727753 -0.0042593083 0.9399724 0.48228234 -0.0042769713 0.9398705
        0.49705732 -0.004294326 0.93981344 0.5115341 -0.004311307 0.9397854
        0.52564985 -0.00432786 0.9397737 0.5393483 -0.0043439474 0.9397695
        0.55258054 -0.004359543 0.9397681 0.5653055 -0.004374636 0.9397685
        0.5774899 -0.0043892134 0.93977016 0.58910894 -0.0044032573 0.93977296
        0.6001453 -0.004416746 0.93977636 0.6105889 -0.0044296524 0.93978006
        0.62043667 -0.0044419463 0.9397838 0.6296914 -0.0044536013 0.93978757
        0.63836116 -0.0044646077 0.93979114 0.64645815 -0.004475011 0.9397947
        0.6539975 -0.004485 0.9397982 0.66099524 -0.004495067 0.93980163
        0.6674656 -0.0045062713 0.93980503 0.6734171 -0.004520527 0.93980837
        0.6788488 -0.0045406185 0.9398116 0.6837502 -0.004569178 0.9398146
        0.68811053 -0.0046057976 0.9398174 0.6919385 -0.00464361 0.93981993
        0.69527954 -0.004670957 0.93982226 0.6982154 -0.0046818615 0.93982446
        0.7008458 -0.0046901857 0.9398264 0.70325565 -0.0047377716 0.9398281
        0.7054935 -0.0048809196 0.9398292 0.4368725 -0.0037556696 0.9403688
        0.45212394 -0.003774415 0.94013596 0.46729407 -0.003793009 0.9399742
        0.48230705 -0.0038114027 0.9398723 0.4970901 -0.003829541 0.93981534
        0.5115747 -0.003847363 0.9397874 0.5256982 -0.0038648194 0.9397757
        0.5394041 -0.0038818717 0.9397715 0.55264354 -0.0038984946 0.93977016
        0.5653754 -0.003914676 0.9397705 0.5775665 -0.0039304 0.9397722
        0.5891919 -0.0039456487 0.939775 0.60023427 -0.0039603976 0.9397784
        0.6106837 -0.0039746203 0.93978214 0.62053686 -0.0039882855 0.9397859
        0.6297968 -0.0040013655 0.9397896 0.6384714 -0.0040138494 0.9397932
        0.64657307 -0.00402578 0.93979675 0.6541169 -0.0040373364 0.93980026
        0.6611193 -0.004048994 0.9398037 0.6675947 -0.004061775 0.9398071
        0.6735522 -0.004077534 0.9398105 0.67899203 -0.0040989667 0.9398137
        0.68390507 -0.004128606 0.9398168 0.68828166 -0.0041659656 0.9398196
        0.6921318 -0.0042042094 0.93982214 0.6955022 -0.004232231 0.9398245
        0.69847554 -0.004246038 0.9398267 0.7011492 -0.004263156 0.9398287
        0.7036034 -0.0043272106 0.93983036 0.7058835 -0.0044867 0.9398315
        0.4368725 -0.0032880593 0.94037056 0.45213225 -0.003306727 0.94013757
        0.46731073 -0.003325294 0.93997586 0.48233196 -0.003343713 0.939874
        0.49712312 -0.003361934 0.9398171 0.5116158 -0.0033799035 0.9397891
        0.5257471 -0.0033975735 0.9397775 0.53946066 -0.003414909 0.93977326
        0.55270755 -0.003431886 0.93977195 0.56544656 -0.00344849 0.93977237
        0.5776446 -0.0034647053 0.9397741 0.58927655 -0.003480513 0.9397769
        0.6003253 -0.0034958888 0.9397803 0.6107807 -0.0035108058 0.939784
        0.6206397 -0.0035252331 0.9397878 0.62990505 -0.0035391431 0.9397915
        0.6385849 -0.003552523 0.93979514 0.6466916 -0.003565413 0.93979865
        0.6542404 -0.0035779814 0.93980217 0.66124785 -0.0035906807 0.9398057
        0.66772884 -0.0036044854 0.93980914 0.67369336 -0.003621168 0.9398124
        0.67914283 -0.00364331 0.9398157 0.68406975 -0.003673323 0.93981874
        0.6884661 -0.0037106576 0.9398216 0.6923429 -0.003748609 0.9398242
        0.695748 -0.0037768236 0.93982667 0.69876385 -0.003793518 0.9398288
        0.70148516 -0.0038195592 0.93983084 0.7039866 -0.003898612 0.93983257
        0.70631176 -0.004069722 0.9398337 0.4368725 -0.002820448 0.9403721
        0.45214063 -0.0028383993 0.94013906 0.46732745 -0.002856296 0.9399773
        0.482357 -0.002874095 0.9398754 0.49715644 -0.0028917522 0.93981856
        0.51165724 -0.00290922 0.9397907 0.52579653 -0.0029264558 0.93977904
        0.53951794 -0.0029434278 0.9397749 0.55277246 -0.0029601138 0.93977356
        0.5655188 -0.0029764986 0.93977404 0.577724 -0.0029925671 0.9397757
        0.58936286 -0.003008301 0.9397785 0.60041815 -0.0030236763 0.93978196
        0.61087996 -0.003038667 0.93978566 0.620745 -0.003053243 0.9397895
        0.6300162 -0.0030673784 0.9397932 0.6387016 -0.00308106 0.93979686
        0.6468137 -0.003094323 0.93980044 0.65436786 -0.0031073254 0.9398039
        0.6613808 -0.003120489 0.9398075 0.6678681 -0.0031347282 0.9398109
        0.67384064 -0.0031517115 0.93981427 0.6793014 -0.0031738717 0.9398175
        0.68424475 -0.0032034747 0.93982065 0.68866473 -0.0032399336 0.93982345
        0.69257337 -0.0032767898 0.93982613 0.696019 -0.0033046529 0.9398286
        0.6990833 -0.0033240842 0.9398309 0.701857 -0.0033586838 0.9398329
        0.7044093 -0.0034503047 0.93983465 0.70678264 -0.0036273974 0.9398359
        0.4368725 -0.0023528358 0.94037336 0.452149 -0.0023694988 0.94014025
        0.46734425 -0.0023861448 0.9399784 0.4823822 -0.0024027368 0.9398766
        0.49719 -0.0024192373 0.93981975 0.5116991 -0.002435605 0.939792
        0.52584654 -0.0024518038 0.9397804 0.53957593 -0.0024678058 0.93977624
        0.5528382 -0.0024835912 0.93977493 0.56559217 -0.0024991462 0.9397754
        0.5778047 -0.002514456 0.93977714 0.5894507 -0.002529503 0.93977994
        0.6005129 -0.0025442666 0.93978345 0.6109813 -0.002558721 0.93978715
        0.6208527 -0.0025728391 0.93979096 0.63013005 -0.0025865966 0.93979466
        0.63882136 -0.002599981 0.93979836 0.6469392 -0.0026130236 0.93980193
        0.6544991 -0.0026258677 0.9398055 0.66151816 -0.0026389 0.93980896
        0.6680124 -0.0026529604 0.9398124 0.673994 -0.0026695847 0.9398158
        0.6794678 -0.0026910217 0.9398191 0.6844306 -0.002719362 0.93982226
        0.68887854 -0.0027540084 0.9398252 0.69282496 -0.0027888874 0.9398279
        0.696318 -0.0028157835 0.9398304 0.69943726 -0.0028375918 0.9398328
        0.70226866 -0.0028797332 0.93983483 0.70487595 -0.0029803815 0.9398367
        0.7073009 -0.0031568878 0.939838 0.4368725 -0.0018852234 0.9403744
        0.4521574 -0.001900088 0.9401412 0.46736112 -0.0019149637 0.9399793
        0.48240754 -0.0019298188 0.9398776 0.4972238 -0.0019446234 0.93982077
        0.5117413 -0.001959344 0.93979305 0.52589697 -0.0019739503 0.9397815
        0.5396345 -0.0019884203 0.9397773 0.5529048 -0.0020027363 0.9397761
        0.56566656 -0.0020168864 0.93977654 0.57788664 -0.0020308578 0.9397783
        0.58954 -0.002044635 0.9397811 0.60060936 -0.0020581982 0.93978465
        0.61108464 -0.0020715264 0.9397884 0.6209627 -0.0020845956 0.9397922
        0.63024646 -0.002097383 0.939796 0.6389441 -0.002109878 0.93979967
        0.6470681 -0.002122108 0.93980324 0.6546341 -0.0021342 0.9398068
        0.6616597 -0.0021464971 0.9398103 0.66816163 -0.0021597494 0.9398138
        0.67415345 -0.0021753309 0.9398172 0.67964214 -0.002195262 0.93982047
        0.68462753 -0.0022214244 0.9398237 0.68910843 -0.0022532428 0.93982667
        0.6930994 -0.0022851874 0.93982947 0.6966476 -0.002310409 0.93983203
        0.69982946 -0.0023339312 0.9398344 0.70272464 -0.0023817583 0.9398366
        0.7053917 -0.0024866345 0.93983847 0.70787185 -0.0026550859 0.93984
        0.4368725 -0.0014176103 0.94037527 0.45216587 -0.0014302257 0.9401419
        0.46737805 -0.0014428671 0.93998003 0.48243305 -0.0014555106 0.9398783
        0.4972578 -0.0014681335 0.9398216 0.5117838 -0.0014807101 0.9397938
        0.52594787 -0.0014932181 0.9397824 0.53969365 -0.0015056393 0.9397782
        0.5529721 -0.0015179605 0.939777 0.56574184 -0.0015301716 0.9397775
        0.57796973 -0.001542262 0.9397792 0.58963066 -0.0015542189 0.93978214
        0.60070735 -0.0015660262 0.93978566 0.6111898 -0.0015776658 0.93978935
        0.62107486 -0.0015891178 0.9397932 0.6303653 -0.001600363 0.939797
        0.63906956 -0.0016113925 0.9398007 0.64720005 -0.0016222298 0.9398043
        0.6547727 -0.0016329827 0.9398079 0.66180533 -0.0016439444 0.93981135
        0.6683157 -0.0016557551 0.93981487 0.67431885 -0.0016695951 0.9398183
        0.67982453 -0.0016872075 0.93982166 0.684836 -0.0017102237 0.9398249
        0.6893553 -0.0017381257 0.9398279 0.69339854 -0.0017661034 0.9398308
        0.69701105 -0.0017888256 0.93983346 0.70026416 -0.0018129711 0.93983597
        0.70323026 -0.0018635635 0.9398382 0.70596254 -0.001966459 0.9398402
        0.70850146 -0.0021186015 0.9398419 0.4368725 -0.00094999705 0.9403758
        0.45217434 -0.0009599645 0.94014233 0.46739507 -0.00096996134 0.9399805
        0.48245865 -0.0009799703 0.9398788 0.497292 -0.0009899767 0.9398221
        0.5118265 -0.000999963 0.9397945 0.5259992 -0.0010099141 0.939783
        0.5397534 -0.0010198171 0.93977886 0.5530401 -0.0010296629 0.9397777
        0.56581795 -0.001039444 0.9397782 0.57805383 -0.0010491522 0.93978
        0.5897226 -0.0010587778 0.9397828 0.60080683 -0.0010683085 0.9397863
        0.6112967 -0.0010777303 0.9397901 0.62118894 -0.0010870278 0.939794
        0.6304865 -0.0010961861 0.93979776 0.6391976 -0.0011051985 0.93980145
        0.64733493 -0.001114084 0.9398051 0.6549146 -0.0011229286 0.93980867
        0.6619548 -0.0011319657 0.93981224 0.6684744 -0.0011417086 0.93981576
        0.67449015 -0.0011531059 0.93981916 0.6800149 -0.0011675683 0.93982255
        0.6850562 -0.0011864267 0.9398259 0.6896203 -0.0012092557 0.93982893
        0.6937247 -0.0012321562 0.9398319 0.69741195 -0.0012513917 0.93983465
        0.7007464 -0.0012744789 0.9398372 0.70379174 -0.0013235827 0.93983954
        0.70659536 -0.0014167333 0.9398417 0.70919627 -0.0015437462 0.9398436
        0.4368725 -0.00048238345 0.9403762 0.45218283 -0.00048935437 0.94014263
        0.46741214 -0.0004963449 0.93998075 0.48248437 -0.0005033457 0.93987906
        0.4973264 -0.00051034923 0.9398224 0.5118696 -0.0005173468 0.9397947
        0.5260508 -0.0005243301 0.93978333 0.5398136 -0.0005312925 0.9397793
        0.5531087 -0.0005382284 0.9397781 0.56589484 -0.00054513314 0.93977857
        0.5781389 -0.00055200135 0.9397804 0.5898156 -0.00055882643 0.9397833
        0.60090774 -0.00056560023 0.93978685 0.6114052 -0.0005723134 0.9397906
        0.6213049 -0.00057895534 0.9397945 0.6306098 -0.00058551616 0.9397983
        0.6393281 -0.0005919913 0.939802 0.6474726 -0.0005983944 0.9398056
        0.6550597 -0.00060478644 0.93980926 0.662108 -0.00061133306 0.9398128
        0.66863745 -0.0006183986 0.9398163 0.67466706 -0.00062666053 0.9398198
        0.68021315 -0.0006371337 0.9398232 0.6852884 -0.0006507879 0.93982655
        0.6899043 -0.00066732184 0.9398297 0.6940802 -0.0006839473 0.93983275
        0.69785464 -0.00069848105 0.93983555 0.7012824 -0.0007180153 0.93983823
        0.7044165 -0.0007597004 0.93984073 0.7072983 -0.0008336554 0.93984294
        0.7099634 -0.0009265234 0.9398451 0.4368725 -1.4769682e-05 0.9403763
        0.45219132 -1.8440798e-05 0.94014263 0.46742928 -2.2109962e-05 0.93998075
        0.48251015 -2.57754e-05 0.93987906 0.49736094 -2.943708e-05 0.93982244
        0.5119129 -3.3094544e-05 0.93979484 0.5261028 -3.6746926e-05 0.93978345
        0.5398742 -4.0392984e-05 0.9397794 0.55317783 -4.403113e-05 0.9397782
        0.56597245 -4.7659356e-05 0.93977875 0.57822484 -5.1275118e-05 0.9397806
        0.58990973 -5.487522e-05 0.9397835 0.6010098 -5.845574e-05 0.93978703
        0.61151516 -6.201199e-05 0.93979084 0.6214226 -6.553874e-05 0.9397947
        0.63073504 -6.903099e-05 0.9397985 0.6394608 -7.2486575e-05 0.9398022
        0.6476128 -7.591289e-05 0.93980587 0.65520763 -7.934235e-05 0.9398095
        0.66226465 -8.286278e-05 0.9398131 0.6688047 -8.6668064e-05 0.9398166
        0.6748494 -9.1120564e-05 0.9398201 0.6804192 -9.6768345e-05 0.93982357
        0.68553287 -0.00010414374 0.9398269 0.6902084 -0.000113093556 0.9398302
        0.69446784 -0.0001221359 0.9398333 0.6983442 -0.00013042214 0.9398362
        0.7018794 -0.0001427841 0.93983895 0.7051138 -0.00016900295 0.93984157
        0.7080809 -0.00021252174 0.93984395 0.7108107 -0.00026262045 0.93984616
        0.4368725 0.00045284405 0.9403762 0.45219985 0.00045273147 0.94014245
        0.46744642 0.00045265348 0.93998045 0.48253608 0.00045260452 0.93987876
        0.4973956 0.00045257725 0.9398222 0.51195633 0.000452564 0.9397947
        0.52615505 0.00045255854 0.93978333 0.5399352 0.0004525566 0.9397793
        0.5532475 0.00045255604 0.9397781 0.5660507 0.0004525563 0.9397786
        0.5783115 0.00045255717 0.9397805 0.5900047 0.00045255857 0.9397834
        0.601113 0.00045256029 0.939787 0.6116264 0.00045256212 0.9397908
        0.62154174 0.00045256398 0.93979466 0.630862 0.00045256582 0.9397984
        0.6395955 0.00045256762 0.93980217 0.6477554 0.00045256937 0.9398058
        0.6553583 0.0004525711 0.93980944 0.6624243 0.00045257286 0.939813
        0.66897583 0.00045257458 0.9398166 0.6750369 0.00045257626 0.9398201
        0.6806328 0.00045257792 0.93982357 0.68578964 0.00045257955 0.93982697
        0.69053364 0.00045258115 0.9398303 0.69489086 0.0004525827 0.93983346
        0.69888693 0.00045258415 0.9398365 0.702547 0.00045258552 0.93983936
        0.7058951 0.00045258683 0.93984205 0.7089545 0.00045258802 0.93984455
        0.7117471 0.00045258913 0.9398469
        <InformationKey name="L2_NORM_RANGE" location="vtkDataArray" length="2">
          <Value index="0">
            1.0369016877
          </Value>
          <Value index="1">
            1.1789386322
          </Value>
        </InformationKey>
      </DataArray>
    </Points>
  </Piece>
  </StructuredGrid>
</VTKFile>
