<?xml version="1.0"?>
<VTKFile type="StructuredGrid" version="0.1" byte_order="LittleEndian">
    <StructuredGrid WholeExtent="0 30 0 40 0 0">
        <Piece Extent="0 30 0 40 0 0">
            <Points>
                <DataArray type="Float32" NumberOfComponents="3" format="ascii">
                       -0.3500000000000000       -0.0826680609377107    0.0
                       -0.3348889901488804       -0.0826680609377107    0.0
                       -0.3198553180536472       -0.0826680609377107    0.0
                       -0.3049747462814590       -0.0826680609377107    0.0
                       -0.2903199547116030       -0.0826680609377107    0.0
                       -0.2759591634688384       -0.0826680609377107    0.0
                       -0.2619549396850355       -0.0826680609377107    0.0
                       -0.2483632287454597       -0.0826680609377107    0.0
                       -0.2352326358625494       -0.0826680609377107    0.0
                       -0.2226039683724043       -0.0826680609377107    0.0
                       -0.2105100344386945       -0.0826680609377107    0.0
                       -0.1989756810180946       -0.0826680609377107    0.0
                       -0.1880180437980914       -0.0826680609377107    0.0
                       -0.1776469747897711       -0.0826680609377107    0.0
                       -0.1678656094070382       -0.0826680609377107    0.0
                       -0.1586710339459069       -0.0826680609377107    0.0
                       -0.1500550159302377       -0.0826680609377107    0.0
                       -0.1420047632269491       -0.0826680609377107    0.0
                       -0.1345036825319559       -0.0826680609377107    0.0
                       -0.1275321132003596       -0.0826680609377107    0.0
                       -0.1210680179365323       -0.0826680609377107    0.0
                       -0.1150876171768648       -0.0826680609377107    0.0
                       -0.1095659588116394       -0.0826680609377107    0.0
                       -0.1044774190334769       -0.0826680609377107    0.0
                       -0.0997961334918670       -0.0826680609377107    0.0
                       -0.0954963605727782       -0.0826680609377107    0.0
                       -0.0915527805572380       -0.0826680609377107    0.0
                       -0.0879407357235055       -0.0826680609377107    0.0
                       -0.0846364172409892       -0.0826680609377107    0.0
                       -0.0816170050617389       -0.0826680609377107    0.0
                       -0.0788607670443143       -0.0826680609377107    0.0
                       -0.3500000000000000       -0.0812097390981401    0.0
                       -0.3348705160441558       -0.0812096788825186    0.0
                       -0.3198184794586427       -0.0812095950948075    0.0
                       -0.3049197616171973       -0.0812094792736067    0.0
                       -0.2902471474519141       -0.0812093271215368    0.0
                       -0.2758689569153308       -0.0812091358768257    0.0
                       -0.2618478503728561       -0.0812089032265624    0.0
                       -0.2482398586298229       -0.0812086268262194    0.0
                       -0.2350936633950281       -0.0812083041029548    0.0
                       -0.2224501384683519       -0.0812079322219168    0.0
                       -0.2103421471889889       -0.0812075081834230    0.0
                       -0.1987945788551637       -0.0812070290596761    0.0
                       -0.1878245967539330       -0.0812064923937070    0.0
                       -0.1774420635542909       -0.0812058967770031    0.0
                       -0.1676501061566280       -0.0812052425990462    0.0
                       -0.1584457813540871       -0.0812045329258056    0.0
                       -0.1498208053048810       -0.0812037744261053    0.0
                       -0.1417623131838726       -0.0812029782375469    0.0
                       -0.1342536198332152       -0.0812021606628515    0.0
                       -0.1272749572213118       -0.0812013436215246    0.0
                       -0.1208041696363401       -0.0812005548519733    0.0
                       -0.1148173524909061       -0.0811998279617892    0.0
                       -0.1092894251682222       -0.0811992025521938    0.0
                       -0.1041946322725674       -0.0811987248107739    0.0
                       -0.0995069706434144       -0.0811984492340470    0.0
                       -0.0952005409218755       -0.0811984427024352    0.0
                       -0.0912498205524808       -0.0811987935926112    0.0
                       -0.0876298436131693       -0.0811996331711485    0.0
                       -0.0843162262016043       -0.0812011937112713    0.0
                       -0.0812847817169757       -0.0812040058640014    0.0
                       -0.0785096297318121       -0.0812097390981401    0.0
                       -0.3500000000000000       -0.0797514172585694    0.0
                       -0.3348519889384128       -0.0797512988942218    0.0
                       -0.3197815345729974       -0.0797511350122617    0.0
                       -0.3048646167710080       -0.0797509087433275    0.0
                       -0.2901741252081664       -0.0797506115216166    0.0
                       -0.2757784793629384       -0.0797502378546412    0.0
                       -0.2617404325425927       -0.0797497831511392    0.0
                       -0.2481161006922865       -0.0797492427609400    0.0
                       -0.2349542417456276       -0.0797486115826895    0.0
                       -0.2222957956926602       -0.0797478839984155    0.0
                       -0.2101736807482589       -0.0797470540716166    0.0
                       -0.1986128281829245       -0.0797461160275958    0.0
                       -0.1876304283783540       -0.0797450650629628    0.0
                       -0.1772363539318485       -0.0797438985187150    0.0
                       -0.1674337221705963       -0.0797426174041031    0.0
                       -0.1582195588860023       -0.0797412281852537    0.0
                       -0.1495855268359379       -0.0797397446750177    0.0
                       -0.1415186858624479       -0.0797381898052765    0.0
                       -0.1340022556686082       -0.0797365970613652    0.0
                       -0.1270163568914587       -0.0797350114277000    0.0
                       -0.1205387107850807       -0.0797334898371537    0.0
                       -0.1145452823982524       -0.0797321013259236    0.0
                       -0.1090108564148856       -0.0797309273579551    0.0
                       -0.1039095385418869       -0.0797300631260733    0.0
                       -0.0992151779360575       -0.0797296211783303    0.0
                       -0.0949017064821432       -0.0797297398281498    0.0
                       -0.0909433857616858       -0.0797306015637525    0.0
                       -0.0873149338150183       -0.0797324743830761    0.0
                       -0.0839914496431559       -0.0797358116979003    0.0
                       -0.0809479455682275       -0.0797415055391809    0.0
                       -0.0781584924193098       -0.0797514172585694    0.0
                       -0.3500000000000000       -0.0782930954189988    0.0
                       -0.3348334078350158       -0.0782929214835315    0.0
                       -0.3197444813828343       -0.0782926816161407    0.0
                       -0.3048093086571279       -0.0782923506701192    0.0
                       -0.2901008837325529       -0.0782919158664173    0.0
                       -0.2756877252724231       -0.0782913690261011    0.0
                       -0.2616326791899899       -0.0782907033231642    0.0
                       -0.2479919462403295       -0.0782899118487616    0.0
                       -0.2348143602558593       -0.0782889870257340    0.0
                       -0.2221409270864109       -0.0782879205136344    0.0
                       -0.2100046194686652       -0.0782867035109375    0.0
                       -0.1984304102330072       -0.0782853274846230    0.0
                       -0.1874355163300363       -0.0782837853996444    0.0
                       -0.1770298195712105       -0.0782820735020766    0.0
                       -0.1672164267175606       -0.0782801936378530    0.0
                       -0.1579923311921141       -0.0782781559779058    0.0
                       -0.1493491405274830       -0.0782759819023950    0.0
                       -0.1412738368900351       -0.0782737067125480    0.0
                       -0.1337495419580955       -0.0782713818356410    0.0
                       -0.1267562616214714       -0.0782690762935615    0.0
                       -0.1202715902021280       -0.0782668774224925    0.0
                       -0.1142713580904933       -0.0782648911459404    0.0
                       -0.1087302107310100       -0.0782632424945603    0.0
                       -0.1036221104685270       -0.0782620775651317    0.0
                       -0.0989207552197569       -0.0782615688634812    0.0
                       -0.0945999079390208       -0.0782619274125110    0.0
                       -0.0906336257973157       -0.0782634281808615    0.0
                       -0.0869963638694246       -0.0782664625095428    0.0
                       -0.0836629090829746       -0.0782716441837278    0.0
                       -0.0806081593731926       -0.0782799963538501    0.0
                       -0.0778073551068076       -0.0782930954189988    0.0
                       -0.3500000000000000       -0.0768347735794281    0.0
                       -0.3348147723938482       -0.0768345468894848    0.0
                       -0.3197073191912081       -0.0768342353009939    0.0
                       -0.3047538361816898       -0.0768338055869169    0.0
                       -0.2900274214697491       -0.0768332408358568    0.0
                       -0.2755966925349297       -0.0768325302399155    0.0
                       -0.2615245875288851       -0.0768316647910156    0.0
                       -0.2478673916505874       -0.0768306353766845    0.0
                       -0.2346740142657143       -0.0768294320049650    0.0
                       -0.2219855267134610       -0.0768280436823049    0.0
                       -0.2098349558635866       -0.0768264588225449    0.0
                       -0.1982473156733892       -0.0768246662299574    0.0
                       -0.1872398491429726       -0.0768226567557507    0.0
                       -0.1768224466325933       -0.0768204257024390    0.0
                       -0.1669982034523643       -0.0768179759534000    0.0
                       -0.1577640794743832       -0.0768153216552181    0.0
                       -0.1491116254558606       -0.0768124921203874    0.0
                       -0.1410277439242004       -0.0768095355036682    0.0
                       -0.1334954561503718       -0.0768065217996425    0.0
                       -0.1264946505230877       -0.0768035448479581    0.0
                       -0.1200027914303778       -0.0768007233211072    0.0
                       -0.1139955715971994       -0.0767982010830080    0.0
                       -0.1084474946849601       -0.0767961478100347    0.0
                       -0.1033323785588902       -0.0767947613753764    0.0
                       -0.0986237723599430       -0.0767942743343060    0.0
                       -0.0942952814454429       -0.0767949682314654    0.0
                       -0.0903207927071238       -0.0767972018729965    0.0
                       -0.0866745920923397       -0.0768014629348396    0.0
                       -0.0833313904392251       -0.0768084501525831    0.0
                       -0.0802664162923443       -0.0768191560708326    0.0
                       -0.0774562177943054       -0.0768347735794281    0.0
                       -0.3500000000000000       -0.0753764517398575    0.0
                       -0.3347960825027937       -0.0753761752454871    0.0
                       -0.3196700477585250       -0.0753757962605020    0.0
                       -0.3046981989427586       -0.0753752737316773    0.0
                       -0.2899537378001654       -0.0753745867210306    0.0
                       -0.2755053802345716       -0.0753737218622008    0.0
                       -0.2614161562412616       -0.0753726680267000    0.0
                       -0.2477424350658756       -0.0753714139614645    0.0
                       -0.2345332012077537       -0.0753699473289447    0.0
                       -0.2218295910913537       -0.0753682545604060    0.0
                       -0.2096646853036341       -0.0753663213737284    0.0
                       -0.1980635384850066       -0.0753641340125995    0.0
                       -0.1870434191848268       -0.0753616813346212    0.0
                       -0.1766142257127818       -0.0753589578443568    0.0
                       -0.1667790411747576       -0.0753559676447604    0.0
                       -0.1575347909247412       -0.0753527290912669    0.0
                       -0.1488729677108186       -0.0753492797296905    0.0
                       -0.1407803928926121       -0.0753456809532121    0.0
                       -0.1332399855262014       -0.0753420218030706    0.0
                       -0.1262315145018844       -0.0753384215076510    0.0
                       -0.1197323122927043       -0.0753350307089641    0.0
                       -0.1137179324017713       -0.0753320318255618    0.0
                       -0.1081627363655411       -0.0753296395892816    0.0
                       -0.1030404000094950       -0.0753281034467790    0.0
                       -0.0983243321783844       -0.0753277142739560    0.0
                       -0.0939880022165353       -0.0753288187721921    0.0
                       -0.0900051767262148       -0.0753318456653119    0.0
                       -0.0863500800327524       -0.0753373459952271    0.0
                       -0.0829975418812706       -0.0753460365340174    0.0
                       -0.0799233262680069       -0.0753587917882596    0.0
                       -0.0771050804818032       -0.0753764517398575    0.0
                       -0.3500000000000000       -0.0739181299002868    0.0
                       -0.3347773381033617       -0.0739178066403610    0.0
                       -0.3196326669525959       -0.0739173646083968    0.0
                       -0.3046423967008727       -0.0739167552283404    0.0
                       -0.2898798323241690       -0.0739159536651606    0.0
                       -0.2754137877365089       -0.0739149440772599    0.0
                       -0.2613073843561210       -0.0739137132862266    0.0
                       -0.2476170750483087       -0.0739122479693242    0.0
                       -0.2343919190141054       -0.0739105335206835    0.0
                       -0.2216731173275954       -0.0739085538826904    0.0
                       -0.2094938038528783       -0.0739062921739362    0.0
                       -0.1978790734632448       -0.0739037321856685    0.0
                       -0.1868462197828863       -0.0739008609034194    0.0
                       -0.1764051485477172       -0.0738976721722811    0.0
                       -0.1665589300526722       -0.0738941714760431    0.0
                       -0.1573044544036563       -0.0738903815710552    0.0
                       -0.1486331554528491       -0.0738863484682063    0.0
                       -0.1405317723391658       -0.0738821470771865    0.0
                       -0.1329831207261222       -0.0738778858087490    0.0
                       -0.1259668488353705       -0.0738737096275123    0.0
                       -0.1194601563516753       -0.0738698014601144    0.0
                       -0.1134384575472018       -0.0738663824336925    0.0
                       -0.1078759737649693       -0.0738637120584778    0.0
                       -0.1027462447076893       -0.0738620900908313    0.0
                       -0.0980225527484788       -0.0738618623295647    0.0
                       -0.0936782603721605       -0.0738634327489500    0.0
                       -0.0896870710610893       -0.0738672831160650    0.0
                       -0.0860232471164965       -0.0738739953384507    0.0
                       -0.0826618669706061       -0.0738842547735398    0.0
                       -0.0795792748326197       -0.0738987826127706    0.0
                       -0.0767539431693010       -0.0739181299002868    0.0
                       -0.3500000000000000       -0.0724598080607162    0.0
                       -0.3347585391253539       -0.0724594411414158    0.0
                       -0.3195951766175205       -0.0724589404235997    0.0
                       -0.3045864291806822       -0.0724582501542094    0.0
                       -0.2898057045939555       -0.0724573417532451    0.0
                       -0.2753219143454074       -0.0724561969994504    0.0
                       -0.2611982708296926       -0.0724548007436060    0.0
                       -0.2474913100751205       -0.0724531376719627    0.0
                       -0.2342501655203197       -0.0724511909955255    0.0
                       -0.2215161024223568       -0.0724489422623134    0.0
                       -0.2093223074593400       -0.0724463720960245    0.0
                       -0.1976939152829705       -0.0724434619491915    0.0
                       -0.1866482441477653       -0.0724401970574682    0.0
                       -0.1761952067758202       -0.0724365707365752    0.0
                       -0.1663378602022304       -0.0724325899895273    0.0
                       -0.1570730588090844       -0.0724282821214301    0.0
                       -0.1483921770372219       -0.0724237017661933    0.0
                       -0.1402818712610918       -0.0724189375148370    0.0
                       -0.1327248532468866       -0.0724141173052846    0.0
                       -0.1257006502563366       -0.0724094119514626    0.0
                       -0.1191863294744570       -0.0724050366496092    0.0
                       -0.1131571675140349       -0.0724012509206367    0.0
                       -0.1075872496733900       -0.0723983580994185    0.0
                       -0.1024499885827193       -0.0723967060025551    0.0
                       -0.0977185581362106       -0.0723966905627128    0.0
                       -0.0933662473233674       -0.0723987634789477    0.0
                       -0.0893667529161374       -0.0724034419488242    0.0
                       -0.0856944545409913       -0.0724113106941511    0.0
                       -0.0823247471296442       -0.0724229921082655    0.0
                       -0.0792345129089405       -0.0724390493962342    0.0
                       -0.0764028058567988       -0.0724598080607162    0.0
                       -0.3500000000000000       -0.0710014862211455    0.0
                       -0.3347396854670467       -0.0710010788036944    0.0
                       -0.3195575765339702       -0.0710005237678609    0.0
                       -0.3045302960109562       -0.0709997585661253    0.0
                       -0.2897313540325935       -0.0709987510468276    0.0
                       -0.2752297592025093       -0.0709974807165354    0.0
                       -0.2610888144191664       -0.0709959305427399    0.0
                       -0.2473651383873117       -0.0709940833069174    0.0
                       -0.2341079382867460       -0.0709919201299167    0.0
                       -0.2213585430598534       -0.0709894202679236    0.0
                       -0.2091501917129784       -0.0709865619616102    0.0
                       -0.1975080582188475       -0.0709833244437023    0.0
                       -0.1864494850505694       -0.0709796913221425    0.0
                       -0.1759843915649139       -0.0709756555039162    0.0
                       -0.1661158212551397       -0.0709712256250421    0.0
                       -0.1568405925720417       -0.0709664336403210    0.0
                       -0.1481500204212202       -0.0709613428869304    0.0
                       -0.1400306784051007       -0.0709560556834256    0.0
                       -0.1324651745938418       -0.0709507194805715    0.0
                       -0.1254329159117163       -0.0709455308127962    0.0
                       -0.1189108385169540       -0.0709407367953420    0.0
                       -0.1128740844882666       -0.0709366345638492    0.0
                       -0.1072966092729301       -0.0709335696835817    0.0
                       -0.1021517100587663       -0.0709319349213420    0.0
                       -0.0974124729541211       -0.0709321705189953    0.0
                       -0.0930521476870050       -0.0709347655668824    0.0
                       -0.0890444741326210       -0.0709402560634628    0.0
                       -0.0853640040325830       -0.0709492076851783    0.0
                       -0.0819864687647572       -0.0709621630204494    0.0
                       -0.0788892086063362       -0.0709795382204585    0.0
                       -0.0760516685442966       -0.0710014862211455    0.0
                       -0.3500000000000000       -0.0695431643815748    0.0
                       -0.3347207769932998       -0.0695427196740585    0.0
                       -0.3195198664154764       -0.0695421146931946    0.0
                       -0.3044739967191089       -0.0695412805113633    0.0
                       -0.2896567799268371       -0.0695401815984161    0.0
                       -0.2751373212767665       -0.0695387953076306    0.0
                       -0.2609790136721683       -0.0695371028188718    0.0
                       -0.2472385579774620       -0.0695350851024772    0.0
                       -0.2339652345846241       -0.0695327212897252    0.0
                       -0.2212004355925570       -0.0695299884553434    0.0
                       -0.2089774518276530       -0.0695268625760778    0.0
                       -0.1973214961242913       -0.0695233207885743    0.0
                       -0.1862499347974377       -0.0695193451946301    0.0
                       -0.1757726935799051       -0.0695149284027456    0.0
                       -0.1658928023154578       -0.0695100807696320    0.0
                       -0.1566070435959881       -0.0695048389516032    0.0
                       -0.1479066730760235       -0.0694992749884933    0.0
                       -0.1397781821358987       -0.0694935048498333    0.0
                       -0.1322040760806822       -0.0694876953081814    0.0
                       -0.1251636430514910       -0.0694820682439246    0.0
                       -0.1186336908294323       -0.0694769020063103    0.0
                       -0.1125892315558064       -0.0694725301192362    0.0
                       -0.1070040987969393       -0.0694693382020476    0.0
                       -0.1018514878169218       -0.0694677601611963    0.0
                       -0.0971044187913536       -0.0694682740709087    0.0
                       -0.0927361344520195       -0.0694713960715726    0.0
                       -0.0887204575737691       -0.0694776664289545    0.0
                       -0.0850321432280438       -0.0694876163030402    0.0
                       -0.0816472469607461       -0.0695017023191604    0.0
                       -0.0785434777157145       -0.0695202110634314    0.0
                       -0.0757005312317944       -0.0695431643815748    0.0
                       -0.3500000000000000       -0.0680848425420042    0.0
                       -0.3347018135398655       -0.0680843637932052    0.0
                       -0.3194820459171659       -0.0680837132452774    0.0
                       -0.3044175307445678       -0.0680828160324980    0.0
                       -0.2895819814454247       -0.0680816334578683    0.0
                       -0.2750445993884656       -0.0680801408511249    0.0
                       -0.2608688669562088       -0.0680783177080269    0.0
                       -0.2471115666256009       -0.0680761432886047    0.0
                       -0.2338220514390654       -0.0680735948426075    0.0
                       -0.2210417760920153       -0.0680706473813432    0.0
                       -0.2088040827004557       -0.0680672747437368    0.0
                       -0.1971342224997696       -0.0680634520985867    0.0
                       -0.1860495853067827       -0.0680591601620359    0.0
                       -0.1755601030680366       -0.0680543913431916    0.0
                       -0.1656687920504687       -0.0680491577798849    0.0
                       -0.1563723993486251       -0.0680435008309057    0.0
                       -0.1476621220710954       -0.0680375011548773    0.0
                       -0.1395243704990555       -0.0680312881701064    0.0
                       -0.1319415488471117       -0.0680250476005475    0.0
                       -0.1248928289610293       -0.0680190260520035    0.0
                       -0.1183548940349260       -0.0680135320958000    0.0
                       -0.1123026322105435       -0.0680089339978574    0.0
                       -0.1067097645811963       -0.0680056547486526    0.0
                       -0.1015493991415767       -0.0680041650614704    0.0
                       -0.0967945117145882       -0.0680049740818647    0.0
                       -0.0924183662408524       -0.0680086152592768    0.0
                       -0.0883948968504546       -0.0680156212493637    0.0
                       -0.0846990733067757       -0.0680264789441299    0.0
                       -0.0813072440017882       -0.0680415599292449    0.0
                       -0.0781974020500473       -0.0680610403300345    0.0
                       -0.0753493939192922       -0.0680848425420042    0.0
                       -0.3500000000000000       -0.0666265207024336    0.0
                       -0.3346827949191278       -0.0666260111967372    0.0
                       -0.3194441146473597       -0.0666253194650445    0.0
                       -0.3043608974564625       -0.0666243651695859    0.0
                       -0.2895069576632062       -0.0666231066752156    0.0
                       -0.2749515922402665       -0.0666215174281566    0.0
                       -0.2607583724972343       -0.0666195753511185    0.0
                       -0.2469841619460129       -0.0666172581016537    0.0
                       -0.2336783856849690       -0.0666145411633042    0.0
                       -0.2208825604148105       -0.0666113976094733    0.0
                       -0.2086300789886273       -0.0666077992741861    0.0
                       -0.1969462305813972       -0.0666037194908622    0.0
                       -0.1858484282098036       -0.0665991377090184    0.0
                       -0.1753466099706697       -0.0665940462257328    0.0
                       -0.1654437788115695       -0.0665884589922612    0.0
                       -0.1561366469873052       -0.0665824220187312    0.0
                       -0.1474163541957712       -0.0665760244138641    0.0
                       -0.1392692313244600       -0.0665694087153188    0.0
                       -0.1316775839202127       -0.0665627790481728    0.0
                       -0.1246204709405953       -0.0665564058803430    0.0
                       -0.1180744558615498       -0.0665506266795770    0.0
                       -0.1120143099363879       -0.0665458424243496    0.0
                       -0.1064136522515268       -0.0665425103730153    0.0
                       -0.1012455185783190       -0.0665411333712744    0.0
                       -0.0964828604906202       -0.0665422449127032    0.0
                       -0.0920989859836088       -0.0665463870332714    0.0
                       -0.0880679578640497       -0.0665540756946701    0.0
                       -0.0843649567397663       -0.0665657484542189    0.0
                       -0.0809665831462634       -0.0665816970823978    0.0
                       -0.0778510407206382       -0.0666020055288937    0.0
                       -0.0749982566067900       -0.0666265207024336    0.0
                       -0.3500000000000000       -0.0651681988628629    0.0
                       -0.3346637209255018       -0.0651676619157280    0.0
                       -0.3194060721784750       -0.0651669333893519    0.0
                       -0.3043040961702399       -0.0651659279609703    0.0
                       -0.2894317075837953       -0.0651646013016553    0.0
                       -0.2748582984463337       -0.0651629251237954    0.0
                       -0.2606475284158133       -0.0651608758953196    0.0
                       -0.2468563414311769       -0.0651584297859013    0.0
                       -0.2335342340195282       -0.0651555606352889    0.0
                       -0.2207227842645222       -0.0651522397118244    0.0
                       -0.2084554351818243       -0.0651484369841688    0.0
                       -0.1967575134241376       -0.0651441240868560    0.0
                       -0.1856464549447435       -0.0651392793200742    0.0
                       -0.1751322040277505       -0.0651338949441291    0.0
                       -0.1652177507464790       -0.0651279867273291    0.0
                       -0.1558997734739649       -0.0651216052272005    0.0
                       -0.1471693560679394       -0.0651148477483031    0.0
                       -0.1390127523136578       -0.0651078694907218    0.0
                       -0.1314121722558185       -0.0651008922520667    0.0
                       -0.1243465662613771       -0.0650942092628145    0.0
                       -0.1177923839522081       -0.0650881852659117    0.0
                       -0.1117242877835212       -0.0650832515827520    0.0
                       -0.1061158059670830       -0.0650798963071689    0.0
                       -0.1009399168101509       -0.0650786495713129    0.0
                       -0.0961695653544462       -0.0650800627895921    0.0
                       -0.0917781205468321       -0.0650846791216480    0.0
                       -0.0877397812141386       -0.0650929914006437    0.0
                       -0.0840299242396218       -0.0651053863755649    0.0
                       -0.0806253586361064       -0.0651220835626562    0.0
                       -0.0775044372276477       -0.0651430911811375    0.0
                       -0.0746471192942878       -0.0651681988628629    0.0
                       -0.3500000000000000       -0.0637098770232922    0.0
                       -0.3346445913399650       -0.0637093159769772    0.0
                       -0.3193679180561739       -0.0637085550510933    0.0
                       -0.3042471261616071       -0.0637075044432854    0.0
                       -0.2893562301585855       -0.0637061173894831    0.0
                       -0.2747647165568124       -0.0637043640269159    0.0
                       -0.2605363327575674       -0.0637022194938570    0.0
                       -0.2467281024887674       -0.0636996585932405    0.0
                       -0.2333895930465150       -0.0636966536503417    0.0
                       -0.2205624432440479       -0.0636931742684388    0.0
                       -0.2082801456631760       -0.0636891886968282    0.0
                       -0.1965680639720420       -0.0636846670115151    0.0
                       -0.1854436568361857       -0.0636795864787683    0.0
                       -0.1749168748649920       -0.0636739393850744    0.0
                       -0.1649906958914113       -0.0636677432905473    0.0
                       -0.1556617656666976       -0.0636610531432085    0.0
                       -0.1469211142153121       -0.0636539741037144    0.0
                       -0.1387549210949470       -0.0636466734511835    0.0
                       -0.1311453047423618       -0.0636393897524027    0.0
                       -0.1240711120797901       -0.0636324376740681    0.0
                       -0.1175086856341815       -0.0636262073397339    0.0
                       -0.1114325879239869       -0.0636211577510557    0.0
                       -0.1058162677059685       -0.0636178041662605    0.0
                       -0.1006326597219687       -0.0636166991363834    0.0
                       -0.0958547172084047       -0.0636184060544023    0.0
                       -0.0914558809864033       -0.0636234630948446    0.0
                       -0.0874104848951721       -0.0636323358720762    0.0
                       -0.0836940806182809       -0.0636453614587773    0.0
                       -0.0802836428999349       -0.0636626957159324    0.0
                       -0.0771576240196012       -0.0636842854606340    0.0
                       -0.0742959819817856       -0.0637098770232922    0.0
                       -0.3500000000000000       -0.0622515551837216    0.0
                       -0.3346254059336819       -0.0622509734030698    0.0
                       -0.3193296518066783       -0.0622501844789796    0.0
                       -0.3041899866776853       -0.0622490946509778    0.0
                       -0.2892805243019743       -0.0622476549913861    0.0
                       -0.2746708450774464       -0.0622458342292721    0.0
                       -0.2604247835176093       -0.0622436063048557    0.0
                       -0.2465994424714315       -0.0622409447817702    0.0
                       -0.2332444593119962       -0.0622378206068567    0.0
                       -0.2204015328978867       -0.0622342018653153    0.0
                       -0.2081042047586756       -0.0622300552394110    0.0
                       -0.1963778751149992       -0.0622253493907420    0.0
                       -0.1852400251587922       -0.0622200606651256    0.0
                       -0.1747006120631152       -0.0622141814258962    0.0
                       -0.1647626022425160       -0.0622077309710037    0.0
                       -0.1554226103872641       -0.0622007684294566    0.0
                       -0.1466716151286902       -0.0621934063937352    0.0
                       -0.1384957252459648       -0.0621858235144448    0.0
                       -0.1308769721676994       -0.0621782740548398    0.0
                       -0.1237941053121512       -0.0621710925767752    0.0
                       -0.1172233676534989       -0.0621646924416580    0.0
                       -0.1111392311951099       -0.0621595574245927    0.0
                       -0.1055150766011922       -0.0621562261235826    0.0
                       -0.1003238076394399       -0.0621552687433731    0.0
                       -0.0955383971601940       -0.0621572553198576    0.0
                       -0.0911323631814243       -0.0621627142714803    0.0
                       -0.0870801669514487       -0.0621720818721893    0.0
                       -0.0833575095519890       -0.0621856484382757    0.0
                       -0.0799414917250782       -0.0622035150054490    0.0
                       -0.0768106254892913       -0.0622255792835328    0.0
                       -0.0739448446692834       -0.0622515551837216    0.0
                       -0.3500000000000000       -0.0607932333441509    0.0
                       -0.3346061644708403       -0.0607926342123032    0.0
                       -0.3192912729424971       -0.0607918216971146    0.0
                       -0.3041326769457460       -0.0607906986155408    0.0
                       -0.2892045889033030       -0.0607892141593650    0.0
                       -0.2745766824849962       -0.0607873358241073    0.0
                       -0.2603128786597944       -0.0607850364896280    0.0
                       -0.2464703587003168       -0.0607822886137382    0.0
                       -0.2330988293326434       -0.0607790619074092    0.0
                       -0.2202400487457463       -0.0607753230915879    0.0
                       -0.2079276067764894       -0.0607710374400609    0.0
                       -0.1961869397338314       -0.0607661723478639    0.0
                       -0.1850355511876068       -0.0607607033519504    0.0
                       -0.1744834052116166       -0.0607546229311281    0.0
                       -0.1645334578094552       -0.0607479520389601    0.0
                       -0.1551822944679427       -0.0607407537242655    0.0
                       -0.1464208452913224       -0.0607331475043267    0.0
                       -0.1382351522888464       -0.0607253225730687    0.0
                       -0.1306071651554674       -0.0607175476552927    0.0
                       -0.1235155424784718       -0.0607101754664437    0.0
                       -0.1169364358858528       -0.0607036402420645    0.0
                       -0.1108442366450374       -0.0606984474281920    0.0
                       -0.1052122683375864       -0.0606951550608059    0.0
                       -0.1000134147280958       -0.0606943464311032    0.0
                       -0.0952206763186445       -0.0606965935510758    0.0
                       -0.0908076486721556       -0.0607024115577941    0.0
                       -0.0867489079154725       -0.0607122068455453    0.0
                       -0.0830202773731301       -0.0607262270437698    0.0
                       -0.0795989479770713       -0.0607445269566052    0.0
                       -0.0764634599816036       -0.0607669656831507    0.0
                       -0.0735937073567812       -0.0607932333441509    0.0
                       -0.3500000000000000       -0.0593349115045803    0.0
                       -0.3345868667108553       -0.0593342984185310    0.0
                       -0.3192527809668757       -0.0593334667244526    0.0
                       -0.3040751961800064       -0.0593323163645918    0.0
                       -0.2891284228361608       -0.0593307949434545    0.0
                       -0.2744822272392810       -0.0593288689045189    0.0
                       -0.2602006161318081       -0.0593265102106646    0.0
                       -0.2463408484835808       -0.0593236903531388    0.0
                       -0.2329526996180956       -0.0593203779559426    0.0
                       -0.2200779863091818       -0.0593165385362736    0.0
                       -0.2077503460381702       -0.0593121361241328    0.0
                       -0.1959952507360403       -0.0593071369995810    0.0
                       -0.1848302262375998       -0.0593015160005974    0.0
                       -0.1742652439501560       -0.0592952657484883    0.0
                       -0.1643032506547334       -0.0592884087427871    0.0
                       -0.1549408047819661       -0.0592810116407547    0.0
                       -0.1461687911894274       -0.0592732002973112    0.0
                       -0.1379731896641398       -0.0592651735056134    0.0
                       -0.1303358740786989       -0.0592572130635544    0.0
                       -0.1232354195252321       -0.0592496879140185    0.0
                       -0.1166478950363453       -0.0592430506102245    0.0
                       -0.1105476210936121       -0.0592378250171335    0.0
                       -0.1049078746165358       -0.0592345846949587    0.0
                       -0.0997015285341906       -0.0592339217191609    0.0
                       -0.0949016157755409       -0.0592364060929978    0.0
                       -0.0904818055766001       -0.0592425372540261    0.0
                       -0.0864167729499489       -0.0592526923986531    0.0
                       -0.0826824360427615       -0.0592670812123744    0.0
                       -0.0792560442819437       -0.0592857203813162    0.0
                       -0.0761161411617514       -0.0593084393720510    0.0
                       -0.0732425700442790       -0.0593349115045803    0.0
                       -0.3500000000000000       -0.0578765896650096    0.0
                       -0.3345675124100804       -0.0578759660309539    0.0
                       -0.3192141753772520       -0.0578751195741967    0.0
                       -0.3040175435869131       -0.0578739479208817    0.0
                       -0.2890520249656340       -0.0578723973903572    0.0
                       -0.2743874777925938       -0.0578704335617139    0.0
                       -0.2600879938770111       -0.0578680276295053    0.0
                       -0.2462109091309955       -0.0578651502631738    0.0
                       -0.2328060666886928       -0.0578617691547860    0.0
                       -0.2199153411328169       -0.0578578487848390    0.0
                       -0.2075724169035849       -0.0578533521103124    0.0
                       -0.1958028010843011       -0.0578482444517018    0.0
                       -0.1846240416948811       -0.0578425000565129    0.0
                       -0.1740461180003893       -0.0578361117046123    0.0
                       -0.1640719689220814       -0.0578291033056367    0.0
                       -0.1546981282614500       -0.0578215447657446    0.0
                       -0.1459154393085636       -0.0578135676135760    0.0
                       -0.1377098246892140       -0.0578053791873117    0.0
                       -0.1300630889578545       -0.0577972728259482    0.0
                       -0.1229537316360603       -0.0577896316062873    0.0
                       -0.1163577483386105       -0.0577829236783638    0.0
                       -0.1102493987184808       -0.0577776879671046    0.0
                       -0.1046019226902595       -0.0577745096842155    0.0
                       -0.0993881896453563       -0.0577739856930223    0.0
                       -0.0945812667118089       -0.0577766806603424    0.0
                       -0.0901548894998763       -0.0577830768511842    0.0
                       -0.0860838136691388       -0.0577935238481819    0.0
                       -0.0823440254527956       -0.0578081984667953    0.0
                       -0.0789128049634623       -0.0578270868051242    0.0
                       -0.0757686789585817       -0.0578499964308125    0.0
                       -0.0728914327317768       -0.0578765896650096    0.0
                       -0.3500000000000000       -0.0564182678254390    0.0
                       -0.3345481013231383       -0.0564176370538782    0.0
                       -0.3191754556679474       -0.0564167802531720    0.0
                       -0.3039597183692645       -0.0564155933012851    0.0
                       -0.2889753941539794       -0.0564140215420602    0.0
                       -0.2742924325970996       -0.0564120298832582    0.0
                       -0.2599750098437948       -0.0564095889045928    0.0
                       -0.2460805379655511       -0.0564066686036942    0.0
                       -0.2326589270896549       -0.0564032359016614    0.0
                       -0.2197521088014033       -0.0563992544157508    0.0
                       -0.2073938137910175       -0.0563946862067175    0.0
                       -0.1956095838194097       -0.0563894957948649    0.0
                       -0.1844169890415576       -0.0563836569447447    0.0
                       -0.1738260171905631       -0.0563771626007601    0.0
                       -0.1638396008566192       -0.0563700379220766    0.0
                       -0.1544542519060593       -0.0563623556585836    0.0
                       -0.1456607761197830       -0.0563542522761223    0.0
                       -0.1374450445060071       -0.0563459425003625    0.0
                       -0.1297887993493214       -0.0563377295470286    0.0
                       -0.1226704730377434       -0.0563300083839938    0.0
                       -0.1160659972615527       -0.0563232599005499    0.0
                       -0.1099495806727900       -0.0563180346535653    0.0
                       -0.1042944349629560       -0.0563149257148523    0.0
                       -0.0990734314475289       -0.0563145310624494    0.0
                       -0.0942596705768053       -0.0563174073036891    0.0
                       -0.0898269443800045       -0.0563240188339721    0.0
                       -0.0857500696453848       -0.0563346898384351    0.0
                       -0.0820050751865207       -0.0563495694293335    0.0
                       -0.0785692474386469       -0.0563686200436246    0.0
                       -0.0754210802173165       -0.0563916340852263    0.0
                       -0.0725402954192746       -0.0564182678254390    0.0
                       -0.3500000000000000       -0.0549599459858683    0.0
                       -0.3345286332039626       -0.0549593114864504    0.0
                       -0.3191366213322713       -0.0549584487611971    0.0
                       -0.3039017197294412       -0.0549572525158082    0.0
                       -0.2888985292650859       -0.0549556674344906    0.0
                       -0.2741970901106828       -0.0549536579513600    0.0
                       -0.2598616619930228       -0.0549511941891771    0.0
                       -0.2459497323327522       -0.0549482456286993    0.0
                       -0.2325112774025286       -0.0549447785867553    0.0
                       -0.2195882849536878       -0.0549407559971015    0.0
                       -0.2072145311935807       -0.0549361392070850    0.0
                       -0.1954155920789934       -0.0549308921003450    0.0
                       -0.1842090598757819       -0.0549249880655545    0.0
                       -0.1736049314746775       -0.0549184202086137    0.0
                       -0.1636061348189511       -0.0549112147548019    0.0
                       -0.1542091627850055       -0.0549034468500024    0.0
                       -0.1454047880587502       -0.0548952570930226    0.0
                       -0.1371788360220830       -0.0548868663438422    0.0
                       -0.1295129942293275       -0.0548785859102477    0.0
                       -0.1223856368074815       -0.0548708202775046    0.0
                       -0.1157726412297469       -0.0548640601063287    0.0
                       -0.1096481747377419       -0.0548588641210871    0.0
                       -0.1039854286529792       -0.0548558295718682    0.0
                       -0.0987572799549239       -0.0548555521994999    0.0
                       -0.0939368592995197       -0.0548585783624432    0.0
                       -0.0894980032349387       -0.0548653545000111    0.0
                       -0.0854155696210344       -0.0548761820253664    0.0
                       -0.0816656058419923       -0.0548911874467450    0.0
                       -0.0782253832121250       -0.0549103158909349    0.0
                       -0.0750733491469634       -0.0549333505472429    0.0
                       -0.0721891581067724       -0.0549599459858683    0.0
                       -0.3500000000000000       -0.0535016241462977    0.0
                       -0.3345091078066123       -0.0535009893223814    0.0
                       -0.3190976718641735       -0.0535001250904650    0.0
                       -0.3038435468719486       -0.0534989255666296    0.0
                       -0.2888214291680025       -0.0534973350962141    0.0
                       -0.2741014488015967       -0.0534953178412219    0.0
                       -0.2597479483039935       -0.0534928436293021    0.0
                       -0.2458184896081333       -0.0534898815839385    0.0
                       -0.2323631142545232       -0.0534863975899065    0.0
                       -0.2194238652938133       -0.0534823540833621    0.0
                       -0.2070345636927841       -0.0534777118870960    0.0
                       -0.1952208191129852       -0.0534724344160064    0.0
                       -0.1840002459281574       -0.0534664947901841    0.0
                       -0.1733828509476044       -0.0534598862662179    0.0
                       -0.1633715592948542       -0.0534526359314574    0.0
                       -0.1539628480344198       -0.0534448208410204    0.0
                       -0.1451474615003705       -0.0534365848602648    0.0
                       -0.1369111858482096       -0.0534281536431722    0.0
                       -0.1292356618772594       -0.0534198446974538    0.0
                       -0.1220992146859886       -0.0534120695398432    0.0
                       -0.1154776773616933       -0.0534053255490902    0.0
                       -0.1093451850109065       -0.0534001761433437    0.0
                       -0.1036749155083587       -0.0533972191957697    0.0
                       -0.0984397536915117       -0.0533970451617092    0.0
                       -0.0936128554995804       -0.0534001884129235    0.0
                       -0.0891680887903238       -0.0534070778014908    0.0
                       -0.0850803324510471       -0.0534179948224570    0.0
                       -0.0813256299997611       -0.0534330483061118    0.0
                       -0.0778812185658070       -0.0534521718942091    0.0
                       -0.0747254876167953       -0.0534751449035175    0.0
                       -0.0718380207942702       -0.0535016241462977    0.0
                       -0.3500000000000000       -0.0520433023067270    0.0
                       -0.3344895248859142       -0.0520426705496578    0.0
                       -0.3190586067595422       -0.0520418092249366    0.0
                       -0.3037851990054223       -0.0520406124471770    0.0
                       -0.2887440927397332       -0.0520390245471935    0.0
                       -0.2740055071521787       -0.0520370096194696    0.0
                       -0.2596338667792467       -0.0520345373618838    0.0
                       -0.2456868072033777       -0.0520315767046138    0.0
                       -0.2322144343261958       -0.0520280932779140    0.0
                       -0.2192588456007968       -0.0520240492122725    0.0
                       -0.2068539059698952       -0.0520194050008504    0.0
                       -0.1950252582966080       -0.0520141237624259    0.0
                       -0.1837905390753794       -0.0520081784567739    0.0
                       -0.1731597658572224       -0.0520015624740730    0.0
                       -0.1631358629018616       -0.0519943035415728    0.0
                       -0.1537152948517100       -0.0519864801018628    0.0
                       -0.1448887827309719       -0.0519782383644178    0.0
                       -0.1366420802350479       -0.0519698073590109    0.0
                       -0.1289567897615797       -0.0519615088070309    0.0
                       -0.1218111968999594       -0.0519537586769119    0.0
                       -0.1151811002286405       -0.0519470579491835    0.0
                       -0.1090406116295049       -0.0519419712744917    0.0
                       -0.1033629015671696       -0.0519390937278598    0.0
                       -0.0981208636049233       -0.0519390077051430    0.0
                       -0.0932876726737388       -0.0519422342177153    0.0
                       -0.0888372139771130       -0.0519491852126697    0.0
                       -0.0847443678012896       -0.0519601252032256    0.0
                       -0.0809851528962075       -0.0519751500264082    0.0
                       -0.0775367550091657       -0.0519941871961654    0.0
                       -0.0743774953363305       -0.0520170170409188    0.0
                       -0.0714868834817680       -0.0520433023067270    0.0
                       -0.3500000000000000       -0.0505849804671564    0.0
                       -0.3344698841979631       -0.0505843551502372    0.0
                       -0.3190194255172245       -0.0505835011397424    0.0
                       -0.3037266753442096       -0.0505823131412374    0.0
                       -0.2886665188674589       -0.0505807357975964    0.0
                       -0.2739092636618246       -0.0505787333426449    0.0
                       -0.2595194154484551       -0.0505762755128736    0.0
                       -0.2455546825713328       -0.0505733312131844    0.0
                       -0.2320652343578266       -0.0505698660019532    0.0
                       -0.2190932217364885       -0.0505658419018598    0.0
                       -0.2066725528155689       -0.0505612192774818    0.0
                       -0.1948289031414266       -0.0505559611291532    0.0
                       -0.1835799313517886       -0.0505500403664281    0.0
                       -0.1729356666143825       -0.0505434504913422    0.0
                       -0.1628990343937512       -0.0505362196335569    0.0
                       -0.1534664904881931       -0.0505284270708182    0.0
                       -0.1446287379197046       -0.0505202203850180    0.0
                       -0.1363715050110795       -0.0505118304954211    0.0
                       -0.1286763644309153       -0.0505035812704910    0.0
                       -0.1215215719965745       -0.0504958904747353    0.0
                       -0.1148829016355816       -0.0504892595318428    0.0
                       -0.1087344505268291       -0.0504842508927177    0.0
                       -0.1030493869542891       -0.0504814535461662    0.0
                       -0.0978006129965963       -0.0504814392911825    0.0
                       -0.0929613153399092       -0.0504847146807499    0.0
                       -0.0885053822941668       -0.0504916756248905    0.0
                       -0.0844076766243785       -0.0505025725554286    0.0
                       -0.0806441728467113       -0.0505174927143238    0.0
                       -0.0771919895329269       -0.0505363624333406    0.0
                       -0.0740293699398012       -0.0505589676021445    0.0
                       -0.0711357461692658       -0.0505849804671564    0.0
                       -0.3500000000000000       -0.0491266586275857    0.0
                       -0.3344501855005167       -0.0491260430997319    0.0
                       -0.3189801276398244       -0.0491252008005915    0.0
                       -0.3036679751096149       -0.0491240276220966    0.0
                       -0.2885887064502975       -0.0491224688466544    0.0
                       -0.2738127168493741       -0.0491204890557635    0.0
                       -0.2594045923715835       -0.0491180581954905    0.0
                       -0.2454221132101414       -0.0491151453172561    0.0
                       -0.2319155111547521       -0.0491117160950992    0.0
                       -0.2189269896523182       -0.0491077326475648    0.0
                       -0.2064904991381063       -0.0491031554178890    0.0
                       -0.1946317473048992       -0.0490979474710907    0.0
                       -0.1833684149593572       -0.0490920817793906    0.0
                       -0.1727105438013484       -0.0490855519321329    0.0
                       -0.1626610626637557       -0.0490783862116885    0.0
                       -0.1532164222410608       -0.0490706641529606    0.0
                       -0.1443673130905345       -0.0490625336965515    0.0
                       -0.1360994455235358       -0.0490542261071544    0.0
                       -0.1283943714124130       -0.0490460652673319    0.0
                       -0.1212303266920568       -0.0490384680235839    0.0
                       -0.1145830704252597       -0.0490319330600358    0.0
                       -0.1084266932194182       -0.0490270172367047    0.0
                       -0.1027343657067170       -0.0490243002939059    0.0
                       -0.0974789974549629       -0.0490243410901423    0.0
                       -0.0926337791259613       -0.0490276308112534    0.0
                       -0.0881725880343611       -0.0490345502697109    0.0
                       -0.0840702514303859       -0.0490453385827335    0.0
                       -0.0803026814486002       -0.0490600784761837    0.0
                       -0.0768469146921909       -0.0490786996820977    0.0
                       -0.0736811069864822       -0.0491009979673338    0.0
                       -0.0707846088567635       -0.0491266586275857    0.0
                       -0.3500000000000000       -0.0476683367880151    0.0
                       -0.3344304285532986       -0.0476677343670746    0.0
                       -0.3189407126343259       -0.0476669081631783    0.0
                       -0.3036090975308749       -0.0476657558516917    0.0
                       -0.2885106544006993       -0.0476642236815457    0.0
                       -0.2737158652550224       -0.0476622767909065    0.0
                       -0.2592893956414604       -0.0476598855085026    0.0
                       -0.2452890966666600       -0.0476570192075271    0.0
                       -0.2317652615918533       -0.0476536438699092    0.0
                       -0.2187601453950714       -0.0476497219194425    0.0
                       -0.2063077399706292       -0.0476452140915428    0.0
                       -0.1944337845987716       -0.0476400837049480    0.0
                       -0.1831559822765196       -0.0476343039112697    0.0
                       -0.1724843881792385       -0.0476278683617918    0.0
                       -0.1624219367471736       -0.0476208052330359    0.0
                       -0.1529650774455713       -0.0476131937186350    0.0
                       -0.1441044940960019       -0.0476051810698955    0.0
                       -0.1358258865838178       -0.0475969973058744    0.0
                       -0.1281107951190822       -0.0475889641379750    0.0
                       -0.1209374457358136       -0.0475814947388532    0.0
                       -0.1142815923055158       -0.0475750818623692    0.0
                       -0.1081173266224836       -0.0475702734357161    0.0
                       -0.1024178256206651       -0.0475676369020829    0.0
                       -0.0971560047814014       -0.0475677159841139    0.0
                       -0.0923050507945006       -0.0475709856986917    0.0
                       -0.0878388163743770       -0.0475778126701432    0.0
                       -0.0837320763645938       -0.0475884272505893    0.0
                       -0.0799606635816618       -0.0476029113806005    0.0
                       -0.0765015185317309       -0.0476212024477914    0.0
                       -0.0733326998806803       -0.0476431102596853    0.0
                       -0.0704334715442614       -0.0476683367880151    0.0
                       -0.3500000000000000       -0.0462100149484444    0.0
                       -0.3344106131182372       -0.0462094289141586    0.0
                       -0.3189011800125752       -0.0462086231725792    0.0
                       -0.3035500418459226       -0.0462074977797682    0.0
                       -0.2884323616455490       -0.0462060002762902    0.0
                       -0.2736187074418557       -0.0462040965658327    0.0
                       -0.2591738233858804       -0.0462017575345312    0.0
                       -0.2451556305393103       -0.0461989530557628    0.0
                       -0.2316144826173736       -0.0461956496160397    0.0
                       -0.2185926851118958       -0.0461918101593990    0.0
                       -0.2061242704774083       -0.0461873959333316    0.0
                       -0.1942350089965998       -0.0461823707057228    0.0
                       -0.1829426258662059       -0.0461767079292599    0.0
                       -0.1722571906949142       -0.0461704012931372    0.0
                       -0.1621816458239672       -0.0461634786042089    0.0
                       -0.1527124434682444       -0.0461560181015882    0.0
                       -0.1438402665937810       -0.0461481652730877    0.0
                       -0.1355508124187132       -0.0461401472651587    0.0
                       -0.1278256187675877       -0.0461322813946124    0.0
                       -0.1206429117913702       -0.0461249743785932    0.0
                       -0.1139784497000622       -0.0461187098561824    0.0
                       -0.1078063328912901       -0.0461140235339187    0.0
                       -0.1020997481149373       -0.0461114676075110    0.0
                       -0.0968316149014690       -0.0461115685707998    0.0
                       -0.0919751081980761       -0.0461147845000459    0.0
                       -0.0875040433289029       -0.0461214686197070    0.0
                       -0.0833931270992248       -0.0461318447740288    0.0
                       -0.0796180972132876       -0.0461459974689268    0.0
                       -0.0761557843548200       -0.0461638756953516    0.0
                       -0.0729841397084589       -0.0461853073749054    0.0
                       -0.0700823342317591       -0.0462100149484444    0.0
                       -0.3500000000000000       -0.0447516931088738    0.0
                       -0.3343907389596481       -0.0447511266954495    0.0
                       -0.3188615292916617       -0.0447503457626289    0.0
                       -0.3034908073019918       -0.0447492533430257    0.0
                       -0.2883538271270511       -0.0447477985906356    0.0
                       -0.2735212419971040       -0.0447459483825852    0.0
                       -0.2590578737693521       -0.0447436743383508    0.0
                       -0.2450217124804967       -0.0447409470127654    0.0
                       -0.2314631712562256       -0.0447377335978620    0.0
                       -0.2184246050547237       -0.0447339977784160    0.0
                       -0.2059400859595670       -0.0447297015403884    0.0
                       -0.1940354146406670       -0.0447248093031438    0.0
                       -0.1827283384834104       -0.0447192949483021    0.0
                       -0.1720289424877399       -0.0447131521825555    0.0
                       -0.1619401792219028       -0.0447064081778606    0.0
                       -0.1524585077017940       -0.0446991395966303    0.0
                       -0.1435746160269973       -0.0446914890712720    0.0
                       -0.1352742066286014       -0.0446836792241158    0.0
                       -0.1275388243077865       -0.0446760207297916    0.0
                       -0.1203467053351288       -0.0446689110576004    0.0
                       -0.1136736216227211       -0.0446628215659455    0.0
                       -0.1074936892866874       -0.0446582725094685    0.0
                       -0.1017801081066574       -0.0446557979672637    0.0
                       -0.0965057997566120       -0.0446559051695461    0.0
                       -0.0916439201619121       -0.0446590344401411    0.0
                       -0.0871682355699622       -0.0446655261888949    0.0
                       -0.0830533705409403       -0.0446755996461774    0.0
                       -0.0792749530054552       -0.0446893448128234    0.0
                       -0.0758096903261497       -0.0447067259222029    0.0
                       -0.0726354149813221       -0.0447275930361300    0.0
                       -0.0697311969192569       -0.0447516931088738    0.0
                       -0.3500000000000000       -0.0432933712693031    0.0
                       -0.3343708058443906       -0.0432928276575636    0.0
                       -0.3188217599942307       -0.0432920758552654    0.0
                       -0.3034313931561207       -0.0432910224642341    0.0
                       -0.2882750498034739       -0.0432896185689173    0.0
                       -0.2734234675332057       -0.0432878322260560    0.0
                       -0.2589415449946080       -0.0432856359651472    0.0
                       -0.2448873401987316       -0.0432830012062901    0.0
                       -0.2313113246129511       -0.0432798960520130    0.0
                       -0.2182559015843122       -0.0432762851537155    0.0
                       -0.2057551818603949       -0.0432721314688401    0.0
                       -0.1938349958485775       -0.0432674002780108    0.0
                       -0.1825131130826389       -0.0432620660270966    0.0
                       -0.1717996348966552       -0.0432561224258831    0.0
                       -0.1616975264207984       -0.0432495957488309    0.0
                       -0.1522032575625397       -0.0432425604567093    0.0
                       -0.1433075276092552       -0.0432351552256785    0.0
                       -0.1349960521538030       -0.0432275964894443    0.0
                       -0.1272503923652568       -0.0432201860225839    0.0
                       -0.1200488045739591       -0.0432133092579876    0.0
                       -0.1133670835753562       -0.0432074221370606    0.0
                       -0.1071793680637226       -0.0432030262887526    0.0
                       -0.1014588738971044       -0.0432006348702484    0.0
                       -0.0961785231741878       -0.0432007338302802    0.0
                       -0.0913114462936811       -0.0432037448252595    0.0
                       -0.0868313501119526       -0.0432099957586490    0.0
                       -0.0827127643510624       -0.0432197027072497    0.0
                       -0.0789311937111493       -0.0432329636204270    0.0
                       -0.0754632088880230       -0.0432497612771899    0.0
                       -0.0722865112691122       -0.0432699718780188    0.0
                       -0.0693800596067547       -0.0432933712693031    0.0
                       -0.3500000000000000       -0.0418350494297325    0.0
                       -0.3343508135420082       -0.0418345317388012    0.0
                       -0.3187818716487793       -0.0418338133598332    0.0
                       -0.3033717986756242       -0.0418328050513052    0.0
                       -0.2881960286498463       -0.0418314601388605    0.0
                       -0.2733253826888094       -0.0418297480624940    0.0
                       -0.2588248353040283       -0.0418276424386967    0.0
                       -0.2447525114606518       -0.0418251157388795    0.0
                       -0.2311589398745525       -0.0418221371848515    0.0
                       -0.2180865711741488       -0.0418186726258080    0.0
                       -0.2055695537705679       -0.0418146862304237    0.0
                       -0.1936337471198835       -0.0418101443583805    0.0
                       -0.1822969428256557       -0.0418050221638935    0.0
                       -0.1715692594680771       -0.0417993133539765    0.0
                       -0.1614536770585329       -0.0417930430498218    0.0
                       -0.1519466804911347       -0.0417862828892758    0.0
                       -0.1430389863154263       -0.0417791664914957    0.0
                       -0.1347163312503206       -0.0417719024357776    0.0
                       -0.1269603021981542       -0.0417647813421880    0.0
                       -0.1197491853827838       -0.0417581738361449    0.0
                       -0.1130588074701365       -0.0417525173451403    0.0
                       -0.1068633363832603       -0.0417482917560619    0.0
                       -0.1011360070673252       -0.0417459865463111    0.0
                       -0.0958497407163736       -0.0417460643456166    0.0
                       -0.0909776367223279       -0.0417489270698455    0.0
                       -0.0864933338631790       -0.0417548900804620    0.0
                       -0.0823712562711334       -0.0417641672547872    0.0
                       -0.0785867733380259       -0.0417768663948213    0.0
                       -0.0751163059558470       -0.0417929917322885    0.0
                       -0.0719374106940631       -0.0418124495663115    0.0
                       -0.0690289222942525       -0.0418350494297325    0.0
                       -0.3500000000000000       -0.0403767275901618    0.0
                       -0.3343307618249001       -0.0403762388686313    0.0
                       -0.3187418637899987       -0.0403755581723312    0.0
                       -0.3033120231386356       -0.0403746009962987    0.0
                       -0.2881167626587459       -0.0403733232102997    0.0
                       -0.2732269861298827       -0.0403716958379094    0.0
                       -0.2587077429811890       -0.0403696937594309    0.0
                       -0.2446172240931774       -0.0403672906855615    0.0
                       -0.2310060143134934       -0.0403644571697603    0.0
                       -0.2179166104145769       -0.0403611604953684    0.0
                       -0.2053831974336865       -0.0403573662889041    0.0
                       -0.1934316631432231       -0.0403530422155088    0.0
                       -0.1820798210901174       -0.0403481642919940    0.0
                       -0.1713378079653328       -0.0403427262278822    0.0
                       -0.1612086209396800       -0.0403367517465120    0.0
                       -0.1516887639576596       -0.0403303090518082    0.0
                       -0.1427689768794788       -0.0403235256144949    0.0
                       -0.1344350254764707       -0.0403166005041600    0.0
                       -0.1266685316700171       -0.0403098109488227    0.0
                       -0.1194478212637249       -0.0403035100260041    0.0
                       -0.1127487615774704       -0.0402981136007858    0.0
                       -0.1065455562478498       -0.0402940767588476    0.0
                       -0.1008114623854135       -0.0402918625730073    0.0
                       -0.0955193995115654       -0.0402919082659643    0.0
                       -0.0906424317709272       -0.0402945947356993    0.0
                       -0.0861541230456914       -0.0403002243626828    0.0
                       -0.0820287832429262       -0.0403090091967742    0.0
                       -0.0782416360467758       -0.0403210681508917    0.0
                       -0.0747689398426381       -0.0403364293177324    0.0
                       -0.0715880912435988       -0.0403550329627153    0.0
                       -0.0686777849817503       -0.0403767275901618    0.0
                       -0.3500000000000000       -0.0389184057505912    0.0
                       -0.3343106504685604       -0.0389179489671176    0.0
                       -0.3187017359592648       -0.0389173101745926    0.0
                       -0.3032520658348714       -0.0389164101743448    0.0
                       -0.2880372508413825       -0.0389152076737965    0.0
                       -0.2731282765511934       -0.0389136754763475    0.0
                       -0.2585902663528605       -0.0389117899023428    0.0
                       -0.2444814759862051       -0.0389095260913645    0.0
                       -0.2308525452913332       -0.0389068561442443    0.0
                       -0.2177460160176845       -0.0389037490198771    0.0
                       -0.2051961087527680       -0.0389001720562229    0.0
                       -0.1932287388047151       -0.0388960944594768    0.0
                       -0.1818617414799562       -0.0388914932748663    0.0
                       -0.1711052723806539       -0.0388863622335139    0.0
                       -0.1609623480479890       -0.0388807234319922    0.0
                       -0.1514294954725560       -0.0388746410463777    0.0
                       -0.1424974838010882       -0.0388682353262502    0.0
                       -0.1341521156924166       -0.0388616941984947    0.0
                       -0.1263750572407461       -0.0388552792917688    0.0
                       -0.1191446833291452       -0.0388493234385138    0.0
                       -0.1124369105020657       -0.0388442179498436    0.0
                       -0.1062259844648495       -0.0388403901085755    0.0
                       -0.1004851877300422       -0.0388382738799052    0.0
                       -0.0951874380755070       -0.0388382789170696    0.0
                       -0.0903057615724892       -0.0388407635826275    0.0
                       -0.0858136424877908       -0.0388460163824522    0.0
                       -0.0816852703099777       -0.0388542472500266    0.0
                       -0.0778957147406753       -0.0388655866992784    0.0
                       -0.0744210598411540       -0.0388800884362156    0.0
                       -0.0712385258384777       -0.0388977303502601    0.0
                       -0.0683266476692481       -0.0389184057505912    0.0
                       -0.3500000000000000       -0.0374600839110205    0.0
                       -0.3342904792519782       -0.0374596619442763    0.0
                       -0.3186614877054409       -0.0374590692333829    0.0
                       -0.3031919260668662       -0.0374582324424613    0.0
                       -0.2879574922293174       -0.0374571133991214    0.0
                       -0.2730292526785934       -0.0374556868780005    0.0
                       -0.2584724037919856       -0.0374539308146990    0.0
                       -0.2443452650964730       -0.0374518219686093    0.0
                       -0.2306985302637489       -0.0374493342067680    0.0
                       -0.2175747848238382       -0.0374464384099680    0.0
                       -0.2050082837987203       -0.0374431038883148    0.0
                       -0.1930249691988062       -0.0374393016344360    0.0
                       -0.1816426978389051       -0.0374350099007878    0.0
                       -0.1708716449513540       -0.0374302224757355    0.0
                       -0.1607148485646211       -0.0374249596204164    0.0
                       -0.1511688626056351       -0.0374192809131312    0.0
                       -0.1422244913636353       -0.0374132983378208    0.0
                       -0.1338675820755945       -0.0374071870798257    0.0
                       -0.1260798539790992       -0.0374011910044248    0.0
                       -0.1188397403122874       -0.0373956200572329    0.0
                       -0.1121232151913752       -0.0373908380690813    0.0
                       -0.1059045726423263       -0.0373872415770666    0.0
                       -0.1001571240383739       -0.0373852327500339    0.0
                       -0.0948537861341153       -0.0373851914190316    0.0
                       -0.0899675456432332       -0.0373874516290208    0.0
                       -0.0854718047986317       -0.0373922866223484    0.0
                       -0.0813406292882779       -0.0373999031867882    0.0
                       -0.0775489292916159       -0.0374104430091097    0.0
                       -0.0740726043642982       -0.0374239862786747    0.0
                       -0.0708886810609886       -0.0374405517423751    0.0
                       -0.0679755103567459       -0.0374600839110205    0.0
                       -0.3500000000000000       -0.0360017620714499    0.0
                       -0.3342702479583243       -0.0360013776993571    0.0
                       -0.3186211185862652       -0.0360008351994045    0.0
                       -0.3031316031520942       -0.0360000676382482    0.0
                       -0.2878774858773763       -0.0359990402335769    0.0
                       -0.2729299132728221       -0.0359977299171147    0.0
                       -0.2583541537225233       -0.0359961164135140    0.0
                       -0.2442085894536627       -0.0359941782939195    0.0
                       -0.2305439667882067       -0.0359918914132754    0.0
                       -0.2174029138113467       -0.0359892288254214    0.0
                       -0.2048197188225247       -0.0359861620805204    0.0
                       -0.1928203496435722       -0.0359826642133895    0.0
                       -0.1814226842694832       -0.0359787148769459    0.0
                       -0.1706369181828740       -0.0359743079717635    0.0
                       -0.1604661128952492       -0.0359694617397680    0.0
                       -0.1509068530167611       -0.0359642306225678    0.0
                       -0.1419499836677517       -0.0359587173317731    0.0
                       -0.1335814041567803       -0.0359530827583177    0.0
                       -0.1257828956020759       -0.0359475508962478    0.0
                       -0.1185329586116067       -0.0359424062299360    0.0
                       -0.1118076329836476       -0.0359379822571883    0.0
                       -0.1055812672270659       -0.0359346418881084    0.0
                       -0.0998272052915109       -0.0359327528178630    0.0
                       -0.0945183644665790       -0.0359326627054237    0.0
                       -0.0896276924362185       -0.0359346792202392    0.0
                       -0.0851285094434902       -0.0359390584301902    0.0
                       -0.0809947571989443       -0.0359460021326242    0.0
                       -0.0772011843378442       -0.0359556616644829    0.0
                       -0.0737234985071277       -0.0359681433736262    0.0
                       -0.0705385153979120       -0.0359835093119026    0.0
                       -0.0676243730442437       -0.0360017620714499    0.0
                       -0.3500000000000000       -0.0345434402318792    0.0
                       -0.3342499563761651       -0.0345430961200381    0.0
                       -0.3185806281707947       -0.0345426079061956    0.0
                       -0.3030710964266894       -0.0345419155784395    0.0
                       -0.2877972308687291       -0.0345409880001318    0.0
                       -0.2728302571360712       -0.0345398044396760    0.0
                       -0.2582355146276845       -0.0345383465827500    0.0
                       -0.2440714471705779       -0.0345365950049142    0.0
                       -0.2303888525364663       -0.0345345277733525    0.0
                       -0.2172304001118075       -0.0345321203707469    0.0
                       -0.2046304102740989       -0.0345293468625387    0.0
                       -0.1926148757039112       -0.0345261825924428    0.0
                       -0.1812016951614149       -0.0345226088229148    0.0
                       -0.1704010848832733       -0.0345186196438046    0.0
                       -0.1602161317112945       -0.0345142311236371    0.0
                       -0.1506434545042771       -0.0345094920665005    0.0
                       -0.1416739446873706       -0.0345044949524172    0.0
                       -0.1332935608847368       -0.0344993848828046    0.0
                       -0.1254841545502197       -0.0344943639414715    0.0
                       -0.1182243023791418       -0.0344896886561303    0.0
                       -0.1114901177078445       -0.0344856594209746    0.0
                       -0.1052560096001883       -0.0344826027040297    0.0
                       -0.0994953585583551       -0.0344808490629914    0.0
                       -0.0941810847972424       -0.0344807115407488    0.0
                       -0.0892860989111593       -0.0344824691019614    0.0
                       -0.0847836417540250       -0.0344863581994109    0.0
                       -0.0806475344691287       -0.0344925729182253    0.0
                       -0.0768523665830273       -0.0345012714331069    0.0
                       -0.0733736508445699       -0.0345125843153249    0.0
                       -0.0701879767724149       -0.0345266179976868    0.0
                       -0.0672732357317415       -0.0345434402318792    0.0
                       -0.3500000000000000       -0.0330851183923086    0.0
                       -0.3342296043016103       -0.0330848170815271    0.0
                       -0.3185400160437294       -0.0330843871689134    0.0
                       -0.3030104052520219       -0.0330837760572980    0.0
                       -0.2877167263238367       -0.0330829564953521    0.0
                       -0.2727302831234851       -0.0330819102608313    0.0
                       -0.2581164850642465       -0.0330806211702063    0.0
                       -0.2439338364606376       -0.0330790719965438    0.0
                       -0.2302331853157529       -0.0330772432459723    0.0
                       -0.2170572410356373       -0.0330751130903049    0.0
                       -0.2044403548330747       -0.0330726583928589    0.0
                       -0.1924085432286832       -0.0330698570844557    0.0
                       -0.1809797252364507       -0.0330666922634295    0.0
                       -0.1701641382171873       -0.0330631583108457    0.0
                       -0.1599648960145110       -0.0330592690019320    0.0
                       -0.1503786550817326       -0.0330550670476087    0.0
                       -0.1413963583603525       -0.0330506337941480    0.0
                       -0.1330040307332062       -0.0330460971277954    0.0
                       -0.1251836021145194       -0.0330416352644902    0.0
                       -0.1179137336709175       -0.0330374743703806    0.0
                       -0.1111706198565751       -0.0330338790566030    0.0
                       -0.1049287362563494       -0.0330311366068343    0.0
                       -0.0991615041314286       -0.0330295377985165    0.0
                       -0.0938418497806596       -0.0330293585340268    0.0
                       -0.0889426501769506       -0.0330308464947566    0.0
                       -0.0844370719345551       -0.0330342155658201    0.0
                       -0.0802988229353354       -0.0330396484862007    0.0
                       -0.0765023415321349       -0.0330473059686474    0.0
                       -0.0730229492162537       -0.0330573387345866    0.0
                       -0.0698369990057132       -0.0330698963827953    0.0
                       -0.0669220984192393       -0.0330851183923086    0.0
                       -0.3500000000000000       -0.0316267965527379    0.0
                       -0.3342091915421298       -0.0316265404455561    0.0
                       -0.3184992818131041       -0.0316261727829867    0.0
                       -0.3029495290263832       -0.0316256488448279    0.0
                       -0.2876359714163279       -0.0316249454870919    0.0
                       -0.2726299901635106       -0.0316240471620089    0.0
                       -0.2579970636877718       -0.0316229399840504    0.0
                       -0.2437957556684946       -0.0316216091170042    0.0
                       -0.2300769631054893       -0.0316200377347643    0.0
                       -0.2168834341158653       -0.0316182069628903    0.0
                       -0.2042495494608853       -0.0316160967525861    0.0
                       -0.1922013484126631       -0.0316136879120139    0.0
                       -0.1807567696221115       -0.0316109656203674    0.0
                       -0.1699260717936237       -0.0316079246794910    0.0
                       -0.1597123972413883       -0.0316045764903938    0.0
                       -0.1501124431017592       -0.0316009572674514    0.0
                       -0.1411172087352138       -0.0315971363877509    0.0
                       -0.1327127918747900       -0.0315932231777933    0.0
                       -0.1248812086428800       -0.0315893701217649    0.0
                       -0.1176012126914305       -0.0315857707212932    0.0
                       -0.1108490868693460       -0.0315826512256246    0.0
                       -0.1045993791112154       -0.0315802570733717    0.0
                       -0.0988255558102283       -0.0315788366528358    0.0
                       -0.0935005531510155       -0.0315786261458215    0.0
                       -0.0885972192977705       -0.0315798391650132    0.0
                       -0.0840886541706372       -0.0315826636142177    0.0
                       -0.0799484637369194       -0.0315872663506891    0.0
                       -0.0761509496313761       -0.0315938046700228    0.0
                       -0.0726712551762363       -0.0316024426016949    0.0
                       -0.0694854966226853       -0.0316133680021748    0.0
                       -0.0665709611067371       -0.0316267965527379    0.0
                       -0.3500000000000000       -0.0301684747131673    0.0
                       -0.3341887179233951       -0.0301682660592454    0.0
                       -0.3184584251240647       -0.0301679645226023    0.0
                       -0.3028884672059135       -0.0301675336847520    0.0
                       -0.2875549654014099       -0.0301669547118692    0.0
                       -0.2725293772942672       -0.0301662148876540    0.0
                       -0.2578772492975735       -0.0301653027888804    0.0
                       -0.2436572033244380       -0.0301642061631078    0.0
                       -0.2299201841222277       -0.0301629110826723    0.0
                       -0.2167089771850033       -0.0301614018956161    0.0
                       -0.2040579914913911       -0.0301596619384834    0.0
                       -0.1919932879032227       -0.0301576751995190    0.0
                       -0.1805328239772813       -0.0301554292037251    0.0
                       -0.1696868798139075       -0.0301529193336083    0.0
                       -0.1594586274374969       -0.0301501545786546    0.0
                       -0.1498448074615322       -0.0301471643126549    0.0
                       -0.1408364802132625       -0.0301440051843698    0.0
                       -0.1324198224665165       -0.0301407667086094    0.0
                       -0.1245769438772304       -0.0301375738799275    0.0
                       -0.1172866981906059       -0.0301345853458107    0.0
                       -0.1105254635935226       -0.0301319865253707    0.0
                       -0.1042678660164180       -0.0301299784437676    0.0
                       -0.0984874214276911       -0.0301287645432751    0.0
                       -0.0931570801546552       -0.0301285386853709    0.0
                       -0.0882496674128846       -0.0301294774858855    0.0
                       -0.0837382260240343       -0.0301317390849199    0.0
                       -0.0795962752867297       -0.0301354691016446    0.0
                       -0.0757980018654888       -0.0301408137189402    0.0
                       -0.0723183967153935       -0.0301479399846536    0.0
                       -0.0691333570199953       -0.0301570633521748    0.0
                       -0.0662198237942349       -0.0301684747131673    0.0
                       -0.3500000000000000       -0.0287101528735966    0.0
                       -0.3341681833016603       -0.0287099937537853    0.0
                       -0.3184174456838198       -0.0287097621389285    0.0
                       -0.3028272193424983       -0.0287094302921045    0.0
                       -0.2874737076673019       -0.0287089838717281    0.0
                       -0.2724284437293435       -0.0287084131413164    0.0
                       -0.2577570409179678       -0.0287077093010163    0.0
                       -0.2435181782425038       -0.0287068628747606    0.0
                       -0.2297628469364002       -0.0287058630655776    0.0
                       -0.2165338685126879       -0.0287046977166450    0.0
                       -0.2038656787922458       -0.0287033538547285    0.0
                       -0.1917843589889632       -0.0287018189638338    0.0
                       -0.1803078847124870       -0.0287000832009710    0.0
                       -0.1694465573289298       -0.0286981427221279    0.0
                       -0.1592035795580491       -0.0286960041161443    0.0
                       -0.1495757379541070       -0.0286936896385148    0.0
                       -0.1405541579594940       -0.0286912425363207    0.0
                       -0.1321251011307105       -0.0286887313648151    0.0
                       -0.1242707775165435       -0.0286862519891754    0.0
                       -0.1169701481219779       -0.0286839261378499    0.0
                       -0.1101996930477913       -0.0286818960525991    0.0
                       -0.1039341216267132       -0.0286803158816418    0.0
                       -0.0981470037905592       -0.0286793416391533    0.0
                       -0.0928113084722555       -0.0286791222934123    0.0
                       -0.0878998444267052       -0.0286797944798362    0.0
                       -0.0833856084351090       -0.0286814825653758    0.0
                       -0.0792420516871551       -0.0286843049354422    0.0
                       -0.0754432750615077       -0.0286883873069966    0.0
                       -0.0719641588433097       -0.0286938854272148    0.0
                       -0.0687804283064022       -0.0287010230859861    0.0
                       -0.0658686864817327       -0.0287101528735966    0.0
                       -0.3500000000000000       -0.0272518310340260    0.0
                       -0.3341475875865176       -0.0272517233427870    0.0
                       -0.3183763433074778       -0.0272515653577923    0.0
                       -0.3027657851533858       -0.0272513383500153    0.0
                       -0.2873921978297075       -0.0272510326300266    0.0
                       -0.2723271889786087       -0.0272506415803956    0.0
                       -0.2576364379473641       -0.0272501591821777    0.0
                       -0.2433786797003043       -0.0272495789275532    0.0
                       -0.2296049506859540       -0.0272488933837804    0.0
                       -0.2163581070569201       -0.0272480941655084    0.0
                       -0.2036726100584257       -0.0272471723019831    0.0
                       -0.1915745599412941       -0.0272461191019633    0.0
                       -0.1800819493865637       -0.0272449276631097    0.0
                       -0.1692051006994105       -0.0272435951431816    0.0
                       -0.1589472480019105       -0.0272421257938846    0.0
                       -0.1493052258881385       -0.0272405345479205    0.0
                       -0.1402702286220085       -0.0272388506725202    0.0
                       -0.1318286077904534       -0.0272371207309584    0.0
                       -0.1239626801872493       -0.0272354099494513    0.0
                       -0.1166515207689998       -0.0272338012086288    0.0
                       -0.1098717177246604       -0.0272323913575203    0.0
                       -0.1035980688913614       -0.0272312853228019    0.0
                       -0.0978042023498459       -0.0272305893099633    0.0
                       -0.0924631100048781       -0.0272304049040611    0.0
                       -0.0875475907242140       -0.0272308258309974    0.0
                       -0.0830306069020346       -0.0272319386448928    0.0
                       -0.0788855622915552       -0.0272338281767122    0.0
                       -0.0750865075610781       -0.0272365890376471    0.0
                       -0.0716082717654760       -0.0272403471514675    0.0
                       -0.0684264998216278       -0.0272453032793708    0.0
                       -0.0655175491692305       -0.0272518310340260    0.0
                       -0.3500000000000000       -0.0257935091944553    0.0
                       -0.3341269307833976       -0.0257934546199202    0.0
                       -0.3183351180036785       -0.0257933738760687    0.0
                       -0.3027041646512356       -0.0257932575045684    0.0
                       -0.2873104359082719       -0.0257931006046553    0.0
                       -0.2722256130738213       -0.0257928998076721    0.0
                       -0.2575154404365832       -0.0257926520293103    0.0
                       -0.2432387077745231       -0.0257923539208677    0.0
                       -0.2294464954745298       -0.0257920016483632    0.0
                       -0.2161816929316445       -0.0257915908776728    0.0
                       -0.2034787853573661       -0.0257911169600724    0.0
                       -0.1913638906470018       -0.0257905753716965    0.0
                       -0.1798550174385483       -0.0257899624830291    0.0
                       -0.1689625084413570       -0.0257892767197821    0.0
                       -0.1586896295875169       -0.0257885201170040    0.0
                       -0.1490332652140777       -0.0257877001600603    0.0
                       -0.1399846816315545       -0.0257868316626195    0.0
                       -0.1315303251691742       -0.0257859382902561    0.0
                       -0.1236526251736624       -0.0257850532627689    0.0
                       -0.1163307767412531       -0.0257842188316844    0.0
                       -0.1095414818903417       -0.0257834843807925    0.0
                       -0.1032596316942244       -0.0257829034043922    0.0
                       -0.0974589162053293       -0.0257825300495041    0.0
                       -0.0921123542276404       -0.0257824161739831    0.0
                       -0.0871927407502267       -0.0257826098492744    0.0
                       -0.0826730148718802       -0.0257831559994357    0.0
                       -0.0785265537250091       -0.0257840997296272    0.0
                       -0.0747273967607488       -0.0257854934318892    0.0
                       -0.0712503970092731       -0.0257874113018327    0.0
                       -0.0680712698836558       -0.0257899844260522    0.0
                       -0.0651664118567283       -0.0257935091944553    0.0
                       -0.3500000000000000       -0.0243351873548847    0.0
                       -0.3341062130744636       -0.0243351873548847    0.0
                       -0.3182937701375467       -0.0243351873548847    0.0
                       -0.3026423583915749       -0.0243351873548847    0.0
                       -0.2872284226623104       -0.0243351873548847    0.0
                       -0.2721237169978047       -0.0243351873548847    0.0
                       -0.2573940496181755       -0.0243351873548847    0.0
                       -0.2430982639787336       -0.0243351873548847    0.0
                       -0.2292874831280099       -0.0243351873548847    0.0
                       -0.2160046282943905       -0.0243351873548847    0.0
                       -0.2032842071625324       -0.0243351873548847    0.0
                       -0.1911523538054740       -0.0243351873548847    0.0
                       -0.1796270915696643       -0.0243351873548847    0.0
                       -0.1687187828178132       -0.0243351873548847    0.0
                       -0.1584307253838187       -0.0243351873548847    0.0
                       -0.1487598546286681       -0.0243351873548847    0.0
                       -0.1396975116193766       -0.0243351873548847    0.0
                       -0.1312302415677120       -0.0243351873548847    0.0
                       -0.1233405916070483       -0.0243351873548847    0.0
                       -0.1160078826362587       -0.0243351873548847    0.0
                       -0.1092089357887699       -0.0243351873548847    0.0
                       -0.1029187396774605       -0.0243351873548847    0.0
                       -0.0971110496291349       -0.0243351873548847    0.0
                       -0.0917589144778075       -0.0243351873548847    0.0
                       -0.0868351300538017       -0.0243351873548847    0.0
                       -0.0823126212818862       -0.0243351873548847    0.0
                       -0.0781647568368005       -0.0243351873548847    0.0
                       -0.0743656016831444       -0.0243351873548847    0.0
                       -0.0708901136507324       -0.0243351873548847    0.0
                       -0.0677142905727124       -0.0243351873548847    0.0
                       -0.0648152745442261       -0.0243351873548847    0.0
                </DataArray>
            </Points>
            <PointData>
                <DataArray type="Float32" Name="orthogonality" NumberOfComponents="1" format="ascii">
                        0.0000000000000000
                        0.0126483423121623
                        0.0252139481591922
                        0.0376156565121987
                        0.0497754951391334
                        0.0616200649528373
                        0.0730817202046372
                        0.0840995357056144
                        0.0946200982482623
                        0.1045982037760283
                        0.1139975717021794
                        0.1227916868532130
                        0.1309648336731137
                        0.1385132935159927
                        0.1454465506984263
                        0.1517882352792910
                        0.1575764711068372
                        0.1628633398683857
                        0.1677133285479264
                        0.1722008709889872
                        0.1764073649556556
                        0.1804182811958065
                        0.1843211508745691
                        0.1882053617060197
                        0.1921649758380400
                        0.1963066586484926
                        0.2007677074084507
                        0.2057597927978502
                        0.2117000113136855
                        0.2197211495139604
                        0.2340915416681523
                        0.0000031928344952
                        0.0126894647141515
                        0.0252935189642930
                        0.0377345857847050
                        0.0499347500851701
                        0.0618207943398215
                        0.0733253082565821
                        0.0843876287879341
                        0.0949546216109176
                        0.1049813780418488
                        0.1144319369844705
                        0.1232801426124253
                        0.1315107025236948
                        0.1391204155212501
                        0.1461194103552913
                        0.1525321165942014
                        0.1583976286053429
                        0.1637691676925250
                        0.1687125083135386
                        0.1733034824062262
                        0.1776249488890950
                        0.1817638473690032
                        0.1858091119768706
                        0.1898513319761113
                        0.1939852378272853
                        0.1983166661373052
                        0.2029772935330114
                        0.2081544205319524
                        0.2141482498834293
                        0.2214318660479562
                        0.2314484967304293
                        0.0000062953096078
                        0.0127307287273575
                        0.0253734691777128
                        0.0378541454940217
                        0.0500949105885197
                        0.0620227392508706
                        0.0735704685946441
                        0.0846777110000304
                        0.0952916253187736
                        0.1053676125000961
                        0.1148700431329312
                        0.1237731275652801
                        0.1320619933292905
                        0.1397339374912312
                        0.1467996913444995
                        0.1532844123820958
                        0.1592280573825414
                        0.1646848356871754
                        0.1697216054701819
                        0.1744153264124634
                        0.1788499538790262
                        0.1831133820782479
                        0.1872951747273538
                        0.1914858697434372
                        0.1957786698541926
                        0.2002743941013617
                        0.2050903944637692
                        0.2103711634926186
                        0.2162779134165555
                        0.2228376619367734
                        0.2296997257483667
                        0.0000092710006622
                        0.0127722220824173
                        0.0254540150490170
                        0.0379746913441651
                        0.0502564930947908
                        0.0622266080788931
                        0.0738181436509809
                        0.0849710130441477
                        0.0956326956974772
                        0.1057589296055589
                        0.1153144405462212
                        0.1242738183604461
                        0.1326226048626647
                        0.1403585598403180
                        0.1474929395630221
                        0.1540514977045442
                        0.1600748561920775
                        0.1656179385401720
                        0.1707483221330136
                        0.1755436146881614
                        0.1800882236897503
                        0.1844700888455990
                        0.1887780305582585
                        0.1931003040412581
                        0.1975246931235635
                        0.2021397685246835
                        0.2070345676847546
                        0.2122853437314014
                        0.2178899598312248
                        0.2235491183753219
                        0.2284618565918886
                        0.0000121018970122
                        0.0128136277543442
                        0.0255345340130553
                        0.0380952833630265
                        0.0504182254746372
                        0.0624307774639125
                        0.0740663347162785
                        0.0852651310842623
                        0.0959749876568009
                        0.1061519996526256
                        0.1157612631144255
                        0.1247777506248941
                        0.1331874003068194
                        0.1409883837889972
                        0.1481923854927529
                        0.1548255993361949
                        0.1609290848704038
                        0.1665581682631194
                        0.1717807348941572
                        0.1766745029178505
                        0.1813236160904529
                        0.1858150640969783
                        0.1902354559203798
                        0.1946684661805439
                        0.1991926937363309
                        0.2038782188378050
                        0.2087763200994310
                        0.2138871816802389
                        0.2190726275064842
                        0.2238824292317505
                        0.2275368559792430
                        0.0000147773501553
                        0.0128548430347212
                        0.0256148279881306
                        0.0382156224123076
                        0.0505797016811613
                        0.0626347274257036
                        0.0743143991950812
                        0.0855592892379976
                        0.0963175790246488
                        0.1065457383957682
                        0.1162092452930013
                        0.1252834538493793
                        0.1337546746078357
                        0.1416214321516536
                        0.1488957313939221
                        0.1556040360851910
                        0.1617875969148125
                        0.1675018069068409
                        0.1728144179354301
                        0.1778026845796999
                        0.1825497304486172
                        0.1871405635756171
                        0.1916581109616328
                        0.1961792928672914
                        0.2007703020347552
                        0.2054783702392713
                        0.2103133902115880
                        0.2152064118620555
                        0.2199306439770225
                        0.2240101918452314
                        0.2268169598272835
                        0.0000172899903277
                        0.0128958504066070
                        0.0256948674084201
                        0.0383356638090728
                        0.0507408596139378
                        0.0628383761947225
                        0.0745622330730993
                        0.0858533581311257
                        0.0966603112223969
                        0.1069399532212048
                        0.1166581542066710
                        0.1257906466006284
                        0.1343240863448391
                        0.1422572873832725
                        0.1496024605732588
                        0.1563861593808418
                        0.1626495660581775
                        0.1684477878968509
                        0.1738479816048578
                        0.1789263426943708
                        0.1837642019661059
                        0.1884435616329630
                        0.1930422774541907
                        0.1976286317865190
                        0.2022540472162259
                        0.2069408481477663
                        0.2116592652363527
                        0.2162867680520021
                        0.2205540794085675
                        0.2240282912424813
                        0.2262403425625948
                        0.0000196341641253
                        0.0129366628437278
                        0.0257746825992098
                        0.0384554532411794
                        0.0509017593033780
                        0.0630417975728130
                        0.0748099234854152
                        0.0861474377617565
                        0.0970032964827800
                        0.1073347676471930
                        0.1171081231136041
                        0.1262994692494963
                        0.1348957784956353
                        0.1428960874659336
                        0.1503126936130955
                        0.1571720530336884
                        0.1635150105503044
                        0.1693960234859092
                        0.1748811792502021
                        0.1800450097275947
                        0.1849662855529806
                        0.1897230257689480
                        0.1943867797980343
                        0.1990157260049263
                        0.2036451787564884
                        0.2082727503020760
                        0.2128346388745448
                        0.2171731874849550
                        0.2210123209900822
                        0.2239908830099842
                        0.2257696075596806
                        0.0000218052918283
                        0.0129773013959126
                        0.0258543192504940
                        0.0385750594813285
                        0.0510624919338951
                        0.0632451049961356
                        0.0750576061895068
                        0.0864416863643742
                        0.0973467156637725
                        0.1077303851830868
                        0.1175593778941792
                        0.1268101691153626
                        0.1354700176467808
                        0.1435381139217973
                        0.1510267192018162
                        0.1579620001239096
                        0.1643841885312034
                        0.1703467202009868
                        0.1759141334534010
                        0.1811586942926983
                        0.1861558709282363
                        0.1909788034575177
                        0.1956917120223678
                        0.2003417008644411
                        0.2049476885293610
                        0.2094846531461965
                        0.2138626006066639
                        0.2179062226988104
                        0.2213562963599317
                        0.2239290350309634
                        0.2253809555166208
                        0.0000237995702504
                        0.0130177866408320
                        0.0259338214723058
                        0.0386945487830202
                        0.0512231452264932
                        0.0634484074206938
                        0.0753054113315862
                        0.0867362552866411
                        0.0976907413039351
                        0.1081269994539311
                        0.1180121329455282
                        0.1273229806230620
                        0.1360470566805097
                        0.1441836350677196
                        0.1517448157517155
                        0.1587562805345992
                        0.1652573687971618
                        0.1713001199171188
                        0.1769470441759699
                        0.1822675524916229
                        0.1873331114087338
                        0.1922111967175210
                        0.1969579283050951
                        0.2016088895849205
                        0.2061672720224276
                        0.2105888453980151
                        0.2147659883452664
                        0.2185202238222486
                        0.2216225963897002
                        0.2238608390634656
                        0.2250585220385382
                        0.0000256138159078
                        0.0130581359419311
                        0.0260132264058437
                        0.0388139767455098
                        0.0513837924447258
                        0.0636517953152986
                        0.0755534462287046
                        0.0870312683132168
                        0.0980355131884685
                        0.1085247656555209
                        0.1184665581120942
                        0.1278380872338722
                        0.1366270911755508
                        0.1448328563001437
                        0.1524671949364983
                        0.1595551070846808
                        0.1661347588514289
                        0.1722564191080955
                        0.1779800983143038
                        0.1833717861675531
                        0.1884983068690032
                        0.1934208186049202
                        0.1981868422165304
                        0.2028204982732586
                        0.2073107025978187
                        0.2115982282032962
                        0.2155660361797341
                        0.2190433216233423
                        0.2218373404105146
                        0.2237969899411097
                        0.2247913001701957
                        0.0000272453738666
                        0.0130983630149716
                        0.0260925634214582
                        0.0389333871105638
                        0.0515444907731261
                        0.0638553386001232
                        0.0758017928359192
                        0.0873268186224564
                        0.0983811347501649
                        0.1089237963433617
                        0.1189227738011915
                        0.1283556158251572
                        0.1372102529907989
                        0.1454859128351407
                        0.1531939935734043
                        0.1603586165800880
                        0.1670164951945693
                        0.1732157584403496
                        0.1790134584275390
                        0.1844716296558430
                        0.1896518844801679
                        0.1946085559483553
                        0.1993803404764163
                        0.2039804031973153
                        0.2083854055815895
                        0.2125256228919385
                        0.2162817948330091
                        0.2194981555777024
                        0.2220192279112230
                        0.2237439158293699
                        0.2245713990365902
                        0.0000286920627152
                        0.0131384783158298
                        0.0261718549375761
                        0.0390528130054228
                        0.0517052830014372
                        0.0640590887951181
                        0.0760505103879616
                        0.0876229719577677
                        0.0987276768112289
                        0.1093241657964226
                        0.1193808560323252
                        0.1288756425033209
                        0.1377966169430981
                        0.1461428773913858
                        0.1539252824968594
                        0.1611668801177953
                        0.1679026553436904
                        0.1741782367410064
                        0.1800472785374571
                        0.1855673661081862
                        0.1907944109251828
                        0.1957755647392901
                        0.2005407321450974
                        0.2050929997572645
                        0.2093991476356344
                        0.2133833498946317
                        0.2169299990649221
                        0.2199028184529430
                        0.2221817798402234
                        0.2237055638854404
                        0.2243930175223989
                        0.0000299521422016
                        0.0131784896420015
                        0.0262511176500720
                        0.0391722788013780
                        0.0518662000376129
                        0.0642630822228109
                        0.0762996393366877
                        0.0879197713529996
                        0.0990751831616833
                        0.1097259165273571
                        0.1198408439705392
                        0.1293982012722138
                        0.1383862107514782
                        0.1468037715849812
                        0.1546610796200231
                        0.1619799180790431
                        0.1687932750301866
                        0.1751439305578785
                        0.1810817257352375
                        0.1866593494279516
                        0.1919266094388147
                        0.1969232694458977
                        0.2016707041867915
                        0.2061630754470155
                        0.2103598068816082
                        0.2141829950303732
                        0.2175251785655036
                        0.2202717759626064
                        0.2223349289100809
                        0.2236844362206949
                        0.2242518148744434
                        0.0000310242958977
                        0.0132184027184352
                        0.0263303637175342
                        0.0392918019016635
                        0.0520272633225143
                        0.0644673430841392
                        0.0765492051306907
                        0.0882172416684403
                        0.0994236759151011
                        0.1101290655305375
                        0.1203027471550336
                        0.1299232923479782
                        0.1389790245660674
                        0.1474685768249110
                        0.1554013623863967
                        0.1627977143458963
                        0.1696883643609504
                        0.1761129122652398
                        0.1821169996432419
                        0.1877480229689459
                        0.1930493721547475
                        0.1980533567812410
                        0.2027732752317948
                        0.2071956995489734
                        0.2112752070784465
                        0.2149353054231545
                        0.2180798878354691
                        0.2206166680086347
                        0.2224861306072242
                        0.2236822016546637
                        0.2241445101597912
                        0.0000319076242099
                        0.0132582216964569
                        0.0264096017628643
                        0.0394113942487223
                        0.0521884868631706
                        0.0646718860470544
                        0.0767992213957841
                        0.0885153934074143
                        0.0997731600128817
                        0.1105336095362703
                        0.1207665515756888
                        0.1304508891424726
                        0.1395750189567111
                        0.1481372434263270
                        0.1561460781432679
                        0.1636202280659960
                        0.1705879210408546
                        0.1770852645656539
                        0.1831533473471469
                        0.1888339324716123
                        0.1941637653855720
                        0.1991677623392977
                        0.2038517473512427
                        0.2081961289989396
                        0.2121530048010841
                        0.2156501730686625
                        0.2186049816216107
                        0.2209469694885310
                        0.2226411361747162
                        0.2237000641059987
                        0.2240686188889092
                        0.0000326016446560
                        0.0132979495556968
                        0.0264888376748167
                        0.0395310635273851
                        0.0523498788541704
                        0.0648767183094872
                        0.0770496924686453
                        0.0888142257553747
                        0.1001236268110652
                        0.1109395291933916
                        0.1212322245056713
                        0.1309809438078395
                        0.1401741312395325
                        0.1488096977997720
                        0.1568951522710974
                        0.1644474027764185
                        0.1714919404419610
                        0.1780610911585227
                        0.1841910736002908
                        0.1899177331904204
                        0.1952710282341335
                        0.2002686513967225
                        0.2049096580905238
                        0.2091697311134971
                        0.2130006202289278
                        0.2163366753143416
                        0.2191098949582238
                        0.2212705199239479
                        0.2228045325858805
                        0.2237389896979714
                        0.2240222750933218
                        0.0000331062967619
                        0.0133375884211480
                        0.0265680752350563
                        0.0396508141035784
                        0.0525114429411137
                        0.0650818412054799
                        0.0773006153688740
                        0.0891137289458942
                        0.1004750568719820
                        0.1113467923217096
                        0.1216997182543062
                        0.1315133915311601
                        0.1407762803588282
                        0.1494858479596057
                        0.1576484943465483
                        0.1652791732008165
                        0.1724004228789323
                        0.1790405240053422
                        0.1852305468510733
                        0.1910001920149019
                        0.1963725658325432
                        0.2013583959247616
                        0.2059507351921620
                        0.2101219232959207
                        0.2138252029121811
                        0.2170031501524124
                        0.2196029069693134
                        0.2215939424026323
                        0.2229801239393117
                        0.2237998511483079
                        0.2240041086905779
                        0.0000334219504946
                        0.0133771398117266
                        0.0266473166054786
                        0.0397706477517942
                        0.0526731791978585
                        0.0652872514473988
                        0.0775519813245971
                        0.0894138860904723
                        0.1008274221219413
                        0.1117553564241912
                        0.1221689730594993
                        0.1320481538325667
                        0.1413813706098746
                        0.1501655876789212
                        0.1584060027104783
                        0.1661154701433311
                        0.1733133785787824
                        0.1800237277688398
                        0.1862722018159422
                        0.1920821855679149
                        0.1974699386287699
                        0.2024395497513440
                        0.2069788558362995
                        0.2110581289126672
                        0.2146336246907715
                        0.2176572909244525
                        0.2200913795989809
                        0.2219229742260987
                        0.2231712058236135
                        0.2238835236516506
                        0.2240131599870637
                        0.0000335494175113
                        0.0134166048360582
                        0.0267265627076494
                        0.0398905642197955
                        0.0528350848849008
                        0.0654929420900366
                        0.0778037769555528
                        0.0897146745974135
                        0.1011806875242077
                        0.1121651706319765
                        0.1226399193206619
                        0.1325851410964907
                        0.1419892944655656
                        0.1508487995928941
                        0.1591675677849865
                        0.1669562238706122
                        0.1742308307991286
                        0.1810109019646305
                        0.1873165392773364
                        0.1931646951951217
                        0.1985648489775410
                        0.2035148234186093
                        0.2079980114592269
                        0.2119837477826839
                        0.2154324929527029
                        0.2183062501349216
                        0.2205819693039105
                        0.2222627296938673
                        0.2233807680605345
                        0.2239909526884394
                        0.2240488201306379
                        0.0000334899640366
                        0.0134559843477229
                        0.0268058135208853
                        0.0400105616710790
                        0.0529971550430768
                        0.0656989032841185
                        0.0780559851984194
                        0.0900160672819865
                        0.1015348123873449
                        0.1125761772227423
                        0.1231124793343729
                        0.1331242545211874
                        0.1425999347235244
                        0.1515353574942326
                        0.1599330744171449
                        0.1678013663030466
                        0.1751528174679297
                        0.1820022812771413
                        0.1883641236827120
                        0.1942487996140834
                        0.1996591260486982
                        0.2045870598284961
                        0.2090122785280170
                        0.2129041392721327
                        0.2162281785457395
                        0.2189567458373231
                        0.2210808134301199
                        0.2226179122904346
                        0.2236116502434596
                        0.2241232063622557
                        0.2241107904791625
                        0.0000332453255138
                        0.0134952790709537
                        0.0268850683188096
                        0.0401306370350100
                        0.0531593829628614
                        0.0659051228726963
                        0.0783085860394235
                        0.0903180332456595
                        0.1018897514009280
                        0.1129883128191390
                        0.1235865686558914
                        0.1336653876312795
                        0.1432131661353692
                        0.1522251280067902
                        0.1607024034638322
                        0.1686508322630771
                        0.1760793916356371
                        0.1829981343994896
                        0.1894155790071811
                        0.1953356658352541
                        0.2007547098168433
                        0.2056592113532122
                        0.2100257951197089
                        0.2138246157980456
                        0.2170268537612960
                        0.2196151667424062
                        0.2215936947818198
                        0.2229929903681614
                        0.2238666671758332
                        0.2242815204078890
                        0.2241990564197475
                        0.0000328177236298
                        0.0135344897028464
                        0.0269643258589387
                        0.0402507862868450
                        0.0533217605595873
                        0.0661115868680463
                        0.0785615571008701
                        0.0906205385801485
                        0.1022454554637889
                        0.1134015093447309
                        0.1240620971771766
                        0.1342084274565345
                        0.1438288566359475
                        0.1529179717755959
                        0.1614754327765785
                        0.1695045599627226
                        0.1770106209616945
                        0.1839987616733636
                        0.1904715832401196
                        0.1964265388270168
                        0.2018536346671210
                        0.2067343187395967
                        0.2110427427688884
                        0.2147504445369395
                        0.2178345367993774
                        0.2202876740363995
                        0.2221261885838919
                        0.2233923477108503
                        0.2241487165585114
                        0.2244673415319054
                        0.2243138728739929
                        0.0000322098848275
                        0.0135736169981091
                        0.0270435845357257
                        0.0403710046732103
                        0.0534842786758420
                        0.0663182798364863
                        0.0788148741146264
                        0.0909235469358653
                        0.1026018723525592
                        0.1138156947927095
                        0.1245389699846679
                        0.1347532554485699
                        0.1444468682591900
                        0.1536137442693911
                        0.1622520376969792
                        0.1703624908642573
                        0.1779465864002615
                        0.1850044917396764
                        0.1915328617733467
                        0.1975227302733746
                        0.2029580129566493
                        0.2078154918592731
                        0.2120673327936579
                        0.2156868552384124
                        0.2186571399441029
                        0.2209802990924661
                        0.2226837961427040
                        0.2238204182571638
                        0.2244608783096267
                        0.2246823735090633
                        0.2244557599372789
                        0.0000314250608387
                        0.0136126618393191
                        0.0271228425040820
                        0.0404912868935488
                        0.0536469273247867
                        0.0665251852082684
                        0.0790685113038035
                        0.0912270199808282
                        0.1029589472609384
                        0.1142307938419377
                        0.1250170880373869
                        0.1352997481841397
                        0.1450670577948002
                        0.1543122962597087
                        0.1630320911395510
                        0.1712245690078544
                        0.1788873802014488
                        0.1860156773536013
                        0.1926001798936295
                        0.1986256066637129
                        0.2040700187080584
                        0.2089058921386561
                        0.2131037961499574
                        0.2166390521863376
                        0.2195005193036936
                        0.2216990369686607
                        0.2232720693136202
                        0.2242818127450956
                        0.2248065132189188
                        0.2249286300555746
                        0.2246255080249997
                        0.0000304670520129
                        0.0136516252953242
                        0.0272020977765974
                        0.0406116272424122
                        0.0538096958814312
                        0.0667322855210340
                        0.0793224416833380
                        0.0915309177624003
                        0.1033166232237229
                        0.1146467283387109
                        0.1254963486864718
                        0.1358477778799728
                        0.1456892772134538
                        0.1550134740117848
                        0.1638154633043242
                        0.1720907398602385
                        0.1798331033009136
                        0.1870326904648610
                        0.1936743345158077
                        0.1997365768559754
                        0.2051918714688124
                        0.2100087163285121
                        0.2141563757557274
                        0.2176122284834075
                        0.2203705243888466
                        0.2224499359212147
                        0.2238967295371998
                        0.2247814440303623
                        0.2251893679163994
                        0.2252084987375979
                        0.2248241927008170
                        0.0000293402334516
                        0.0136905086670850
                        0.0272813482949297
                        0.0407320197131684
                        0.0539725732213573
                        0.0669395625977966
                        0.0795766372800724
                        0.0918351989728255
                        0.1036748414277520
                        0.1150634176448393
                        0.1259766460378191
                        0.1363972127200295
                        0.1463133738641936
                        0.1557171191904737
                        0.1646020210276497
                        0.1729609486997363
                        0.1807838621271943
                        0.1880559166136697
                        0.1947561452228877
                        0.2008570791580227
                        0.2063258202371943
                        0.2111271811283139
                        0.2152293201469501
                        0.2186115809228716
                        0.2212730460156728
                        0.2232391831933015
                        0.2245637847676412
                        0.2253246572437828
                        0.2256136932048334
                        0.2255248210363371
                        0.2250532001968905
                        0.0000280495841498
                        0.0137293135201698
                        0.0273605919716230
                        0.0408524580571297
                        0.0541355478004253
                        0.0671469976487337
                        0.0798310692596597
                        0.0921398211029692
                        0.1040335413905462
                        0.1154807788305330
                        0.1264578711329790
                        0.1369479169667830
                        0.1469391904141483
                        0.1564230684495362
                        0.1653916267391938
                        0.1738351385058258
                        0.1817397648008031
                        0.1890857486253853
                        0.1958464445954554
                        0.2019885678666291
                        0.2074741272218994
                        0.2122645080431709
                        0.2163268772422750
                        0.2196423237157234
                        0.2222140610211420
                        0.2240731870928001
                        0.2252796470761395
                        0.2259173706949908
                        0.2260843836223096
                        0.2258809953117161
                        0.2253142656321563
                        0.0000266007202569
                        0.0137680416990173
                        0.0274398266928579
                        0.0409729357839490
                        0.0542986076546437
                        0.0673545712717300
                        0.0800857079292645
                        0.0924447404465623
                        0.1043926609623531
                        0.1158987266611446
                        0.1269399118883152
                        0.1374997507904497
                        0.1475665644530293
                        0.1571311526199073
                        0.1661841369298244
                        0.1747132472535845
                        0.1827009166208762
                        0.1901225794953050
                        0.1969460677062991
                        0.2031324990691037
                        0.2086390510458378
                        0.2134239076890179
                        0.2174532868618902
                        0.2207096992335454
                        0.2231996720513277
                        0.2249586548263139
                        0.2260512529900355
                        0.2265662333852048
                        0.2266071477011936
                        0.2262811120670342
                        0.2256095272531079
                        0.0000249999324922
                        0.0138066953139940
                        0.0275190502641547
                        0.0410934460756164
                        0.0544617402832142
                        0.0675622633037806
                        0.0803405225563476
                        0.0927499118841891
                        0.1047521360677532
                        0.1163171732789613
                        0.1274226526799982
                        0.1380525696860553
                        0.1481953276146188
                        0.1578411953290706
                        0.1669793999446966
                        0.1755952044072935
                        0.1836674146153271
                        0.1911667942165913
                        0.1980558404903662
                        0.2042903153187314
                        0.2098228287880643
                        0.2146085625366581
                        0.2186127704270703
                        0.2218189836569865
                        0.2242361401769950
                        0.2259026646330568
                        0.2268861875640810
                        0.2272788049782816
                        0.2271887208752886
                        0.2267301351459255
                        0.2259416019267821
                        0.0000232542285986
                        0.0138452766857834
                        0.0275982602658270
                        0.0412139815635180
                        0.0546249323458071
                        0.0677700524357396
                        0.0805954808964932
                        0.0930552883174828
                        0.1051119000342741
                        0.1167360274026434
                        0.1279059733688755
                        0.1386062232411045
                        0.1488253039480520
                        0.1585530107475047
                        0.1677772527590023
                        0.1764809262286081
                        0.1846393407261902
                        0.1922187600687178
                        0.1991765664318459
                        0.2054634284908099
                        0.2110276559177317
                        0.2158216067250266
                        0.2198095158743958
                        0.2229754848996936
                        0.2253299072151034
                        0.2269127293072743
                        0.2277928114921164
                        0.2280637637874812
                        0.2278371365127381
                        0.2272341492369979
                        0.2263136900416457
                        0.0000213713813895
                        0.0138837882170243
                        0.0276774537596831
                        0.0413345338797672
                        0.0547881690541344
                        0.0679779154363894
                        0.0808505482402315
                        0.0933608195257904
                        0.1054718822388623
                        0.1171551927291608
                        0.1283897474004271
                        0.1391605528360979
                        0.1494563070589199
                        0.1592663999178097
                        0.1685775161192328
                        0.1773703092058514
                        0.1856167528464317
                        0.1932788144824831
                        0.2003090105536864
                        0.2066531996080771
                        0.2122556625977509
                        0.2170661009438551
                        0.2210476551079626
                        0.2241845292598602
                        0.2264876032098034
                        0.2279968459402251
                        0.2287803877831854
                        0.2289311471970088
                        0.2285620752426452
                        0.2278007049700642
                        0.2267297226544654
                        0.0000193599832534
                        0.0139222321411062
                        0.0277566267420139
                        0.0414550928237572
                        0.0549514330420718
                        0.0681858257105507
                        0.0811056856405705
                        0.0936664500389731
                        0.1058320055907701
                        0.1175745649771786
                        0.1288738383309164
                        0.1397153875314690
                        0.1500881351658513
                        0.1599811446939238
                        0.1693799869476780
                        0.1782632203543319
                        0.1865996722953748
                        0.1943472488827037
                        0.2014538788789385
                        0.2078609135059824
                        0.2135088838111779
                        0.2183449992487257
                        0.2223312300239520
                        0.2254514316425500
                        0.2277160322138058
                        0.2291635231776424
                        0.2298591998491754
                        0.2298926258752046
                        0.2293753184874819
                        0.2284393108793785
                        0.2271945714862543
                        0.0000172295076435
                        0.0139606100521525
                        0.0278357731540694
                        0.0415756448570592
                        0.0551147023247264
                        0.0683937506948607
                        0.0813608467108839
                        0.0939721152917120
                        0.1061921819849972
                        0.1179940265601584
                        0.1293580936078025
                        0.1402705367931727
                        0.1507205625321110
                        0.1606969975322818
                        0.1701844260099207
                        0.1791594821189471
                        0.1875880651648222
                        0.1954242855943296
                        0.2026117900473607
                        0.2090877445301287
                        0.2147892188823766
                        0.2196611025704625
                        0.2236641407568337
                        0.2267814413240662
                        0.2290221256665946
                        0.2304217716318823
                        0.2310406449239093
                        0.2309618061117063
                        0.2302913380938317
                        0.2291621518734212
                        0.2277143556699880
                        0.0000149903783523
                        0.0139989220467086
                        0.0279148831026519
                        0.0416961704000536
                        0.0552779466340538
                        0.0686016471819617
                        0.0816159718728526
                        0.0942777347157400
                        0.1065523041374710
                        0.1184134370330419
                        0.1298423334565847
                        0.1408257775848149
                        0.1513533244402792
                        0.1614136639048267
                        0.1709905371715025
                        0.1800588477083806
                        0.1885818128042814
                        0.1965100424457295
                        0.2037832329937033
                        0.2103347063191842
                        0.2160983724320272
                        0.2210169897127394
                        0.2250500653032089
                        0.2281796499743795
                        0.2304128460248957
                        0.2317810337572769
                        0.2323372731967685
                        0.2321545397878575
                        0.2313280575146409
                        0.2299851663584614
                        0.2282969026079349
                        0.0000126540474709
                        0.0140371651527301
                        0.0279939396428688
                        0.0418166389467090
                        0.0554411207976868
                        0.0688094528714673
                        0.0818709779631598
                        0.0945831992571347
                        0.1069122308318774
                        0.1188326158466497
                        0.1303263308596917
                        0.1413808312074567
                        0.1519860904205708
                        0.1621307712997677
                        0.1717979313766650
                        0.1809609590584351
                        0.1895806625925465
                        0.1976044750304546
                        0.2049684992972766
                        0.2116025727378481
                        0.2174377620436602
                        0.2224149090111356
                        0.2264923310682640
                        0.2296508387547288
                        0.2318950113391385
                        0.2332510135326643
                        0.2337627196900132
                        0.2334891916718365
                        0.2325078139891895
                        0.2309297072270863
                        0.2289524628528332
                        0.0000102330839071
                        0.0140753304360543
                        0.0280729128883641
                        0.0419370001247600
                        0.0556041526240285
                        0.0690170709109343
                        0.0821257392166765
                        0.0948883485347576
                        0.1072717599292233
                        0.1192513108109989
                        0.1308097749866937
                        0.1419353210974060
                        0.1526184156670886
                        0.1628478133204627
                        0.1726060622679574
                        0.1818652725645559
                        0.1905841421330868
                        0.1987072775041187
                        0.2061675685230342
                        0.2128917453767788
                        0.2188083647513079
                        0.2238565989552685
                        0.2279937020750143
                        0.2311992221795090
                        0.2334749890651928
                        0.2348413378621666
                        0.2353314350120586
                        0.2349867554487193
                        0.2338585179148850
                        0.2320251809823617
                        0.2296948583092040
                        0.0000077412758823
                        0.0141133975948641
                        0.0281517490554121
                        0.0420571670677628
                        0.0557669203694454
                        0.0692243411460457
                        0.0823800518995743
                        0.0951929283623705
                        0.1076305781772290
                        0.1196691394658675
                        0.1312922032558571
                        0.1424886945283778
                        0.1532496511114185
                        0.1635640465928522
                        0.1734141080758161
                        0.1827709237558284
                        0.1915914041594059
                        0.1998177048239958
                        0.2073799045147301
                        0.2142020199813915
                        0.2202104483673803
                        0.2253429765685780
                        0.2295560122144967
                        0.2328280086375468
                        0.2351581639763261
                        0.2365609288635644
                        0.2370580480138003
                        0.2366705979515171
                        0.2354149032653637
                        0.2333133738989221
                        0.2305433951336234
                        0.0000051937569620
                        0.0141513246991627
                        0.0282303497103524
                        0.0421769849185301
                        0.0559292100586701
                        0.0694309856659776
                        0.0826335673232245
                        0.0954965102945940
                        0.1079881661525856
                        0.1200854780618535
                        0.1317728727376256
                        0.1430400745198256
                        0.1538787735634352
                        0.1642782964438312
                        0.1742207496515582
                        0.1836764739575817
                        0.1926009375268479
                        0.2009342431668222
                        0.2086040796146104
                        0.2155321577496338
                        0.2216430811037307
                        0.2268735728341675
                        0.2311795075862672
                        0.2345386213011187
                        0.2369479984484440
                        0.2384168645270813
                        0.2389560592206964
                        0.2385653981795002
                        0.2372194947785000
                        0.2348557734680486
                        0.2315261717828028
                        0.0000026071802022
                        0.0141890283592879
                        0.0283085317015870
                        0.0422961700117661
                        0.0560906330736026
                        0.0696365036569285
                        0.0828856625014742
                        0.0957983362818360
                        0.1083436147289781
                        0.1204992472343046
                        0.1322505119531055
                        0.1435879741380896
                        0.1545040582657278
                        0.1649885827374300
                        0.1750237437850566
                        0.1845794243634139
                        0.1936100142938709
                        0.2020539811565668
                        0.2098370598331137
                        0.2168790723481871
                        0.2231032052329962
                        0.2284454724607635
                        0.2328616228383685
                        0.2363292668532993
                        0.2388443265261494
                        0.2404123022077817
                        0.2410353098939478
                        0.2406944445975078
                        0.2393222631422097
                        0.2367463606357297
                        0.2326860164679506
                        0.0000000000000000
                        0.0142265227717730
                        0.0283863074840824
                        0.0424147367758932
                        0.0562512079851542
                        0.0698409200028963
                        0.0831363710778229
                        0.0960984508794598
                        0.1086969793141108
                        0.1209105067600002
                        0.1327251643248694
                        0.1441323725816630
                        0.1551253259359335
                        0.1656944011436614
                        0.1758219909304907
                        0.1854776733449650
                        0.1946149580010445
                        0.2031709102822297
                        0.2110695600668220
                        0.2182290835535161
                        0.2245714755102167
                        0.2300322614760932
                        0.2345673326230713
                        0.2381545871981252
                        0.2407894914734359
                        0.2424750439763891
                        0.2432067588089244
                        0.2429508051130737
                        0.2416049389406487
                        0.2389021693024771
                        0.2340915416681260
                </DataArray>
                <DataArray type="Float32" Name="aspect_ratio" NumberOfComponents="1" format="ascii">
                        7.7913247532124662
                        7.7506051401475198
                        7.6890747623023034
                        7.5881116251168546
                        7.4498088907844083
                        7.2769801844214326
                        7.0730326560457659
                        6.8418247364634536
                        6.5875163480422744
                        6.3144200574557243
                        6.0268610146295552
                        5.7290520820012039
                        5.4249887138084862
                        5.1183661960391455
                        4.8125200208383520
                        4.5103885758873695
                        4.2144960639359864
                        3.9269526717381439
                        3.6494685123809480
                        3.3833777656632234
                        3.1296696917101869
                        2.8890236997380835
                        2.6618462787572714
                        2.4483082229361136
                        2.2483811348545162
                        2.0618726815463253
                        1.8884606681824315
                        1.7277273134436234
                        1.5792007272642146
                        1.4424454338566060
                        1.3123254682559149
                        7.8008539830717930
                        7.7600842652016616
                        7.6984755602425247
                        7.5973790588974308
                        7.4588903650960279
                        7.2858263232416391
                        7.0815980016659575
                        6.8500683664535393
                        6.5954024477495437
                        6.3219185117132523
                        6.0339480905524825
                        5.7357112555747835
                        5.4312116399778194
                        5.1241537412800542
                        4.8178831886165664
                        4.5153490932855726
                        4.2190863954948336
                        3.9312153045223465
                        3.6534545078074587
                        3.3871447661423047
                        3.1332797592367349
                        2.8925415145228691
                        2.6653383431975668
                        2.4518438715374878
                        2.2520365577773348
                        2.0657404311238985
                        1.8926712391848656
                        1.7325041372200119
                        1.5850274764370148
                        1.4506543428925119
                        1.3235077553420688
                        7.8104103966747622
                        7.7695920535306780
                        7.7079062173522603
                        7.6066775325463635
                        7.4680040930041520
                        7.2947059721848613
                        7.0901981522149484
                        6.8583481258047982
                        6.6033260249598584
                        6.3294558193195382
                        6.0410754462611752
                        5.7424122386256448
                        5.4374781021362250
                        5.1299868889599759
                        4.8232945606890600
                        4.5203611945420075
                        4.2237327434944830
                        3.9355397290098240
                        3.6575096996700499
                        3.3909902730415498
                        3.1369798209738443
                        2.8961632865841446
                        2.6689511754780092
                        2.4555204589101658
                        2.2558571468850912
                        2.0698022783893380
                        1.8971079506918017
                        1.7375225221134648
                        1.5909459952678052
                        1.4576252133653718
                        1.3312274109765962
                        7.8199945012733497
                        7.7791296533895759
                        7.7173682742411504
                        7.6160089098244432
                        7.4771522517304835
                        7.3036216351755360
                        7.0988359596803994
                        6.8666672372704014
                        6.6112906934353892
                        6.3370359997634588
                        6.0482475128122772
                        5.7491598664846390
                        5.4437933142215851
                        5.1358711812706812
                        4.8287599250812414
                        4.5254307903534715
                        4.2284409667355327
                        3.9399315118580938
                        3.6616390353539340
                        3.3949181655702896
                        3.1407720551780752
                        2.8998885594949490
                        2.6726802172702563
                        2.4593268319264690
                        2.2598204983282285
                        2.0740148286276307
                        1.9016835543936142
                        1.7425965884860913
                        1.5966002943101684
                        1.4635236566983552
                        1.3369381556385454
                        7.8296064674780615
                        7.7886962736711585
                        7.7268601162869958
                        7.6253708577474328
                        7.4863319040224027
                        7.3125698950570450
                        7.1075076596628811
                        6.8750217271901651
                        6.6192924097653763
                        6.3446550760339627
                        6.0554605062991813
                        5.7559506581771811
                        5.4501541827471392
                        5.1418039626476892
                        4.8342770720500693
                        4.5305560748259805
                        4.2332095650388253
                        3.9443892973611546
                        3.6658410673108126
                        3.3989265673053425
                        3.1446536635268182
                        2.9037128494449326
                        2.6765180319799411
                        2.4632503504300164
                        2.2639045234632796
                        2.0783382428548596
                        1.9063251926820590
                        1.7476046629734942
                        1.6018815443619311
                        1.4686094512475386
                        1.3414357750920262
                        7.8392463489886008
                        7.7982915876258586
                        7.7363811169777541
                        7.6347624958549644
                        7.4955419616090127
                        7.3215495058292166
                        7.1162119024270432
                        6.8834101989064604
                        6.6273297879251562
                        6.3523117277287816
                        6.0627132194780634
                        5.7627835532091011
                        5.4565598056559138
                        5.1477844704380042
                        4.8398453197401313
                        4.5357363405645077
                        4.2380376438324042
                        3.9489117780739516
                        3.6701137709340666
                        3.4030123244405936
                        3.1486197836617293
                        2.9076287213435699
                        2.6804532385489212
                        2.4672733920962391
                        2.2680814521418520
                        2.0827283855254196
                        1.9109657474458538
                        1.7524657020820161
                        1.6067705597375055
                        1.4730740456893878
                        1.3451680255325894
                        7.8489141719647332
                        7.8079154559717297
                        7.7459310267371056
                        7.6441834878288319
                        7.5047820217776561
                        7.3305600202307935
                        7.1249482202701840
                        6.8918321903350292
                        6.6354023979691300
                        6.3600055812561115
                        6.0700053524583321
                        5.7696583295019132
                        5.4630100214758181
                        5.1538125560607759
                        4.8454644448140460
                        4.5409711529559030
                        4.2429243633436618
                        3.9534974479492353
                        3.6744546298390058
                        3.4071714532944894
                        3.1526643366493202
                        2.9116270947205353
                        2.6844723864319211
                        2.4713760341950483
                        2.2723218316994089
                        2.0871429171642159
                        1.9155509244753137
                        1.7571334281986717
                        1.6112877509169146
                        1.4770577907365612
                        1.3483945962203432
                        7.8586099685117326
                        7.8175678283416906
                        7.7555097559318181
                        7.6536337208846239
                        7.5140519599250340
                        7.3396013135246599
                        7.1337165015843374
                        6.9002876177850111
                        6.6435101992224205
                        6.3677366516882640
                        6.0773369819147961
                        5.7765751178079577
                        5.4695049857139177
                        5.1598883390352502
                        4.8511344286442964
                        4.5462602020641919
                        4.2478689090401773
                        3.9581447041254086
                        3.6788608830618763
                        3.4113995509451112
                        3.1567806287807456
                        2.9156980864308199
                        2.6885611365430054
                        2.4755377606034757
                        2.2765970424839020
                        2.0915445630872139
                        1.9200406699185069
                        1.7615866266652870
                        1.6154685855492041
                        1.4806637113419163
                        1.3512711366678362
                        7.8683337868511492
                        7.8272487052310130
                        7.7651172944245742
                        7.6631131886606516
                        7.5233517823209910
                        7.3486734131569704
                        7.1425168047253697
                        6.9087765815251339
                        6.6516533450298155
                        6.3755051540628074
                        6.0847083860930046
                        5.7835342472611885
                        5.4760450434832017
                        5.1660121129223811
                        4.8568554025212173
                        4.5516032929491150
                        4.2528705331216397
                        3.9628519464753349
                        3.6833296916587422
                        3.4156920425886022
                        3.1609617033600897
                        2.9198315105111432
                        2.6927049883210186
                        2.4797385359308041
                        2.2808807759830066
                        2.0959024397846892
                        1.9244077771940240
                        1.7658204520016151
                        1.6193518409265128
                        1.4839678633575311
                        1.3538942317985250
                        7.8780856923119662
                        7.8369581205727351
                        7.7747536782477605
                        7.6726219440456996
                        7.5326815674913185
                        7.3577764313390895
                        7.1513492845397071
                        6.9172992890535198
                        6.6598321055679405
                        6.3833114285550533
                        6.0921199750768671
                        5.7905361834254614
                        5.4826306780465352
                        5.1721843070212589
                        4.8626276252931612
                        4.5570003423235716
                        4.2579285738031387
                        3.9676176243299835
                        3.6878582200928791
                        3.4200443095602977
                        3.1652005364242657
                        2.9240171782510347
                        2.6968897402296604
                        2.4839594749036664
                        2.2851497985191472
                        2.1001921742000047
                        1.9286354484088057
                        1.7698398941851973
                        1.6229742959982119
                        1.4870268595325739
                        1.3563259654370057
                        7.8878657651448272
                        7.8466961317513177
                        7.7844189729461753
                        7.6821600764373982
                        7.5420414381852837
                        7.3669105326195906
                        7.1602141564760786
                        6.9258560167668060
                        6.6680468281109135
                        6.3911559003566955
                        6.0995722513775764
                        5.7975814907565895
                        5.4892624763517795
                        5.1784054563841033
                        4.8684514595362597
                        4.5624513629354655
                        4.2630424507288697
                        3.9724402470430662
                        3.6924436684723674
                        3.4244517541848277
                        3.1694901525155829
                        2.9282450930328296
                        2.7011017945777683
                        2.4881832431561678
                        2.2893842320849562
                        2.1043953556581131
                        1.9327147407302965
                        1.7736552816159150
                        1.6263686330529902
                        1.4898832398021564
                        1.3586076312441737
                        7.8976740976009169
                        7.8564628128052838
                        7.7941132634607505
                        7.6917276983426807
                        7.5514315448623175
                        7.3760759144550415
                        7.1691116745422267
                        6.9344470856140909
                        6.6762979106911236
                        6.3990390517778675
                        6.1070657809195497
                        5.8046708030213784
                        5.4959410996028528
                        5.1846761735122075
                        4.8743273456277533
                        4.5679564417864356
                        4.2682116498961436
                        3.9773183794875441
                        3.6970832847604124
                        3.4289098385706928
                        3.1738237050780798
                        2.9325055909138287
                        2.7053283650899868
                        2.4923942713627373
                        2.2935675206146361
                        2.1084986818684992
                        1.9366423126193472
                        1.7772793608893554
                        1.6295628937497510
                        1.4925692724220771
                        1.3607675675627684
                        7.9075107911825050
                        7.8662582494203939
                        7.8038366471844124
                        7.7013249363480517
                        7.5608520545078321
                        7.3852727938660330
                        7.1780421158209786
                        6.9430728435110862
                        6.6845857825250049
                        6.4069614008072942
                        6.1146011699680605
                        5.8118047989475224
                        5.5026672581973473
                        5.1909971233432748
                        4.8802557779433653
                        4.5735157192493853
                        4.2734357081541449
                        3.9822506356906905
                        3.7017743733107992
                        3.4334141165923673
                        3.1781945431121092
                        2.9367894507838674
                        2.7095576168398873
                        2.4965788360190745
                        2.2976862041791525
                        2.1124930217457778
                        1.9404186030853597
                        1.7807254908985323
                        1.6325806434651120
                        1.4951096402597423
                        1.3628257477589713
                        7.9173759543339846
                        7.8760825351678240
                        7.8135892289697505
                        7.7109519247112852
                        7.5703031426635740
                        7.3945013978423915
                        7.1870057691553002
                        6.9517336522700803
                        6.6929108892156515
                        6.4149234846018494
                        6.1221790470696953
                        5.8189841829204241
                        5.5094416916296463
                        5.1973690031077806
                        4.8862372858403080
                        4.5791293728165633
                        4.2787142021907450
                        3.9872356766992385
                        3.7065143068405839
                        3.4379602670009956
                        3.1825962725660749
                        2.9410879838058994
                        2.7137787544636705
                        2.5007250451202524
                        2.3017295888058821
                        2.1163725200301529
                        1.9440464401288660
                        1.7840065823251046
                        1.6354414178885418
                        1.4975233441837103
                        1.3647965406448750
                        7.9272697005955045
                        7.8859357686853731
                        7.8233711175228484
                        7.7206088007987472
                        7.5797849877644068
                        7.4037619564427477
                        7.1960029269526422
                        6.9604298780315088
                        6.7012736817472425
                        6.4229258471305840
                        6.1298000494439340
                        5.8262096703642959
                        5.5162651533154196
                        5.2037925273973420
                        4.8922724200695968
                        4.5847976065522736
                        4.2840467434695187
                        3.9922722144321889
                        3.7113005438236734
                        3.4425441296557359
                        3.1870228145396800
                        2.9453931056160556
                        2.7179820688426927
                        2.5048227583192410
                        2.3056893727541219
                        2.1201338047478165
                        1.9475300184422158
                        1.7871345160616547
                        1.6381612439419780
                        1.4998250585637471
                        1.3666904146541409
                        7.9371921471573195
                        7.8958180515748930
                        7.8331824228273587
                        7.7302957018810982
                        7.5892977671837020
                        7.4130546979678933
                        7.2050338793784930
                        6.9691618844197285
                        6.7096746085874916
                        6.4309690302139821
                        6.1374648130727472
                        5.8334819771386896
                        5.5231383997766212
                        5.2102684178834005
                        4.8983617441807480
                        4.5905206458813564
                        4.2894329787718364
                        3.9973590211615963
                        3.7161306508241142
                        3.4471617442316390
                        3.1914684598042265
                        2.9496973925912130
                        2.7221589503592263
                        2.5088634650772125
                        2.3095592695496550
                        2.1237753195031996
                        1.9508741716888844
                        1.7901198585557979
                        1.6407531394986263
                        1.5020261024516079
                        1.3685150167619111
                        7.9471434137381714
                        7.9057294868479177
                        7.8430232543240067
                        7.7400127629334494
                        7.5988416545196027
                        7.4223798456389330
                        7.2140989103511789
                        6.9779300277846188
                        6.7181141101258764
                        6.4390535671871984
                        6.1451739656936555
                        5.8408018121144047
                        5.5300621832988389
                        5.2167973967733667
                        4.9045058299839254
                        4.5962987367224631
                        4.2948725952663160
                        4.0024949434373739
                        3.7210023283767462
                        3.4518093898806966
                        3.1959279184681637
                        2.9539941231713429
                        2.7263018761009748
                        2.5128401393964855
                        2.3133346527924203
                        2.1272967805412315
                        1.9540838688538413
                        1.7929717542366287
                        1.6432275531594818
                        1.5041351392719467
                        1.3702758708925193
                        7.9571236217133539
                        7.9156701777704918
                        7.8528937196286256
                        7.7497601151414976
                        7.6084168177730359
                        7.4317376153783818
                        7.2231982948293772
                        6.9867346539429777
                        6.7265926148209997
                        6.4471799784863986
                        6.1529281219429686
                        5.8481698721322719
                        5.5370372471391870
                        5.2233801830968137
                        4.9107052560506689
                        4.6021321478537723
                        4.3003653289065967
                        4.0076789190732434
                        3.7259134389071936
                        3.4564836242882645
                        3.2003963637950706
                        2.9582773056151972
                        2.7304043779032121
                        2.5167470855244439
                        2.3170122368134487
                        2.1306987474149836
                        1.9571638754477668
                        1.7956979182973455
                        1.6455927330373667
                        1.5061586825890756
                        1.3719768375033222
                        7.9671328934377505
                        7.9256402269860766
                        7.8627939236351032
                        7.7595378849021111
                        7.6180234181710034
                        7.4411282143510153
                        7.2323322969991392
                        6.9955760959546620
                        6.7351105365657180
                        6.4553487685995797
                        6.1607278800127945
                        5.8555868386269676
                        5.5440643225969188
                        5.2300174910041592
                        4.9169606084004383
                        4.6080211755556426
                        4.3059109750746483
                        4.0129099959740967
                        3.7308620353417948
                        3.4611813208672252
                        3.2048694696882565
                        2.9625416940567396
                        2.7344609975752941
                        2.5205797853443274
                        2.3205897997894799
                        2.1339822916546017
                        1.9601185329888115
                        1.7983046819102224
                        1.6478550261613860
                        1.5081014612859334
                        1.3736204179295534
                        7.9771713517160342
                        7.9356397358552638
                        7.8727239678837208
                        7.7693461931662464
                        7.6276616093977981
                        7.4505518399931530
                        7.2415011690695395
                        7.0044546726292513
                        6.7436682728643092
                        6.4635604239448262
                        6.1685738193506899
                        5.8630533753888396
                        5.5511441273706812
                        5.2367100294301833
                        4.9232724826272997
                        4.6139661497494753
                        4.3115094005595595
                        4.0181873518287087
                        3.7358463893550346
                        3.4658997032067873
                        3.2093434418626611
                        2.9667827950456393
                        2.7384672349808035
                        2.5243347551090733
                        2.3240659510744080
                        2.1371487471700996
                        1.9629516216552729
                        1.8007970606768154
                        1.6500191151322769
                        1.5099666808083109
                        1.3752079536149153
                        7.9872391193894149
                        7.9456688039447735
                        7.8826839500977711
                        7.7791851549872968
                        7.6373315370718696
                        7.4600086793844166
                        7.2507051504550451
                        7.0133706874756726
                        6.7522662035379673
                        6.4718154113496892
                        6.1764664990283240
                        5.8705701271095741
                        5.5582773646988045
                        5.2434585026403493
                        4.9296414869282864
                        4.6199674409750726
                        4.3171605561647114
                        4.0235103138525258
                        3.7408650184506032
                        3.4706363762547021
                        3.2138150430952991
                        2.9709968668909425
                        2.7424194937758503
                        2.5280094167016210
                        2.3274399416000237
                        2.1401995274254903
                        1.9656662804828705
                        1.8031788290548208
                        1.6520881999171513
                        1.5117562055378233
                        1.3767397505333029
                        7.9973363190088543
                        7.9557275285936739
                        7.8926739638282278
                        7.7890548791961374
                        7.6470333383848309
                        7.4694989087882885
                        7.2599444671790115
                        7.0223244279076011
                        6.7609046897147578
                        6.4801141768878375
                        6.1844064565145423
                        5.8781377183545376
                        5.5654647229825500
                        5.2502636112630256
                        4.9360682456102261
                        4.6260254677169468
                        4.3228644894045902
                        4.0288783779688918
                        3.7459167113055289
                        3.4753893540090381
                        3.2182816132088371
                        2.9751809141184958
                        2.7463150287411505
                        2.5316019866894845
                        2.3307115146828181
                        2.1431359966374693
                        1.9682649669619016
                        1.8054525910252691
                        1.6540641322269331
                        1.5134706792546673
                        1.3782151469332110
                        8.0074630725827135
                        7.9658160045536164
                        7.9026940981628592
                        7.7989554681554704
                        7.6567671418372461
                        7.4790226933022719
                        7.2692193313888302
                        7.0313161646123719
                        6.7695840730240758
                        6.4884571449148703
                        6.1923942066787859
                        5.8857567527623353
                        5.5727068756806782
                        5.2571260535402048
                        4.9425534027344670
                        4.6321407037434885
                        4.3286213568593010
                        4.0342912270048057
                        3.7510005510393673
                        3.4801570837152799
                        3.2227410846257362
                        2.9793326791925095
                        2.7501518978685081
                        2.5351113850760842
                        2.3338807940021945
                        2.1459593847663434
                        1.9707494436538070
                        1.8076198419693165
                        1.6559475087938955
                        1.5151095948772455
                        1.3796325347093617
                        8.0176195013760494
                        7.9759343236861165
                        7.9127444374703406
                        7.8088870175350551
                        7.6665330669971296
                        7.4885801865424533
                        7.2785299409202979
                        7.0403461509663126
                        6.7783046748614106
                        6.4968447171910887
                        6.2004302408821018
                        5.8934278123558401
                        5.5800044812542614
                        5.2640465266176419
                        4.9490976257023352
                        4.6383136851849873
                        4.3344314358631971
                        4.0397487475643557
                        3.7561159361904617
                        3.4849384667093537
                        3.2271919943993962
                        2.9834506333915271
                        2.7539289216018994
                        2.5385371646864125
                        2.3369482055511672
                        2.1486707385480266
                        1.9731207838470284
                        1.8096810196690813
                        1.6577377285318252
                        1.5166713203418189
                        1.3809893392837920
                        8.0278057257591193
                        7.9860825746661706
                        7.9228250611527422
                        7.8188496160810695
                        7.6763312242324928
                        7.4981715303045938
                        7.2878764788515511
                        7.0494146224454925
                        6.7870667956291363
                        6.5052772720087272
                        6.2085150260747152
                        5.9011514568373720
                        5.5873581830483324
                        5.2710257276988770
                        4.9557016085853183
                        4.6445450171113637
                        4.3402951353032152
                        4.0452510453548532
                        3.7612625992903860
                        3.4897328761374790
                        3.2316334935865107
                        2.9875339684480611
                        2.7576456509635635
                        2.5418794614876778
                        2.3399144307632065
                        2.1512709031331229
                        1.9753793916797133
                        1.8116355442693301
                        1.6594330172674286
                        1.5181530840450043
                        1.3822819586305109
                        8.0380218650852924
                        7.9962608426907857
                        7.9329360433883946
                        7.8288433453720281
                        7.6861617144184630
                        7.5077968541985278
                        7.2972591130148696
                        7.0585217959937950
                        6.7958707139611808
                        6.5137551632585083
                        6.2166490038311379
                        5.9089282227811472
                        5.5947686090607272
                        5.2780643549605920
                        4.9623660750666892
                        4.6508353794420122
                        4.3462130053421240
                        4.0507984588315365
                        3.7664406230083734
                        3.4945401718463012
                        3.2360653547431404
                        2.9915825902580963
                        2.7613023457802454
                        2.5451389657836329
                        2.3427803886527006
                        2.1537605310351910
                        1.9775250349237941
                        1.8134818484682447
                        1.6610304226232177
                        1.5195509203536963
                        1.3835056581991914
                        8.0482680376015819
                        8.0064692091941576
                        7.9430774528477496
                        7.8388682795237631
                        7.6960246285933837
                        7.5174562751895997
                        7.3066779954289242
                        7.0676678692888860
                        6.8047166858270483
                        6.5222787194036561
                        6.2248325892558236
                        5.9167586226673718
                        5.6022363714924954
                        5.2851631081757095
                        4.9690917809018043
                        4.6571855320978352
                        4.3521857459321533
                        4.0563915710512921
                        3.7716504538999070
                        3.4993607127551084
                        3.2404879782480872
                        2.9955971156436126
                        2.7648999637770444
                        2.5483169140391457
                        2.3455472455643707
                        2.1561401170692293
                        1.9795568910486915
                        1.8152174005258894
                        1.6625257807739904
                        1.5208595729521987
                        1.3846544143469743
                        8.0585443603680852
                        8.0167077515356811
                        7.9532493523757042
                        7.8489244848346092
                        7.7059200475327327
                        7.5271498970633713
                        7.3161332616217130
                        7.0768530199184129
                        6.8136049435269943
                        6.5308482423388595
                        6.2330661697640775
                        5.9246431437788585
                        5.6097620660390612
                        5.2923226889792205
                        4.9758795158155762
                        4.6635963193272566
                        4.3582142140767677
                        4.0620312197095314
                        3.7768929138693328
                        3.5041953670195891
                        3.2449023980595382
                        2.9995788728742935
                        2.7684401609314394
                        2.5514151010407742
                        2.3482164519205991
                        2.1584100598259133
                        1.9814736095228056
                        1.8168387242095942
                        1.6639136562721067
                        1.5220723509122078
                        1.3857206937702846
                        8.0688509491892786
                        8.0269765426501460
                        7.9634517986186949
                        7.8590120193588925
                        7.7158480412107056
                        7.5368778097932885
                        7.3256250298484245
                        7.0860774044546134
                        6.8225356946073241
                        6.5394640061396458
                        6.2413501037501904
                        5.9325822469410623
                        5.6173462709905515
                        5.2995438007819918
                        4.9827301048758904
                        4.6700686731871456
                        4.3642994298521084
                        4.0677185054317848
                        3.7821692095000924
                        3.5090455203165169
                        3.2493102873965005
                        3.0035299064318050
                        2.7719253032115846
                        2.5544359121125047
                        2.3507898061438272
                        2.1605707520390082
                        1.9832733958203431
                        1.8183414218967037
                        1.6651872561394042
                        1.5231809290515016
                        1.3866951494158486
                        8.0791879185256260
                        8.0372756506470691
                        7.9736848415793503
                        7.8691309323882893
                        7.7258086681825839
                        7.5466400887811262
                        7.3351534002086289
                        7.0953411574205065
                        6.8315091206813649
                        6.5481262557421035
                        6.2496847191724343
                        5.9405763651338471
                        5.6249895461788040
                        5.3068271484233610
                        4.9896444094139639
                        4.6766036162784780
                        4.3704425812669421
                        4.0734547984696846
                        3.7874809395107067
                        3.5139130826354220
                        3.2537139647677192
                        3.0074529863016784
                        2.7753584896101063
                        2.5573823751539102
                        2.3532695466766470
                        2.1626227040279025
                        1.9849541255364215
                        1.8197202101848219
                        1.6663383203180374
                        1.5241750800907053
                        1.3875662030964562
                        8.0895553813736212
                        8.0476051383232332
                        7.9839485240781020
                        7.8792812638335948
                        7.7358019748661781
                        7.5564367940237131
                        7.3447184536918963
                        7.1046443902233598
                        6.8405253762425636
                        6.5568352056399536
                        6.2580703121840381
                        5.9486259021732441
                        5.6326924318995191
                        5.3141734377352667
                        4.9966233276834202
                        4.6832022639764662
                        4.3766450282396802
                        4.0792417441405702
                        3.7928301007635124
                        3.5188004940871065
                        3.2581164008164902
                        3.0113516219778519
                        2.7787435862537030
                        2.5602582323570998
                        2.3556584737089584
                        2.1645667062856084
                        1.9865135006473471
                        1.8209689821465224
                        1.6673569930038348
                        1.5250423209378614
                        1.3883194693517348
                        8.0999534490605465
                        8.0579650625500559
                        7.9942428810949434
                        7.8894630434858627
                        7.7458279947127869
                        7.5662679692047379
                        7.3543202512156892
                        7.1139871901346755
                        6.8495845875946124
                        6.5655910387917577
                        6.2665071460415134
                        5.9567312317249084
                        5.6404554481932853
                        5.3215833753977718
                        5.0036677957033746
                        4.6898658266182775
                        4.3829083062689053
                        4.0850812676560700
                        3.7982190935437653
                        3.5237107304947542
                        3.2625212266541998
                        3.0152300814757542
                        2.7820852714118487
                        2.5630680315866034
                        2.3579601028531673
                        2.1664040392705351
                        1.9879492645869647
                        1.8220809177308784
                        1.6682316845759502
                        1.5257674486851900
                        1.3889369502394316
                        8.1103822308947437
                        8.0683554734720274
                        8.0045679389460645
                        7.8996762901460189
                        7.7558867472984773
                        7.5761336408046275
                        7.3639588327803056
                        7.1233696195156359
                        6.8586868521963283
                        6.5743939060877983
                        6.2749954507325513
                        5.9648926971593912
                        5.6482790951070908
                        5.3290576698179445
                        5.0107787890840467
                        4.6965956125653241
                        4.3892341308193660
                        4.0909755794838170
                        3.8036507274041463
                        3.5286473100786378
                        3.2669327448373625
                        3.0190934160686679
                        2.7853890915452995
                        2.5658172376921825
                        2.3601788536228633
                        2.1681367405715470
                        1.9892594987790069
                        1.8230486751397704
                        1.6689489440952077
                        1.5263319331597916
                        1.3893958901659128
                        8.1208418335453535
                        8.0787764134090852
                        8.0149237142225723
                        7.9099210106018410
                        7.7659782373996425
                        7.5860338173622688
                        7.3736342169834867
                        7.1327917156782936
                        6.8678322389019549
                        6.5832439270275956
                        6.2835354241336567
                        5.9731106132364181
                        5.6561638550380831
                        5.3365970343517065
                        5.0179573273689336
                        4.7033930338686524
                        4.3956244043222986
                        4.0969271833682613
                        3.8091282298821195
                        3.5336143036271601
                        3.2713559451921499
                        3.0229474924405800
                        2.7886615293903427
                        2.5685123647117334
                        2.3623202763162512
                        2.1697679418828748
                        1.9904430309173605
                        1.8238647133447228
                        1.6694933819746014
                        1.5267131218569478
                        1.3896671117734700
                        8.1313323599450401
                        8.0892279152580187
                        8.0253102123420055
                        7.9201971983863479
                        7.7761024541094993
                        7.5959684890746420
                        7.3833464013039165
                        7.1422534919715254
                        6.8770207899532529
                        6.5921411927387345
                        6.2921272361099352
                        5.9813852713713789
                        5.6641101992633679
                        5.3442021952767028
                        5.0252044836486450
                        4.7102596176727032
                        4.4020812293124053
                        4.1029388909126313
                        3.8146552623068038
                        3.5386163525846266
                        3.2757965298185905
                        3.0267990360590572
                        2.7919100870440665
                        2.5711611315126029
                        2.3643913221748743
                        2.1713022907759645
                        1.9914999949577631
                        1.8245218222684344
                        1.6698477195282726
                        1.5268832001669355
                        1.3897125365304052
                        8.1418539073415852
                        8.0997100000095266
                        8.0357274254097139
                        7.9305048321529304
                        7.7862593700098349
                        7.6059376280982245
                        7.3930953637985722
                        7.1517549411441521
                        6.8862525262696690
                        6.6010857733227750
                        6.3007710380957813
                        5.9897169515980857
                        5.6721186024063492
                        5.3518739088953856
                        5.0325214044648235
                        4.7171970290739853
                        4.4086069341510326
                        4.1090138498755337
                        3.8202359505245246
                        3.5436587033665123
                        3.2802609557488243
                        3.0306556938595215
                        2.7951433911951124
                        2.5737726470654147
                        2.3664006644284520
                        2.1727464755383835
                        1.9924325947770734
                        1.8250139768172717
                        1.6699931121408413
                        1.5268078372101964
                        1.3894813859859501
                        8.1524065638037391
                        8.1102226726369758
                        8.0461753287291614
                        7.9408438732271811
                        7.7964489403276914
                        7.6159411899065941
                        7.4028810672005055
                        7.1612960427108243
                        6.8955274585026277
                        6.6100777329974948
                        6.3094669826461053
                        5.9981059467715291
                        5.6801895715447575
                        5.3596129957577788
                        5.0399093493397098
                        4.7242071160627574
                        4.4152041233272916
                        4.1151555995695352
                        3.8258749452341475
                        3.5487472737136010
                        3.2847565117988537
                        3.0345261328462119
                        2.7983713362612460
                        2.5763576395653846
                        2.3683590842037744
                        2.1741098766731481
                        1.9932461380630426
                        1.8253376896422037
                        1.6699100256463581
                        1.5264444421976245
                        1.3889041827176632
                        8.1629904019015847
                        8.1207659148454915
                        8.0566538745016085
                        7.9512142611952139
                        7.8066711015326428
                        7.6259791159919784
                        7.4127034668006275
                        7.1708767769886144
                        6.9048456081152186
                        6.6191171590374191
                        6.3182152608972837
                        6.0065526091257942
                        5.6883237023333876
                        5.3674204067838051
                        5.0473697672416953
                        4.7312919965262335
                        4.4218757750156863
                        4.1213681787573238
                        3.8315775399907321
                        3.5538887815784942
                        3.2892914620712889
                        3.0384202082066472
                        2.8016052988425974
                        2.5789287608330934
                        2.3702799500386943
                        2.1754053794900592
                        1.9939504248292458
                        1.8254941219688785
                        1.6695801997483763
                        1.5257399758892327
                        1.3878829689533881
                        8.1736054670880427
                        8.1313396715367595
                        8.0671629794879931
                        7.9616159047174267
                        7.8169257675127045
                        7.6360513375559659
                        7.4225625237317128
                        7.1804971499246919
                        6.9142070455892099
                        6.6282042149554876
                        6.3270161721784603
                        6.0150574375990057
                        5.6965217850808147
                        5.3752973489902122
                        5.0549044427213288
                        4.7384542253356684
                        4.4286254293595078
                        4.1276563349895910
                        3.8373499013058606
                        3.5590909961859112
                        3.2938753203865765
                        3.0423492687973628
                        2.8048584930504733
                        2.5815010340139050
                        2.3721798533018207
                        2.1766504072715519
                        1.9945615982427041
                        1.8254923276227495
                        1.6689907247605124
                        1.5246283493273334
                        1.3862748263668707
                        8.1842517560030042
                        8.1419438244289232
                        8.0777024994082585
                        7.9720486607906840
                        7.8272128180720016
                        7.6461577775742168
                        7.4324582247776501
                        7.1901572345920346
                        6.9236119572827825
                        6.6373392361519151
                        6.3358702515215127
                        6.0236212399158393
                        5.7047850038324783
                        5.3832455236055097
                        5.0625157747791111
                        4.7456971152874727
                        4.4354575523386507
                        4.1340259315833156
                        3.8431995183397945
                        3.5643632298103582
                        3.2985193845293821
                        3.0463267378612892
                        2.8081466109479658
                        2.5840925900964542
                        2.3740795368764067
                        2.1778682946807578
                        1.9951046022262586
                        1.8253541498604322
                        1.6681422258468196
                        1.5230276957075548
                        1.3838631844483707
                        8.1949291751696634
                        8.1525788513998063
                        8.0882731709697534
                        7.9825133862787904
                        7.8375331568296336
                        7.6562993397764308
                        7.4423914388923550
                        7.1998578366837962
                        6.9330610633671352
                        6.6465228449362295
                        6.3447780284630955
                        6.0322444867516990
                        5.7131138474984199
                        5.3912655727979953
                        5.0702047624838459
                        4.7530222954165424
                        4.4423747315730928
                        4.1404808695586715
                        3.8491319484119048
                        3.5697129947393199
                        3.3032333686981381
                        3.0503647588314720
                        2.8114845064072305
                        2.5867214282600652
                        2.3760008291185421
                        2.1790856580890747
                        1.9956117626420486
                        1.8251163127010816
                        1.6670585823060751
                        1.5208285898030534
                        1.3803062518597414
                </DataArray>
                <DataArray type="Float32" Name="jacobian" NumberOfComponents="1" format="ascii">
                        0.0265117288236852
                        0.0263774966177903
                        0.0261773934331668
                        0.0258479423004810
                        0.0253957656734231
                        0.0248296888507284
                        0.0241604041466824
                        0.0234000662467252
                        0.0225618508408073
                        0.0216595051545196
                        0.0207069153305303
                        0.0197177111204535
                        0.0187049232334081
                        0.0176807033918532
                        0.0166561120810410
                        0.0156409744557633
                        0.0146438010196097
                        0.0136717665932165
                        0.0127307387579201
                        0.0118253454624098
                        0.0109590708606332
                        0.0101343686848774
                        0.0093527834414518
                        0.0086150711325727
                        0.0079213125714857
                        0.0072710127686366
                        0.0066631771235482
                        0.0060963409772100
                        0.0055684615801716
                        0.0050762158903647
                        0.0045931029383577
                        0.0265441541640325
                        0.0264096924604539
                        0.0262092352040736
                        0.0258792139627494
                        0.0254262609411430
                        0.0248592143907422
                        0.0241887823783822
                        0.0234271377586072
                        0.0225874765553502
                        0.0216835684670437
                        0.0207293244808404
                        0.0197384019899368
                        0.0187238625749155
                        0.0176978922105797
                        0.0166715885685740
                        0.0156548156528508
                        0.0146561223755333
                        0.0136827188738680
                        0.0127405023082865
                        0.0118341225308298
                        0.0109670773723420
                        0.0101418273897726
                        0.0093599207699579
                        0.0086221206574944
                        0.0079285295195898
                        0.0072787089573695
                        0.0066718023726893
                        0.0061067005051685
                        0.0055824369500608
                        0.0050997130853895
                        0.0046352547314559
                        0.0265766720029039
                        0.0264419766439774
                        0.0262411623583461
                        0.0259105688736667
                        0.0254568379546743
                        0.0248888207329078
                        0.0242172409946913
                        0.0234542897465431
                        0.0226131833453462
                        0.0217077139949913
                        0.0207518176264793
                        0.0197591794864288
                        0.0187428924038169
                        0.0177151771963371
                        0.0166871695576075
                        0.0156687734248465
                        0.0146685774242946
                        0.0136938284886430
                        0.0127504549630806
                        0.0118431303231019
                        0.0109753679705205
                        0.0101496375298609
                        0.0093674938064183
                        0.0086297113223197
                        0.0079364206906158
                        0.0072872499140817
                        0.0066814905276869
                        0.0061183546736021
                        0.0055974922857435
                        0.0051198544397603
                        0.0046642768108122
                        0.0266092840663687
                        0.0264743487541993
                        0.0262731731579765
                        0.0259420042328392
                        0.0254874929035800
                        0.0249185030241039
                        0.0242457740301050
                        0.0234815150447351
                        0.0226389627451974
                        0.0217319318636692
                        0.0207743833654901
                        0.0197800305573137
                        0.0187619978973797
                        0.0177325416586494
                        0.0167028364427037
                        0.0156828272936325
                        0.0146811439927019
                        0.0137050719263736
                        0.0127605724381513
                        0.0118523445464904
                        0.0109839192390334
                        0.0101577773624246
                        0.0093754827173804
                        0.0086378237948039
                        0.0079449614760110
                        0.0072965878750917
                        0.0066921172026951
                        0.0061309534624730
                        0.0056128551973174
                        0.0051379784081932
                        0.0046856878961556
                        0.0266419909350031
                        0.0265068128093706
                        0.0263052748308589
                        0.0259735304051534
                        0.0255182391884392
                        0.0249482775680183
                        0.0242744005336236
                        0.0235088352708630
                        0.0226648387500259
                        0.0217562482404709
                        0.0207970498137848
                        0.0198009850143128
                        0.0187812102653892
                        0.0177500178430573
                        0.0167186220580426
                        0.0156970101319535
                        0.0146938543229251
                        0.0137164799909064
                        0.0127708831145050
                        0.0118617899104281
                        0.0109927505089823
                        0.0101662582662516
                        0.0093838866392477
                        0.0086464371681171
                        0.0079540956648029
                        0.0073065998213261
                        0.0067034283762884
                        0.0061440129568155
                        0.0056278741720622
                        0.0051541824924352
                        0.0047024971297002
                        0.0266747927915686
                        0.0265393703757923
                        0.0263374701496322
                        0.0260051513487454
                        0.0255490819364292
                        0.0249781506400539
                        0.0243031279047024
                        0.0235362589219808
                        0.0226908209245854
                        0.0217806737193560
                        0.0208198285370896
                        0.0198220553019261
                        0.0188005426804350
                        0.0177676194160646
                        0.0167345402199502
                        0.0157113354273613
                        0.0147067209375579
                        0.0137280634179817
                        0.0127813948833289
                        0.0118714700623514
                        0.0110018592212718
                        0.0101750684998226
                        0.0093926797724584
                        0.0086555030858807
                        0.0079637370082306
                        0.0073171345644374
                        0.0067151686068201
                        0.0061571601260802
                        0.0056422326368569
                        0.0051687262267793
                        0.0047163940365952
                        0.0267076897251153
                        0.0265720221652237
                        0.0263697603012423
                        0.0260368687220501
                        0.0255800232918472
                        0.0250081248909926
                        0.0243319593263634
                        0.0235637897429760
                        0.0227169136058825
                        0.0218052132526050
                        0.0208427251059400
                        0.0198432475719927
                        0.0188200017730391
                        0.0177853532887980
                        0.0167505977956951
                        0.0157258095229415
                        0.0147197489906295
                        0.0137398252883973
                        0.0127921075901969
                        0.0118813800567333
                        0.0110112334577030
                        0.0101841859204976
                        0.0094018246187835
                        0.0086649603250549
                        0.0079737871344159
                        0.0073280377921225
                        0.0067271138028848
                        0.0061701366651886
                        0.0056558082036465
                        0.0051818847634110
                        0.0047283579395003
                        0.0267406818449241
                        0.0266047686179352
                        0.0264021459300098
                        0.0260686833749521
                        0.0256110643358390
                        0.0250382016699935
                        0.0243608964610902
                        0.0235914297614255
                        0.0227431192403463
                        0.0218298697524474
                        0.0208657429237292
                        0.0198645657010546
                        0.0188395918033306
                        0.0178032239108364
                        0.0167667990909919
                        0.0157404360745148
                        0.0147329407761982
                        0.0137517655772829
                        0.0128030176260377
                        0.0118915110095774
                        0.0110208567221630
                        0.0101935830436553
                        0.0094112776614264
                        0.0086747418346235
                        0.0079841452804887
                        0.0073391654962609
                        0.0067390823453770
                        0.0061827779658026
                        0.0056685830514241
                        0.0051938997893192
                        0.0047389762624805
                        0.0267737693151142
                        0.0266376101092386
                        0.0264346275113985
                        0.0261005958857700
                        0.0256422057794127
                        0.0250683818642166
                        0.0243899404258888
                        0.0236191803854780
                        0.0227694395910398
                        0.0218546453936663
                        0.0208888846108047
                        0.0198860127426685
                        0.0188593161692475
                        0.0178212348233541
                        0.0167831474392105
                        0.0157552176696258
                        0.0147462973744374
                        0.0137638828304114
                        0.0128141196470479
                        0.0119018518951920
                        0.0110307098878169
                        0.0102032292956163
                        0.0094209922351261
                        0.0086847787695966
                        0.0079947140785391
                        0.0073503905461960
                        0.0067509349113414
                        0.0061949879795693
                        0.0056805908124043
                        0.0052049688289794
                        0.0047486142014533
                        0.0268069523580140
                        0.0266705470181927
                        0.0264672054831546
                        0.0261326067534466
                        0.0256734482139408
                        0.0250986662038259
                        0.0244190921473379
                        0.0236470428040016
                        0.0227958761776611
                        0.0218795420879558
                        0.0209121525079558
                        0.0199075914551912
                        0.0188791779542762
                        0.0178393892237327
                        0.0167996457810666
                        0.0157701564224469
                        0.0147598192651188
                        0.0137761748049078
                        0.0128254072612361
                        0.0119123903166233
                        0.0110407721269061
                        0.0102130922467829
                        0.0094309203107895
                        0.0086950031414778
                        0.0080054030233836
                        0.0073616050194162
                        0.0067625691705079
                        0.0062067174456274
                        0.0056918867164505
                        0.0052152483109536
                        0.0047575071313757
                        0.0268402312467248
                        0.0267035797472616
                        0.0264998802898990
                        0.0261647164666003
                        0.0257047922034143
                        0.0251290553757515
                        0.0244483524949264
                        0.0236750181371978
                        0.0228224304420347
                        0.0219045616620659
                        0.0209355488649999
                        0.0199293044989337
                        0.0188991801321143
                        0.0178576901773992
                        0.0168162968845154
                        0.0157852542046456
                        0.0147735065753117
                        0.0137886387450065
                        0.0128368733533536
                        0.0119231129189894
                        0.0110510214840263
                        0.0102231384661242
                        0.0094410137988923
                        0.0087053496615390
                        0.0080161303708319
                        0.0073727199666915
                        0.0067739128039427
                        0.0062179472756597
                        0.0057025316406358
                        0.0052248604701012
                        0.0047658121031258
                        0.0268736062951807
                        0.0267367087253254
                        0.0265326523973117
                        0.0261969255286968
                        0.0257362383199277
                        0.0251595500686920
                        0.0244777223343964
                        0.0237031074970839
                        0.0228491038146338
                        0.0219297059290594
                        0.0209590759158719
                        0.0199511545145635
                        0.0189193256484092
                        0.0178761407037068
                        0.0168331034370567
                        0.0158005127482611
                        0.0147873592000821
                        0.0138012715332457
                        0.0128485102885908
                        0.0119340056837368
                        0.0110614353240645
                        0.0102333342141521
                        0.0094512255713427
                        0.0087157569998070
                        0.0080268239185047
                        0.0073836637475003
                        0.0067849166065596
                        0.0062286767221656
                        0.0057125841121233
                        0.0052339003614281
                        0.0047736372552900
                        0.0269070778487919
                        0.0267699344055323
                        0.0265655222956855
                        0.0262292344672187
                        0.0257677871580977
                        0.0251901509921836
                        0.0245072025507889
                        0.0237313120138398
                        0.0228758977434146
                        0.0219549767190759
                        0.0209827359109081
                        0.0199731441568951
                        0.0189396174565824
                        0.0178947438154802
                        0.0168500680919191
                        0.0158159337033972
                        0.0148013768799347
                        0.0138140698010026
                        0.0128603100780392
                        0.0119450541841543
                        0.0110719907293161
                        0.0102436460399569
                        0.0094615102653750
                        0.0087261685758857
                        0.0080374210044196
                        0.0073943796941547
                        0.0067955484491284
                        0.0062389153241335
                        0.0057220966902031
                        0.0052424418059461
                        0.0047810590547189
                        0.0269406462765875
                        0.0268032572619024
                        0.0265984904996928
                        0.0262616438365366
                        0.0257994393408289
                        0.0252208588847811
                        0.0245367940586806
                        0.0237596328475914
                        0.0229028137065934
                        0.0219803758928981
                        0.0210065311310304
                        0.0199952761099442
                        0.0189600585348611
                        0.0179135025400428
                        0.0168671934963857
                        0.0158315186795101
                        0.0148155592637249
                        0.0138270300265662
                        0.0128722645329402
                        0.0119562438264205
                        0.0110826648655815
                        0.0102540412978408
                        0.0094718248945048
                        0.0087365329709810
                        0.0080478679895579
                        0.0074048235864832
                        0.0068057883379167
                        0.0062486776054449
                        0.0057311146624112
                        0.0052505420737200
                        0.0047881326785464
                        0.0269743119649337
                        0.0268366777859314
                        0.0266315575467368
                        0.0262941542179473
                        0.0258311955208831
                        0.0252516745169741
                        0.0245664978060171
                        0.0237880711928621
                        0.0229298532175310
                        0.0220059053468993
                        0.0210304638929252
                        0.0200175530929539
                        0.0189806518944601
                        0.0179324199316997
                        0.0168844823125404
                        0.0158472692803129
                        0.0148299059666806
                        0.0138401486297636
                        0.0128843654152850
                        0.0119675600814832
                        0.0110934353195039
                        0.0102644885857805
                        0.0094821292858031
                        0.0087468040436267
                        0.0080581194330981
                        0.0074149612206940
                        0.0068156245431430
                        0.0062579796834165
                        0.0057396758969144
                        0.0052582454455780
                        0.0047948984372017
                        0.0270080753126150
                        0.0268701964835608
                        0.0266647239947559
                        0.0263267662182966
                        0.0258630563801831
                        0.0252825986910295
                        0.0245963147743218
                        0.0238166282788746
                        0.0229570178248657
                        0.0220315670130608
                        0.0210545365491807
                        0.0200399778613734
                        0.0190014005828080
                        0.0179514990798275
                        0.0169019372343253
                        0.0158631871359524
                        0.0148444166268384
                        0.0138534220656748
                        0.0128966045860736
                        0.0119789887072298
                        0.0111042804050948
                        0.0102749581071918
                        0.0094923863655036
                        0.0087569408262350
                        0.0080681371169059
                        0.0074247662206773
                        0.0068250506542296
                        0.0062668371580551
                        0.0057478112197851
                        0.0052655858742906
                        0.0048013858517169
                        0.0270419367270150
                        0.0269038138725494
                        0.0266979904198691
                        0.0263594804678398
                        0.0258950226278860
                        0.0253136322391360
                        0.0246262459767133
                        0.0238453053672840
                        0.0229843091099105
                        0.0220573628560497
                        0.0210787514854032
                        0.0200625532048647
                        0.0190223076839799
                        0.0179707431146390
                        0.0169195610027812
                        0.0158792739341108
                        0.0148590909611238
                        0.0138668469178729
                        0.0129089741506573
                        0.0119905159590777
                        0.0111151794376280
                        0.0102854219601103
                        0.0095025623180452
                        0.0087669072714168
                        0.0080778890305858
                        0.0074342181528839
                        0.0068340633882145
                        0.0062752638365701
                        0.0057555449833923
                        0.0052725889529822
                        0.0048076163011584
                        0.0270758966211516
                        0.0269375304802517
                        0.0267313574140826
                        0.0263922976177980
                        0.0259270949978044
                        0.0253447760205313
                        0.0246562924546917
                        0.0238741037484879
                        0.0230117286824838
                        0.0220832948686353
                        0.0211031111156220
                        0.0200852819436216
                        0.0190433763177969
                        0.0179901552117510
                        0.0169373564205787
                        0.0158955314508923
                        0.0148739288214244
                        0.0138804199910105
                        0.0129214666000129
                        0.0120021287872489
                        0.0111261129744896
                        0.0102958543605725
                        0.0095126266450293
                        0.0087766719064166
                        0.0080873483913939
                        0.0074433009536160
                        0.0068426609853121
                        0.0062832709885057
                        0.0057628956565361
                        0.0052792733591592
                        0.0048136047706810
                        0.0271099554113729
                        0.0269713468418097
                        0.0267648255831420
                        0.0264252183378500
                        0.0259592742454740
                        0.0253760309181794
                        0.0246864552743428
                        0.0239030247372822
                        0.0230392781759136
                        0.0221093650662797
                        0.0211276178768993
                        0.0201081669239971
                        0.0190646096382525
                        0.0180097385963287
                        0.0169553263663456
                        0.0159119615817931
                        0.0148889302506267
                        0.0138941384021828
                        0.0129340749468252
                        0.0120138150195258
                        0.0111370630239147
                        0.0103062318089170
                        0.0095225521498979
                        0.0087862074427779
                        0.0080964927448601
                        0.0074520016490601
                        0.0068508420492057
                        0.0062908669280028
                        0.0057698763554299
                        0.0052856519016952
                        0.0048193610135634
                        0.0271441135155543
                        0.0270052634986503
                        0.0267983955446025
                        0.0264582433137046
                        0.0259915611452540
                        0.0254073978354205
                        0.0247167355223722
                        0.0239320696682408
                        0.0230669592418227
                        0.0221355754814838
                        0.0211522742237107
                        0.0201312110139972
                        0.0190860108317654
                        0.0180294965472778
                        0.0169734738092064
                        0.0159285663727943
                        0.0149040955384127
                        0.0139079996702985
                        0.0129467928553370
                        0.0120255635289038
                        0.0111480132236885
                        0.0103165332088768
                        0.0095323148719845
                        0.0087954903776317
                        0.0081053031714388
                        0.0074603093353645
                        0.0068586047173301
                        0.0062980567896456
                        0.0057764952807601
                        0.0052917322634756
                        0.0048248903154833
                        0.0271783713516917
                        0.0270392809972798
                        0.0268320679261864
                        0.0264913732449310
                        0.0260239564876828
                        0.0254388776927223
                        0.0247471343022855
                        0.0239612398912760
                        0.0230947735450603
                        0.0221619281582989
                        0.0211770826225313
                        0.0201544170988701
                        0.0191075831158004
                        0.0180494324017095
                        0.0169918018236061
                        0.0159453480515988
                        0.0149194252764386
                        0.0139220018028503
                        0.0129596147642077
                        0.0120373643860991
                        0.0111589489928509
                        0.0103267399496523
                        0.0095418939908332
                        0.0088045006136502
                        0.0081137636106078
                        0.0074682143825418
                        0.0068659460725618
                        0.0063048424115334
                        0.0057827560490259
                        0.0052975175053608
                        0.0048301939751471
                        0.0272127293367903
                        0.0270733998884442
                        0.0268658433644507
                        0.0265246088431074
                        0.0260564610771300
                        0.0254704714248279
                        0.0247776527309491
                        0.0239905367676350
                        0.0231227227591505
                        0.0221884251472954
                        0.0212020455468903
                        0.0201777880772465
                        0.0191293297379576
                        0.0180695495598652
                        0.0170103136044282
                        0.0159623090588553
                        0.0149349204124278
                        0.0139361433794733
                        0.0129725360018266
                        0.0120492089972976
                        0.0111698576600100
                        0.0103368359607889
                        0.0095512717185455
                        0.0088132211170365
                        0.0081218603050388
                        0.0074757078278457
                        0.0068728617301765
                        0.0063112222704767
                        0.0057886579167567
                        0.0053030063763269
                        0.0048352695698231
                        0.0272471878860060
                        0.0271076207265310
                        0.0268997225037569
                        0.0265579508302832
                        0.0260890757297882
                        0.0255021799783056
                        0.0248082919356584
                        0.0240199616663613
                        0.0231508085621984
                        0.0222150685011247
                        0.0212271654730161
                        0.0202013268579238
                        0.0191512539755264
                        0.0180898514905136
                        0.0170290124823848
                        0.0159794520789925
                        0.0149505823027567
                        0.0139504236316249
                        0.0129855528935943
                        0.0120610902278871
                        0.0111807285720194
                        0.0103468077489388
                        0.0095604331945956
                        0.0088216376268207
                        0.0081295813625145
                        0.0074827809289573
                        0.0068793455522897
                        0.0063171914347518
                        0.0057941958998627
                        0.0053081934585150
                        0.0048401110449710
                        0.0272817474119624
                        0.0271419440691711
                        0.0269337059955504
                        0.0265913999378397
                        0.0261218012721180
                        0.0255340043095918
                        0.0248390530517455
                        0.0240495159613993
                        0.0231790326334603
                        0.0222418602707683
                        0.0212524448761954
                        0.0202250363572446
                        0.0191733591356907
                        0.0181103417366998
                        0.0170479019393889
                        0.0159967800703479
                        0.0149664127630902
                        0.0139648425178901
                        0.0129986628609490
                        0.0120730025131621
                        0.0111915531867304
                        0.0103566444246201
                        0.0095693663946414
                        0.0088297384242766
                        0.0081369164310888
                        0.0074894248533223
                        0.0068853894568031
                        0.0063227415134545
                        0.0057993607905972
                        0.0053130691631557
                        0.0048447086467794
                        0.0273164083242345
                        0.0271763704771312
                        0.0269677944979403
                        0.0266249569057441
                        0.0261546385398126
                        0.0255659453836155
                        0.0248699372207987
                        0.0240792010293736
                        0.0232073966507167
                        0.0222688025025331
                        0.0212778862278574
                        0.0202489194971723
                        0.0191956485563317
                        0.0181310239218390
                        0.0170669856237836
                        0.0160142962943736
                        0.0149824141165825
                        0.0139794007944536
                        0.0130118645120576
                        0.0120849419571204
                        0.0112023251534027
                        0.0103663377258859
                        0.0095780620623065
                        0.0088375141681350
                        0.0081438564827344
                        0.0074956304864673
                        0.0068909832999409
                        0.0063278605907798
                        0.0058041390731302
                        0.0053176195825758
                        0.0048490487004797
                        0.0273511710289354
                        0.0272109005144375
                        0.0270019886755893
                        0.0266586224821551
                        0.0261875883771996
                        0.0255980041729212
                        0.0249009455895033
                        0.0241090182480571
                        0.0232359022883002
                        0.0222958972358641
                        0.0213034919934280
                        0.0202729792041080
                        0.0192181256072662
                        0.0181519017560456
                        0.0170862673652357
                        0.0160320043436256
                        0.0149985892392561
                        0.0139941000803033
                        0.0130251577242100
                        0.0120969064204720
                        0.0112130403840298
                        0.0103758820445506
                        0.0095865136705335
                        0.0088449577991144
                        0.0081503937016655
                        0.0075013883486292
                        0.0068961148215845
                        0.0063325331403475
                        0.0058085127363869
                        0.0053218261933912
                        0.0048531132227864
                        0.0273860359284102
                        0.0272455347486609
                        0.0270362891998899
                        0.0266923974234402
                        0.0262206516371034
                        0.0256301816574541
                        0.0249320793091620
                        0.0241389689956541
                        0.0232645512160441
                        0.0223231465019861
                        0.0213292646310555
                        0.0202972184084565
                        0.0192407936920197
                        0.0181729790425159
                        0.0171057511890976
                        0.0160499081681711
                        0.0150149416022279
                        0.0140089429169295
                        0.0130385437180130
                        0.0121088955989183
                        0.0112236971182679
                        0.0103852744593815
                        0.0095947174171341
                        0.0088520645158987
                        0.0081565214751679
                        0.0075066886154308
                        0.0069007696516526
                        0.0063367399204211
                        0.0058124589801509
                        0.0053256653954892
                        0.0048568793413210
                        0.0274210034209631
                        0.0272802737514156
                        0.0270706967494088
                        0.0267262824945731
                        0.0262538291812166
                        0.0256624788248975
                        0.0249633395359456
                        0.0241690546508170
                        0.0232933450990670
                        0.0223505523233955
                        0.0213552065911281
                        0.0203216400447814
                        0.0192636562501113
                        0.0181942596839263
                        0.0171254413301282
                        0.0160680121001278
                        0.0150314753103730
                        0.0140239328222530
                        0.0130520251234263
                        0.0121209110926361
                        0.0112342959840326
                        0.0103945147793706
                        0.0096026722574435
                        0.0088588318237229
                        0.0081622344867989
                        0.0075115212446723
                        0.0069049313845838
                        0.0063404578568630
                        0.0058159498079621
                        0.0053291078594048
                        0.0048603184747783
                        0.0274560739006237
                        0.0273151180990240
                        0.0271052120105739
                        0.0267602784698882
                        0.0262871218810227
                        0.0256948966715834
                        0.0249947274318281
                        0.0241992765934113
                        0.0233222855982956
                        0.0223781167141940
                        0.0213813203165414
                        0.0203462470526035
                        0.0192867167595807
                        0.0182157476887099
                        0.0171453422452206
                        0.0160863208760746
                        0.0150481951370590
                        0.0140390743384545
                        0.0130656060377099
                        0.0121329564676397
                        0.0112448400551885
                        0.0104036055988331
                        0.0096103799753075
                        0.0088652596559878
                        0.0081675289139153
                        0.0075158762176276
                        0.0069085817383778
                        0.0063436599282506
                        0.0058189514985546
                        0.0053321176397060
                        0.0048633952014874
                        0.0274912477568463
                        0.0273500683732841
                        0.0271398356785819
                        0.0267943861341680
                        0.0263205306190904
                        0.0257274362040371
                        0.0250262441661735
                        0.0242296362060713
                        0.0233513743718195
                        0.0224058416812066
                        0.0214076082437260
                        0.0203710423778485
                        0.0193099787397209
                        0.0182374471769630
                        0.0171654586248926
                        0.0161048396569490
                        0.0150651065546611
                        0.0140543730734263
                        0.0130792920752116
                        0.0121450373093183
                        0.0112553349070151
                        0.0104125523647720
                        0.0096178452920308
                        0.0088713505685455
                        0.0081724027333455
                        0.0075197439095628
                        0.0069117008254926
                        0.0063463150783225
                        0.0058214239473600
                        0.0053346509919845
                        0.0048660657058570
                        0.0275265253741025
                        0.0273851251622870
                        0.0271745684584216
                        0.0268286062839655
                        0.0263540562907220
                        0.0257600984409252
                        0.0250578909178861
                        0.0242601348763575
                        0.0233806130769179
                        0.0224337292257876
                        0.0214340728042551
                        0.0203960289745878
                        0.0193334457539106
                        0.0182593623857346
                        0.0171857954032205
                        0.0161235740449558
                        0.0150822157603411
                        0.0140698357353705
                        0.0130930904086783
                        0.0121571612680042
                        0.0112657886692101
                        0.0104213634555691
                        0.0096250760111933
                        0.0088771100051114
                        0.0081768561402880
                        0.0075231156104352
                        0.0069142675760060
                        0.0063483881969966
                        0.0058233198727439
                        0.0053366548031631
                        0.0048682756338161
                        0.0275619071311830
                        0.0274202890611443
                        0.0272094110658762
                        0.0268629397290276
                        0.0263876998058531
                        0.0257928844153628
                        0.0250896688779481
                        0.0242907739993983
                        0.0234100033726085
                        0.0224617813460586
                        0.0214607164267668
                        0.0204212098068304
                        0.0193571214120039
                        0.0182814976732345
                        0.0172063577655996
                        0.0161425300969033
                        0.0150995296962906
                        0.0140854701598009
                        0.0131070098014534
                        0.0121693380958473
                        0.0112762120751146
                        0.0104300502683901
                        0.0096320831951268
                        0.0088825466304386
                        0.0081808920856957
                        0.0075259842225649
                        0.0069162603696519
                        0.0063498402357945
                        0.0058245838916812
                        0.0053380645047524
                        0.0048699570957969
                        0.0275973934000080
                        0.0274555606723812
                        0.0272443642282384
                        0.0268973872935451
                        0.0264214620908948
                        0.0258257951771985
                        0.0251215792520374
                        0.0243215549806562
                        0.0234395469222351
                        0.0224900000391520
                        0.0214875415387076
                        0.0204465878498695
                        0.0193810093716385
                        0.0183038575211761
                        0.0172271511535311
                        0.0161617143329822
                        0.0151170560633818
                        0.0141012853278565
                        0.0131210606292690
                        0.0121815796734300
                        0.0112866185045890
                        0.0104386273107331
                        0.0096388813662347
                        0.0088876727249811
                        0.0081845169358305
                        0.0075283451667703
                        0.0069176579532156
                        0.0063506285612400
                        0.0058251514932145
                        0.0053388012795380
                        0.0048710244045680
                        0.0276329845435168
                        0.0274909406055771
                        0.0272794286843039
                        0.0269319498167539
                        0.0264553440899753
                        0.0258588317947694
                        0.0251536232626598
                        0.0243524792381074
                        0.0234692453954839
                        0.0225183873027102
                        0.0215145505670582
                        0.0204721660902136
                        0.0194051133375614
                        0.0183264465340829
                        0.0172481812649936
                        0.0161811337393633
                        0.0151348033265550
                        0.0141172913740186
                        0.0131352548894714
                        0.0121939000233059
                        0.0112970240162941
                        0.0104471122891769
                        0.0096454887229365
                        0.0088925046302197
                        0.0081877412533683
                        0.0075301975306146
                        0.0069184407432982
                        0.0063507077073676
                        0.0058249479884824
                        0.0053387682830752
                        0.0048713678811286
                        0.0276686809119356
                        0.0275264294755717
                        0.0273146051829423
                        0.0269666281521994
                        0.0264893467648608
                        0.0258919953554567
                        0.0251858021499539
                        0.0243835482030648
                        0.0234991004688942
                        0.0225469451345768
                        0.0215417459368906
                        0.0204979475227010
                        0.0194294370572921
                        0.0183492694337493
                        0.0172694540483508
                        0.0162007957622332
                        0.0151527807092099
                        0.0141334995801485
                        0.0131496061941577
                        0.0122063153058747
                        0.0113074473627629
                        0.0104555261851575
                        0.0096519273553158
                        0.0088970632270177
                        0.0081905806909903
                        0.0075315454894758
                        0.0069185926401809
                        0.0063500307752172
                        0.0058238876192446
                        0.0053378454645412
                        0.0048708446233028
                        0.0277044828361472
                        0.0275620278980737
                        0.0273498944791329
                        0.0270014231646166
                        0.0265234710926471
                        0.0259252869638784
                        0.0252181171701640
                        0.0244147633185207
                        0.0235291138234808
                        0.0225756755293536
                        0.0215691300661884
                        0.0205239351429910
                        0.0194539843109507
                        0.0183723310463726
                        0.0172909756869557
                        0.0162207082898989
                        0.0151709981726052
                        0.0141499223512117
                        0.0131641297416095
                        0.0122188437904655
                        0.0113179099782786
                        0.0104638933030234
                        0.0096582234389623
                        0.0089013744191876
                        0.0081930569736913
                        0.0075324000188286
                        0.0069181035018535
                        0.0063485518550109
                        0.0058218732137447
                        0.0053358823573822
                        0.0048692643544777
                        0.0277403906158023
                        0.0275977364806896
                        0.0273852973258374
                        0.0270363357230742
                        0.0265577180600332
                        0.0259587077368834
                        0.0252505695909344
                        0.0244461260341039
                        0.0235592871387885
                        0.0226045804707212
                        0.0215967053555515
                        0.0205501319338330
                        0.0194787588931889
                        0.0183956362795114
                        0.0173127525706651
                        0.0162408796184223
                        0.0151894663747077
                        0.0141665731658202
                        0.0131788422575609
                        0.0122315057907419
                        0.0113284359246909
                        0.0104722412690317
                        0.0096644073759920
                        0.0089054695793551
                        0.0081951989220564
                        0.0075327808873520
                        0.0069169724374466
                        0.0063462300281779
                        0.0058187971910380
                        0.0053326878688201
                        0.0048663670570589
                        0.0277764044978163
                        0.0276335558060879
                        0.0274208144594650
                        0.0270713666890997
                        0.0265920886536641
                        0.0259922587955242
                        0.0252831606840775
                        0.0244776377987670
                        0.0235896220844492
                        0.0226336619205395
                        0.0216244741735284
                        0.0205765408451101
                        0.0195037645864537
                        0.0184191900870235
                        0.0173347912510697
                        0.0162613183958123
                        0.0152081966015301
                        0.0141834664923062
                        0.0131937618940676
                        0.0122443235482017
                        0.0113390517730676
                        0.0104806009500881
                        0.0096705138380264
                        0.0089093858918300
                        0.0081970434309233
                        0.0075327188641337
                        0.0069152120537690
                        0.0063430357470696
                        0.0058145455367052
                        0.0053280155426683
                        0.0048617864627864
                        0.0278125246368357
                        0.0276694864019527
                        0.0274564465763428
                        0.0271065168998043
                        0.0266265838489252
                        0.0260259412583072
                        0.0253158917217996
                        0.0245093000583132
                        0.0236201203169856
                        0.0226629218128882
                        0.0216524388454368
                        0.0206031647746974
                        0.0195290051311889
                        0.0184429974257603
                        0.0173570983817468
                        0.0162820335428473
                        0.0152272006651477
                        0.0142006176600250
                        0.0132089080700092
                        0.0122573210407148
                        0.0113497863886169
                        0.0104890062460361
                        0.0096765816442281
                        0.0089131664933871
                        0.0081986362593196
                        0.0075322579720604
                        0.0069128536832077
                        0.0063389606664310
                        0.0058090080188135
                        0.0053215418509937
                        0.0048549884513236
                        0.0278487510214130
                        0.0277055286888659
                        0.0274921942985724
                        0.0271417871511381
                        0.0266612046084913
                        0.0260597562523499
                        0.0253487639973823
                        0.0245411142822192
                        0.0236507835090470
                        0.0226923620814200
                        0.0216806016742452
                        0.0206300065779642
                        0.0195544842185238
                        0.0184670632259625
                        0.0173796806606408
                        0.0163030341615729
                        0.0152464907719101
                        0.0142180426802031
                        0.0132243012366975
                        0.0122705236862810
                        0.0113606705723505
                        0.0104974936867401
                        0.0096826533736402
                        0.0089168602605536
                        0.0082000323972488
                        0.0075314574472260
                        0.0069099533536920
                        0.0063340322012844
                        0.0058021012344560
                        0.0053128335156848
                        0.0048451636198151
                        0.0278850833334631
                        0.0277416803969652
                        0.0275280544585403
                        0.0271771738256387
                        0.0266959470900398
                        0.0260936998419517
                        0.0253817735738934
                        0.0245730766141811
                        0.0236816079812485
                        0.0227219793666737
                        0.0217089598577331
                        0.0206570644083557
                        0.0195802016019059
                        0.0184913898248192
                        0.0174025444146073
                        0.0163243324418159
                        0.0152660872948440
                        0.0142357727751531
                        0.0132399863080675
                        0.0122839929206200
                        0.0113717849713025
                        0.0105061656931992
                        0.0096888558607143
                        0.0089206215360626
                        0.0082014177020269
                        0.0075305398253669
                        0.0069067754204931
                        0.0063285524704864
                        0.0057940954380271
                        0.0053016439611909
                        0.0048310338057190
                </DataArray>
            </PointData>
        </Piece>
    </StructuredGrid>
</VTKFile>