<?xml version="1.0"?>
<VTKFile type="StructuredGrid" version="0.1" byte_order="LittleEndian">
    <StructuredGrid WholeExtent="0 30 0 40 0 0">
        <Piece Extent="0 30 0 40 0 0">
            <Points>
                <DataArray type="Float32" NumberOfComponents="3" format="ascii">
                       -0.3500000000000000       -0.0022573409716997    0.0
                       -0.3343019836470679       -0.0022573409716997    0.0
                       -0.3186837782176498       -0.0022573409716997    0.0
                       -0.3032235797656327       -0.0022573409716997    0.0
                       -0.2879964235472244       -0.0022573409716997    0.0
                       -0.2730727709704834       -0.0022573409716997    0.0
                       -0.2585172838965207       -0.0022573409716997    0.0
                       -0.2443878278622839       -0.0022573409716997    0.0
                       -0.2307347307757632       -0.0022573409716997    0.0
                       -0.2176003079523917       -0.0022573409716997    0.0
                       -0.2050186494018438       -0.0022573409716997    0.0
                       -0.1930156521956065       -0.0022573409716997    0.0
                       -0.1816092703704264       -0.0022573409716997    0.0
                       -0.1708099475923504       -0.0022573409716997    0.0
                       -0.1606211937933559       -0.0022573409716997    0.0
                       -0.1510402659604484       -0.0022573409716997    0.0
                       -0.1420589147451453       -0.0022573409716997    0.0
                       -0.1336641619809815       -0.0022573409716997    0.0
                       -0.1258390789203765       -0.0022573409716997    0.0
                       -0.1185635404345242       -0.0022573409716997    0.0
                       -0.1118149360475431       -0.0022573409716997    0.0
                       -0.1055688240946600       -0.0022573409716997    0.0
                       -0.0997995202164633       -0.0022573409716997    0.0
                       -0.0944806156504443       -0.0022573409716997    0.0
                       -0.0895854242750241       -0.0022573409716997    0.0
                       -0.0850873600922156       -0.0022573409716997    0.0
                       -0.0809602488484565       -0.0022573409716997    0.0
                       -0.0771785788682894       -0.0022573409716997    0.0
                       -0.0737176970094569       -0.0022573409716997    0.0
                       -0.0705539560428298       -0.0022573409716997    0.0
                       -0.0676648198149578       -0.0022573409716997    0.0
                       -0.3500000000000000       -0.0012854004244232    0.0
                       -0.3343794207243990       -0.0012840562676479    0.0
                       -0.3188387415619965       -0.0012826485239256    0.0
                       -0.3034560199810757       -0.0012812154357770    0.0
                       -0.2883061682808458       -0.0012798119558550    0.0
                       -0.2734595626123562       -0.0012784853686455    0.0
                       -0.2589808431640972       -0.0012772641568782    0.0
                       -0.2449279418263556       -0.0012761555551177    0.0
                       -0.2313513592115097       -0.0012751498090746    0.0
                       -0.2182936955061634       -0.0012742297708699    0.0
                       -0.2057894201580330       -0.0012733850969973    0.0
                       -0.1938648460917127       -0.0012726299197248    0.0
                       -0.1825382587646162       -0.0012720201525255    0.0
                       -0.1718201438094367       -0.0012716618333601    0.0
                       -0.1617134664899020       -0.0012716985172522    0.0
                       -0.1522139958365944       -0.0012722700789722    0.0
                       -0.1433107555694267       -0.0012734516826250    0.0
                       -0.1349868085585984       -0.0012752029968359    0.0
                       -0.1272206181110391       -0.0012773628559126    0.0
                       -0.1199879829421250       -0.0012796979950371    0.0
                       -0.1132640511184782       -0.0012819751217806    0.0
                       -0.1070246499618995       -0.0012840141477135    0.0
                       -0.1012465275045791       -0.0012857051532957    0.0
                       -0.0959067964050238       -0.0012869989965032    0.0
                       -0.0909822481275370       -0.0012878877599703    0.0
                       -0.0864490382371440       -0.0012883848499943    0.0
                       -0.0822828344154308       -0.0012885090701845    0.0
                       -0.0784592312458702       -0.0012882743669484    0.0
                       -0.0749541896446348       -0.0012876851893171    0.0
                       -0.0717443593130467       -0.0012867367854853    0.0
                       -0.0688073308969871       -0.0012854004244232    0.0
                       -0.3500000000000000       -0.0003134598771466    0.0
                       -0.3344560068845250       -0.0003107975610501    0.0
                       -0.3189919758270030       -0.0003080174112418    0.0
                       -0.3036858068905882       -0.0003051927946682    0.0
                       -0.2886122691328165       -0.0003024294934958    0.0
                       -0.2738416295584453       -0.0002998187206131    0.0
                       -0.2594384763625047       -0.0002974156754011    0.0
                       -0.2454607679311192       -0.0002952347388270    0.0
                       -0.2319591252390873       -0.0002932574383596    0.0
                       -0.2189763665970296       -0.0002914505022178    0.0
                       -0.2065472607928923       -0.0002897925228329    0.0
                       -0.1946984509183601       -0.0002883070796699    0.0
                       -0.1834484830416800       -0.0002870952965836    0.0
                       -0.1728078697524719       -0.0002863522034324    0.0
                       -0.1627791394926459       -0.0002863450664295    0.0
                       -0.1533568886705244       -0.0002873394460743    0.0
                       -0.1445279943107193       -0.0002894878285776    0.0
                       -0.1362723454401904       -0.0002927339085872    0.0
                       -0.1285645334249839       -0.0002967961835882    0.0
                       -0.1213765902565510       -0.0003012496809414    0.0
                       -0.1146810658401279       -0.0003056549649345    0.0
                       -0.1084531661739688       -0.0003096592744494    0.0
                       -0.1026710818256717       -0.0003130345125312    0.0
                       -0.0973147715396906       -0.0003156660487016    0.0
                       -0.0923642902431109       -0.0003175205826585    0.0
                       -0.0877986705873004       -0.0003186112289952    0.0
                       -0.0835957042479718       -0.0003189679784547    0.0
                       -0.0797323701957733       -0.0003186173429123    0.0
                       -0.0761854581924681       -0.0003175736053647    0.0
                       -0.0729320439364398       -0.0003158495499946    0.0
                       -0.0699498419790164       -0.0003134598771466    0.0
                       -0.3500000000000000        0.0006584806701299    0.0
                       -0.3345317543651713        0.0006624299624356    0.0
                       -0.3191435058927670        0.0006665428371965    0.0
                       -0.3039129795616327        0.0006707137147649    0.0
                       -0.2889147822451122        0.0006747899768422    0.0
                       -0.2742190496536649        0.0006786397543390    0.0
                       -0.2598902900882101        0.0006821828778650    0.0
                       -0.2459864520416691        0.0006853979468585    0.0
                       -0.2325582294851598        0.0006883111706877    0.0
                       -0.2196485990798345        0.0006909709053500    0.0
                       -0.2072925581151594        0.0006934101089444    0.0
                       -0.1955170051904981        0.0006955997760909    0.0
                       -0.1843406864233764        0.0006974029823658    0.0
                       -0.1737741293251706        0.0006985508584119    0.0
                       -0.1638195169626546        0.0006986703684070    0.0
                       -0.1544705372635113        0.0006973838722436    0.0
                       -0.1457124085643765        0.0006944616853030    0.0
                       -0.1375225234054071        0.0006899572116673    0.0
                       -0.1298722805893207        0.0006842380226066    0.0
                       -0.1227303169763088        0.0006778832035312    0.0
                       -0.1160664018908508        0.0006715102951200    0.0
                       -0.1098544157045426        0.0006656325773839    0.0
                       -0.1040730887131631        0.0006605989121723    0.0
                       -0.0987045118430425        0.0006566015690978    0.0
                       -0.0937316834499505        0.0006537148482242    0.0
                       -0.0891365492611406        0.0006519397793124    0.0
                       -0.0848992496100143        0.0006512440719979    0.0
                       -0.0809984057985974        0.0006515916007877    0.0
                       -0.0774118473777287        0.0006529547530664    0.0
                       -0.0741172087602864        0.0006552868747752    0.0
                       -0.0710923530610457        0.0006584806701299    0.0
                       -0.3500000000000000        0.0016304212174064    0.0
                       -0.3346066752914121        0.0016356216249734    0.0
                       -0.3192933564718857        0.0016410236381411    0.0
                       -0.3041375768383035        0.0016464921859696    0.0
                       -0.2892137634010627        0.0016518316726374    0.0
                       -0.2745919000563879        0.0016568727576589    0.0
                       -0.2603363895562905        0.0016615120258521    0.0
                       -0.2465051373014131        0.0016657212195373    0.0
                       -0.2331488674191984        0.0016695333568041    0.0
                       -0.2203106614067295        0.0016730108284943    0.0
                       -0.2080256823966214        0.0016761984227133    0.0
                       -0.1963210194045434        0.0016790651382706    0.0
                       -0.1852155667397495        0.0016814465126363    0.0
                       -0.1747198571593142        0.0016830133141494    0.0
                       -0.1648358058235215        0.0016833029784257    0.0
                       -0.1555564132052176        0.0016818387770258    0.0
                       -0.1468656486344846        0.0016783157255719    0.0
                       -0.1387389906732139        0.0016727699965325    0.0
                       -0.1311452669955683        0.0016656267222229    0.0
                       -0.1240501302812485        0.0016575855415062    0.0
                       -0.1174205294163389        0.0016494142164329    0.0
                       -0.1112284847300331        0.0016417709103557    0.0
                       -0.1054524606468100        0.0016351228180345    0.0
                       -0.1000759515274345        0.0016297477004302    0.0
                       -0.0950844916745658        0.0016257741540164    0.0
                       -0.0904628821675547        0.0016232309247067    0.0
                       -0.0861937765887015        0.0016220933642351    0.0
                       -0.0822576722417346        0.0016223202703630    0.0
                       -0.0786336445917244        0.0016238691455875    0.0
                       -0.0753000234274329        0.0016266476285486    0.0
                       -0.0722348641430751        0.0016304212174064    0.0
                       -0.3500000000000000        0.0026023617646829    0.0
                       -0.3346807816661946        0.0026087731887895    0.0
                       -0.3194415520779550        0.0026154172257142    0.0
                       -0.3043596372789706        0.0026221318600651    0.0
                       -0.2895092679292575        0.0026286822397531    0.0
                       -0.2749602571146344        0.0026348646480129    0.0
                       -0.2607768784692676        0.0026405541232769    0.0
                       -0.2470169640387303        0.0026457157461702    0.0
                       -0.2337312293878988        0.0026503884673392    0.0
                       -0.2209628129598453        0.0026546476588224    0.0
                       -0.2087469883110100        0.0026585500353845    0.0
                       -0.1971109780999526        0.0026620655027420    0.0
                       -0.1860737803754024        0.0026650093017746    0.0
                       -0.1756459253249047        0.0026670038281244    0.0
                       -0.1658291257265363        0.0026675117040553    0.0
                       -0.1566158792357503        0.0026659694728088    0.0
                       -0.1479892492206054        0.0026620001139406    0.0
                       -0.1399232992350700        0.0026556119948059    0.0
                       -0.1323848493277983        0.0026472643294698    0.0
                       -0.1253370001658336        0.0026377477290476    0.0
                       -0.1187439557970880        0.0026279532423517    0.0
                       -0.1125754963996858        0.0026186659166517    0.0
                       -0.1068091188039952        0.0026104645452304    0.0
                       -0.1014289969627850        0.0026037159732071    0.0
                       -0.0964227227739030        0.0025986136713462    0.0
                       -0.0917778071840493        0.0025952269427134    0.0
                       -0.0874795198270157        0.0025935495000793    0.0
                       -0.0835104399814014        0.0025935411008115    0.0
                       -0.0798510889015678        0.0025951446815079    0.0
                       -0.0764806321153781        0.0025982138343788    0.0
                       -0.0733773752251044        0.0026023617646829    0.0
                       -0.3500000000000000        0.0035743023119594    0.0
                       -0.3347540853623215        0.0035818807952220    0.0
                       -0.3195881169986202        0.0035897165357315    0.0
                       -0.3045791991028980        0.0035976229612533    0.0
                       -0.2898013506215823        0.0036053295467562    0.0
                       -0.2753241962614780        0.0036126012034364    0.0
                       -0.2612118589088504        0.0036192930960694    0.0
                       -0.2475220696963856        0.0036253638694547    0.0
                       -0.2343055006634916        0.0036308575812655    0.0
                       -0.2216053043702741        0.0036358615316100    0.0
                       -0.2094568157938231        0.0036404442973263    0.0
                       -0.1978873417065043        0.0036445791225384    0.0
                       -0.1869159457553903        0.0036480672819389    0.0
                       -0.1765531492016967        0.0036504934621329    0.0
                       -0.1668005177364584        0.0036512588130395    0.0
                       -0.1576502000719000        0.0036497248733722    0.0
                       -0.1490846398913501        0.0036454468840008    0.0
                       -0.1410769111159671        0.0036383979279079    0.0
                       -0.1335923327145538        0.0036290521850910    0.0
                       -0.1265918922452606        0.0036182654831190    0.0
                       -0.1200372165831337        0.0036070267587375    0.0
                       -0.1138956049752695        0.0035962285615485    0.0
                       -0.1081429930008642        0.0035865509994406    0.0
                       -0.1027635321020432        0.0035784494968976    0.0
                       -0.0977463376290149        0.0035721899383683    0.0
                       -0.0930814029253685        0.0035678938444371    0.0
                       -0.0887566533789856        0.0035655844675923    0.0
                       -0.0847569254951518        0.0035652299198838    0.0
                       -0.0810643783964156        0.0035667606539722    0.0
                       -0.0776591569689732        0.0035699706848482    0.0
                       -0.0745198863071337        0.0035743023119594    0.0
                       -0.3500000000000000        0.0045462428592360    0.0
                       -0.3348265981159167        0.0045549409112469    0.0
                       -0.3197330752732330        0.0045639151042679    0.0
                       -0.3047963001459284        0.0045729565523898    0.0
                       -0.2900900656656087        0.0045817625041325    0.0
                       -0.2756837919301169        0.0045900694117309    0.0
                       -0.2616414312514626        0.0045977142109628    0.0
                       -0.2480205887854758        0.0046046493648325    0.0
                       -0.2348718615095873        0.0046109232618244    0.0
                       -0.2222383778312462        0.0046166340817640    0.0
                       -0.2101554908404307        0.0046218620570200    0.0
                       -0.1986505482146561        0.0046265857800075    0.0
                       -0.1877426464458866        0.0046305980742644    0.0
                       -0.1774422926466365        0.0046334553947558    0.0
                       -0.1677509519394738        0.0046345095177648    0.0
                       -0.1586605519244245        0.0046330580683983    0.0
                       -0.1501531544771406        0.0046285936123901    0.0
                       -0.1422012044421948        0.0046210490066577    0.0
                       -0.1347689709759770        0.0046108980445328    0.0
                       -0.1278157626048133        0.0045990396196933    0.0
                       -0.1213008683725897        0.0045865371072756    0.0
                       -0.1151889906972774        0.0045743706453542    0.0
                       -0.1094540206448507        0.0045633085894414    0.0
                       -0.1040794215170322        0.0045538906099122    0.0
                       -0.0990552562334925        0.0045464592681310    0.0
                       -0.0943736966189170        0.0045411983411099    0.0
                       -0.0900252991220597        0.0045381719109480    0.0
                       -0.0859972990739183        0.0045373650242415    0.0
                       -0.0822736761820468        0.0045386993731599    0.0
                       -0.0788357011114098        0.0045419061937916    0.0
                       -0.0756623973891631        0.0045462428592360    0.0
                       -0.3500000000000000        0.0055181834065125    0.0
                       -0.3348983315212488        0.0055279502830995    0.0
                       -0.3198764506747105        0.0055380069797811    0.0
                       -0.3050109778244574        0.0055481244098392    0.0
                       -0.2903754665900790        0.0055579709074259    0.0
                       -0.2760391174868940        0.0055672572882195    0.0
                       -0.2620656941055149        0.0055758038745956    0.0
                       -0.2485126528618708        0.0055835572278660    0.0
                       -0.2354304872634202        0.0055905693391113    0.0
                       -0.2228622674072722        0.0055969482280590    0.0
                       -0.2108433262515791        0.0056027854513617    0.0
                       -0.1994010146942164        0.0056080665819059    0.0
                       -0.1885544339256781        0.0056125807754672    0.0
                       -0.1783140725619193        0.0056158646675788    0.0
                       -0.1686813341336295        0.0056172316322652    0.0
                       -0.1596480308902982        0.0056159258482743    0.0
                       -0.1511960394961467        0.0056113828203192    0.0
                       -0.1432974792330182        0.0056034923081479    0.0
                       -0.1359159676329108        0.0055927155905946    0.0
                       -0.1290095542466845        0.0055799758170803    0.0
                       -0.1225354833811552        0.0055663895691572    0.0
                       -0.1164558555637663        0.0055530048501809    0.0
                       -0.1107421452900237        0.0055406631761694    0.0
                       -0.1053765117739926        0.0055299806648809    0.0
                       -0.1003493613893277        0.0055213773889489    0.0
                       -0.0956546695129207        0.0055151073736002    0.0
                       -0.0912855330494175        0.0055112865550279    0.0
                       -0.0872316909594983        0.0055099264807108    0.0
                       -0.0834791152519780        0.0055109453313553    0.0
                       -0.0800103512213448        0.0055140103601018    0.0
                       -0.0768049084711924        0.0055181834065125    0.0
                       -0.3500000000000000        0.0064901239537890    0.0
                       -0.3349692970267384        0.0065009058962224    0.0
                       -0.3200182666950604        0.0065119866473364    0.0
                       -0.3052232691065947        0.0065231189155747    0.0
                       -0.2906576062217564        0.0065339453018551    0.0
                       -0.2763902451798657        0.0065441537181679    0.0
                       -0.2624847442674289        0.0065535494593674    0.0
                       -0.2489983905218767        0.0065620734893463    0.0
                       -0.2359815484316582        0.0065697807202608    0.0
                       -0.2234771993385958        0.0065767879837938    0.0
                       -0.2115206223315822        0.0065831977203939    0.0
                       -0.2001391386799292        0.0065890037768901    0.0
                       -0.1893518300725623        0.0065939957665038    0.0
                       -0.1791691629479573        0.0065976979576196    0.0
                       -0.1695925117324386        0.0065993952664271    0.0
                       -0.1606136603725540        0.0065982882820153    0.0
                       -0.1522144617145940        0.0065937614393300    0.0
                       -0.1443669628644604        0.0065856602095392    0.0
                       -0.1370344774223332        0.0065744239740686    0.0
                       -0.1301741947647420        0.0065609843738165    0.0
                       -0.1237416454475664        0.0065464923288549    0.0
                       -0.1176964200973788        0.0065320447760392    0.0
                       -0.1120073152203157        0.0065185400297463    0.0
                       -0.1066546317316744        0.0065066598399184    0.0
                       -0.1016285005256607        0.0064968991322897    0.0
                       -0.0969242601747547        0.0064895877202245    0.0
                       -0.0925373896913438        0.0064849037473847    0.0
                       -0.0884601960429689        0.0064828955925388    0.0
                       -0.0846808024012906        0.0064834845947319    0.0
                       -0.0811831797018126        0.0064862745934994    0.0
                       -0.0779474195532217        0.0064901239537890    0.0
                       -0.3500000000000000        0.0074620645010655    0.0
                       -0.3350395059319692        0.0074738049406932    0.0
                       -0.3201585465340041        0.0074858489633074    0.0
                       -0.3054332104894315        0.0074979329642195    0.0
                       -0.2909365366518872        0.0075096768655766    0.0
                       -0.2767372461004646        0.0075207483206699    0.0
                       -0.2628986766933202        0.0075309391526545    0.0
                       -0.2494779274136298        0.0075401850547147    0.0
                       -0.2365252107965620        0.0075485432239779    0.0
                       -0.2240833923395038        0.0075561382909387    0.0
                       -0.2121876675427038        0.0075630830440068    0.0
                       -0.2008652994386117        0.0075693805934453    0.0
                       -0.1901353294005351        0.0075748245415923    0.0
                       -0.1800081985106260        0.0075789333738369    0.0
                       -0.1704852789899659        0.0075809725537829    0.0
                       -0.1615583976561735        0.0075801083425864    0.0
                       -0.1532095149323982        0.0075756803346003    0.0
                       -0.1454108151771128        0.0075674898743584    0.0
                       -0.1381256081251914        0.0075559473832551    0.0
                       -0.1313105949436175        0.0075419799669137    0.0
                       -0.1249199472311025        0.0075267564248893    0.0
                       -0.1189109211040090        0.0075114049700647    0.0
                       -0.1132494823647457        0.0074968637922652    0.0
                       -0.1079135922322413        0.0074838669659458    0.0
                       -0.1028924860772202        0.0074729781506628    0.0
                       -0.0981823659808702        0.0074646056594105    0.0
                       -0.0937808648604347        0.0074589990878341    0.0
                       -0.0896828772784505        0.0074562544882449    0.0
                       -0.0858788213039374        0.0074563043542031    0.0
                       -0.0823542464765366        0.0074586913114617    0.0
                       -0.0790899306352510        0.0074620645010655    0.0
                       -0.3500000000000000        0.0084340050483420    0.0
                       -0.3351089693855352        0.0084466447813027    0.0
                       -0.3202973130901945        0.0084595890989633    0.0
                       -0.3056408379813807        0.0084725598827735    0.0
                       -0.2912123092106529        0.0084851573088028    0.0
                       -0.2770801901559807        0.0084970313308208    0.0
                       -0.2633075844834702        0.0085079618259745    0.0
                       -0.2499513862609846        0.0085178795643130    0.0
                       -0.2370616355294348        0.0085268434359912    0.0
                       -0.2246810578889119        0.0085349848745731    0.0
                       -0.2128447391183673        0.0085424263977562    0.0
                       -0.2015798591298876        0.0085491810957693    0.0
                       -0.1909054010776524        0.0085550495552903    0.0
                       -0.1808317778806773        0.0085595502750259    0.0
                       -0.1713603816380929        0.0085619374089424    0.0
                       -0.1624831397490709        0.0085613515738948    0.0
                       -0.1541822260760869        0.0085570938791954    0.0
                       -0.1464301332173554        0.0085489227864452    0.0
                       -0.1391904225611950        0.0085372146417210    0.0
                       -0.1324196480340513        0.0085228814139089    0.0
                       -0.1260709883741783        0.0085070956924887    0.0
                       -0.1200996103789805        0.0084910009523639    0.0
                       -0.1144686017601365        0.0084755584457411    0.0
                       -0.1091531855699704        0.0084615393626310    0.0
                       -0.1041410947973285        0.0084495666503328    0.0
                       -0.0994288430528256        0.0084401266664663    0.0
                       -0.0950159168707807        0.0084335481213154    0.0
                       -0.0908997679212886        0.0084299858023112    0.0
                       -0.0870732348403771        0.0084293925908450    0.0
                       -0.0835236004480312        0.0084312536512487    0.0
                       -0.0802324417172804        0.0084340050483420    0.0
                       -0.3500000000000000        0.0094059455956185    0.0
                       -0.3351776983835730        0.0094194229315365    0.0
                       -0.3204345889545606        0.0094332024915013    0.0
                       -0.3058461870886970        0.0094469933609686    0.0
                       -0.2914849744481546        0.0094603787861956    0.0
                       -0.2774191460508351        0.0094729934972298    0.0
                       -0.2637115588770223        0.0094846069209031    0.0
                       -0.2504188868969821        0.0094951452711416    0.0
                       -0.2375909793086170        0.0095046685821382    0.0
                       -0.2252704005117683        0.0095133141144680    0.0
                       -0.2134921036373451        0.0095212134249009    0.0
                       -0.2022831638706773        0.0095283900549882    0.0
                       -0.1916624907497764        0.0095346540851124    0.0
                       -0.1816404664940476        0.0095395291062185    0.0
                       -0.1722185210124097        0.0095422653107031    0.0
                       -0.1633887285812042        0.0095419857939796    0.0
                       -0.1551335606727499        0.0095379595729934    0.0
                       -0.1474259556138193        0.0095299043266070    0.0
                       -0.1402299406430270        0.0095181588327361    0.0
                       -0.1335022295027720        0.0095036114404822    0.0
                       -0.1271953744217627        0.0094874267014509    0.0
                       -0.1212627542843163        0.0094707492416312    0.0
                       -0.1156646317107643        0.0094545472861304    0.0
                       -0.1103731850593376        0.0094396126780766    0.0
                       -0.1053740663341982        0.0094266151260013    0.0
                       -0.1006635048553338        0.0094161151257525    0.0
                       -0.0962424663417395        0.0094085260732009    0.0
                       -0.0921108726619780        0.0094040724246143    0.0
                       -0.0882640867355077        0.0094027378259952    0.0
                       -0.0846912806466006        0.0094039552617406    0.0
                       -0.0813749527993097        0.0094059455956185    0.0
                       -0.3500000000000000        0.0103778861428951    0.0
                       -0.3352457037688403        0.0103921370307819    0.0
                       -0.3205703964053673        0.0104066848012184    0.0
                       -0.3060492928053637        0.0104212273903788    0.0
                       -0.2917545821206613        0.0104353338202134    0.0
                       -0.2777541812748537        0.0104486259921728    0.0
                       -0.2641106892546460        0.0104608643487982    0.0
                       -0.2508805463043563        0.0104719709330619    0.0
                       -0.2381133944396149        0.0104820064159873    0.0
                       -0.2258516180499773        0.0104911129308125    0.0
                       -0.2141300175607524        0.0104994303218283    0.0
                       -0.2029755447121142        0.0105069928330686    0.0
                       -0.1924070221916197        0.0105136221071069    0.0
                       -0.1824347991742919        0.0105188512506643    0.0
                       -0.1730603577314393        0.0105219331069799    0.0
                       -0.1642759556413887        0.0105219808292286    0.0
                       -0.1560644277711005        0.0105182377003840    0.0
                       -0.1483992665994577        0.0105103833870895    0.0
                       -0.1412451414119600        0.0104987169481889    0.0
                       -0.1345591970937267        0.0104840964541201    0.0
                       -0.1282937163079038        0.0104676686911151    0.0
                       -0.1224006340976363        0.0104505673831802    0.0
                       -0.1168375347433889        0.0104337529055259    0.0
                       -0.1115733449778058        0.0104180207298456    0.0
                       -0.1065911013682563        0.0104040720868133    0.0
                       -0.1018861196425202        0.0103925340409493    0.0
                       -0.0974603946604178        0.0103839076082758    0.0
                       -0.0933161676920421        0.0103784973004062    0.0
                       -0.0894514025435227        0.0103763289355099    0.0
                       -0.0858573170927626        0.0103767901525219    0.0
                       -0.0825174638813390        0.0103778861428951    0.0
                       -0.3500000000000000        0.0113498266901716    0.0
                       -0.3353129962302163        0.0113647848241473    0.0
                       -0.3207047574046235        0.0113800318736346    0.0
                       -0.3062501896056266        0.0113952562105874    0.0
                       -0.2920211811809724        0.0114100152332745    0.0
                       -0.2780853620969503        0.0114239203319142    0.0
                       -0.2645050631471590        0.0114367244016199    0.0
                       -0.2513364786608043        0.0114483457165789    0.0
                       -0.2386290289752193        0.0114588451180857    0.0
                       -0.2264249019216715        0.0114683686812040    0.0
                       -0.2147587277333749        0.0114770637341065    0.0
                       -0.2036573185362681        0.0114849752767850    0.0
                       -0.1931393988032924        0.0114919381817555    0.0
                       -0.1832152824520945        0.0114974988944349    0.0
                       -0.1738865149840558        0.0115009188377707    0.0
                       -0.1651455661199230        0.0115013082746930    0.0
                       -0.1569756843685525        0.0114978910211311    0.0
                       -0.1493509996951413        0.0114903120190065    0.0
                       -0.1422369649998211        0.0114788295592933    0.0
                       -0.1355913910696370        0.0114642663232280    0.0
                       -0.1293666302371990        0.0114477435030167    0.0
                       -0.1235135470155010        0.0114303739812499    0.0
                       -0.1179872794143415        0.0114130971854570    0.0
                       -0.1127534011250678        0.0113966953472419    0.0
                       -0.1077918595916895        0.0113818837651805    0.0
                       -0.1030964069188897        0.0113693447269279    0.0
                       -0.0986695411428829        0.0113596665953437    0.0
                       -0.0945155997023832        0.0113532432655283    0.0
                       -0.0906351899936646        0.0113501550137792    0.0
                       -0.0870217313885951        0.0113497525856614    0.0
                       -0.0836599749633684        0.0113498266901716    0.0
                       -0.3500000000000000        0.0123217672374481    0.0
                       -0.3353795863025014        0.0123373641443291    0.0
                       -0.3208376935954817        0.0123532397054803    0.0
                       -0.3064489114385135        0.0123690742608316    0.0
                       -0.2922848197718501        0.0123844160867383    0.0
                       -0.2784127535627640        0.0123988683048708    0.0
                       -0.2648947662482795        0.0124121776712621    0.0
                       -0.2517867953869507        0.0124242591094544    0.0
                       -0.2391380268336449        0.0124351732040063    0.0
                       -0.2269904373677049        0.0124450690660705    0.0
                       -0.2153784718505251        0.0124541006603801    0.0
                       -0.2043287888788907        0.0124623236190262    0.0
                       -0.1938600049677617        0.0124695873474397    0.0
                       -0.1839823966514419        0.0124754549005826    0.0
                       -0.1746975814715935        0.0124792015723538    0.0
                       -0.1659982626152556        0.0124799412756807    0.0
                       -0.1578681393964417        0.0124768844889358    0.0
                       -0.1502820410739300        0.0124696451078351    0.0
                       -0.1432063144800032        0.0124584405059189    0.0
                       -0.1365996345298503        0.0124440541601286    0.0
                       -0.1304147378054974        0.0124275755104471    0.0
                       -0.1246018076792185        0.0124100887363369    0.0
                       -0.1191138429882012        0.0123925013045798    0.0
                       -0.1139130722153906        0.0123755662169023    0.0
                       -0.1089759578084574        0.0123599938020627    0.0
                       -0.1042940330734437        0.0123465064671078    0.0
                       -0.0998696989027015        0.0123357758589298    0.0
                       -0.0957090837759554        0.0123282929027607    0.0
                       -0.0918154386864149        0.0123242052770712    0.0
                       -0.0881845370459157        0.0123228370008635    0.0
                       -0.0848024860453977        0.0123217672374481    0.0
                       -0.3500000000000000        0.0132937077847246    0.0
                       -0.3354454843663966        0.0133098728949749    0.0
                       -0.3209692263003066        0.0133263044134682    0.0
                       -0.3066454917237009        0.0133426761355862    0.0
                       -0.2925455452215263        0.0133585296247513    0.0
                       -0.2787364194948683        0.0133734619053179    0.0
                       -0.2652798824297638        0.0133872149748334    0.0
                       -0.2522316051950185        0.0133997008393883    0.0
                       -0.2396405279127626        0.0134109794383075    0.0
                       -0.2275484036841467        0.0134212020395903    0.0
                       -0.2159894788911983        0.0134305283611726    0.0
                       -0.2049902466832421        0.0134390243845110    0.0
                       -0.1945692072821097        0.0134465550184645    0.0
                       -0.1847365977673409        0.0134527026895234    0.0
                       -0.1754941140438929        0.0134567612567181    0.0
                       -0.1668347084542597        0.0134578543257212    0.0
                       -0.1587425573090985        0.0134551849921781    0.0
                       -0.1511932326265747        0.0134483400718552    0.0
                       -0.1441540575837946        0.0134374966008258    0.0
                       -0.1375847337232570        0.0134233961054096    0.0
                       -0.1314386662196507        0.0134070915426987    0.0
                       -0.1256657500779090        0.0133896324868108    0.0
                       -0.1202172149714196        0.0133718857638304    0.0
                       -0.1150520622987899        0.0133545607356593    0.0
                       -0.1101429684425207        0.0133383429046183    0.0
                       -0.1054786063509677        0.0133239761202328    0.0
                       -0.1010606094076565        0.0133122068978703    0.0
                       -0.0968965000930292        0.0133036284048373    0.0
                       -0.0929921191009860        0.0132984689981944    0.0
                       -0.0893457395505182        0.0132960379682315    0.0
                       -0.0859449971274270        0.0132937077847246    0.0
                       -0.3500000000000000        0.0142656483320011    0.0
                       -0.3355107006485326        0.0142823090349811    0.0
                       -0.3210993765190448        0.0142992222047665    0.0
                       -0.3068399633480755        0.0143160565424838    0.0
                       -0.2928034040402696        0.0143323492209232    0.0
                       -0.2790564224941514        0.0143476932702244    0.0
                       -0.2656604937571640        0.0143618272831682    0.0
                       -0.2526710141361811        0.0143746607958181    0.0
                       -0.2401366681983867        0.0143862527512723    0.0
                       -0.2280989744393012        0.0143967557228606    0.0
                       -0.2165919695177290        0.0144063342692861    0.0
                       -0.2056419709888338        0.0144150642965476    0.0
                       -0.1952673556730601        0.0144228268841489    0.0
                       -0.1854783191557057        0.0144292261218257    0.0
                       -0.1762766400620924        0.0144335785667764    0.0
                       -0.1676555306679197        0.0144350230756086    0.0
                       -0.1595996613162485        0.0144327611109429    0.0
                       -0.1520853747486561        0.0144263565779007    0.0
                       -0.1450810282683564        0.0144159473443045    0.0
                       -0.1385474782943360        0.0144022311099647    0.0
                       -0.1324390484911023        0.0143862208001501    0.0
                       -0.1267057296714335        0.0143689272520786    0.0
                       -0.1212974014461938        0.0143511704311500    0.0
                       -0.1161700643855728        0.0143336038761527    0.0
                       -0.1112924187623532        0.0143168684745825    0.0
                       -0.1066496713461788        0.0143017076603917    0.0
                       -0.1022419556832821        0.0142889295476388    0.0
                       -0.0980776893169645        0.0142792314275753    0.0
                       -0.0941651808392244        0.0142729354655663    0.0
                       -0.0905053361509911        0.0142693501654324    0.0
                       -0.0870875082094563        0.0142656483320011    0.0
                       -0.3500000000000000        0.0152375888792776    0.0
                       -0.3355752452213990        0.0152546705630992    0.0
                       -0.3212281649275213        0.0152719893479351    0.0
                       -0.3070323586622766        0.0152892102607953    0.0
                       -0.2930584419169153        0.0153058683255478    0.0
                       -0.2793728239408480        0.0153215546164937    0.0
                       -0.2660366805042704        0.0153360056494612    0.0
                       -0.2531051256443356        0.0153491289514219    0.0
                       -0.2406265798642699        0.0153609821547799    0.0
                       -0.2286423176732988        0.0153717183154792    0.0
                       -0.2171861564413456        0.0153815058978170    0.0
                       -0.2062842295575289        0.0153904301807224    0.0
                       -0.1959547844047942        0.0153983888046756    0.0
                       -0.1862079730519994        0.0154050093787427    0.0
                       -0.1770456595150399        0.0154096347620823    0.0
                       -0.1684613226570610        0.0154114241474386    0.0
                       -0.1604401362920418        0.0154095828836319    0.0
                       -0.1529592288682444        0.0154036562678596    0.0
                       -0.1459880281296604        0.0153937446435704    0.0
                       -0.1394886414165711        0.0153805007096404    0.0
                       -0.1334165234928337        0.0153648947543970    0.0
                       -0.1277221255647047        0.0153478962719476    0.0
                       -0.1223544301078730        0.0153302746059399    0.0
                       -0.1172667654225731        0.0153126180715529    0.0
                       -0.1124237911585059        0.0152955042083975    0.0
                       -0.1078067032470815        0.0152796516340339    0.0
                       -0.1034133541081217        0.0152659115589820    0.0
                       -0.0992524464694938        0.0152550829124008    0.0
                       -0.0953345499846114        0.0152475939594656    0.0
                       -0.0916633153465598        0.0152427683779393    0.0
                       -0.0882300192914857        0.0152375888792776    0.0
                       -0.3500000000000000        0.0162095294265542    0.0
                       -0.3356391280029902        0.0162269555021056    0.0
                       -0.3213556118751781        0.0162446021428807    0.0
                       -0.3072227094763725        0.0162621320983346    0.0
                       -0.2933107037140595        0.0162790804106085    0.0
                       -0.2796856839934302        0.0162950381752906    0.0
                       -0.2664085211639520        0.0163097411342260    0.0
                       -0.2535340405735779        0.0163230952791017    0.0
                       -0.2411103913608512        0.0163351566527341    0.0
                       -0.2291785960774978        0.0163460780006749    0.0
                       -0.2177722447518910        0.0163560307406825    0.0
                       -0.2069172794377275        0.0163651088601827    0.0
                       -0.1966318129844096        0.0163732266980852    0.0
                       -0.1869259519311143        0.0163800368344539    0.0
                       -0.1778016469104308        0.0163849115333800    0.0
                       -0.1692526465758209        0.0163870349461701    0.0
                       -0.1612646313876283        0.0163856215750454    0.0
                       -0.1538155197300352        0.0163802024877900    0.0
                       -0.1468758276577655        0.0163708425294895    0.0
                       -0.1404089797806963        0.0163581487854157    0.0
                       -0.1343717357838593        0.0163430470251424    0.0
                       -0.1287153425554160        0.0163264640333897    0.0
                       -0.1233883558619029        0.0163091171001427    0.0
                       -0.1183418527329201        0.0162915231255938    0.0
                       -0.1135365248443838        0.0162741796728620    0.0
                       -0.1089491021167610        0.0162577545178706    0.0
                       -0.1045743447448360        0.0162431180596943    0.0
                       -0.1004205130353683        0.0162311628507067    0.0
                       -0.0965001253930753        0.0162224337361074    0.0
                       -0.0928196560288251        0.0162162875223822    0.0
                       -0.0893725303735150        0.0162095294265542    0.0
                       -0.3500000000000000        0.0171814699738307    0.0
                       -0.3357023587559255        0.0171991618815829    0.0
                       -0.3214817373816645        0.0172170568879425    0.0
                       -0.3074110470535980        0.0172348168440315    0.0
                       -0.2935602334602828        0.0172519789090032    0.0
                       -0.2799950615830999        0.0172681361191516    0.0
                       -0.2667760924524949        0.0172830247216136    0.0
                       -0.2539578572258771        0.0172965496588991    0.0
                       -0.2415882274888094        0.0173087651399882    0.0
                       -0.2297079671496768        0.0173198228374855    0.0
                       -0.2183504322083225        0.0173298961587625    0.0
                       -0.2075413674651317        0.0173390870352530    0.0
                       -0.1972987469672277        0.0173473264107542    0.0
                       -0.1876326297165325        0.0173542929118343    0.0
                       -0.1785450529558109        0.0173593908350994    0.0
                       -0.1700300354534222        0.0173618334589709    0.0
                       -0.1620737623672471        0.0173608494354609    0.0
                       -0.1546549374474215        0.0173559600090091    0.0
                       -0.1477451673329115        0.0173471968604963    0.0
                       -0.1413092334152691        0.0173351212991620    0.0
                       -0.1353053351199765        0.0173206132221999    0.0
                       -0.1296858128701273        0.0173045562713449    0.0
                       -0.1243992667833069        0.0172876163278070    0.0
                       -0.1193950219788287        0.0172702361522376    0.0
                       -0.1146300193829077        0.0172528198626119    0.0
                       -0.1100761875912919        0.0172359579621231    0.0
                       -0.1057243801700784        0.0172205108590620    0.0
                       -0.1015815669555558        0.0172074499520891    0.0
                       -0.0976617736481510        0.0171974440053904    0.0
                       -0.0939743262039300        0.0171899026937266    0.0
                       -0.0905150414555443        0.0171814699738307    0.0
                       -0.3500000000000000        0.0181534105211072    0.0
                       -0.3357649470857160        0.0181712877180293    0.0
                       -0.3216065611314583        0.0181893498415864    0.0
                       -0.3075974021007162        0.0182072592124523    0.0
                       -0.2938070743372271        0.0182245571431484    0.0
                       -0.2803010144008727        0.0182408404760145    0.0
                       -0.2671394693035422        0.0182558472202921    0.0
                       -0.2543766713641971        0.0182694817672221    0.0
                       -0.2420602094519269        0.0182817962813960    0.0
                       -0.2302305833190885        0.0182929406309521    0.0
                       -0.2189209094842403        0.0183030892420250    0.0
                       -0.2081567306955642        0.0183123511371817    0.0
                       -0.1979558786602079        0.0183206735605638    0.0
                       -0.1883283628416051        0.0183277619102802    0.0
                       -0.1792763060379235        0.0183330546904907    0.0
                       -0.1707939950669844        0.0183357980290698    0.0
                       -0.1628681136797967        0.0183352394365503    0.0
                       -0.1554781393275261        0.0183308947266126    0.0
                       -0.1485967585587350        0.0183227649994197    0.0
                       -0.1421901253234151        0.0183113659907175    0.0
                       -0.1362179755833889        0.0182975307362481    0.0
                       -0.1306339973997846        0.0182820999240619    0.0
                       -0.1253872901834699        0.0182656903875615    0.0
                       -0.1204259866327897        0.0182486715448021    0.0
                       -0.1157036404651590        0.0182313447474231    0.0
                       -0.1111871944882504        0.0182141979047324    0.0
                       -0.1068628128140008        0.0181980475455980    0.0
                       -0.1027352100757786        0.0181839211633917    0.0
                       -0.0988193222973935        0.0181726138793752    0.0
                       -0.0951272811794258        0.0181636092366333    0.0
                       -0.0916575525375736        0.0181534105211072    0.0
                       -0.3500000000000000        0.0191253510683837    0.0
                       -0.3358269024377154        0.0191433309905056    0.0
                       -0.3217301024653982        0.0191614771751701    0.0
                       -0.3077818047530264        0.0191794537750633    0.0
                       -0.2940512686585194        0.0191968082361868    0.0
                       -0.2806035988730970        0.0192131430219360    0.0
                       -0.2674987248462439        0.0192281991393279    0.0
                       -0.2547905762044070        0.0192418809376024    0.0
                       -0.2425264548814351        0.0192542383591261    0.0
                       -0.2307465920326085        0.0192654187674661    0.0
                       -0.2194838603592614        0.0192755966338681    0.0
                       -0.2087635967611295        0.0192848871413929    0.0
                       -0.1986034877165506        0.0192932533372807    0.0
                       -0.1890134911593179        0.0193004277891774    0.0
                       -0.1799958135009460        0.0193058849519172    0.0
                       -0.1715450055689131        0.0193089070854543    0.0
                       -0.1636482402681772        0.0193087649643563    0.0
                       -0.1562857514652666        0.0193049733149418    0.0
                       -0.1494312844228978        0.0192975054426870    0.0
                       -0.1430523609213565        0.0192868320155699    0.0
                       -0.1371103142761275        0.0192737384551898    0.0
                       -0.1315603862458056        0.0192590230151201    0.0
                       -0.1263525984671999        0.0192432571118335    0.0
                       -0.1214344888409584        0.0192267409659676    0.0
                       -0.1167567283697072        0.0192096688170364    0.0
                       -0.1122812699667077        0.0191924035438750    0.0
                       -0.1079888809108809        0.0191756803182598    0.0
                       -0.1038809525149873        0.0191605509641479    0.0
                       -0.0999725508272244        0.0191479322536282    0.0
                       -0.0962784610357909        0.0191374028391084    0.0
                       -0.0928000636196030        0.0191253510683837    0.0
                       -0.3500000000000000        0.0200972916156602    0.0
                       -0.3358882340920999        0.0201152896092778    0.0
                       -0.3218523803675300        0.0201334349117540    0.0
                       -0.3079642845512208        0.0201513948708240    0.0
                       -0.2942928578363226        0.0201687249961438    0.0
                       -0.2809028701195560        0.0201850351407409    0.0
                       -0.2678539303600006        0.0202000705253862    0.0
                       -0.2551996623765259        0.0202137359775359    0.0
                       -0.2429870778205727        0.0202260790711777    0.0
                       -0.2312561357890873        0.0202372439967413    0.0
                       -0.2200394618421313        0.0202474042977885    0.0
                       -0.2093621841351452        0.0202566803190712    0.0
                       -0.1992418416075388        0.0202650502377057    0.0
                       -0.1896883386884832        0.0202722738832589    0.0
                       -0.1807039627141565        0.0202778629911289    0.0
                       -0.1722835228609769        0.0202811388017140    0.0
                       -0.1644146691063982        0.0202813994411391    0.0
                       -0.1570783700902121        0.0202781628106778    0.0
                       -0.1502494002646949        0.0202713773720853    0.0
                       -0.1438966272602999        0.0202614694928577    0.0
                       -0.1379830095313054        0.0202491763730928    0.0
                       -0.1324654983920895        0.0202352544227534    0.0
                       -0.1272954144004482        0.0202202340418410    0.0
                       -0.1224203114286400        0.0202043533360514    0.0
                       -0.1177886094970032        0.0201877006271047    0.0
                       -0.1133574730532846        0.0201704961581386    0.0
                       -0.1091016933142816        0.0201533544796664    0.0
                       -0.1050181933125976        0.0201373103346210    0.0
                       -0.1011211786124016        0.0201233875593132    0.0
                       -0.0974277871032163        0.0201112796408974    0.0
                       -0.0939425747016323        0.0200972916156602    0.0
                       -0.3500000000000000        0.0210692321629368    0.0
                       -0.3359489511559407        0.0210871613738139    0.0
                       -0.3219734134450038        0.0211052188437559    0.0
                       -0.3081448704061284        0.0211230764854884    0.0
                       -0.2945318823295075        0.0211402997591539    0.0
                       -0.2811988818858450        0.0211565076337127    0.0
                       -0.2682051551949609        0.0211714507415579    0.0
                       -0.2556040178418026        0.0211850349191567    0.0
                       -0.2434421886531501        0.0211973052564863    0.0
                       -0.2317593521031008        0.0212084021336336    0.0
                       -0.2205878842044851        0.0212184971975755    0.0
                       -0.2099527022830722        0.0212277148963722    0.0
                       -0.1998711959480684        0.0212360477030271    0.0
                       -0.1903532141730460        0.0212432825154113    0.0
                       -0.1814011219065325        0.0212489692831124    0.0
                       -0.1730099796924336        0.0212524706455538    0.0
                       -0.1651679004384197        0.0212531158355723    0.0
                       -0.1578565626331842        0.0212504300812887    0.0
                       -0.1510517340125805        0.0212443400856536    0.0
                       -0.1447235920017556        0.0212352289193475    0.0
                       -0.1388367185998221        0.0212237850443043    0.0
                       -0.1333498803261933        0.0212107234811277    0.0
                       -0.1282160153496295        0.0211965382670355    0.0
                       -0.1233832906287215        0.0211814147751254    0.0
                       -0.1187986112809553        0.0211653423392108    0.0
                       -0.1144147775412158        0.0211483877650589    0.0
                       -0.1102002136680835        0.0211310065074863    0.0
                       -0.1061461966178345        0.0211141652531700    0.0
                       -0.1022648487714627        0.0210989672856675    0.0
                       -0.0985751570092857        0.0210852363373900    0.0
                       -0.0950850857836616        0.0210692321629368    0.0
                       -0.3500000000000000        0.0220411727102133    0.0
                       -0.3360090625510351        0.0220589439149188    0.0
                       -0.3220932198978029        0.0220768244191355    0.0
                       -0.3083235905457198        0.0220944920843880    0.0
                       -0.2947683815649551        0.0221115241718959    0.0
                       -0.2814916864382443        0.0221275504550962    0.0
                       -0.2685524666428951        0.0221423281595541    0.0
                       -0.2560037277464069        0.0221557646717461    0.0
                       -0.2438918939529384        0.0221679025111968    0.0
                       -0.2322563733709685        0.0221788776412072    0.0
                       -0.2211292908943957        0.0221888588494834    0.0
                       -0.2105353516653050        0.0221979735769100    0.0
                       -0.2004917946391715        0.0222062276113266    0.0
                       -0.1910084114160513        0.0222134344571666    0.0
                       -0.1820876407284821        0.0222191828309851    0.0
                       -0.1737247864401616        0.0222228787635845    0.0
                       -0.1659084086714764        0.0222238860030253    0.0
                       -0.1586208684567418        0.0222217411179173    0.0
                       -0.1518388862305037        0.0222163522447030    0.0
                       -0.1455339020953637        0.0222080603847173    0.0
                       -0.1396720947651576        0.0221975048145912    0.0
                       -0.1342141034428086        0.0221853593359862    0.0
                       -0.1291147360021104        0.0221720860401103    0.0
                       -0.1243233289104264        0.0221578284223581    0.0
                       -0.1197860806037922        0.0221424892267603    0.0
                       -0.1154520794610596        0.0221259796074762    0.0
                       -0.1112832447801039        0.0221085616081524    0.0
                       -0.1072640626266502        0.0220910745281367    0.0
                       -0.1034031064420849        0.0220746571136154    0.0
                       -0.0997204376197588        0.0220592702376430    0.0
                       -0.0962275968656909        0.0220411727102133    0.0
                       -0.3500000000000000        0.0230131132574898    0.0
                       -0.3360685769956137        0.0230306346136073    0.0
                       -0.3222118174737721        0.0230482465814544    0.0
                       -0.3085004724364589        0.0230656343770563    0.0
                       -0.2950023938200252        0.0230823888849587    0.0
                       -0.2817813344045203        0.0230981523389309    0.0
                       -0.2688959297367880        0.0231126897250000    0.0
                       -0.2563988741846391        0.0231259105304814    0.0
                       -0.2443362962211040        0.0231378546455669    0.0
                       -0.2327473266004842        0.0231486530399315    0.0
                       -0.2216638382854678        0.0231584706869786    0.0
                       -0.2111103235421990        0.0231674368640565    0.0
                       -0.2011038697730491        0.0231755695578439    0.0
                       -0.1916542093295360        0.0231827081656133    0.0
                       -0.1827638504779591        0.0231884803567405    0.0
                       -0.1744283315031554        0.0231923371221864    0.0
                       -0.1666366428485635        0.0231936797726682    0.0
                       -0.1593717991631961        0.0231920600655510    0.0
                       -0.1526114297787333        0.0231873708463945    0.0
                       -0.1463281820755901        0.0231799124947290    0.0
                       -0.1404897838217464        0.0231702747317576    0.0
                       -0.1350587600715855        0.0231590899463328    0.0
                       -0.1299919690396877        0.0231467920419342    0.0
                       -0.1252404070542276        0.0231334940105061    0.0
                       -0.1207504055516518        0.0231190290817475    0.0
                       -0.1164682104766157        0.0231031604498190    0.0
                       -0.1123494145550881        0.0230859306469215    0.0
                       -0.1083706925015778        0.0230679867045523    0.0
                       -0.1045353694261247        0.0230504394125746    0.0
                       -0.1008634548105934        0.0230333791952370    0.0
                       -0.0973701079477203        0.0230131132574898    0.0
                       -0.3500000000000000        0.0239850538047663    0.0
                       -0.3361275029773064        0.0240022304863263    0.0
                       -0.3223292234026509        0.0240194795432600    0.0
                       -0.3086755426680284        0.0240364949833494    0.0
                       -0.2952339560496254        0.0240528831174738    0.0
                       -0.2820678745376865        0.0240683002687960    0.0
                       -0.2692356069491258        0.0240825203392645    0.0
                       -0.2567895358340378        0.0240954554772934    0.0
                       -0.2447754934660954        0.0241071429103711    0.0
                       -0.2332323329505625        0.0241177080653673    0.0
                       -0.2221916751994143        0.0241273111543095    0.0
                       -0.2116777995111602        0.0241360820935049    0.0
                       -0.2017076412226564        0.0241440498278554    0.0
                       -0.1922908716149935        0.0241510786960718    0.0
                       -0.1834300638982908        0.0241568351516608    0.0
                       -0.1751209812104624        0.0241608162926432    0.0
                       -0.1673530265882670        0.0241624636638962    0.0
                       -0.1601098383539314        0.0241613478673311    0.0
                       -0.1533699089508055        0.0241573497934944    0.0
                       -0.1471070318472193        0.0241507308693316    0.0
                       -0.1412904198193708        0.0241420309975281    0.0
                       -0.1358844579751357        0.0241318405819823    0.0
                       -0.1308481632185112        0.0241205681226744    0.0
                       -0.1261345943735692        0.0241083070120266    0.0
                       -0.1216910399192172        0.0240948413986871    0.0
                       -0.1174619586174565        0.0240798046471950    0.0
                       -0.1133971655475581        0.0240630063423094    0.0
                       -0.1094647467157672        0.0240448357083621    0.0
                       -0.1056608884073302        0.0240262907218247    0.0
                       -0.1020039784013960        0.0240075612612270    0.0
                       -0.0985126190297496        0.0239850538047663    0.0
                       -0.3500000000000000        0.0249569943520428    0.0
                       -0.3361858487138017        0.0249737280222474    0.0
                       -0.3224454543005590        0.0249905164645261    0.0
                       -0.3088488267865269        0.0250070639593029    0.0
                       -0.2954631036353914        0.0250229940384343    0.0
                       -0.2823513533715681        0.0250379787238064    0.0
                       -0.2695715577481373        0.0250518019799001    0.0
                       -0.2571757874113167        0.0250643791854289    0.0
                       -0.2452095785640118        0.0250757448946638    0.0
                       -0.2337115070075266        0.0250860184671224    0.0
                       -0.2227129421173304        0.0250953544131544    0.0
                       -0.2122379506794667        0.0251038820522424    0.0
                       -0.2023033158080958        0.0251116399304886    0.0
                       -0.1929186459554073        0.0251185161511620    0.0
                       -0.1840865744173450        0.0251242154393390    0.0
                       -0.1758030790998313        0.0251282817257040    0.0
                       -0.1680579573342674        0.0251301990693371    0.0
                       -0.1608354406636943        0.0251295603523162    0.0
                       -0.1541148378925613        0.0251262378829169    0.0
                       -0.1478710237684827        0.0251204560303002    0.0
                       -0.1420746199243705        0.0251127047682622    0.0
                       -0.1366918131570051        0.0251035316114690    0.0
                       -0.1316838183156276        0.0250933212841739    0.0
                       -0.1270060557504871        0.0250821570940796    0.0
                       -0.1226075292837146        0.0250697961250603    0.0
                       -0.1184320976278397        0.0250557699105672    0.0
                       -0.1144247511219747        0.0250396586141395    0.0
                       -0.1105445967941852        0.0250215348056618    0.0
                       -0.1067786929892240        0.0250021776499376    0.0
                       -0.1031416996155788        0.0249818137904385    0.0
                       -0.0996551301117789        0.0249569943520428    0.0
                       -0.3500000000000000        0.0259289348993193    0.0
                       -0.3362436220964985        0.0259451229535308    0.0
                       -0.3225605260336713        0.0259613489983485    0.0
                       -0.3090203490565341        0.0259773291268691    0.0
                       -0.2956898700274199        0.0259927058916502    0.0
                       -0.2826318147272301        0.0260071686116247    0.0
                       -0.2699038379584486        0.0260205124552959    0.0
                       -0.2575576988820015        0.0260326566092128    0.0
                       -0.2456386383179374        0.0260436329632434    0.0
                       -0.2341849557015490        0.0260535543051224    0.0
                       -0.2232277699677908        0.0260625685068040    0.0
                       -0.2127909363453360        0.0260708030173514    0.0
                       -0.2028910858966463        0.0260783045162271    0.0
                       -0.1935377625599520        0.0260849834785564    0.0
                       -0.1847336546530954        0.0260905820531701    0.0
                       -0.1764749443750001        0.0260946913068963    0.0
                       -0.1687518047027579        0.0260968396850356    0.0
                       -0.1615490298344885        0.0260966455364344    0.0
                       -0.1548466980437259        0.0260939759719738    0.0
                       -0.1486206987669627        0.0260890204271051    0.0
                       -0.1428429781788338        0.0260822190435393    0.0
                       -0.1374814408005535        0.0260740753050252    0.0
                       -0.1324994764403154        0.0260649505942225    0.0
                       -0.1278550539694479        0.0260549255237081    0.0
                       -0.1234995367265955        0.0260437516482638    0.0
                       -0.1193774257613812        0.0260308946203136    0.0
                       -0.1154302423548204        0.0260157289867794    0.0
                       -0.1116082715290769        0.0259979683757157    0.0
                       -0.1078875186478492        0.0259780503639534    0.0
                       -0.1042761968969302        0.0259561315354196    0.0
                       -0.1007976411938082        0.0259289348993193    0.0
                       -0.3500000000000000        0.0269008754465959    0.0
                       -0.3363008306112433        0.0269164099340464    0.0
                       -0.3226744535269543        0.0269319666553745    0.0
                       -0.3091901321274898        0.0269472751358486    0.0
                       -0.2959142862415360        0.0269619987705453    0.0
                       -0.2829092990190097        0.0269758457738260    0.0
                       -0.2702324988591379        0.0269886236593310    0.0
                       -0.2579353343397263        0.0270002560065215    0.0
                       -0.2460627521141572        0.0270107720642552    0.0
                       -0.2346527767423116        0.0270202775576166    0.0
                       -0.2237362783514020        0.0270289127811687    0.0
                       -0.2133369020270436        0.0270368019994939    0.0
                       -0.2034711272561303        0.0270439984490011    0.0
                       -0.1941484318607189        0.0270504333746203    0.0
                       -0.1853715539641133        0.0270558851718582    0.0
                       -0.1771368692981774        0.0270599919223581    0.0
                       -0.1694349076598675        0.0270623279035771    0.0
                       -0.1622509955326344        0.0270625398380937    0.0
                       -0.1555659342749004        0.0270604930093468    0.0
                       -0.1493565611460495        0.0270563442739029    0.0
                       -0.1435960578596682        0.0270504843024049    0.0
                       -0.1382539441316211        0.0270433712966158    0.0
                       -0.1332957092870848        0.0270353426400360    0.0
                       -0.1286819457584346        0.0270264810586259    0.0
                       -0.1243668654351782        0.0270165515398223    0.0
                       -0.1202968139211710        0.0270049944269513    0.0
                       -0.1164115511001718        0.0269910239775355    0.0
                       -0.1126534008139299        0.0269739809555839    0.0
                       -0.1089857084560166        0.0269538324907526    0.0
                       -0.1054068834608048        0.0269305029381696    0.0
                       -0.1019401522758376        0.0269008754465959    0.0
                       -0.3500000000000000        0.0278728159938724    0.0
                       -0.3363574812293193        0.0278875820970680    0.0
                       -0.3227872505016408        0.0279023559286275    0.0
                       -0.3093581965760256        0.0279168821718005    0.0
                       -0.2961363801693868        0.0279308469299800    0.0
                       -0.2831838423010336        0.0279439789256102    0.0
                       -0.2705575859418895        0.0279560991643321    0.0
                       -0.2583087504582510        0.0279671362100720    0.0
                       -0.2464819900574908        0.0279771167022319    0.0
                       -0.2351150564343563        0.0279861388166290    0.0
                       -0.2242385730397978        0.0279943343197538    0.0
                       -0.2138759766550576        0.0280018229304432    0.0
                       -0.2040435959531991        0.0280086627550163    0.0
                       -0.1947508411293029        0.0280148039991746    0.0
                       -0.1860004947885679        0.0280200598013460    0.0
                       -0.1777891152359268        0.0280241147066221    0.0
                       -0.1701075702196423        0.0280265898242984    0.0
                       -0.1629416885679146        0.0280271628448962    0.0
                       -0.1562729493438395        0.0280257005491315    0.0
                       -0.1500790716820247        0.0280223297979032    0.0
                       -0.1443343820752449        0.0280173924705311    0.0
                       -0.1390099009803608        0.0280113002709206    0.0
                       -0.1340731010466929        0.0280043650506053    0.0
                       -0.1294871700582905        0.0279966737623483    0.0
                       -0.1252094745923993        0.0279880194164316    0.0
                       -0.1211892614736565        0.0279778577174087    0.0
                       -0.1173664758335951        0.0279653074514279    0.0
                       -0.1136771638576371        0.0279493630737162    0.0
                       -0.1100710824633231        0.0279294058196428    0.0
                       -0.1065329260280002        0.0279049033013762    0.0
                       -0.1030826633578669        0.0278728159938724    0.0
                       -0.3500000000000000        0.0288447565411489    0.0
                       -0.3364135802620242        0.0288586304604954    0.0
                       -0.3228989291255202        0.0288724991165350    0.0
                       -0.3095245602965880        0.0288861242180244    0.0
                       -0.2963561756596900        0.0288992165147675    0.0
                       -0.2834554749965423        0.0289115268825552    0.0
                       -0.2708791372538570        0.0289228909795498    0.0
                       -0.2586779944216565        0.0289332429507177    0.0
                       -0.2468964104708901        0.0289426068570938    0.0
                       -0.2355718667360743        0.0289510728299350    0.0
                       -0.2247347425911651        0.0289587631312497    0.0
                       -0.2144082687469856        0.0289657915136819    0.0
                       -0.2046086240937418        0.0289722191482515    0.0
                       -0.1953451497876884        0.0289780131825596    0.0
                       -0.1866206675230948        0.0289830196656618    0.0
                       -0.1784319070860092        0.0289869686160034    0.0
                       -0.1707700553646176        0.0289895285050316    0.0
                       -0.1636214141880205        0.0289904102362003    0.0
                       -0.1569680963114581        0.0289894853323743    0.0
                       -0.1507886386262078        0.0289868534628031    0.0
                       -0.1450584222458161        0.0289828087621072    0.0
                       -0.1397498478656043        0.0289777154009792    0.0
                       -0.1348322269401901        0.0289718575821988    0.0
                       -0.1302712274545633        0.0289653261379968    0.0
                       -0.1260274844050885        0.0289579511529679    0.0
                       -0.1220539557642733        0.0289492393368961    0.0
                       -0.1182927774902857        0.0289382920097731    0.0
                       -0.1146762545169993        0.0289238336673399    0.0
                       -0.1111407677949491        0.0289045877306838    0.0
                       -0.1076531178542139        0.0288792826657414    0.0
                       -0.1042251744398962        0.0288447565411489    0.0
                       -0.3500000000000000        0.0298166970884254    0.0
                       -0.3364691331752327        0.0298295431548570    0.0
                       -0.3230094995673263        0.0298423727952845    0.0
                       -0.3096892377250853        0.0298549667994280    0.0
                       -0.2965736913475149        0.0298670626102619    0.0
                       -0.2837242202779104        0.0298784349583064    0.0
                       -0.2711971812831730        0.0298889353385311    0.0
                       -0.2590431012799435        0.0298985040765379    0.0
                       -0.2473060566952513        0.0299071626741583    0.0
                       -0.2360232614866438        0.0299149926966152    0.0
                       -0.2252248539948552        0.0299221058794572    0.0
                       -0.2149338614662295        0.0299286085109522    0.0
                       -0.2051663142950120        0.0299345628890635    0.0
                       -0.1959314832922259        0.0299399508651826    0.0
                       -0.1872322238101016        0.0299446492306317    0.0
                       -0.1790654259439306        0.0299484320351723    0.0
                       -0.1714225770376959        0.0299510151462911    0.0
                       -0.1642904232854198        0.0299521445352412    0.0
                       -0.1576516687401985        0.0299516995918833    0.0
                       -0.1514856064238401        0.0299497558043950    0.0
                       -0.1457685843179166        0.0299465610152408    0.0
                       -0.1404742616657557        0.0299424311402272    0.0
                       -0.1355736278136546        0.0299376203508860    0.0
                       -0.1310346505948209        0.0299322210741722    0.0
                       -0.1268211662497931        0.0299261037029212    0.0
                       -0.1228903284811236        0.0299188518175259    0.0
                       -0.1191882916335141        0.0299096296311517    0.0
                       -0.1156468857529237        0.0298970195817978    0.0
                       -0.1121909859022949        0.0298790989601961    0.0
                       -0.1087656788868752        0.0298535448435874    0.0
                       -0.1053676855219256        0.0298166970884254    0.0
                       -0.3500000000000000        0.0307886376357019    0.0
                       -0.3365241443701058        0.0308003044767570    0.0
                       -0.3231189694694030        0.0308119459460429    0.0
                       -0.3098522389195628        0.0308233642165388    0.0
                       -0.2967889392671487        0.0308343256255735    0.0
                       -0.2839900921460243        0.0308446305453836    0.0
                       -0.2715117344502872        0.0308541475283870    0.0
                       -0.2594040908090420        0.0308628236807208    0.0
                       -0.2477109532855324        0.0308706779373925    0.0
                       -0.2364692719154069        0.0308777827269814    0.0
                       -0.2257089474794179        0.0308842381643236    0.0
                       -0.2154528067202638        0.0308901414711278    0.0
                       -0.2057167330690267        0.0308955539795834    0.0
                       -0.1965099257963721        0.0309004697703851    0.0
                       -0.1878352684681616        0.0309047938583683    0.0
                       -0.1796898002759593        0.0309083424118136    0.0
                       -0.1720652905073497        0.0309108781996863    0.0
                       -0.1649489018564294        0.0309121836792625    0.0
                       -0.1583238890534879        0.0309121490649744    0.0
                       -0.1521702425712096        0.0309108288583981    0.0
                       -0.1464651932168310        0.0309084264961188    0.0
                       -0.1411835396474584        0.0309052093432202    0.0
                       -0.1362977821909392        0.0309013991904374    0.0
                       -0.1317779670782137        0.0308970865298076    0.0
                       -0.1275909154075432        0.0308921801701211    0.0
                       -0.1236980992278485        0.0308863534841486    0.0
                       -0.1200510796124126        0.0308789020882551    0.0
                       -0.1165848683823065        0.0308684341277289    0.0
                       -0.1132168044241117        0.0308525196509222    0.0
                       -0.1098679390759164        0.0308275118603770    0.0
                       -0.1065101966039549        0.0307886376357019    0.0
                       -0.3500000000000000        0.0317605781829784    0.0
                       -0.3365786169607195        0.0317708938450030    0.0
                       -0.3232273434104057        0.0317811778903359    0.0
                       -0.3100135686205166        0.0317912564963769    0.0
                       -0.2970019234311794        0.0318009273056083    0.0
                       -0.2842530934599387        0.0318100182399909    0.0
                       -0.2718227985316475        0.0318184161813315    0.0
                       -0.2597609642837532        0.0318260756128780    0.0
                       -0.2481111020994791        0.0318330128499261    0.0
                       -0.2369099020231680        0.0318392905359925    0.0
                       -0.2261870311720655        0.0318449959647895    0.0
                       -0.2159651190906624        0.0318502155509575    0.0
                       -0.2062599040196488        0.0318550073824225    0.0
                       -0.1970805126119065        0.0318593750330458    0.0
                       -0.1884298512105720        0.0318632488504398    0.0
                       -0.1803050968783092        0.0318664847129356    0.0
                       -0.1726982825308685        0.0318688912303354    0.0
                       -0.1655969602934476        0.0318702882743990    0.0
                       -0.1589848968044057        0.0318705796184372    0.0
                       -0.1528427245378090        0.0318698021224404    0.0
                       -0.1471484776775143        0.0318681171513471    0.0
                       -0.1418779803804738        0.0318657437355551    0.0
                       -0.1370050792223005        0.0318628692111080    0.0
                       -0.1325016593350953        0.0318595780664792    0.0
                       -0.1283372077959548        0.0318558119972039    0.0
                       -0.1244772956928596        0.0318513336836955    0.0
                       -0.1208796134895262        0.0318456123976327    0.0
                       -0.1174858154246631        0.0318374594830101    0.0
                       -0.1142118891714124        0.0318242338626348    0.0
                       -0.1109558332644891        0.0318008646112911    0.0
                       -0.1076527076859842        0.0317605781829784    0.0
                       -0.3500000000000000        0.0327325187302550    0.0
                       -0.3366325526368763        0.0327412849202739    0.0
                       -0.3233346225643190        0.0327500165505690    0.0
                       -0.3101732256437954        0.0327585668243065    0.0
                       -0.2972126389019714        0.0327667673707524    0.0
                       -0.2845132146400434        0.0327744757296311    0.0
                       -0.2721303589569610        0.0327815984515472    0.0
                       -0.2601137023411877        0.0327880979855190    0.0
                       -0.2485064797090086        0.0327939879076784    0.0
                       -0.2373451255326888        0.0327993203173439    0.0
                       -0.2266590775881843        0.0328041683413773    0.0
                       -0.2164707718691245        0.0328086056682211    0.0
                       -0.2067958034384921        0.0328126846401919    0.0
                       -0.1976432253815833        0.0328164152951046    0.0
                       -0.1890159614121886        0.0328197500235357    0.0
                       -0.1809113152520503        0.0328225814800799    0.0
                       -0.1733215653404351        0.0328247624462779    0.0
                       -0.1662346269596259        0.0328261505873224    0.0
                       -0.1596347417593785        0.0328266656804216    0.0
                       -0.1535031321491997        0.0328263303927453    0.0
                       -0.1478185613850968        0.0328252667969733    0.0
                       -0.1425577721623046        0.0328236463732454    0.0
                       -0.1376958004540786        0.0328216203707161    0.0
                       -0.1332061317487558        0.0328192632351436    0.0
                       -0.1290605503323830        0.0328165422352511    0.0
                       -0.1252282442494957        0.0328132981931828    0.0
                       -0.1216729773413973        0.0328091805756006    0.0
                       -0.1183455373791678        0.0328033427840783    0.0
                       -0.1151683555809888        0.0327933698187361    0.0
                       -0.1120230910271424        0.0327730454608086    0.0
                       -0.1087952187680135        0.0327325187302550    0.0
                       -0.3500000000000000        0.0337044592775315    0.0
                       -0.3366859518334507        0.0337114456059326    0.0
                       -0.3234408050752069        0.0337183984565016    0.0
                       -0.3103312034971974        0.0337252015557668    0.0
                       -0.2974210726862873        0.0337317235275193    0.0
                       -0.2847704348758998        0.0337378537921194    0.0
                       -0.2724343863647298        0.0337435199897544    0.0
                       -0.2604622669189525        0.0337486931108840    0.0
                       -0.2488970397582797        0.0337533837861105    0.0
                       -0.2377748887082355        0.0337576326696795    0.0
                       -0.2271250269603556        0.0337614971937843    0.0
                       -0.2169697009520407        0.0337650361851253    0.0
                       -0.2073243648302760        0.0337682934814720    0.0
                       -0.1981979973102747        0.0337712822330358    0.0
                       -0.1895935341313261        0.0337739731594182    0.0
                       -0.1815083945102201        0.0337762922045322    0.0
                       -0.1739350845362215        0.0337781340020816    0.0
                       -0.1668618571651540        0.0337793937769288    0.0
                       -0.1602733940274608        0.0337800093903420    0.0
                       -0.1541514588559516        0.0337799928063114    0.0
                       -0.1484754751362285        0.0337794300046983    0.0
                       -0.1432230051113247        0.0337784462900760    0.0
                       -0.1383701286378850        0.0337771557161164    0.0
                       -0.1338917071083791        0.0337756190046620    0.0
                       -0.1297614508323237        0.0337738215230505    0.0
                       -0.1259515418366714        0.0337716656031038    0.0
                       -0.1224310562304722        0.0337689529826600    0.0
                       -0.1191606927334397        0.0337652249227250    0.0
                       -0.1160769534336622        0.0337587621631766    0.0
                       -0.1130599343082329        0.0337431025456120    0.0
                       -0.1099377298500429        0.0337044592775315    0.0
                       -0.3500000000000000        0.0346763998248080    0.0
                       -0.3367388147494067        0.0346813408881170    0.0
                       -0.3235458884355417        0.0346862543717772    0.0
                       -0.3104874944457673        0.0346910585277886    0.0
                       -0.2976272097917679        0.0346956623239017    0.0
                       -0.2850247304478747        0.0346999895278648    0.0
                       -0.2727348474313734        0.0347039903742833    0.0
                       -0.2608066148057625        0.0347076449546847    0.0
                       -0.2492827294281717        0.0347109606532702    0.0
                       -0.2381991299134105        0.0347139656261415    0.0
                       -0.2275848100655865        0.0347166998896114    0.0
                       -0.2174618311189709        0.0347192050467400    0.0
                       -0.2078455088387404        0.0347215134077543    0.0
                       -0.1987447469567213        0.0347236375593623    0.0
                       -0.1901624880154626        0.0347255624123610    0.0
                       -0.1820962556823611        0.0347272431542947    0.0
                       -0.1745387661161662        0.0347286132762046    0.0
                       -0.1674785852886160        0.0347296046618022    0.0
                       -0.1609008016653251        0.0347301748931032    0.0
                       -0.1547876752007552        0.0347303286819706    0.0
                       -0.1491192264275783        0.0347301194797950    0.0
                       -0.1438737466784483        0.0347296283556029    0.0
                       -0.1390282272625261        0.0347289315735170    0.0
                       -0.1345587022769276        0.0347280728614231    0.0
                       -0.1304404676480596        0.0347270489105181    0.0
                       -0.1266480645998696        0.0347258070753141    0.0
                       -0.1231546944366264        0.0347242537133605    0.0
                       -0.1199297196298288        0.0347222403375339    0.0
                       -0.1169280815597205        0.0347190103920302    0.0
                       -0.1140510033906331        0.0347094563867438    0.0
                       -0.1110802409320722        0.0346763998248080    0.0
                       -0.3500000000000000        0.0356483403720845    0.0
                       -0.3367911446235840        0.0356509444341387    0.0
                       -0.3236498772790874        0.0356535322447210    0.0
                       -0.3106421030063599        0.0356560609431443    0.0
                       -0.2978310535100472        0.0356584834111103    0.0
                       -0.2852761027634865        0.0356607603568131    0.0
                       -0.2730317414969156        0.0356628661657465    0.0
                       -0.2611467435732187        0.0356647905826309    0.0
                       -0.2496635452921292        0.0356665373918409    0.0
                       -0.2386178459376665        0.0356681211127993    0.0
                       -0.2280384255279738        0.0356695625148243    0.0
                       -0.2179471648061030        0.0356708834829101    0.0
                       -0.2083592440034882        0.0356721016119956    0.0
                       -0.1992834915313226        0.0356732250255684    0.0
                       -0.1907228517684395        0.0356742483594641    0.0
                       -0.1826749420756068        0.0356751515194949    0.0
                       -0.1751326715741838        0.0356759032290208    0.0
                       -0.1680848955902479        0.0356764704577286    0.0
                       -0.1615170783209765        0.0356768316456610    0.0
                       -0.1554119345261679        0.0356769875771596    0.0
                       -0.1497500245138255        0.0356769630077754    0.0
                       -0.1445102871849197        0.0356767971741773    0.0
                       -0.1396705067314898        0.0356765283353505    0.0
                       -0.1352077106347808        0.0356761801374656    0.0
                       -0.1310984863907031        0.0356757543669682    0.0
                       -0.1273191816227876        0.0356752302351196    0.0
                       -0.1238459026611245        0.0356745741220916    0.0
                       -0.1206539857337510        0.0356737828543326    0.0
                       -0.1177146086173644        0.0356728312153844    0.0
                       -0.1149722069886303        0.0356696220905018    0.0
                       -0.1122227520141015        0.0356483403720845    0.0
                       -0.3500000000000000        0.0366202809193610    0.0
                       -0.3368429574835339        0.0366202809193610    0.0
                       -0.3237528072221364        0.0366202809193610    0.0
                       -0.3107950879936047        0.0366202809193610    0.0
                       -0.2980326894034767        0.0366202809193610    0.0
                       -0.2855246675592724        0.0366202809193610    0.0
                       -0.2733252177705587        0.0366202809193610    0.0
                       -0.2614828391159926        0.0366202809193610    0.0
                       -0.2500397131305085        0.0366202809193610    0.0
                       -0.2390313057221378        0.0366202809193610    0.0
                       -0.2284861888898255        0.0366202809193610    0.0
                       -0.2184260678517944        0.0366202809193610    0.0
                       -0.2088659904981414        0.0366202809193610    0.0
                       -0.1998147100213156        0.0366202809193610    0.0
                       -0.1912751682149307        0.0366202809193610    0.0
                       -0.1832450660663104        0.0366202809193610    0.0
                       -0.1757174895153415        0.0366202809193610    0.0
                       -0.1686815611183951        0.0366202809193610    0.0
                       -0.1621230923151677        0.0366202809193610    0.0
                       -0.1560252155493135        0.0366202809193610    0.0
                       -0.1503689802103984        0.0366202809193610    0.0
                       -0.1451339009061690        0.0366202809193610    0.0
                       -0.1402984506996422        0.0366202809193610    0.0
                       -0.1358404955069107        0.0366202809193610    0.0
                       -0.1317376687799777        0.0366202809193610    0.0
                       -0.1279676878878409        0.0366202809193610    0.0
                       -0.1245086152965334        0.0366202809193610    0.0
                       -0.1213390688013796        0.0366202809193610    0.0
                       -0.1184383857636390        0.0366202809193610    0.0
                       -0.1157867466346466        0.0366202809193610    0.0
                       -0.1133652630961309        0.0366202809193610    0.0
                </DataArray>
            </Points>
            <PointData>
                <DataArray type="Float32" Name="orthogonality" NumberOfComponents="1" format="ascii">
                        0.0000000000000000
                        0.0797439193971160
                        0.1578642471661044
                        0.2328872317778406
                        0.3036562179819280
                        0.3694045501346347
                        0.4297568754025794
                        0.4846763830488003
                        0.5343829131161104
                        0.5792630363702043
                        0.6197843516960696
                        0.6564182047117231
                        0.6895708234096571
                        0.7195231314774382
                        0.7463840399252106
                        0.7700703510919567
                        0.7903345218304755
                        0.8068566910805727
                        0.8193863676430625
                        0.8278766699681377
                        0.8325451414153848
                        0.8338375701023259
                        0.8323234911312065
                        0.8285728209445933
                        0.8230559844282945
                        0.8160922658723636
                        0.8078482145683193
                        0.7983666366642031
                        0.7875994576492131
                        0.7754271287344689
                        0.7616740546862240
                        0.0000838006985174
                        0.0787919505313137
                        0.1560743665830294
                        0.2303175651558024
                        0.3003812782030489
                        0.3655022974590999
                        0.4252976669473738
                        0.4797153276979551
                        0.5289561197885700
                        0.5733876938142531
                        0.6134626620060442
                        0.6496455779969910
                        0.6823489449033020
                        0.7118780340655539
                        0.7383875403451461
                        0.7618594739130737
                        0.7821185104683205
                        0.7988994973209825
                        0.8119609840349271
                        0.8212050361087741
                        0.8267492380597408
                        0.8289222828295941
                        0.8281956881436525
                        0.8250860169932301
                        0.8200617040460417
                        0.8134798408528413
                        0.8055643070026564
                        0.7964183025655373
                        0.7860510988289470
                        0.7743949341108902
                        0.7613198777077939
                        0.0001670561809398
                        0.0778472834119671
                        0.1542974469514644
                        0.2277645313032964
                        0.2971242377044937
                        0.3616168087122246
                        0.4208519375212489
                        0.4747626095657142
                        0.5235308041265622
                        0.5675050723920012
                        0.6071224002278905
                        0.6428393494630407
                        0.6750729719497700
                        0.7041509909906800
                        0.7302727647392475
                        0.7534868197427522
                        0.7736955518285370
                        0.7906982508816495
                        0.8042729912740356
                        0.8142764893250121
                        0.8207245424577754
                        0.8238217218464123
                        0.8239334498375988
                        0.8215160730043564
                        0.8170308986973497
                        0.8108697001134825
                        0.8033126563953983
                        0.7945237358000070
                        0.7845708519506197
                        0.7734431646659647
                        0.7610539979274823
                        0.0002493835474805
                        0.0769166151589483
                        0.1525467075815121
                        0.2252482116552723
                        0.2939125436039966
                        0.3577836403942919
                        0.4164644485160454
                        0.4698737847750009
                        0.5181755624116145
                        0.5616998608554816
                        0.6008682767573555
                        0.6361288919478063
                        0.6679016151820500
                        0.6965331858248014
                        0.7222622098373202
                        0.7451972412455563
                        0.7653138341648426
                        0.7824776817234709
                        0.7964976591313116
                        0.8072027915058243
                        0.8145233044091087
                        0.8185473548603102
                        0.8195313601868294
                        0.8178605081616841
                        0.8139750423112977
                        0.8082895227048294
                        0.8011332395533851
                        0.7927278134414399
                        0.7831985351487924
                        0.7725921925958704
                        0.7608607756098466
                        0.0003304280582173
                        0.0760001018103742
                        0.1508221466366158
                        0.2227685115884802
                        0.2907460721096603
                        0.3540026857009283
                        0.4121351280872499
                        0.4650488034080200
                        0.5128903265129505
                        0.5559719173315118
                        0.5947000322604392
                        0.6295138552500742
                        0.6608346391043774
                        0.6890250379345627
                        0.7143579386822934
                        0.7369957188910449
                        0.7569821216938633
                        0.7742497953672796
                        0.7886479106469105
                        0.7999946095774430
                        0.8081513881118156
                        0.8130990776172521
                        0.8149834685500389
                        0.8141085863979409
                        0.8108801833727932
                        0.8057236782360664
                        0.7990098553209367
                        0.7910144948855061
                        0.7819190018208888
                        0.7718280973900846
                        0.7607289964190592
                        0.0004098593651272
                        0.0750978757457742
                        0.1491237371901972
                        0.2203253073807238
                        0.2876246648065078
                        0.3502737973019941
                        0.4078638590239882
                        0.4602875678905311
                        0.5076749823174260
                        0.5503210605485041
                        0.5886173783859344
                        0.6229938671462962
                        0.6538717701072167
                        0.6816268542845003
                        0.7065617374728912
                        0.7288867287817816
                        0.7487085167444668
                        0.7660259967369407
                        0.7807362963568909
                        0.7926623806779071
                        0.8016143894770192
                        0.8074765342458166
                        0.8102838933530477
                        0.8102502195595732
                        0.8077336151862681
                        0.8031582221828228
                        0.7969282652792728
                        0.7893698796167525
                        0.7807193422768176
                        0.7711395034320116
                        0.7606503637919627
                        0.0004873680785939
                        0.0742100494290379
                        0.1474514313648010
                        0.2179184507573720
                        0.2845481334978645
                        0.3465967922974275
                        0.4036504835525145
                        0.4555899372703112
                        0.5025293729709540
                        0.5447470713956701
                        0.5826199971213260
                        0.6165685310674704
                        0.6470126959276308
                        0.6743388387782404
                        0.6988751445172325
                        0.7208742910622247
                        0.7405005105644444
                        0.7578171353629512
                        0.7727750711156680
                        0.7852164582744304
                        0.7949177856362810
                        0.8016791122192609
                        0.8054265606831508
                        0.8062754983121868
                        0.8045233408897037
                        0.8005804100393270
                        0.7948757785861300
                        0.7877818168240036
                        0.7795884738144742
                        0.7705169879339836
                        0.7606185610222540
                        0.0005626627263005
                        0.0733367187837851
                        0.1458051641248944
                        0.2155477731311499
                        0.2815162647978978
                        0.3429714570056661
                        0.3994948080838757
                        0.4509557315935608
                        0.4974533024317357
                        0.5392496950907167
                        0.5767075411117355
                        0.6102374249582572
                        0.6402570658531639
                        0.6671611005428176
                        0.6912994751274690
                        0.7129620121515811
                        0.7323650279605167
                        0.7496335417708345
                        0.7647762538742975
                        0.7776672431232892
                        0.7880671007271607
                        0.7957060031766113
                        0.8004050406651515
                        0.8021743135476329
                        0.8012375944609453
                        0.7979782369879732
                        0.7928408593784629
                        0.7862395601410127
                        0.7785168028481263
                        0.7699526473649736
                        0.7606286509454892
                        0.0006354670944462
                        0.0724779661572885
                        0.1441848566314082
                        0.2132130893834485
                        0.2785288242708649
                        0.3393975513313426
                        0.3953966076051827
                        0.4463847360299226
                        0.4924465389352548
                        0.5338286434959588
                        0.5708796344195367
                        0.6040001007698699
                        0.6336044912307780
                        0.6600936610746500
                        0.6838358428586927
                        0.7051531213513473
                        0.7243084660549304
                        0.7414850554604008
                        0.7567516708794105
                        0.7700252972201066
                        0.7810680811349228
                        0.7895563175158453
                        0.7952124673665530
                        0.7979360574324335
                        0.7978644131478998
                        0.7953400013374866
                        0.7908127507087382
                        0.7847334532187318
                        0.7774959401080338
                        0.7694397727907143
                        0.7606766810202213
                        0.0007055179140916
                        0.0716338628898043
                        0.1425904191499729
                        0.2109142011616863
                        0.2755855600703501
                        0.3358748126409700
                        0.3913556296169582
                        0.4418767046197426
                        0.4875088182083375
                        0.5284835973751664
                        0.5651358734659018
                        0.5978560843031003
                        0.6270545460785216
                        0.6531364603264807
                        0.6764851775833153
                        0.6974505025106792
                        0.7163367277214149
                        0.7333810451905076
                        0.7487129828888292
                        0.7623014388931114
                        0.7739268743311471
                        0.7832292441258139
                        0.7898415327635064
                        0.7935493959248042
                        0.7943912561348174
                        0.7926538884347869
                        0.7887811098752255
                        0.7832546360819759
                        0.7765184544075497
                        0.7689726005818171
                        0.7607594167310982
                        0.0007725628483896
                        0.0708044715295360
                        0.1410217535492022
                        0.2086508997217442
                        0.2726862060970109
                        0.3324029591514649
                        0.3873715976050921
                        0.4374313636107703
                        0.4826398463733147
                        0.5232142084969516
                        0.5594758280192943
                        0.5918048752428568
                        0.6206067677012954
                        0.6462893618607365
                        0.6692482408750562
                        0.6898567214350454
                        0.7084552503803339
                        0.7253304224758889
                        0.7406716971573562
                        0.7545068171817261
                        0.7666502056919215
                        0.7767242485797826
                        0.7842845490539551
                        0.7890021076023886
                        0.7908046646123074
                        0.7899075704388363
                        0.7867356496096870
                        0.7817947643034393
                        0.7755776539892064
                        0.7685461157649833
                        0.7608741573301322
                        0.0008363587358759
                        0.0699898477383056
                        0.1394787554368382
                        0.2064229683564476
                        0.2698304847098376
                        0.3289816928614183
                        0.3834442140664159
                        0.4330484143893153
                        0.4778393025252015
                        0.5180201015385877
                        0.5538990421503304
                        0.5858459472828344
                        0.6142606572532980
                        0.6395521571893151
                        0.6621256391148411
                        0.6823740496640402
                        0.7006690308544559
                        0.7173416493187992
                        0.7326391651480256
                        0.7466529637195397
                        0.7592455475049637
                        0.7700413039243020
                        0.7785335764423822
                        0.7842809868371287
                        0.7870899596354119
                        0.7870878165077173
                        0.7846657785893245
                        0.7803457336730077
                        0.7746673868380378
                        0.7681558924941024
                        0.7610186058553764
                        0.0008966700482830
                        0.0691900419306224
                        0.1379613159716336
                        0.2042301844563496
                        0.2670181090334158
                        0.3256107020586297
                        0.3795731631127914
                        0.4287275360172508
                        0.4731068409764973
                        0.5129008757605627
                        0.5484050350935196
                        0.5799787482620892
                        0.6080156802006818
                        0.6329245693932597
                        0.6551178346539727
                        0.6750044851554171
                        0.6929826469508789
                        0.7094227412571806
                        0.7246265671625014
                        0.7387518205577271
                        0.7517212739981029
                        0.7631811480862523
                        0.7725806154873633
                        0.7793718126274141
                        0.7832309761363973
                        0.7841801076725043
                        0.7825602334879877
                        0.7788994027035108
                        0.7737818526969875
                        0.7677979608455803
                        0.7611907759360148
                        0.0009532675244548
                        0.0684051006851738
                        0.1364693233971862
                        0.2020723212365511
                        0.2642487848951987
                        0.3222896634323584
                        0.3757581126734936
                        0.4244683873846837
                        0.4684420931618807
                        0.5078561064219440
                        0.5429933019604466
                        0.5742027002389473
                        0.6018712666326282
                        0.6264062560806167
                        0.6482251552903974
                        0.6677497703105423
                        0.6854002763593968
                        0.7015812668195066
                        0.7166448853403263
                        0.7308157427459161
                        0.7440867958047918
                        0.7561455610421676
                        0.7664178641786153
                        0.7742593876723130
                        0.7792098341699287
                        0.7811682509904612
                        0.7804066934331550
                        0.7774473042425353
                        0.7729154199872787
                        0.7674686921797693
                        0.7613889242831750
                        0.0010059269451302
                        0.0676350679622095
                        0.1350026643222336
                        0.1999491491605576
                        0.2615222124138812
                        0.3190182438074778
                        0.3719987163039406
                        0.4202706089727890
                        0.4638446691844421
                        0.5028853458975665
                        0.5376633142409805
                        0.5685171994206340
                        0.5958268113524066
                        0.6199968116995064
                        0.6414478022347764
                        0.6606114076705874
                        0.6779257133538115
                        0.6938243444342123
                        0.7087048667237399
                        0.7228574750358534
                        0.7363526669665147
                        0.7489376533737568
                        0.7600380400114014
                        0.7689276554542919
                        0.7750067519375861
                        0.7780339885508857
                        0.7781913663604376
                        0.7759803357504158
                        0.7720624405268915
                        0.7671646971745151
                        0.7616115017450825
                        0.0010544280145394
                        0.0668799861550623
                        0.1335612247762365
                        0.1978604370778464
                        0.2588380872510553
                        0.3157961015011455
                        0.3682946145912809
                        0.4161338242052745
                        0.4593141589650239
                        0.4979881244394661
                        0.5324145200112195
                        0.5629216158485618
                        0.5898816736545275
                        0.6136957691752844
                        0.6347858566614133
                        0.6535906735022697
                        0.6705623836557643
                        0.6861586377448692
                        0.7008169782923945
                        0.7148901027729823
                        0.7285306574837327
                        0.7415621558023001
                        0.7534347663137524
                        0.7633599060355625
                        0.7705999094498524
                        0.7747565986849217
                        0.7758985354021395
                        0.7744884154446298
                        0.7712170538689112
                        0.7668827316490897
                        0.7618571183774062
                        0.0010985533151665
                        0.0661398970002737
                        0.1321448910509121
                        0.1958059530781656
                        0.2561961015172564
                        0.3126228872816479
                        0.3646454361238696
                        0.4120576403403409
                        0.4548501329271095
                        0.4931639504940456
                        0.5272463437360010
                        0.5574152927052791
                        0.5840351766534519
                        0.6075026007819217
                        0.6282392848491069
                        0.6466886293700912
                        0.6633133576681113
                        0.6785903501249908
                        0.6929913560056005
                        0.7069269778549143
                        0.7206337846797287
                        0.7340256969143786
                        0.7466030197740536
                        0.7575390837194784
                        0.7659653769481090
                        0.7713124895430007
                        0.7735100521785110
                        0.7729600884058399
                        0.7703729711625028
                        0.7666196056313123
                        0.7621245197283739
                        0.0011380872990712
                        0.0654148423650821
                        0.1307535503314907
                        0.1937854650491917
                        0.2535959443021202
                        0.3094982448816377
                        0.3610507979564384
                        0.4080416488162170
                        0.4504521421101944
                        0.4884123104415888
                        0.5221581855048449
                        0.5519975450562937
                        0.5782866059668215
                        0.6014167180784640
                        0.6218079418104903
                        0.6399061316527060
                        0.6561813621017523
                        0.6711252189609560
                        0.6852377499121787
                        0.6989816215047514
                        0.7126762973270408
                        0.7263370537785179
                        0.7395396323172619
                        0.7514482112818428
                        0.7610771285271268
                        0.7676747894194558
                        0.7710047628126995
                        0.7713820627307084
                        0.7695232254662574
                        0.7663720908258238
                        0.7624125728166225
                        0.0011728152746141
                        0.0647048649280227
                        0.1293870911080399
                        0.1917987409008205
                        0.2510373017657494
                        0.3064218109761604
                        0.3575103054559439
                        0.4040854249070916
                        0.4461197175405903
                        0.4837326675568558
                        0.5171494194662581
                        0.5466676577589340
                        0.5726352074640062
                        0.5954374706293436
                        0.6154915731692040
                        0.6332438387896679
                        0.6491687897955907
                        0.6637685099663526
                        0.6775654672613302
                        0.6910676064497571
                        0.7046736076595245
                        0.7185073577879919
                        0.7322438350233780
                        0.7450709455369604
                        0.7559071687921831
                        0.7638129443566642
                        0.7683578519137750
                        0.7697386506878089
                        0.7686598710647854
                        0.7661368206393132
                        0.7627202613073846
                        0.0012025223359114
                        0.0640100087625301
                        0.1280454033345151
                        0.1898455483866928
                        0.2485198566818505
                        0.3033932144790117
                        0.3540235513446352
                        0.4001885264667851
                        0.4418523685962800
                        0.4791244598864611
                        0.5122193911121569
                        0.5414248821462164
                        0.5670801836522348
                        0.5895641430668453
                        0.6092898148535270
                        0.6267022158175177
                        0.6422777072414862
                        0.6565250113875991
                        0.6699833152286726
                        0.6831984218056885
                        0.6966421680568475
                        0.7105502361958749
                        0.7247178246031627
                        0.7383922767272978
                        0.7504258086907621
                        0.7596923423807249
                        0.7655400901123965
                        0.7680110833314116
                        0.7677736080177488
                        0.7659101749850609
                        0.7630466903029503
                        0.0012269921674028
                        0.0633303198303213
                        0.1267283782835772
                        0.1879256544078562
                        0.2460432872616809
                        0.3004120749279630
                        0.3505901136537100
                        0.3963504914207724
                        0.4376495799699840
                        0.4745870965890667
                        0.5073674128975989
                        0.5362684309085496
                        0.5616206880662562
                        0.5837959498207818
                        0.6032021899074152
                        0.6202815354445702
                        0.6355098589459297
                        0.6493990274306431
                        0.6624995443123779
                        0.6753873244132179
                        0.6885992912706535
                        0.7024818688305354
                        0.7169673241590653
                        0.7313993785075196
                        0.7446021353635768
                        0.7552739961537235
                        0.7625169727497067
                        0.7661766588822284
                        0.7668532991186410
                        0.7656881388067215
                        0.7633911020258819
                        0.0012460056294721
                        0.0626658463852274
                        0.1254359080051283
                        0.1860388236214296
                        0.2436072649922992
                        0.2974779996104893
                        0.3472095521577144
                        0.3925708334953708
                        0.4335108066405374
                        0.4701199520651767
                        0.5025927574377681
                        0.5311974703262378
                        0.5562558167271371
                        0.5781320265029987
                        0.5972281013380088
                        0.6139818744823617
                        0.6288666672493442
                        0.6423943695425814
                        0.6551217926018363
                        0.6676471804028104
                        0.6805629153951786
                        0.6943209397935561
                        0.7090020999689137
                        0.7240826048010637
                        0.7384047288576985
                        0.7505143330172199
                        0.7592477422659793
                        0.7642076751567736
                        0.7658853335226339
                        0.7654661179247275
                        0.7637529044993232
                        0.0012593389917430
                        0.0620166392849699
                        0.1241678842548268
                        0.1841848160874398
                        0.2412114510987898
                        0.2945905789148491
                        0.3438814026567853
                        0.3888490354323033
                        0.4294354659839596
                        0.4657223568898507
                        0.4978946471720272
                        0.5262111086156459
                        0.5509845953018503
                        0.5725714164503059
                        0.5913668193753919
                        0.6078031038425240
                        0.6223492255227057
                        0.6355143432679089
                        0.6478570299123506
                        0.6599903002122333
                        0.6725513170935362
                        0.6860884658856125
                        0.7008363856310265
                        0.7164366131158757
                        0.7318026838035360
                        0.7453651645763833
                        0.7556842967384698
                        0.7620700843209616
                        0.7648527728963214
                        0.7652386872674617
                        0.7641317160504934
                        0.0012667616231178
                        0.0613827522051044
                        0.1229241966923412
                        0.1823633835671482
                        0.2388554910589343
                        0.2917493791595501
                        0.3406051681859295
                        0.3851845386015609
                        0.4254229257670947
                        0.4613935841217362
                        0.4932722388914657
                        0.5213083786005844
                        0.5458059599821573
                        0.5671130502460746
                        0.5856174607584196
                        0.6017448694568047
                        0.6159582816966136
                        0.6287617271947308
                        0.6407114991420440
                        0.6524282689715713
                        0.6645827784871396
                        0.6778074872668879
                        0.6924891553675381
                        0.7084615697813131
                        0.7247669933103765
                        0.7397739381509005
                        0.7517700050941069
                        0.7597217945214040
                        0.7637341897428221
                        0.7649992329505802
                        0.7645274288758265
                        0.0012680328622117
                        0.0607642417511335
                        0.1217047300722121
                        0.1805742639262857
                        0.2365390063627114
                        0.2889539318395099
                        0.3373803058440939
                        0.3815767274626209
                        0.4214724862355324
                        0.4571328289554563
                        0.4887246008468456
                        0.5164882121614445
                        0.5407187292575052
                        0.5617557150999599
                        0.5799789566115423
                        0.5958065603108811
                        0.6096942077687346
                        0.6221387389254373
                        0.6336906500647939
                        0.6449717719356782
                        0.6566752141170718
                        0.6695026113620245
                        0.6839841813484371
                        0.7001643604666837
                        0.7172723402733190
                        0.7336844097524293
                        0.7474384807751758
                        0.7571105285773679
                        0.7625020702968384
                        0.7647394280359526
                        0.7649402945699399
                        0.0012628976696470
                        0.0601611674754808
                        0.1205093600493928
                        0.1788171728898531
                        0.2342615823994907
                        0.2862037178175595
                        0.3342062074264290
                        0.3780249067189031
                        0.4175833538027914
                        0.4529391788825916
                        0.4842506792489758
                        0.5117494029029885
                        0.5357215626273636
                        0.5564980097087684
                        0.5744500040762533
                        0.5899872582239594
                        0.6035569491956796
                        0.6156469809656948
                        0.6267990580594289
                        0.6376304113556347
                        0.6488457639641267
                        0.6611994078372220
                        0.6753498077031911
                        0.6915596901584007
                        0.7092993109374051
                        0.7270379207785625
                        0.7426124176366813
                        0.7541711376737078
                        0.7611206014469992
                        0.7644484473293508
                        0.7653710325967366
                        0.0012510804931580
                        0.0595735918363450
                        0.1193379471158373
                        0.1770917921540725
                        0.2320227509782930
                        0.2834981444830759
                        0.3310821714089752
                        0.3745282682503842
                        0.4137546029632209
                        0.4488115705151237
                        0.4798492498294530
                        0.5070905521983777
                        0.5308129008639596
                        0.5513382786211909
                        0.5690289950766835
                        0.5842856620190476
                        0.5975459458641918
                        0.6092873568799824
                        0.6200403169757634
                        0.6304125068121783
                        0.6411103561954008
                        0.6529236598027388
                        0.6666183786986181
                        0.6826709138100463
                        0.7008369882575708
                        0.7197755020772955
                        0.7372026755807865
                        0.7508222641674168
                        0.7595425860537874
                        0.7641117714107921
                        0.7658209576584103
                        0.0012322765412139
                        0.0590015802025962
                        0.1181903280867661
                        0.1753977526036248
                        0.2298219655765552
                        0.2808365133327948
                        0.3280073631183684
                        0.3710858440404862
                        0.4099851220303658
                        0.4447487280493553
                        0.4755188487958582
                        0.5025099922645360
                        0.5259908807551351
                        0.5462745182476881
                        0.5637139134969703
                        0.5786999763832514
                        0.5916600137296135
                        0.6030599451004493
                        0.6134168915835575
                        0.6233248657699245
                        0.6334832388588700
                        0.6447004831258718
                        0.6578252724011750
                        0.6735303989058386
                        0.6918857896174401
                        0.7118410554503721
                        0.7311079336951127
                        0.7469622655488207
                        0.7577051249194145
                        0.7637093412027683
                        0.7662921111500160
                        0.0012061393520949
                        0.0584452011486898
                        0.1170663045306190
                        0.1737346111912132
                        0.2276585670578438
                        0.2782179749200633
                        0.3249807592496972
                        0.3676964404896821
                        0.4062735373190049
                        0.4407490772023892
                        0.4712576761997762
                        0.4980056784300285
                        0.5212532155708833
                        0.5413042447639592
                        0.5585021899245610
                        0.5732277533408451
                        0.5858971735592113
                        0.5969638147965451
                        0.6069299113284269
                        0.6163725055790410
                        0.6259764735229500
                        0.6365533308221702
                        0.6490075153514215
                        0.6641791952784567
                        0.6824602797650857
                        0.7031858477507121
                        0.7242154228454975
                        0.7424643785232120
                        0.7555235550162679
                        0.7632126796701301
                        0.7667873608286911
                        0.0011722631575497
                        0.0579045275575775
                        0.1159656277005426
                        0.1721018200951584
                        0.2255317375474066
                        0.2756414679527284
                        0.3220010726201333
                        0.3643585491170459
                        0.4026181098828774
                        0.4368106278256557
                        0.4670634639818507
                        0.4935750418709445
                        0.5165970314709207
                        0.5364243129799232
                        0.5533905017722591
                        0.5678656727425905
                        0.5802544115154900
                        0.5909967663045133
                        0.6005788846828872
                        0.6095583038931686
                        0.6185993773832096
                        0.6285029027017624
                        0.6402019888381861
                        0.6546657913337614
                        0.6725915207364108
                        0.6937744534283493
                        0.7164035219238134
                        0.7371712721100404
                        0.7528829294799568
                        0.7625803581286703
                        0.7673103937522916
                        0.0011301580959148
                        0.0573796395741381
                        0.1148879801327612
                        0.1704986874548830
                        0.2234404409124214
                        0.2731056401413646
                        0.3190666539216005
                        0.3610702295737673
                        0.3990165998864046
                        0.4329308194078610
                        0.4629333020094470
                        0.4892147951865780
                        0.5120186512225107
                        0.5316306764617885
                        0.5483745078882259
                        0.5626092495679470
                        0.5747273578421663
                        0.5851549803210779
                        0.5943613150890625
                        0.6028825548734334
                        0.6113578974631159
                        0.6205659838842027
                        0.6314432834752530
                        0.6450437888155094
                        0.6623283421785064
                        0.6835920373930977
                        0.7075473469938758
                        0.7308895154279841
                        0.7496260574711925
                        0.7617507812531185
                        0.7678654572630605
                        0.0010792159029765
                        0.0568706314476776
                        0.1138329556388198
                        0.1689243310947155
                        0.2213833509349474
                        0.2706087515501253
                        0.3161753708716151
                        0.3578289649981403
                        0.3954660982530007
                        0.4291063287109429
                        0.4588634209356962
                        0.4849206892160173
                        0.5075133231880259
                        0.5269180864134924
                        0.5434485146915571
                        0.5574524645801597
                        0.5693098796025630
                        0.5794325708806018
                        0.5882722114961368
                        0.5963424206957639
                        0.6042539095264941
                        0.6127542467428144
                        0.6227613182694724
                        0.6353684521473277
                        0.6517367878879571
                        0.6726524163864616
                        0.6975288196086783
                        0.7233852607763819
                        0.7455368111791735
                        0.7606305650840903
                        0.7684565782357049
                        0.0010186634919362
                        0.0563776261954978
                        0.1128000429700915
                        0.1673776318198076
                        0.2193587750020011
                        0.2681485694505276
                        0.3133244748776552
                        0.3546315008925860
                        0.3919628378086666
                        0.4253328527988433
                        0.4548489462249228
                        0.4806872366085012
                        0.5030749123900738
                        0.5222797475943250
                        0.5386050937997170
                        0.5523873402539620
                        0.5639936116130108
                        0.5738210685949952
                        0.5823035217066706
                        0.5899313064117912
                        0.5972844722999208
                        0.6050730872405147
                        0.6141789237264103
                        0.6256923066273563
                        0.6408970244106799
                        0.6610056455986385
                        0.6862528863647905
                        0.7143839446409518
                        0.7403171709927163
                        0.7590755235959900
                        0.7690857695288777
                        0.0009475022563408
                        0.0559008056655262
                        0.1117886260929202
                        0.1658572044508273
                        0.2173645965355957
                        0.2657222827693704
                        0.3105104880075519
                        0.3514737049072003
                        0.3885020258656620
                        0.4216049140286697
                        0.4508836747212429
                        0.4765074586499244
                        0.4986956157499911
                        0.5177069995866885
                        0.5338347264742898
                        0.5474035452776647
                        0.5587675179715384
                        0.5683089368126013
                        0.5764436020995529
                        0.5836382814965625
                        0.5904411695970812
                        0.5975206679940620
                        0.6057097279836835
                        0.6160603026351600
                        0.6298973467656301
                        0.6487430497823495
                        0.6736711761516157
                        0.7035795332173535
                        0.7335567417217097
                        0.7568589115656215
                        0.7697493300611606
                        0.0008644329177597
                        0.0554404707711178
                        0.1107980302535492
                        0.1643614298483229
                        0.2153982930669021
                        0.2633265062536263
                        0.3077291932363894
                        0.3483505431090509
                        0.3850778063993175
                        0.4179158079561110
                        0.4469600080297668
                        0.4723728037901830
                        0.4943658653513740
                        0.5131892043182354
                        0.5291256749255800
                        0.5424882493592354
                        0.5536177306296800
                        0.5628813953203890
                        0.5706770299732187
                        0.5774478877263336
                        0.5837099122822254
                        0.5900875913701228
                        0.5973569639738023
                        0.6065055912814375
                        0.6188258022064181
                        0.6359970494066605
                        0.6598127500174219
                        0.6906633144551142
                        0.7246955524658376
                        0.7536168769676313
                        0.7704305750617152
                        0.0007677713441911
                        0.0549971613854436
                        0.1098276777033104
                        0.1628886453904328
                        0.2134571600488598
                        0.2609575361065145
                        0.3049759205810652
                        0.3452563957310829
                        0.3816836051884591
                        0.4142579784881305
                        0.4430693592947637
                        0.4682735887778488
                        0.4900748078979162
                        0.5087142691652503
                        0.5244645559021708
                        0.5376267559292446
                        0.5485282520387645
                        0.5575212065619630
                        0.5649854909087168
                        0.5713411520839729
                        0.5770721092076881
                        0.5827582115544573
                        0.5891144363605681
                        0.5970478338840011
                        0.6077616620638177
                        0.6229337398513151
                        0.6448179847046008
                        0.6753883368857114
                        0.7129886928231190
                        0.7487512119891715
                        0.7710857392760613
                        0.0006553747934558
                        0.0545718970098923
                        0.1088774933894019
                        0.1614377115333213
                        0.2115390331671800
                        0.2586122228216829
                        0.3022465660617407
                        0.3421862195752099
                        0.3783134354432589
                        0.4106244696200524
                        0.4392037575646754
                        0.4642007662708968
                        0.4858122507158648
                        0.5042707914459133
                        0.5198387091960586
                        0.5328051261720386
                        0.5434838729246379
                        0.5522119329121525
                        0.5593514301003730
                        0.5652996988825111
                        0.5705093278368739
                        0.5755159454427555
                        0.5809723403311969
                        0.5876976614275488
                        0.5967719746825452
                        0.6097396687414904
                        0.6289662849649150
                        0.6576904125462938
                        0.6975053337399160
                        0.7412474977987153
                        0.7716161346040159
                        0.0005246332506228
                        0.0541666722924701
                        0.1079488798264796
                        0.1600094542377126
                        0.2096441842838682
                        0.2562903066658006
                        0.2995403552733794
                        0.3391387330583792
                        0.3749655045536683
                        0.4070129626404993
                        0.4353603341542289
                        0.4601508902635233
                        0.4815741485526316
                        0.4998541225047893
                        0.5152429098178837
                        0.5280176264252511
                        0.5384784599742290
                        0.5469471893295287
                        0.5537684161276649
                        0.5593173958387762
                        0.5640164302222464
                        0.5683581693720616
                        0.5729341861474199
                        0.5784747786430740
                        0.5859239276908034
                        0.5966134843261957
                        0.6126854074059291
                        0.6378799608967005
                        0.6772620313100618
                        0.7293150565025457
                        0.7718101500519643
                        0.0003726766078189
                        0.0537855292406318
                        0.1070470456154576
                        0.1586102182496300
                        0.2077800630562836
                        0.2540003121315568
                        0.2968668622143432
                        0.3361245437177324
                        0.3716514522929093
                        0.4034361489481757
                        0.4315528794238979
                        0.4561389347808390
                        0.4773767937985073
                        0.4954820738907753
                        0.5106967727893568
                        0.5232860562196473
                        0.5335364777905100
                        0.5417546800794060
                        0.5482680675043813
                        0.5534306044684306
                        0.5576356516500396
                        0.5613347407097087
                        0.5650605718794042
                        0.5694575838321738
                        0.5753359269426459
                        0.5837936092634023
                        0.5965443935818732
                        0.6168788501903937
                        0.6517610175874015
                        0.7096302675686954
                        0.7712104793152408
                        0.0001972556745917
                        0.0534371084864172
                        0.1061869194118741
                        0.1572610558531875
                        0.2059736615637468
                        0.2517749938050749
                        0.2942644619269279
                        0.3331875680331567
                        0.3684207458514547
                        0.3999491666452037
                        0.4278424546984795
                        0.4522322905063337
                        0.4732944908435123
                        0.4912366545212713
                        0.5062910394667399
                        0.5187111815607143
                        0.5287702893619532
                        0.5367602202787775
                        0.5429917934471380
                        0.5477987922453357
                        0.5515474030801812
                        0.5546505136990057
                        0.5575852860440057
                        0.5609153587694033
                        0.5653268001050871
                        0.5717024025405753
                        0.5813056786854879
                        0.5963821469392339
                        0.6225745134815179
                        0.6756763929233415
                        0.7687632906198926
                        0.0000000000000000
                        0.0531174321059193
                        0.1053618257817799
                        0.1559522871136676
                        0.2042120285661643
                        0.2495978972075650
                        0.2917129888526603
                        0.3303037317505927
                        0.3652452010416768
                        0.3965195046678697
                        0.4241919791806488
                        0.4483890284929882
                        0.4692801373791368
                        0.4870652012735582
                        0.5019670120985480
                        0.5142276657732065
                        0.5241070962697483
                        0.5318823440662205
                        0.5378476105735821
                        0.5423166121407173
                        0.5456287019289076
                        0.5481586102549727
                        0.5503283807302760
                        0.5526210868613342
                        0.5555994325680625
                        0.5599360285770941
                        0.5664560665381960
                        0.5761951700290238
                        0.5913313509400204
                        0.6269440186901212
                        0.7616740546862170
                </DataArray>
                <DataArray type="Float32" Name="aspect_ratio" NumberOfComponents="1" format="ascii">
                       12.1442009946918029
                       12.0273420122274721
                       11.8067014999257875
                       11.4644556911159728
                       11.0194879443832798
                       10.4936560533630615
                        9.9091336021142403
                        9.2864495719069448
                        8.6433685309004656
                        7.9945251702378593
                        7.3516225382362913
                        6.7239862892175747
                        6.1192807552989203
                        5.5442075922299761
                        5.0050226007032754
                        4.5077198029063352
                        4.0577422430709015
                        3.6591492187596061
                        3.3134306054589685
                        3.0185580910948400
                        2.7689763967268421
                        2.5567463668398436
                        2.3733273795619064
                        2.2111803801468724
                        2.0646348858569881
                        1.9299554707976694
                        1.8049059454990685
                        1.6881921980295859
                        1.5790280172206320
                        1.4768771508913063
                        1.3759169292472662
                       12.0844809626508322
                       11.9689716255717440
                       11.7517691297767459
                       11.4147588890711859
                       10.9763450538408981
                       10.4578839883348879
                        9.8811112839831455
                        9.2662273364910313
                        8.6307858645387206
                        7.9893108886114660
                        7.3534633391975872
                        6.7325573432479487
                        6.1342363807498351
                        5.5651335043377857
                        5.0313563944563087
                        4.5386579351141844
                        4.0921750719387702
                        3.6956900740370749
                        3.3505890677821808
                        3.0550217505477448
                        2.8038674882685725
                        2.5897170974122027
                        2.4044631817961767
                        2.2407942252640548
                        2.0930711338393118
                        1.9574767474412269
                        1.8316669659790601
                        1.7142644950314302
                        1.6044450445617951
                        1.5016923462502119
                        1.4003139382025804
                       12.0254071138221760
                       11.9112711243739338
                       11.6974834343526243
                       11.3656562810583690
                       10.9337285232150857
                       10.4225692302301310
                        9.8534877781030044
                        9.2463643585519312
                        8.6185469299190624
                        7.9844509747418985
                        7.3556942124963476
                        6.7415735046208867
                        6.1496983632156692
                        5.5866092636439682
                        5.0582289485507264
                        4.5700239288463948
                        4.1267881207958169
                        3.7320264136539737
                        3.3870806788132818
                        3.0903890945800284
                        2.8373767886916256
                        2.6212159027982977
                        2.4342013001098531
                        2.2691649424883858
                        2.1204127653698936
                        1.9839919477832730
                        1.8574338565490255
                        1.7392846473612454
                        1.6287013347090147
                        1.5252239120440251
                        1.4232985550050422
                       11.9669701570807361
                       11.8542537287678581
                       11.6438634183305254
                       11.3171557391206960
                       10.8916180436970381
                       10.3876455398277220
                        9.8261314403764671
                        9.2266410549405884
                        8.6063172388165084
                        7.9794636935806654
                        7.3576488320063435
                        6.7501447539517106
                        6.1645205035239623
                        5.6072224393871526
                        5.0839972462096871
                        4.6000489459166830
                        4.1598652261244479
                        3.7667092516931281
                        3.4218925620499494
                        3.1241250006505971
                        2.8693431378731076
                        2.6512704726259073
                        2.4625881766792810
                        2.2962644042515580
                        2.1465436229587664
                        2.0093305546250357
                        1.8820286738865853
                        1.7631103175872516
                        1.6517250460152504
                        1.5474902996053041
                        1.4449832565851092
                       11.9091609092429273
                       11.7979043511510361
                       11.5908907966385412
                       11.2692376519019499
                       10.8499941652918540
                       10.3530947123562490
                        9.7990261161597257
                        9.2070440503537999
                        8.5940870869253853
                        7.9743443412975865
                        7.3593295822801857
                        6.7582837215212096
                        6.1787300121667610
                        5.6270198478518613
                        5.1087318520508099
                        4.6288277869547566
                        4.1915193837700079
                        3.7998565397163277
                        3.4551302397743987
                        3.1563065964450046
                        2.8998061084329924
                        2.6798836698861624
                        2.4896006158901392
                        2.3220599412550802
                        2.1714380980770894
                        2.0334854932483943
                        1.9054678730147608
                        1.7857819527985542
                        1.6735782469951648
                        1.5685693405435818
                        1.4654657282419366
                       11.8519702977330047
                       11.7422088534617630
                       11.5385489002200520
                       11.2218845396407539
                       10.8088399186565573
                       10.3189012109878770
                        9.7721583550974113
                        9.1875625658779417
                        8.5818491066913865
                        7.9690901047116388
                        7.3607400285064406
                        6.7660031170575746
                        6.1923525378329592
                        5.6460445006742940
                        5.1324969238816593
                        4.6564466558582047
                        4.2218544604885458
                        3.8315793790522323
                        3.4868976999178627
                        3.1870165498755295
                        2.9288170024810939
                        2.7070726147760601
                        2.5152274379279001
                        2.3465251984647503
                        2.1950704106312906
                        2.0564444347201900
                        1.9277595361857337
                        1.8073297204346061
                        1.6943114675572681
                        1.5885274619439416
                        1.4848303207777603
                       11.7953893627371058
                       11.6871539503365130
                       11.4868224955386141
                       11.1750808075211824
                       10.7681405246877657
                       10.2850518556048398
                        9.7455171005315259
                        9.1681881285274069
                        8.5695980157678770
                        7.9636998703675300
                        7.3618848169664261
                        6.7733157689839539
                        6.2054124114267341
                        5.6643361179412325
                        5.1553509967628144
                        4.6829840675903995
                        4.2509658950644354
                        3.8619820992134080
                        3.5172965597026099
                        3.2163413982966725
                        2.9564369389855064
                        2.7328673906331096
                        2.5394693640746872
                        2.3696411200066494
                        2.2174161717985554
                        2.0781914401662450
                        1.9489049275194027
                        1.8277751009329295
                        1.7139653794310329
                        1.6074209100489956
                        1.5031496299928972
                       11.7394092588306772
                       11.6327271120085942
                       11.4356976030692014
                       11.1288124962705678
                       10.7278830982279850
                       10.2515355013844869
                        9.7190933634922915
                        9.1489142593890343
                        8.5573303374058457
                        7.9581739973776223
                        7.3627695280858428
                        6.7802345993568745
                        6.2179328006653199
                        5.6819315210774745
                        5.1773476244086972
                        4.7085116232429591
                        4.2789413245076096
                        3.8911623595198208
                        3.5464253677043479
                        3.2443701009793977
                        2.9827351442507719
                        2.7573098054699004
                        2.5623387638840994
                        2.3913966590454256
                        2.2384536253570921
                        2.0987082958139427
                        1.9688997579481830
                        1.8471321713950319
                        1.7325721689281015
                        1.6252969454105850
                        1.5204859991820669
                       11.6840212561158358
                       11.5789164755788855
                       11.3851613315881168
                       11.0830670540012819
                       10.6880563760431789
                       10.2183427420333073
                        9.6928799194301729
                        9.1297361806469854
                        8.5450441339826243
                        7.9525140955694653
                        7.3634005236740703
                        6.7867725765105273
                        6.2299358185324592
                        5.6988649500410984
                        5.1985359209121549
                        4.7330946881671099
                        4.3058611593681091
                        3.9192112830985125
                        3.5743790321372184
                        3.2711927815046113
                        3.0077874171820500
                        2.7804522242610389
                        2.5838593366612061
                        2.4117893196682712
                        2.2581646711018841
                        2.1179756131293361
                        1.9877352092581114
                        1.8654086337993979
                        1.7501566555436118
                        1.6421949284643709
                        1.5368928723455745
                       11.6292167409361710
                       11.5257107672929123
                       11.3352017334474498
                       11.0378331369785821
                       10.6486504788172403
                       10.1854656494007737
                        9.6668710410316625
                        9.1106505561043400
                        8.5327387693345214
                        7.9467228255287829
                        7.3637848060563342
                        6.7929426647861612
                        6.2414426074995218
                        5.7151683295204804
                        5.2189610281875814
                        4.7567929943568342
                        4.3317991204223135
                        3.9462136240790703
                        3.6012483609790794
                        3.2968996295586164
                        3.0316747381469072
                        2.8023564676089854
                        2.6040657661392700
                        2.4308256047295137
                        2.2765357531771042
                        2.1359737596983379
                        2.0053987586833132
                        1.8826066227013953
                        1.7667371907700830
                        1.6581472643369134
                        1.5524159806193931
                       11.5749872162264974
                       11.4730992359570308
                       11.2858076811402389
                       10.9931004399006303
                       10.6096567082916531
                       10.1528975512327986
                        9.6410622696593406
                        9.0916552685925464
                        8.5204147042345329
                        7.9408037259332999
                        7.3639298958406303
                        6.7987577801052329
                        6.2524734110653700
                        5.7308714988378680
                        5.2386645254486465
                        4.7796611808787833
                        4.3568227434670206
                        3.9722479655736930
                        3.6271197007017548
                        3.3215799369010258
                        3.0544819923140837
                        2.8230927623504233
                        2.6230033651410786
                        2.4485214196353295
                        2.2935586808186592
                        2.1526836815945202
                        2.0218748434967954
                        1.8987233185204446
                        1.7823263599922308
                        1.6731801980109077
                        1.5670943664740072
                       11.5213243015649580
                       11.4210715966861753
                       11.2369687636242026
                       10.9488595536413476
                       10.5710673774131774
                       10.1206328449606186
                        9.6154502236892020
                        9.0727492331500187
                        8.5080733246883282
                        7.9347610688336374
                        7.3638437303232590
                        6.8042307552828977
                        6.2630476391638410
                        5.7460024151657014
                        5.2576847922534050
                        4.8017492823341064
                        4.3809938565048967
                        3.9973869452025447
                        3.6520746627116712
                        3.3453212481208758
                        3.0762967825867393
                        2.8427387249046405
                        2.6407277118381229
                        2.4649024636811536
                        2.3092314368013128
                        2.1680876749176666
                        2.0371454055655506
                        1.9137513885936756
                        1.7969315030941127
                        1.6873144601602679
                        1.5809612578738833
                       11.4682197329814153
                       11.3696179839079302
                       11.1886752003366102
                       10.9051018476981992
                       10.5328756702611691
                       10.0886668443249732
                        9.5900324407664080
                        9.0539322434248385
                        8.4957168011495682
                        7.9285997418670306
                        7.3635345827369847
                        6.8093743169362882
                        6.2731839316391251
                        5.7605873370339080
                        5.2760573340634569
                        4.8231031733772989
                        4.4043690326112271
                        4.0216975051636693
                        3.6761899291875533
                        3.3682086124350157
                        3.0972083124159416
                        2.8613783565682708
                        2.6573042684055363
                        2.4800046256902935
                        2.3235590185552009
                        2.1821701622607571
                        2.0511903579051518
                        1.9276792769064943
                        1.8105550644866502
                        1.7005657668267187
                        1.5940448062259979
                       11.4156653625784508
                       11.3187289126483245
                       11.1409177710755158
                       10.8618193748367511
                       10.4950755287356122
                       10.0569956557389640
                        9.5648072510101992
                        9.0352048486802793
                        8.4833479766512042
                        7.9223251561961136
                        7.3630110021375890
                        6.8142010752572699
                        6.2829002230701177
                        5.7746509938277523
                        5.2938150778985308
                        4.8437649763767159
                        4.4270000215759501
                        4.0452411645483244
                        3.6995371324500660
                        3.3903239279562932
                        3.1173063243840919
                        2.8791010304828290
                        2.6728079649583744
                        2.4938743879661814
                        2.3365543476148664
                        2.1949185287890820
                        2.0639880187237273
                        1.9404913639081907
                        1.8231947795592397
                        1.7129451757958337
                        1.6063687013241227
                       11.3636531580177415
                       11.2683952473019433
                       11.0936877601905979
                       10.8190047958416836
                       10.4576615638020092
                       10.0256160819882105
                        9.5397736789536590
                        9.0165682596030020
                        8.4709702824708741
                        7.9159431794691661
                        7.3622817741246959
                        6.8187235280945955
                        6.2922138121294693
                        5.7882167465462767
                        5.3109886450810579
                        4.8637734389631491
                        4.4489341637148589
                        4.0680743125222630
                        3.7221828041855155
                        3.4117453745005769
                        3.1366800863405467
                        2.8960004521619418
                        2.6873227258361471
                        2.5065692310448842
                        2.3482392740946846
                        2.2063240722110906
                        2.0755155635166375
                        1.9521680199882847
                        1.8348437015347607
                        1.7244593004494775
                        1.6179526751912414
                       11.3121752019227962
                       11.2186081774143928
                       11.0469769141913469
                       10.7766513231415848
                       10.4206289898986926
                        9.9945255520056324
                        9.5149313731790971
                        8.9980242822251882
                        8.4585876811371486
                        7.9094600941654209
                        7.3613559035536435
                        6.8229540815396068
                        6.3011414391298390
                        5.8013067453174766
                        5.3276066081095830
                        4.8831642884102426
                        4.4702147899166549
                        4.0902485221377466
                        3.7441883928284601
                        3.4325469351880867
                        3.1554174230556850
                        2.9121735791440166
                        2.7009409112616383
                        2.5181580208511712
                        2.3586456935912700
                        2.2163831209478620
                        2.0857495528396559
                        1.9626855804214153
                        1.8454900702035780
                        1.7351103785728000
                        1.6288129052906295
                       11.2612236912593569
                       11.1693592003545490
                       11.0007774125515011
                       10.7347526831595472
                       10.3839735823980592
                        9.9637220769075935
                        9.4902805641341062
                        8.9795752808344906
                        8.4462046382252295
                        7.9028825833369068
                        7.3602426219114091
                        6.8269050905976931
                        6.3096993765541111
                        5.8139420900305374
                        5.3436957394023695
                        4.9019705706268597
                        4.4908816131914530
                        4.1118108860741713
                        3.7656103493739386
                        3.4527980109864310
                        3.1736037979152415
                        2.9277194906894295
                        2.7137626452365034
                        2.5287213493117638
                        2.3678167836410207
                        2.2250983748813717
                        2.0946666028666857
                        1.9720162766447670
                        1.8551170221791493
                        1.7448961891801881
                        1.6389623260884911
                       11.2107909367541041
                       11.1206401112217516
                       10.9550818524183732
                       10.6933030984661390
                       10.3476916597060508
                        9.9332042343261913
                        9.4658220527688373
                        8.9612241730300407
                        8.4338261265844534
                        7.8962177480014214
                        7.3589514242463441
                        6.8305889256417559
                        6.3179035393374394
                        5.8261430021328973
                        5.3592812611833362
                        4.9202229831482591
                        4.5109711189065444
                        4.1328043777026615
                        3.7865002841060496
                        3.4725631361439257
                        3.1913214562315653
                        2.9427382057748281
                        2.7258950006235004
                        2.5383517892282134
                        2.3758083549568014
                        2.2324805226004701
                        2.1022442781248487
                        1.9801281697184322
                        1.8637021416424840
                        1.7538098047751861
                        1.6484108562130003
                       11.1608693624359273
                       11.0724430009720526
                       10.9098832491139071
                       10.6522972925199623
                       10.3117800937474445
                        9.9029711856904023
                        9.4415572354534732
                        8.9429744631953381
                        8.4214576698967620
                        7.8894731636958293
                        7.3574921438019774
                        6.8340180735208505
                        6.3257696246940330
                        5.8379290185199670
                        5.3743871084939519
                        4.9379502142138242
                        4.5305169638217327
                        4.1532682439063286
                        3.8069051996033702
                        3.4919018064354210
                        3.2086486494907339
                        2.9573294573456293
                        2.7374510153745422
                        2.5471540146222319
                        2.3826902985370366
                        2.2385501872377043
                        2.1084623012135404
                        1.9869851482354067
                        1.8712168519483850
                        1.7618391593649042
                        1.6571655460041191
                       11.1114515053996926
                       11.0247602645883453
                       10.8651750559677862
                       10.6117305222622451
                       10.2762363556400652
                        9.8730227346970947
                        9.4174881746261464
                        8.9248303249493156
                        8.4091054371170981
                        7.8826569884786828
                        7.3558750773341664
                        6.8372052869768106
                        6.3333132959444724
                        5.8493192229575333
                        5.3890362216589665
                        4.9551793043783378
                        4.5495503985818619
                        4.1732384406362308
                        3.8268678094553109
                        3.5108684367437843
                        3.2256589685414030
                        2.9715914433647561
                        2.7485485208823411
                        2.5552447296580282
                        2.3885480929097984
                        2.2433402486488797
                        2.1133041929962907
                        1.9925470767525502
                        1.8776256534712463
                        1.7689664037727073
                        1.6652306461979615
                       11.0625300159351468
                       10.9775846222842616
                       10.8209512093974967
                       10.5715986471859828
                       10.2410586076963183
                        9.8433594403228834
                        9.3936177305149727
                        8.9067967493980329
                        8.3967764059187419
                        7.8757781415274351
                        7.3541111810818304
                        6.8401638030790789
                        6.3405504317984577
                        5.8603325372975257
                        5.4032508912235884
                        4.9719360537898365
                        4.5681007351736039
                        4.1927481289573559
                        3.8464269581897309
                        3.5295124704625102
                        3.2424208237209751
                        2.9856195912373869
                        2.7593087758980800
                        2.5627523440008620
                        2.3934843160501361
                        2.2468985813082466
                        2.1167594785100843
                        1.9967702144932302
                        1.8828852240584412
                        1.7751670091219189
                        1.6726075912266584
                       11.0140976582127528
                       10.9309091584792134
                       10.7772062083635499
                       10.5318982482419651
                       10.2062458590069009
                        9.8139828050260441
                        9.3699497774375585
                        8.8888797850974363
                        8.3844786228093843
                        7.8688465814412519
                        7.3522123675297986
                        6.8429076616609051
                        6.3474974727960456
                        5.8709881049202912
                        5.4170531884329973
                        4.9882455082332912
                        4.5861958909045987
                        4.2118282594019101
                        3.8656181670481456
                        3.5478786715132286
                        3.2589971217768837
                        2.9995053923781516
                        2.7698549191026471
                        2.5698163322747562
                        2.3976200842104689
                        2.2492912329266469
                        2.1188266178912550
                        1.9996080706818437
                        1.8869434191119767
                        1.7804085667575620
                        1.6792948773062587
                       10.9661473118063940
                       10.8847273856092781
                       10.7339352420086603
                       10.4926268167307654
                       10.1717982104452875
                        9.7848955690936417
                        9.3464895398339296
                        8.8710869083922904
                        8.3722216012762777
                        7.8618737275975121
                        7.3501919477755783
                        6.8454521695860774
                        6.3541719115498247
                        5.8813058137003547
                        5.4304655290623509
                        5.0041325716995863
                        4.6038630551834900
                        4.2305082871020847
                        3.8844743438598375
                        3.5660076417478731
                        3.2754452040875436
                        3.0133353887225280
                        2.7803102823798730
                        2.5765862233242490
                        2.4010963161646803
                        2.2506060460680732
                        2.1195168462536588
                        2.0010129260028370
                        1.8897382441885353
                        1.7846492187439610
                        1.6852877911531925
                       10.9186719744468995
                       10.8390333431479178
                       10.6911343856899727
                       10.4537830426894894
                       10.1377172271548677
                        9.7561021565107913
                        9.3232440996902873
                        8.8534275806998509
                        8.3600169185114816
                        7.8548730879595585
                        7.3480652850095851
                        6.8478145777718431
                        6.3605929946782876
                        5.8913070270323423
                        5.4435114395157774
                        5.0196228142970693
                        4.6211295464598041
                        4.2488170811305402
                        3.9030267151890703
                        3.5839366239863954
                        3.2918171294359226
                        3.0271904235873400
                        2.7907966475080668
                        2.5832201855959199
                        2.4040746986033528
                        2.2509566912020356
                        2.1188591284405962
                        2.0009383332722753
                        1.8911969323098061
                        1.7878356387614436
                        1.6905779011431678
                       10.8716647665783896
                       10.7938217467820419
                       10.6488008944652894
                       10.4153672451879597
                       10.1040064930485278
                        9.7276093375489523
                        9.3002231494974336
                        8.8359140742006367
                        8.3478790977592790
                        7.8478611846310197
                        7.3458507533186870
                        6.8500150671794736
                        6.3667827338530697
                        5.9010156211098778
                        5.4562166237144886
                        5.0347435738108511
                        4.6380239561411616
                        4.2667841209267089
                        3.9213060673199320
                        3.6017006762842726
                        3.3081604091848352
                        3.0411453062625293
                        2.8014325836223847
                        2.5898832137531023
                        2.4067382109132847
                        2.2504870317682495
                        2.1169064482663678
                        1.9993430182249527
                        1.8912353528374866
                        1.7899004717955606
                        1.6951521440207508
                       10.8251189385320556
                       10.7490882086735547
                       10.6069336348184177
                       10.3773820041466655
                       10.0706724240051468
                        9.6994271997800566
                        9.2774400951212741
                        8.8185626806143975
                        8.3358268989937008
                        7.8408589058801556
                        7.3435711347785234
                        6.8520781795911211
                        6.3727673635517804
                        5.9104594669781243
                        5.4686104696461360
                        5.0495254894370890
                        4.6545777165390157
                        4.2844411128639704
                        3.9393444218556268
                        3.6193343387645753
                        3.3245193352889102
                        3.0552690837467427
                        2.8123320730677372
                        2.5967449853531931
                        2.4092910621078306
                        2.2493756772776950
                        2.1137436479083614
                        1.9961967357228452
                        1.8897581258037225
                        1.7907591387450366
                        1.6989912012404659
                       10.7790278814720808
                       10.7048295574900052
                       10.5655337104333764
                       10.3398330751516087
                       10.0377254448265568
                        9.6715705532143923
                        9.2549136518196832
                        8.8013954605674588
                        8.3238851867010915
                        7.8338934618094286
                        7.3412556381277774
                        6.8540348805261086
                        6.3785794354153555
                        5.9196725485770337
                        5.4807281872349692
                        5.0640046589856811
                        4.6708272825974107
                        4.3018242127421830
                        3.9571773237110391
                        3.6368739626349299
                        3.3409370842633348
                        3.0696261641455318
                        2.8236037192414260
                        2.6039775520520292
                        2.4119579091123921
                        2.2478404975244604
                        2.1094969965942302
                        1.9914887961791713
                        1.8866600387092319
                        1.7903059310683862
                        1.7020666159615169
                       10.7333851437265394
                       10.6610442961794135
                       10.5246053558472518
                       10.3027306951735932
                       10.0051816689729203
                        9.6440609362143328
                        9.2326701234856585
                        8.7844427430197250
                        8.3120875994865161
                        7.8270011800195393
                        7.3389427837350447
                        6.8559255047448313
                        6.3842608032433438
                        5.9286979728444678
                        5.4926138343355180
                        5.0782256760719172
                        4.6868171823578032
                        4.3189771053604148
                        3.9748469842871125
                        3.6543609324665106
                        3.3574588338032582
                        3.0842785930479031
                        2.8353509284993735
                        2.6117531626941463
                        2.4149822770611797
                        2.2461427698563381
                        2.1043455757497310
                        1.9852401513889276
                        1.8818296940122484
                        1.7884093833553827
                        1.7043356802281447
                       10.6881844547065218
                       10.6177332453738154
                       10.4841571910348615
                       10.2660914153278733
                        9.9730652567328041
                        9.6169294328359316
                        9.2107466059123912
                        8.7677466403871727
                        8.3004803070894561
                        7.8202314421589887
                        7.3366844670263635
                        6.8578039044078015
                        6.3898668238495788
                        5.9375922000700967
                        5.5043245603785635
                        5.0922458768414983
                        4.7026042644319096
                        4.3359552658945356
                        3.9924065963096597
                        3.6718460837298821
                        3.3741361900124064
                        3.0992898416363701
                        2.8476735597079204
                        2.6202426853337626
                        2.4186242039583616
                        2.2445905152660120
                        2.0985343863462340
                        1.9775200904030893
                        1.8751567959349831
                        1.7849070593301760
                        1.7057323951362625
                       10.6434197593315296
                       10.5749004283653360
                       10.4442039453889133
                       10.2299406192955246
                        9.9414116570075693
                        9.5902205483026593
                        9.1891953966917054
                        8.7513658920267026
                        8.2891271918226468
                        7.8136521174378665
                        7.3345515708350694
                        6.8597431806530138
                        6.3954721615506275
                        5.9464308866150200
                        5.5159364621611502
                        5.1061411914825886
                        4.7182635370664371
                        4.3528317949103923
                        4.0099262047726183
                        3.6893956841353561
                        3.3910332796197153
                        3.1147305094567653
                        2.8606716186104579
                        2.6296152875883968
                        2.4231572972406257
                        2.2435404541600964
                        2.0923887644779589
                        1.9684686826803636
                        1.8665451628409778
                        1.7796001938018849
                        1.7061515577666508
                       10.5990852666451944
                       10.5325542539955400
                       10.4047687598225873
                       10.1943158866135783
                        9.9102719389796094
                        9.5639973917114960
                        9.1680898984357545
                        8.7353823548970666
                        8.2781167997246225
                        7.8073568597048068
                        7.3326415097935917
                        6.8618433941571358
                        6.4011786007746860
                        5.9553167506702012
                        5.5275524663320101
                        5.1200140172566338
                        4.7338960162302053
                        4.3697052434258813
                        4.0275005451071838
                        3.7070993746622788
                        3.4082348802885496
                        3.1306863430062466
                        2.8744515978487987
                        2.6400402078699618
                        2.4288656187450574
                        2.2433978867736081
                        2.0863291647670011
                        1.9583259930037114
                        1.8559344701111529
                        1.7722492353203766
                        1.7054208830360200
                       10.5551755169089808
                       10.4907090343457077
                       10.3658861368152489
                       10.1592713033147644
                        9.8797183476428028
                        9.5383483297027283
                        9.1475322065654287
                        8.7199093574134462
                        8.2675712992602821
                        7.8014745244821330
                        7.3310879787145572
                        6.8642415392800434
                        6.4071251615386749
                        5.9643897636677568
                        5.5393125472269456
                        5.1340034263102739
                        4.7496388995036995
                        4.3867097469707952
                        4.0452591664278525
                        3.7250803768507588
                        3.4258568681823592
                        3.1472688514408444
                        2.8891359448151554
                        2.6516915093765150
                        2.4360410690679330
                        2.2446136777550747
                        2.0808845422482923
                        1.9474685463032064
                        1.8433348921316761
                        1.7625724824997424
                        1.7032523739495165
                       10.5116854713896108
                       10.4493868097392843
                       10.3276054809329911
                       10.1248826359550673
                        9.8498509779781293
                        9.5133949902399665
                        9.1276622509473772
                        8.7051017812213691
                        8.2576573122329949
                        7.7961805740748703
                        7.3300727788477275
                        6.8671236630105179
                        6.4135004071453733
                        5.9738395651682575
                        5.5514061864607235
                        5.1482976231194301
                        4.7656779889612836
                        4.4040274000277222
                        4.0633787778080821
                        3.7435079021627067
                        3.4440588939493506
                        3.1646284070105833
                        2.9048757153065306
                        2.6647564615222165
                        2.4449820892901721
                        2.2476773706963599
                        2.0767012907429390
                        1.9364521236242975
                        1.8288800852073893
                        1.7502521723170229
                        1.6991577584778696
                       10.4686106271699558
                       10.4086192928249378
                       10.2899948551705482
                       10.0912528203126362
                        9.8208048637763395
                        9.4893007803796076
                        9.1086675479767629
                        8.6911668445540647
                        8.2485975300507082
                        7.7917093429709320
                        7.3298385695910166
                        6.8707379644411208
                        6.4205557776446414
                        5.9839189397954254
                        5.5640859229389866
                        5.1631475140774694
                        4.7822612422139963
                        4.4219017690501269
                        4.0820967358878552
                        3.7626106967208569
                        3.4630582109810264
                        3.1829687146744897
                        2.9218654061096525
                        2.6794472565155585
                        2.4559941899074928
                        2.2531051459260987
                        2.0745427436999034
                        1.9260570157960440
                        1.8129048009118755
                        1.7349564628503846
                        1.6923016577212024
                       10.4259471531729051
                       10.3684493739931858
                       10.2531438504064650
                       10.0585161479555911
                        9.7927553989168354
                        9.4662774313539404
                        9.0907907388296626
                        8.6783724926761812
                        8.2406798138861448
                        7.7883637113168767
                        7.3306989905802164
                        6.8754052558707414
                        6.4286162971206433
                        5.9949546944997800
                        5.5776783392503807
                        5.1788777558214395
                        4.7997098487797069
                        4.4406489796240306
                        4.1017221542175835
                        3.7826882479093620
                        3.4831412085131008
                        3.2025591738876767
                        2.9403565203382820
                        2.6960133520714750
                        2.4693912279263614
                        2.2614204158897750
                        2.0752711463532134
                        1.9173261768137737
                        1.7960522633666887
                        1.7163934948656140
                        1.6812465335326716
                       10.3836920279544449
                       10.3289307834258823
                       10.2171627963076973
                       10.0268370832744163
                        9.7659168431607573
                        9.4445832880959220
                        9.0743277574567032
                        8.6670455292970573
                        8.2342553588407111
                        7.7865133531818233
                        7.3330370280217769
                        6.8815174663636383
                        6.4380792221004890
                        6.0073464515302157
                        5.5925829943568195
                        5.1958858215354651
                        4.8184174266347532
                        4.4606570491292228
                        4.1226353995358931
                        3.8041105247213017
                        3.5046636213558622
                        3.2237361382629736
                        2.9606608512034019
                        2.7147460457484097
                        2.4854915378222677
                        2.2731219059018152
                        2.0797986748696901
                        1.9115762459400433
                        1.7794091636993854
                        1.6944283829317144
                        1.6635087607752422
                       10.3418431231679101
                       10.2901224423077866
                       10.1821714754426518
                        9.9963936709177386
                        9.7405209458688181
                        9.4244978001572249
                        9.0595988993028043
                        8.6575399727221943
                        8.2297049995752468
                        7.7865595759560443
                        7.3372688795194092
                        6.8895009285502380
                        6.4493770582423590
                        6.0215296263431191
                        5.6092355323314978
                        5.2146053643134808
                        4.8388137342989469
                        4.4823500285114104
                        4.1452527496699791
                        3.8272832744564114
                        3.5280167079510570
                        3.2468705860109213
                        2.9831210596349014
                        2.7359532773633636
                        2.5045900563027754
                        2.2886246622780586
                        2.0889834332874289
                        1.9103417103748951
                        1.7646427919979236
                        1.6693209232573747
                        1.6347840557497195
                       10.3003990921515854
                       10.2520683635146147
                       10.1482593141878379
                        9.9673190672796563
                        9.7167415053495777
                        9.4062312352489596
                        9.0468460414785307
                        8.6501241660008760
                        8.2273184695962607
                        7.7888087578076387
                        7.3437133104825768
                        6.8996830886130285
                        6.4628427646257535
                        6.0378400052057843
                        5.6279722944065812
                        5.2353713552150950
                        4.8612307050393599
                        4.5060552257585997
                        4.1698950625530826
                        3.8525183987193437
                        3.5534996775811534
                        3.2722432639597919
                        3.0079902022286571
                        2.7598468150816545
                        2.5268520080438470
                        2.3081292222532662
                        2.1034197013412468
                        1.9151709944954340
                        1.7540525060134956
                        1.6421846307973277
                        1.5875964781521700
                       10.2593587227309429
                       10.2147352866686177
                       10.1153621740390591
                        9.9395206838719282
                        9.6944609748289899
                        9.3896451941355571
                        9.0359142199250398
                        8.6446306951328392
                        8.2269195963053672
                        7.7930790863720575
                        7.3521853494891482
                        6.9118776529945612
                        6.4782899548141289
                        6.0560918007398019
                        5.6486083513983029
                        5.2579996783249189
                        4.8854847937732848
                        4.5315892243992190
                        4.1963782237650844
                        3.8796295156659915
                        3.5809210805624499
                        3.2996528604681347
                        3.0350486040806753
                        2.7861725792428488
                        2.5519632630527083
                        2.3312708814601754
                        2.1229839931199482
                        1.9270861408266703
                        1.7502871434476225
                        1.6157929944286614
                        1.5089686282683936
                       10.2187188973009364
                       10.1778018857237764
                       10.0828462771638532
                        9.9120700224644996
                        9.6724837295877346
                        9.3733112431446625
                        9.0251798882386740
                        8.6392789337006369
                        8.2266066320341617
                        7.7973799307156877
                        7.3606330893927078
                        6.9239941196547217
                        6.4936074549046076
                        6.0741668189030532
                        5.6690285594498418
                        5.2803855181015136
                        4.9094867649877980
                        4.5568821856239057
                        4.2226544698236762
                        3.9065924821520509
                        3.6082806107060345
                        3.3271213410559377
                        3.0623357911695426
                        2.8129754109686596
                        2.5779425474509030
                        2.3559855503696597
                        2.1456231058977093
                        1.9451506483112083
                        1.7549815026947972
                        1.5955686116871094
                        1.3765742926836521
                       10.1784687455638444
                       10.1411185742665363
                       10.0504316878482691
                        9.8845703044441674
                        9.6503132451103724
                        9.3566522476566789
                        9.0140050373122022
                        8.6333891234262882
                        8.2256756700357449
                        7.8009987051404255
                        7.3683482753950728
                        6.9353390106564744
                        6.5081245004032571
                        6.0914225790161824
                        5.6886220989393711
                        5.3019511019317949
                        4.9326916376070940
                        4.5814207408693437
                        4.2482411522621957
                        3.9329562566445412
                        3.6351627768579697
                        3.3542764248351954
                        3.0895340776390199
                        2.8400064692853039
                        2.6046221100054173
                        2.3821809491663078
                        2.1713714786518928
                        1.9708948260937366
                        1.7781909555222002
                        1.5668673794865601
                        1.1532028716386605
                </DataArray>
                <DataArray type="Float32" Name="jacobian" NumberOfComponents="1" format="ascii">
                        0.0183555892098767
                        0.0182880040322836
                        0.0181757031902765
                        0.0179737735851248
                        0.0176852998809017
                        0.0173151636816269
                        0.0168700335235905
                        0.0163581069559971
                        0.0157886803627556
                        0.0151716213825588
                        0.0145168093612536
                        0.0138336108912581
                        0.0131304836227835
                        0.0124148321227896
                        0.0116932165692823
                        0.0109718775384751
                        0.0102573088601321
                        0.0095564588443137
                        0.0088763009193278
                        0.0082229746198363
                        0.0076010412440275
                        0.0070132501859724
                        0.0064607779939864
                        0.0059436630516186
                        0.0054612175280260
                        0.0050123345957675
                        0.0045956850820302
                        0.0042098262295299
                        0.0038532564432414
                        0.0035244547874208
                        0.0032095426877271
                        0.0182653241397343
                        0.0181971498410008
                        0.0180841767528091
                        0.0178816255228746
                        0.0175926300346058
                        0.0172220806000521
                        0.0167765974588650
                        0.0162642753728712
                        0.0156942727619954
                        0.0150763202142048
                        0.0144202170971059
                        0.0137353865218518
                        0.0130305779542755
                        0.0123138222831602
                        0.0115926974434773
                        0.0108747921498787
                        0.0101679999073777
                        0.0094801789919170
                        0.0088180855431223
                        0.0081862033828059
                        0.0075863954774307
                        0.0070186656306622
                        0.0064823829916585
                        0.0059771124064464
                        0.0055027503082711
                        0.0050592382628541
                        0.0046462551798794
                        0.0042630962411836
                        0.0039087251484780
                        0.0035818520702175
                        0.0032685501774885
                        0.0181760356304414
                        0.0181072563436437
                        0.0179936148423171
                        0.0177904765601538
                        0.0175010272289038
                        0.0171301712080176
                        0.0166844892141772
                        0.0161719856893672
                        0.0156016967023563
                        0.0149832323460294
                        0.0143263239494436
                        0.0136404469661617
                        0.0129346021521943
                        0.0122173406789271
                        0.0114970586209751
                        0.0107824045346441
                        0.0100823836142600
                        0.0094056678655016
                        0.0087590836501225
                        0.0081461164132378
                        0.0075666461552653
                        0.0070183030833812
                        0.0064985172733178
                        0.0060059205605237
                        0.0055405166538819
                        0.0051030040435210
                        0.0046939846601119
                        0.0043135274076868
                        0.0039611361143309
                        0.0036358426441666
                        0.0033237988236044
                        0.0180877096447639
                        0.0180182660572817
                        0.0179039236609581
                        0.0177002015210477
                        0.0174103384669196
                        0.0170392569420342
                        0.0165935057432108
                        0.0160810101885728
                        0.0155106977224942
                        0.0148920713663092
                        0.0142348015531616
                        0.0135484060280196
                        0.0128420925009112
                        0.0121248320227645
                        0.0114056646785305
                        0.0106940599318371
                        0.0099999002821633
                        0.0093325845731142
                        0.0086992214777461
                        0.0081028240147632
                        0.0075419152843926
                        0.0070121492361583
                        0.0065089944863114
                        0.0060297911534373
                        0.0055742070956595
                        0.0051433829038610
                        0.0047387193250235
                        0.0043610701814300
                        0.0040105490482261
                        0.0036866055414755
                        0.0033756175291227
                        0.0180003323105639
                        0.0179301743055469
                        0.0178151056637170
                        0.0176108073641004
                        0.0173205721103737
                        0.0169493438187290
                        0.0165036460498620
                        0.0159913348926905
                        0.0154212411483723
                        0.0148027721172451
                        0.0141455426671357
                        0.0134591027920045
                        0.0127528277700076
                        0.0120360227468449
                        0.0113182260690325
                        0.0106095279958071
                        0.0099204830802671
                        0.0092611139726273
                        0.0086389402140777
                        0.0080569096311749
                        0.0075127420449503
                        0.0070005447795756
                        0.0065139136047428
                        0.0060486454293622
                        0.0056036731154648
                        0.0051802471753930
                        0.0047804022129559
                        0.0044057566125307
                        0.0040570892773635
                        0.0037343545085479
                        0.0034242815111064
                        0.0179138899245335
                        0.0178429752009844
                        0.0177271608969536
                        0.0175222976707799
                        0.0172317324824758
                        0.0168604335351932
                        0.0164149050082255
                        0.0159029424892833
                        0.0153332905817709
                        0.0147152704443673
                        0.0140584452448992
                        0.0133723873675950
                        0.0126666046879313
                        0.0119506631275843
                        0.0112344774071732
                        0.0105285914524683
                        0.0098440533242321
                        0.0091913979569697
                        0.0085786187907649
                        0.0080089026433858
                        0.0074796446092990
                        0.0069838467056202
                        0.0065134109455996
                        0.0060624415272655
                        0.0056287894894890
                        0.0052134763550555
                        0.0048189702004355
                        0.0044476016454394
                        0.0041008536539746
                        0.0037792629331030
                        0.0034700223691970
                        0.0178283689551807
                        0.0177566618171467
                        0.0176400873205882
                        0.0174346730924960
                        0.0171438204039293
                        0.0167725240509263
                        0.0163272739393214
                        0.0158158128378393
                        0.0152468082459020
                        0.0146295032461455
                        0.0139734119926067
                        0.0132881197131009
                        0.0125832358494796
                        0.0118685244310398
                        0.0111541747550833
                        0.0104510453332184
                        0.0097705235615495
                        0.0091235425062710
                        0.0085185819661175
                        0.0079592830637306
                        0.0074431190728660
                        0.0069624228071783
                        0.0065076534988136
                        0.0060711692111560
                        0.0056494513727993
                        0.0052429564078119
                        0.0048543550816796
                        0.0044866059439543
                        0.0041419158708650
                        0.0038214721185238
                        0.0035130359145900
                        0.0177437560450432
                        0.0176712263568331
                        0.0175538811248786
                        0.0173479317922843
                        0.0170568337262535
                        0.0166856101725525
                        0.0162407411994516
                        0.0157299235018449
                        0.0151617553788649
                        0.0145454086095044
                        0.0138903500774086
                        0.0132061687112296
                        0.0125025480060212
                        0.0117893965449620
                        0.0110770933379055
                        0.0103766962645476
                        0.0096998000326361
                        0.0090576234986763
                        0.0084591071783953
                        0.0079084858630767
                        0.0074036392835238
                        0.0069366479706671
                        0.0064968341046981
                        0.0060748457769634
                        0.0056655716678788
                        0.0052685787227419
                        0.0048864840574186
                        0.0045227579452610
                        0.0041803304261301
                        0.0038610973435901
                        0.0035534883207752
                        0.0176600380121826
                        0.0175866603037531
                        0.0174685370166698
                        0.0172620698448607
                        0.0169707678160349
                        0.0165996840865496
                        0.0161552927186537
                        0.0156452502392915
                        0.0150780926031894
                        0.0144629259539359
                        0.0138091709005527
                        0.0131264113970984
                        0.0124243806212165
                        0.0117130859682186
                        0.0110030255797242
                        0.0103053617854659
                        0.0096317846170067
                        0.0089936914960054
                        0.0084004303283459
                        0.0078569048249273
                        0.0073616571498063
                        0.0069069017343880
                        0.0064811681364844
                        0.0060735130977409
                        0.0056770788261488
                        0.0052902388675056
                        0.0049152796906210
                        0.0045560352165210
                        0.0042161355647610
                        0.0038982323952426
                        0.0035915210149402
                        0.0175772018510575
                        0.0175029545541088
                        0.0173840484680349
                        0.0171770815842962
                        0.0168856159761874
                        0.0165147358228640
                        0.0160709124691996
                        0.0155617674287319
                        0.0149957802452705
                        0.0143819961532449
                        0.0137297898963758
                        0.0130487322872125
                        0.0123485846240485
                        0.0116394140770257
                        0.0109317793917912
                        0.0102368696862837
                        0.0095663763650066
                        0.0089317756934128
                        0.0083427506500292
                        0.0078048958935487
                        0.0073176031399380
                        0.0068735666992474
                        0.0064608913836947
                        0.0060672357465423
                        0.0056839152039525
                        0.0053078352886670
                        0.0049406594126570
                        0.0045864051836101
                        0.0042493554023202
                        0.0039329529975133
                        0.0036272546125150
                        0.0174952347328615
                        0.0174200995284135
                        0.0173004079276391
                        0.0170929598995284
                        0.0168013698039328
                        0.0164307536483794
                        0.0159875828619820
                        0.0154794484271309
                        0.0149147785984479
                        0.0143025616246723
                        0.0136521263400404
                        0.0129730227810651
                        0.0122750213161688
                        0.0115682156136002
                        0.0108631766669310
                        0.0101710573697896
                        0.0095034727003402
                        0.0088718871923807
                        0.0082862348175599
                        0.0077527800263044
                        0.0072718867755773
                        0.0068370274638950
                        0.0064362588629788
                        0.0060561001193364
                        0.0056860360689948
                        0.0053212680975992
                        0.0049625346709632
                        0.0046138252948995
                        0.0042800013638750
                        0.0039653194029489
                        0.0036607921101111
                        0.0174141240054226
                        0.0173380852652340
                        0.0172176069979499
                        0.0170096964819770
                        0.0167180194902508
                        0.0163477243953011
                        0.0159052850755074
                        0.0153982658632551
                        0.0148350481316144
                        0.0142245663838853
                        0.0135761031565362
                        0.0128991806183512
                        0.0122035614040028
                        0.0114993373576520
                        0.0107970519461290
                        0.0101077712374028
                        0.0094429703626269
                        0.0088140217282829
                        0.0082310204197277
                        0.0077008455859918
                        0.0072248969902102
                        0.0067976698216217
                        0.0064075443078778
                        0.0060402144677888
                        0.0056834093334898
                        0.0053304380731968
                        0.0049808098088780
                        0.0046382426738702
                        0.0043080730259206
                        0.0039953783173363
                        0.0036922214896598
                        0.0173338571927466
                        0.0172569014989260
                        0.0171356365821504
                        0.0169272820304993
                        0.0166355540671484
                        0.0162656337311260
                        0.0158239993241318
                        0.0153181918726089
                        0.0147565496478483
                        0.0141479560674628
                        0.0135016467274613
                        0.0128271093802967
                        0.0121340841335524
                        0.0114326369500196
                        0.0107332512304031
                        0.0100468661019482
                        0.0093847661446969
                        0.0087581619589932
                        0.0081772189178055
                        0.0076493503239536
                        0.0071770022709932
                        0.0067558800073033
                        0.0063750401080218
                        0.0060197097411711
                        0.0056760160762855
                        0.0053352460080388
                        0.0049953807664005
                        0.0046595933039065
                        0.0043335584173084
                        0.0040231642681186
                        0.0037216178429247
                        0.0172544219942848
                        0.0171765377232294
                        0.0170544870041700
                        0.0168457064184567
                        0.0165539616086386
                        0.0161844663765773
                        0.0157437050719779
                        0.0152391982798817
                        0.0146792443977009
                        0.0140726779249887
                        0.0134286866934331
                        0.0127567180261076
                        0.0120664765100465
                        0.0113679818433062
                        0.0106716309154103
                        0.0099882046268682
                        0.0093287574667828
                        0.0087042793997558
                        0.0081249181856008
                        0.0075985230130161
                        0.0071285505401600
                        0.0067120438235133
                        0.0063390574817991
                        0.0059947411253058
                        0.0056638519062531
                        0.0053355925259868
                        0.0050061336912396
                        0.0046778007780092
                        0.0043564338102719
                        0.0040487004864645
                        0.0037490450953958
                        0.0171758062840049
                        0.0170969832422876
                        0.0169741481048056
                        0.0167649588269486
                        0.0164732293899785
                        0.0161042062766519
                        0.0156643811976487
                        0.0151612567334429
                        0.0146030941506725
                        0.0139986807821475
                        0.0133571557498334
                        0.0126879204564745
                        0.0120006325869038
                        0.0113052483578287
                        0.0106120568289012
                        0.0099316567896277
                        0.0092748428190747
                        0.0086523360714519
                        0.0080741847154338
                        0.0075485647931826
                        0.0070798687615771
                        0.0066665455090615
                        0.0062999266752619
                        0.0059654901518646
                        0.0056469292106706
                        0.0053313785069875
                        0.0050129435554875
                        0.0046927746366027
                        0.0043766630105507
                        0.0040719993434886
                        0.0037745573875920
                        0.0170979981093424
                        0.0170182272101637
                        0.0168946093158385
                        0.0166850278468989
                        0.0163933440083793
                        0.0160248367280808
                        0.0155860061129082
                        0.0150843387945430
                        0.0145280612264656
                        0.0139259149746133
                        0.0132869894324800
                        0.0126206350958943
                        0.0119364528095287
                        0.0112443208231221
                        0.0105544033525201
                        0.0098770993648358
                        0.0092229220950351
                        0.0086022859138328
                        0.0080250655592019
                        0.0074996502936320
                        0.0070312622819923
                        0.0066197662433870
                        0.0062579969850581
                        0.0059321672313839
                        0.0056252803220781
                        0.0053225062687128
                        0.0050156728868384
                        0.0047044083093319
                        0.0043941961339602
                        0.0040930623569655
                        0.0037982001567401
                        0.0170209856901214
                        0.0169402586593667
                        0.0168158597130492
                        0.0166059015510384
                        0.0163142914664325
                        0.0159463404642403
                        0.0155085578360895
                        0.0150084159814215
                        0.0144541084850462
                        0.0138543322500542
                        0.0132181258878389
                        0.0125547844842787
                        0.0118738433992116
                        0.0111850907858538
                        0.0104985526096740
                        0.0098244154199374
                        0.0091728968297816
                        0.0085540760015320
                        0.0079775900596727
                        0.0074519285923592
                        0.0069830139363282
                        0.0065720822085418
                        0.0062136364059459
                        0.0058950144364649
                        0.0055989616216055
                        0.0053088816735021
                        0.0050141707466305
                        0.0047125766733249
                        0.0044089678339313
                        0.0041118797621687
                        0.0038200109501469
                        0.0169447574175372
                        0.0168630665182601
                        0.0167378880476462
                        0.0165275675349713
                        0.0162360572169351
                        0.0158686996957460
                        0.0154320140177102
                        0.0149334597650381
                        0.0143811992712332
                        0.0137838856323010
                        0.0131505056193941
                        0.0124902948658922
                        0.0118127157607253
                        0.0111274562641317
                        0.0104443937000687
                        0.0097734938130099
                        0.0091246703501556
                        0.0085076475881091
                        0.0079317714132127
                        0.0074055240697635
                        0.0069353829625492
                        0.0065238621585618
                        0.0061672307058991
                        0.0058543083267663
                        0.0055680585720028
                        0.0052904173509606
                        0.0050082721223389
                        0.0047171332428923
                        0.0044208949193240
                        0.0041284296161858
                        0.0038400199912359
                        0.0168693018533264
                        0.0167866396162699
                        0.0166606827539178
                        0.0164500129240614
                        0.0161586261646453
                        0.0157918961011371
                        0.0153563519116304
                        0.0148594415085267
                        0.0143092973047413
                        0.0137145292370359
                        0.0130840711972853
                        0.0124270957596449
                        0.0117529858938766
                        0.0110713210253666
                        0.0103918219585872
                        0.0097242286776835
                        0.0090781478351916
                        0.0084629369912371
                        0.0078876080907406
                        0.0073605372043818
                        0.0068886037839910
                        0.0064754644748922
                        0.0061191817363535
                        0.0058103625642000
                        0.0055326916348711
                        0.0052670372484798
                        0.0049977979519025
                        0.0047179070170176
                        0.0044298732731688
                        0.0041426763762254
                        0.0038582505080491
                        0.0167946077292758
                        0.0167109666746797
                        0.0165842319285667
                        0.0163732243392800
                        0.0160819826161136
                        0.0157159107568623
                        0.0152815482793117
                        0.0147863323362895
                        0.0142383664998769
                        0.0136462180215156
                        0.0130187669115908
                        0.0123651194884046
                        0.0116945737834876
                        0.0110165938595591
                        0.0103407382108717
                        0.0096765188736227
                        0.0090332362765064
                        0.0084198763194408
                        0.0078450851280970
                        0.0073170453471578
                        0.0068428847247715
                        0.0064272337165437
                        0.0060699047943604
                        0.0057635300157229
                        0.0054930229685046
                        0.0052386827392291
                        0.0049825560639942
                        0.0047146990355354
                        0.0044357739501587
                        0.0041545688556409
                        0.0038747188193388
                        0.0167206639472853
                        0.0166360362791676
                        0.0165085232738331
                        0.0162971878104430
                        0.0160061101625583
                        0.0156407239885169
                        0.0152075792063270
                        0.0147141029097010
                        0.0141683706897255
                        0.0135789074411293
                        0.0129545383398669
                        0.0123043006353878
                        0.0116374027331009
                        0.0109631878112224
                        0.0102910479893205
                        0.0096302673714520
                        0.0089898443165641
                        0.0083783940264054
                        0.0078041752793055
                        0.0072751034941532
                        0.0067984067255942
                        0.0063794967042117
                        0.0060198248700972
                        0.0057142039841513
                        0.0054492637192972
                        0.0052053205228027
                        0.0049623434045064
                        0.0047072787389029
                        0.0044384382934812
                        0.0041640374122849
                        0.0038894341511731
                        0.0166474595802747
                        0.0165618368278791
                        0.0164335439920365
                        0.0162218886185768
                        0.0159309914721716
                        0.0155663151149975
                        0.0151344197987453
                        0.0146427230735191
                        0.0140992732161767
                        0.0135125529715416
                        0.0128913317853560
                        0.0122445753815687
                        0.0115813985939199
                        0.0109110193197076
                        0.0102426606598487
                        0.0095853805271294
                        0.0089478819275555
                        0.0083384152613108
                        0.0077648400051448
                        0.0072347450552523
                        0.0067553221209016
                        0.0063325582069540
                        0.0059693716402101
                        0.0056628181480289
                        0.0054016816044131
                        0.0051669525372730
                        0.0049369500269056
                        0.0046953802990903
                        0.0044376718706847
                        0.0041709901565298
                        0.0039023981208076
                        0.0165749838743577
                        0.0164883564456677
                        0.0163592806126498
                        0.0161473110397026
                        0.0158566079562228
                        0.0154926620427935
                        0.0150620437106926
                        0.0145721613192107
                        0.0140310363278939
                        0.0134471094352183
                        0.0128290935218020
                        0.0121858806575425
                        0.0115264888201444
                        0.0108600071977025
                        0.0101954883899214
                        0.0095417671806199
                        0.0089072598726723
                        0.0082998619611387
                        0.0077270302434709
                        0.0071959825868353
                        0.0067137535213254
                        0.0062866963251742
                        0.0059189731070304
                        0.0056098447355087
                        0.0053506083302869
                        0.0051236280478444
                        0.0049061654526270
                        0.0046786992036018
                        0.0044332369865299
                        0.0041753078726479
                        0.0039136037636242
                        0.0165032262528815
                        0.0164155828507081
                        0.0162857187241950
                        0.0160734379492997
                        0.0157829392563171
                        0.0154197406475702
                        0.0149904224313718
                        0.0145023839864364
                        0.0139636203015631
                        0.0133825300431950
                        0.0127677687520626
                        0.0121281530141644
                        0.0114726012528060
                        0.0108100713488972
                        0.0101494448598558
                        0.0094993374850667
                        0.0088678888625294
                        0.0082626526011658
                        0.0076906868747815
                        0.0071588084177791
                        0.0066737928146427
                        0.0062421576800839
                        0.0058690478368624
                        0.0055557904130211
                        0.0052964461960276
                        0.0050754579655306
                        0.0048697881532897
                        0.0046568895497200
                        0.0044248434948606
                        0.0041768372158738
                        0.0039230338749540
                        0.0164321763231962
                        0.0163435031535669
                        0.0162128425710598
                        0.0160002502288937
                        0.0157099624773869
                        0.0153475238527473
                        0.0149195242286905
                        0.0144333540894219
                        0.0138969821650370
                        0.0133187650242917
                        0.0127073001480670
                        0.0120713270760192
                        0.0114196624939040
                        0.0107611310856162
                        0.0101044435794486
                        0.0094580013328709
                        0.0088296782798014
                        0.0082267014800187
                        0.0076557407542155
                        0.0071231950483393
                        0.0066355002507162
                        0.0061991525213519
                        0.0058199958164982
                        0.0055011893489483
                        0.0052396729922899
                        0.0050226312508943
                        0.0048276390578650
                        0.0046295627677112
                        0.0044121376153730
                        0.0041753815627832
                        0.0039306582606891
                        0.0163618238873873
                        0.0162721035609110
                        0.0161406344593262
                        0.0159277258925472
                        0.0156376510605123
                        0.0152759802783195
                        0.0148493126050607
                        0.0143650296092561
                        0.0138310738519348
                        0.0132557596625471
                        0.0126476257865059
                        0.0120153333876648
                        0.0113675956780600
                        0.0107131028528047
                        0.0100603956178096
                        0.0094176661912871
                        0.0087925342917118
                        0.0081919173629477
                        0.0076221121269865
                        0.0070890951385427
                        0.0065989035081261
                        0.0061578498438592
                        0.0057721880222406
                        0.0054465929306591
                        0.0051808440313647
                        0.0049654329365031
                        0.0047795801208634
                        0.0045962888748433
                        0.0043946884914944
                        0.0041706886337946
                        0.0039364291865666
                        0.0162921589587204
                        0.0162013689458720
                        0.0160690738953252
                        0.0158558388212472
                        0.0155659731509324
                        0.0152050722868015
                        0.0147797440679700
                        0.0142973610348265
                        0.0137658395545397
                        0.0131934514977632
                        0.0125886762263403
                        0.0119600953929087
                        0.0113163173785330
                        0.0106658970942787
                        0.0100172064841102
                        0.0093782340903759
                        0.0087563571010336
                        0.0081582012392710
                        0.0075897091762477
                        0.0070564408257019
                        0.0065639965504770
                        0.0061183725539521
                        0.0057259548728458
                        0.0053925556882605
                        0.0051205898525606
                        0.0049042628139817
                        0.0047255390566397
                        0.0045566019116303
                        0.0043719723516439
                        0.0041624336467948
                        0.0039402737977133
                        0.0162231717862327
                        0.0161312822351290
                        0.0159981363565037
                        0.0157845569575287
                        0.0154948892708689
                        0.0151347531980714
                        0.0147107649549829
                        0.0142302878653446
                        0.0137012119668403
                        0.0131317663648442
                        0.0125303703922245
                        0.0119055252034380
                        0.0112657332995565
                        0.0106194139118055
                        0.0099747718117557
                        0.0093395974213682
                        0.0087210370024590
                        0.0081254428678517
                        0.0075584253711618
                        0.0070251420209718
                        0.0065307379699942
                        0.0060807926396258
                        0.0056815738065024
                        0.0053396171305193
                        0.0050596078780595
                        0.0048396531318538
                        0.0046655412703903
                        0.0045100119815913
                        0.0043433544461116
                        0.0041501962677106
                        0.0039420813982390
                        0.0161548528908013
                        0.0160618235504582
                        0.0159277915690824
                        0.0157138397755033
                        0.0154243490585192
                        0.0150649633870994
                        0.0146423069864135
                        0.0141637337141004
                        0.0136371070303011
                        0.0130706128637686
                        0.0124726098405513
                        0.0118515177232718
                        0.0112157323155057
                        0.0105735370754914
                        0.0099329714061700
                        0.0093016331113809
                        0.0086864488196609
                        0.0080935156949444
                        0.0075281351953608
                        0.0069950832399265
                        0.0064990483932885
                        0.0060451261780694
                        0.0056392562705178
                        0.0052882794483457
                        0.0049986461182594
                        0.0047722827034970
                        0.0045997496665129
                        0.0044560273616299
                        0.0043080695803056
                        0.0041334289632498
                        0.0039416819818806
                        0.0160871931170844
                        0.0159929690334831
                        0.0158580011483205
                        0.0156436348138811
                        0.0153542867983475
                        0.0149956249345088
                        0.0145742811681130
                        0.0140975995962134
                        0.0135734167330394
                        0.0130098747858613
                        0.0124152709151645
                        0.0117979426232483
                        0.0111661783432563
                        0.0105281258685181
                        0.0098916611400631
                        0.0092641946635528
                        0.0086524442214373
                        0.0080622696529467
                        0.0074986877624946
                        0.0069661184427932
                        0.0064688064111490
                        0.0060113278728607
                        0.0055991344338558
                        0.0052389814089439
                        0.0049384770543896
                        0.0047029836317796
                        0.0045285121829253
                        0.0043941915090986
                        0.0042652033186292
                        0.0041114135089180
                        0.0039388098555493
                        0.0160201837068755
                        0.0159246892850362
                        0.0157887154614384
                        0.0155738730650771
                        0.0152846154745975
                        0.0149266345069714
                        0.0145065696736681
                        0.0140317549891580
                        0.0135099995179827
                        0.0129494010253662
                        0.0123581943014065
                        0.0117446336593446
                        0.0111168995316731
                        0.0104830042446375
                        0.0098506621734114
                        0.0092271015428567
                        0.0086188414045199
                        0.0080315213366398
                        0.0074698978144893
                        0.0069380633441232
                        0.0064398424402545
                        0.0059792846952740
                        0.0055612479381966
                        0.0051920692696640
                        0.0048798602273760
                        0.0046327355061151
                        0.0044524152806203
                        0.0043241414346892
                        0.0042136782438524
                        0.0040832013765450
                        0.0039330418506465
                        0.0159538164002928
                        0.0158569473822466
                        0.0157198696348928
                        0.0155044631028885
                        0.0152152191941546
                        0.0148578542802066
                        0.0144390154884557
                        0.0139660264214117
                        0.0134466680314708
                        0.0128889926873844
                        0.0123011716722758
                        0.0116913750144017
                        0.0110676744364080
                        0.0104379469581620
                        0.0098097471523454
                        0.0091901255593981
                        0.0085854117958395
                        0.0080010412128627
                        0.0074415337535736
                        0.0069106848006176
                        0.0064119300323969
                        0.0059488082084050
                        0.0055255310496479
                        0.0051477662157257
                        0.0048234930704883
                        0.0045626406814384
                        0.0043723388001094
                        0.0042456956392647
                        0.0041522537801672
                        0.0040475326402577
                        0.0039236921681304
                        0.0158880835710630
                        0.0157896965325439
                        0.0156513788168235
                        0.0154352841075723
                        0.0151459441793128
                        0.0147891011396332
                        0.0143714100770039
                        0.0139001838689187
                        0.0133831745024983
                        0.0128283876859763
                        0.0122439297185472
                        0.0116378849485365
                        0.0110182154552652
                        0.0103926629292319
                        0.0097686236357602
                        0.0091529744838212
                        0.0085518639954323
                        0.0079705380719287
                        0.0074133028966287
                        0.0068836874084766
                        0.0063847746234680
                        0.0059196254858806
                        0.0054918008184798
                        0.0051061427449652
                        0.0047699514532916
                        0.0044938736903653
                        0.0042895031160739
                        0.0041589810517494
                        0.0040795552665308
                        0.0040027272723636
                        0.0039096330477338
                        0.0158229783992160
                        0.0157228776562945
                        0.0155831332658507
                        0.0153661786203142
                        0.0150765893968084
                        0.0147201354272456
                        0.0143034805096143
                        0.0138339265276521
                        0.0133191954196732
                        0.0127672445674115
                        0.0121861133384103
                        0.0115837985512165
                        0.0109681513154177
                        0.0103467776184146
                        0.0097269164945236
                        0.0091152746014416
                        0.0085178266221024
                        0.0079396423338178
                        0.0073848355075202
                        0.0068566987723461
                        0.0063580009849680
                        0.0058913696239098
                        0.0054597476733125
                        0.0050670917970279
                        0.0047196246741106
                        0.0044275990997942
                        0.0042054930884522
                        0.0040646078053524
                        0.0039941602065516
                        0.0039465432044797
                        0.0038889880636269
                        0.0157584950750937
                        0.0156564177163378
                        0.0155149948813728
                        0.0152969473867440
                        0.0150068998546582
                        0.0146506528514340
                        0.0142348801560130
                        0.0137668724654708
                        0.0132543203126859
                        0.0127051305844666
                        0.0121272731562088
                        0.0115286548431197
                        0.0109170138841755
                        0.0102998196609973
                        0.0096841544759034
                        0.0090765573111267
                        0.0084828350586384
                        0.0079078930795530
                        0.0073556723350040
                        0.0068292579937110
                        0.0063311436261097
                        0.0058635735982425
                        0.0054289321367917
                        0.0050303148578048
                        0.0046726548793266
                        0.0043648572202291
                        0.0041222354795436
                        0.0039638954473261
                        0.0038947901061604
                        0.0038759995521425
                        0.0038586054771002
                        0.0156946290047326
                        0.0155902308119904
                        0.0154467991694256
                        0.0152273521301144
                        0.0149365700759589
                        0.0145802885265647
                        0.0141651931425538
                        0.0136985633485187
                        0.0131880566093791
                        0.0126415265625898
                        0.0120668702968843
                        0.0114719013801236
                        0.0108642425459013
                        0.0102512249812047
                        0.0096397740393535
                        0.0090362626870039
                        0.0084463347675080
                        0.0078747411842632
                        0.0073252676993672
                        0.0068008190406049
                        0.0063036512993142
                        0.0058356777950011
                        0.0053987971639368
                        0.0049953305030998
                        0.0046288994271161
                        0.0043064295073167
                        0.0040419004265451
                        0.0038591390932503
                        0.0037806900621469
                        0.0037871760927034
                        0.0038131493061471
                        0.0156313769310284
                        0.0155242269794944
                        0.0153783724325718
                        0.0151571405669892
                        0.0148652761518161
                        0.0145086551216307
                        0.0140939775768446
                        0.0136285117113384
                        0.0131198799643574
                        0.0125758793818728
                        0.0120043302212125
                        0.0114129487569834
                        0.0108092388046753
                        0.0102003910327649
                        0.0095931728712846
                        0.0089937919891005
                        0.0084077325943435
                        0.0078395992816992
                        0.0072930380732003
                        0.0067707980709349
                        0.0062749336621361
                        0.0058070778474202
                        0.0053687207529728
                        0.0049615301681164
                        0.0045879505650716
                        0.0042527217969590
                        0.0039667032634079
                        0.0037538711850677
                        0.0036523334825335
                        0.0036750333719976
                        0.0037435222357643
                        0.0155687367572522
                        0.0154583417464671
                        0.0153095899979415
                        0.0150861313867550
                        0.0147927848523360
                        0.0144354730083617
                        0.0140209133940634
                        0.0135563631264168
                        0.0130494075086645
                        0.0125077833156965
                        0.0119392294876051
                        0.0113513604851306
                        0.0107515573313342
                        0.0101468674081853
                        0.0095438987539563
                        0.0089486937516348
                        0.0083665792548852
                        0.0078020200104084
                        0.0072585356056512
                        0.0067387419418568
                        0.0062445248804822
                        0.0057772846336517
                        0.0053381766200433
                        0.0049283452000553
                        0.0045492850161165
                        0.0042037596998535
                        0.0038986288301874
                        0.0036530184587575
                        0.0035126815889180
                        0.0035333814392721
                        0.0036341209860108
                        0.0155067065569883
                        0.0153926265023370
                        0.0152405545779852
                        0.0150144746686352
                        0.0147192881205763
                        0.0143609694663542
                        0.0139462561967768
                        0.0134823945018857
                        0.0129769308203842
                        0.0124375386338190
                        0.0118718719082955
                        0.0112874396830023
                        0.0106914972368346
                        0.0100909467528416
                        0.0094922360846394
                        0.0089012426521966
                        0.0083231379460712
                        0.0077622522752220
                        0.0072219903442255
                        0.0067048550313701
                        0.0062125940891295
                        0.0057464184047955
                        0.0053072152657927
                        0.0048957253649911
                        0.0045127416533203
                        0.0041595352137990
                        0.0038392721432058
                        0.0035628064734685
                        0.0033693999350630
                        0.0033553488722910
                        0.0034580865786406
                        0.0154452814773799
                        0.0153275545402744
                        0.0151721998150260
                        0.0149435327658394
                        0.0146465343828870
                        0.0142872289426613
                        0.0138723726602634
                        0.0134092005189662
                        0.0129052205955909
                        0.0123680441874839
                        0.0118052419247913
                        0.0112242196439672
                        0.0106321097888198
                        0.0100356729502317
                        0.0094412008799448
                        0.0088544103009738
                        0.0082803220535581
                        0.0077231387277587
                        0.0071861616443980
                        0.0066717996708706
                        0.0061816906425981
                        0.0057168955146975
                        0.0052780914894831
                        0.0048657161682636
                        0.0044800750241379
                        0.0041214818096468
                        0.0037906299299690
                        0.0034904965650143
                        0.0032388943355423
                        0.0031354393533997
                        0.0031693149848495
                        0.0153844449017934
                        0.0152633140776642
                        0.0151049106374478
                        0.0148738735067873
                        0.0145752565625291
                        0.0142151289717279
                        0.0138002629468873
                        0.0133378815142831
                        0.0128354552746388
                        0.0123005355012419
                        0.0117406126707916
                        0.0111629935333275
                        0.0105746927735810
                        0.0099823354198574
                        0.0093920639080156
                        0.0088094414446563
                        0.0082393456748887
                        0.0076858599498747
                        0.0071521935326593
                        0.0066406776890176
                        0.0061528637309165
                        0.0056896953471763
                        0.0052516875650038
                        0.0048390549255979
                        0.0044517755905446
                        0.0040896105066554
                        0.0037520635140483
                        0.0034380900102635
                        0.0031457152437483
                        0.0028792164494875
                        0.0026900271124352
                </DataArray>
            </PointData>
        </Piece>
    </StructuredGrid>
</VTKFile>