<?xml version="1.0"?>
<VTKFile type="StructuredGrid" version="0.1" byte_order="LittleEndian">
    <StructuredGrid WholeExtent="0 30 0 40 0 0">
        <Piece Extent="0 30 0 40 0 0">
            <Points>
                <DataArray type="Float32" NumberOfComponents="3" format="ascii">
                       -0.3500000000000000       -0.0744438547935979    0.0
                       -0.3353730480551803       -0.0744438547935979    0.0
                       -0.3208210001292266       -0.0744438547935979    0.0
                       -0.3064172337365810       -0.0744438547935979    0.0
                       -0.2922321390181313       -0.0744438547935979    0.0
                       -0.2783317843433775       -0.0744438547935979    0.0
                       -0.2647767601515942       -0.0744438547935979    0.0
                       -0.2516212404409178       -0.0744438547935979    0.0
                       -0.2389122869446164       -0.0744438547935979    0.0
                       -0.2266894060507086       -0.0744438547935979    0.0
                       -0.2149843542551304       -0.0744438547935979    0.0
                       -0.2038211754983859       -0.0744438547935979    0.0
                       -0.1932164439039600       -0.0744438547935979    0.0
                       -0.1831796786278987       -0.0744438547935979    0.0
                       -0.1737138938022913       -0.0744438547935979    0.0
                       -0.1648162456735811       -0.0744438547935979    0.0
                       -0.1564787405500632       -0.0744438547935979    0.0
                       -0.1486889705120023       -0.0744438547935979    0.0
                       -0.1414308483985450       -0.0744438547935979    0.0
                       -0.1346853187980764       -0.0744438547935979    0.0
                       -0.1284310271439753       -0.0744438547935979    0.0
                       -0.1226449341731743       -0.0744438547935979    0.0
                       -0.1173028676708543       -0.0744438547935979    0.0
                       -0.1123800074372494       -0.0744438547935979    0.0
                       -0.1078513026983414       -0.0744438547935979    0.0
                       -0.1036918237380341       -0.0744438547935979    0.0
                       -0.0998770514019887       -0.0744438547935979    0.0
                       -0.0963831093909033       -0.0744438547935979    0.0
                       -0.0931869450177779       -0.0744438547935979    0.0
                       -0.0902664644479908       -0.0744438547935979    0.0
                       -0.0876006284670375       -0.0744438547935979    0.0
                       -0.3500000000000000       -0.0730679818901279    0.0
                       -0.3353429143368799       -0.0730682224274125    0.0
                       -0.3207609439000606       -0.0730684314279205    0.0
                       -0.3063276611787138       -0.0730685977239104    0.0
                       -0.2921136449272392       -0.0730687156987861    0.0
                       -0.2781851434679029       -0.0730687819224803    0.0
                       -0.2646029163626533       -0.0730687938033576    0.0
                       -0.2514212939133109       -0.0730687489870910    0.0
                       -0.2386874793930492       -0.0730686450670699    0.0
                       -0.2264411037834413       -0.0730684794353081    0.0
                       -0.2147140284390155       -0.0730682492159898    0.0
                       -0.2035303786870741       -0.0730679512826240    0.0
                       -0.1929067817314120       -0.0730675823953161    0.0
                       -0.1828527757925655       -0.0730671395164479    0.0
                       -0.1733713541731178       -0.0730666203669884    0.0
                       -0.1644596074805054       -0.0730660242635273    0.0
                       -0.1561094289048053       -0.0730653532227118    0.0
                       -0.1483082504985347       -0.0730646132393078    0.0
                       -0.1410397822310120       -0.0730638155603940    0.0
                       -0.1342847298175048       -0.0730629777344612    0.0
                       -0.1280214717716022       -0.0730621242586753    0.0
                       -0.1222266806391118       -0.0730612868050661    0.0
                       -0.1168758776192756       -0.0730605042522381    0.0
                       -0.1119439131617960       -0.0730598230273784    0.0
                       -0.1074053676174832       -0.0730592985707682    0.0
                       -0.1032348633710274       -0.0730589992515294    0.0
                       -0.0994072658753085       -0.0730590153293559    0.0
                       -0.0958976956377265       -0.0730594788243044    0.0
                       -0.0926810377626616       -0.0730606103979805    0.0
                       -0.0897295918793779       -0.0730628769205007    0.0
                       -0.0870031556613826       -0.0730679818901279    0.0
                       -0.3500000000000000       -0.0716921089866579    0.0
                       -0.3353126311909025       -0.0716925700810921    0.0
                       -0.3207005873556582       -0.0716929702308703    0.0
                       -0.3062376354143250       -0.0716932871857178    0.0
                       -0.2919945422443452       -0.0716935097835936    0.0
                       -0.2780377357073959       -0.0716936312335938    0.0
                       -0.2644281441705819       -0.0716936464142913    0.0
                       -0.2512202540286004       -0.0716935506696734    0.0
                       -0.2384614099830208       -0.0716933392295546    0.0
                       -0.2261913675535856       -0.0716930069113027    0.0
                       -0.2144420928525932       -0.0716925479875009    0.0
                       -0.2032377922654792       -0.0716919562230080    0.0
                       -0.1925951452438584       -0.0716912251575990    0.0
                       -0.1825237073747914       -0.0716903487553445    0.0
                       -0.1730264481556538       -0.0716893225503874    0.0
                       -0.1641003878955873       -0.0716881453732370    0.0
                       -0.1557372999824527       -0.0716868216307876    0.0
                       -0.1479244474847361       -0.0716853639464449    0.0
                       -0.1406453260905151       -0.0716837957942015    0.0
                       -0.1338803885586606       -0.0716821536731761    0.0
                       -0.1276077293121865       -0.0716804884668709    0.0
                       -0.1218037115998381       -0.0716788659633083    0.0
                       -0.1164435233662247       -0.0716773670237124    0.0
                       -0.1115016504563562       -0.0716760884614670    0.0
                       -0.1069522548210607       -0.0716751463207742    0.0
                       -0.1027694359538482       -0.0716746842633957    0.0
                       -0.0989273208357436       -0.0716748921145483    0.0
                       -0.0953998213752971       -0.0716760451883983    0.0
                       -0.0921595777508524       -0.0716785893309611    0.0
                       -0.0891749652157666       -0.0716833487834265    0.0
                       -0.0864056828557277       -0.0716921089866579    0.0
                       -0.3500000000000000       -0.0703162360831880    0.0
                       -0.3352821949363165       -0.0703168926936329    0.0
                       -0.3206399227909765       -0.0703174609787858    0.0
                       -0.3061471442702131       -0.0703179078040549    0.0
                       -0.2918748137815031       -0.0703182165770090    0.0
                       -0.2778895382034455       -0.0703183772398134    0.0
                       -0.2642524142712172       -0.0703183822193165    0.0
                       -0.2510180841291857       -0.0703182246219941    0.0
                       -0.2382340336504683       -0.0703178973656281    0.0
                       -0.2259401426827185       -0.0703173927327270    0.0
                       -0.2141684818388615       -0.0703167021735579    0.0
                       -0.2029433380894562       -0.0703158163664324    0.0
                       -0.1922814421873338       -0.0703147256541644    0.0
                       -0.1821923653252448       -0.0703134210450818    0.0
                       -0.1726790502283564       -0.0703118959805449    0.0
                       -0.1637384423442621       -0.0703101490004880    0.0
                       -0.1553621887670197       -0.0703081872659093    0.0
                       -0.1475373749182865       -0.0703060306381397    0.0
                       -0.1402472711991698       -0.0703037157486022    0.0
                       -0.1334720638879321       -0.0703012993619986    0.0
                       -0.1271895469743800       -0.0702988604945173    0.0
                       -0.1213757546757606       -0.0702965012674307    0.0
                       -0.1160055175385330       -0.0702943472626712    0.0
                       -0.1110529266094584       -0.0702925490090846    0.0
                       -0.1064916869183931       -0.0702912871207802    0.0
                       -0.1022953267765028       -0.0702907849122907    0.0
                       -0.0984371873774725       -0.0702913348804829    0.0
                       -0.0948900171763564       -0.0702933497982572    0.0
                       -0.0916248503483707       -0.0702974518934793    0.0
                       -0.0886091984853951       -0.0703045981819925    0.0
                       -0.0858082100500728       -0.0703162360831880    0.0
                       -0.3500000000000000       -0.0689403631797180    0.0
                       -0.3352516045698486       -0.0689411908441862    0.0
                       -0.3205789481386782       -0.0689419047248733    0.0
                       -0.3060561844853993       -0.0689424610857121    0.0
                       -0.2917544548813733       -0.0689428380490397    0.0
                       -0.2777405446179739       -0.0689430223977945    0.0
                       -0.2640757182686563       -0.0689430041934310    0.0
                       -0.2508147732796590       -0.0689427743758228    0.0
                       -0.2380053363241174       -0.0689423236092434    0.0
                       -0.2256874112483336       -0.0689416416892064    0.0
                       -0.2138931727965250       -0.0689407172825180    0.0
                       -0.2026469879633254       -0.0689395380141473    0.0
                       -0.1919656378154199       -0.0689380910655249    0.0
                       -0.1818587074237315       -0.0689363645439558    0.0
                       -0.1723291099084522       -0.0689343499018592    0.0
                       -0.1633737115506103       -0.0689320455875560    0.0
                       -0.1549840270590261       -0.0689294618708693    0.0
                       -0.1471469561051775       -0.0689266264295444    0.0
                       -0.1398455335484075       -0.0689235899182750    0.0
                       -0.1330596666839833       -0.0689204305677059    0.0
                       -0.1267668342064958       -0.0689172570860648    0.0
                       -0.1209427239228985       -0.0689142098483797    0.0
                       -0.1155617889740109       -0.0689114614147797    0.0
                       -0.1105977033709901       -0.0689092185307011    0.0
                       -0.1060236934477829       -0.0689077287871194    0.0
                       -0.1018127068473057       -0.0689072962900589    0.0
                       -0.0979373488728244       -0.0689083121721020    0.0
                       -0.0943694834666037       -0.0689113051655369    0.0
                       -0.0910795159486311       -0.0689170021573925    0.0
                       -0.0880362340746592       -0.0689263336311277    0.0
                       -0.0852107372444180       -0.0689403631797180    0.0
                       -0.3500000000000000       -0.0675644902762480    0.0
                       -0.3352208599001615       -0.0675654668713938    0.0
                       -0.3205176630459573       -0.0675663060487293    0.0
                       -0.3059647555159613       -0.0675669538218238    0.0
                       -0.2916334647146181       -0.0675673831977603    0.0
                       -0.2775907536679763       -0.0675675779180118    0.0
                       -0.2638980541725494       -0.0675675257705365    0.0
                       -0.2506103184314543       -0.0675672156046381    0.0
                       -0.2377753134399486       -0.0675666358960542    0.0
                       -0.2254331666052000       -0.0675657740097597    0.0
                       -0.2136161563357527       -0.0675646158789671    0.0
                       -0.2023487290226364       -0.0675631461217574    0.0
                       -0.1916477150502651       -0.0675613488084269    0.0
                       -0.1815227117207882       -0.0675592092143455    0.0
                       -0.1719765999188730       -0.0675567169177522    0.0
                       -0.1630061628073016       -0.0675538704767200    0.0
                       -0.1546027771487070       -0.0675506836109035    0.0
                       -0.1467531494981992       -0.0675471923525454    0.0
                       -0.1394400699152989       -0.0675434621643373    0.0
                       -0.1326431555831045       -0.0675395938029091    0.0
                       -0.1263395570460116       -0.0675357270016986    0.0
                       -0.1205046015099859       -0.0675320419527582    0.0
                       -0.1151123502296302       -0.0675287598749176    0.0
                       -0.1101360483282230       -0.0675261452467225    0.0
                       -0.1055484426123814       -0.0675245132447020    0.0
                       -0.1013219348238785       -0.0675242464535428    0.0
                       -0.0974285343710354       -0.0675258241360871    0.0
                       -0.0938396324383224       -0.0675298602500218    0.0
                       -0.0905259112901899       -0.0675371183276116    0.0
                       -0.0874584647458652       -0.0675484174887267    0.0
                       -0.0846132644387631       -0.0675644902762480    0.0
                       -0.3500000000000000       -0.0661886173727781    0.0
                       -0.3351899608339936       -0.0661897233696750    0.0
                       -0.3204560673716382       -0.0661906700523343    0.0
                       -0.3058728571592761       -0.0661913935926352    0.0
                       -0.2915118429394930       -0.0661918620752059    0.0
                       -0.2774401647211318       -0.0661920563269210    0.0
                       -0.2637194208229348       -0.0661919619591012    0.0
                       -0.2504047175623026       -0.0661915658112865    0.0
                       -0.2375439616720877       -0.0661908542419872    0.0
                       -0.2251774035746875       -0.0661898122507864    0.0
                       -0.2133374247814207       -0.0661884230984377    0.0
                       -0.2020485503931423       -0.0661866684561487    0.0
                       -0.1913276591228429       -0.0661845293481573    0.0
                       -0.1811843589655119       -0.0661819883009641    0.0
                       -0.1716214961873274       -0.0661790331428101    0.0
                       -0.1626357673032956       -0.0661756627418617    0.0
                       -0.1542184061995086       -0.0661718945885213    0.0
                       -0.1463559198288202       -0.0661677735566943    0.0
                       -0.1390308453954972       -0.0661633806046007    0.0
                       -0.1322225005177482       -0.0661588399109098    0.0
                       -0.1259076972030634       -0.0661543233066922    0.0
                       -0.1200613917766275       -0.0661500519560102    0.0
                       -0.1146572457990469       -0.0661462967645879    0.0
                       -0.1096680757632317       -0.0661433803738164    0.0
                       -0.1050661709010294       -0.0661416842745389    0.0
                       -0.1008234635903662       -0.0661416640048988    0.0
                       -0.0969115697104908       -0.0661438718092891    0.0
                       -0.0933018430184131       -0.0661489737440628    0.0
                       -0.0899658937951315       -0.0661577173023937    0.0
                       -0.0868773730717404       -0.0661707759327995    0.0
                       -0.0840157916331082       -0.0661886173727781    0.0
                       -0.3500000000000000       -0.0648127444693081    0.0
                       -0.3351589071342743       -0.0648139626650545    0.0
                       -0.3203941606756260       -0.0648150013121519    0.0
                       -0.3057804887451786       -0.0648157871991943    0.0
                       -0.2913895885624101       -0.0648162837030858    0.0
                       -0.2772887762909355       -0.0648164688720971    0.0
                       -0.2635398159825931       -0.0648163262428668    0.0
                       -0.2501979673258148       -0.0648158407308562    0.0
                       -0.2373112760966709       -0.0648149966550432    0.0
                       -0.2249201150765233       -0.0648137767234060    0.0
                       -0.2130569682222547       -0.0648121615964891    0.0
                       -0.2017464386018408       -0.0648101300718572    0.0
                       -0.1910054522844015       -0.0648076602069226    0.0
                       -0.1808436265487828       -0.0648047318750733    0.0
                       -0.1712637709442646       -0.0648013312857711    0.0
                       -0.1622624922897689       -0.0647974578124225    0.0
                       -0.1538308773838773       -0.0647931330102218    0.0
                       -0.1459552281011581       -0.0647884110205836    0.0
                       -0.1386178221259197       -0.0647833888724386    0.0
                       -0.1317976700110440       -0.0647782148771548    0.0
                       -0.1254712377177521       -0.0647730937452844    0.0
                       -0.1196131049239309       -0.0647682883188289    0.0
                       -0.1141965331872470       -0.0647641195153448    0.0
                       -0.1091939235395264       -0.0647609674425361    0.0
                       -0.1045771515495348       -0.0647592768362294    0.0
                       -0.1003177895498898       -0.0647595680598741    0.0
                       -0.0963872895620167       -0.0647624487643428    0.0
                       -0.0927573488890254       -0.0647686064955641    0.0
                       -0.0894008763010910       -0.0647787371962164    0.0
                       -0.0862938989441805       -0.0647933630179850    0.0
                       -0.0834183188274533       -0.0648127444693081    0.0
                       -0.3500000000000000       -0.0634368715658381    0.0
                       -0.3351276983657140       -0.0634381866873764    0.0
                       -0.3203319421031051       -0.0634393036228974    0.0
                       -0.3056876489512309       -0.0634401402796401    0.0
                       -0.2912666996761554       -0.0634406555627898    0.0
                       -0.2771365856891922       -0.0634408248873633    0.0
                       -0.2633592358945931       -0.0634406298226874    0.0
                       -0.2499900625042467       -0.0634400534509369    0.0
                       -0.2370772495292696       -0.0634390781357191    0.0
                       -0.2246612913393984       -0.0634376843757524    0.0
                       -0.2127747735819374       -0.0634358503144619    0.0
                       -0.2014423764943506       -0.0634335519617087    0.0
                       -0.1906810725539108       -0.0634307645005904    0.0
                       -0.1805004870621682       -0.0634274652583252    0.0
                       -0.1709033910717445       -0.0634236389612901    0.0
                       -0.1618862991940432       -0.0634192856738692    0.0
                       -0.1534401477330157       -0.0634144312765841    0.0
                       -0.1455510291420189       -0.0634091395330375    0.0
                       -0.1382009564881825       -0.0634035239917651    0.0
                       -0.1313686279623896       -0.0633977576031564    0.0
                       -0.1250301591983565       -0.0633920784238247    0.0
                       -0.1191597524272478       -0.0633867912011746    0.0
                       -0.1137302768281955       -0.0633822664621362    0.0
                       -0.1087137438316889       -0.0633789399825848    0.0
                       -0.1040816779988738       -0.0633773150975454    0.0
                       -0.0998054210804075       -0.0633779670762670    0.0
                       -0.0958564863549075       -0.0633815409906897    0.0
                       -0.0922072017896238       -0.0633887204227498    0.0
                       -0.0888319129841806       -0.0634001289532088    0.0
                       -0.0857086530868197       -0.0634161462859070    0.0
                       -0.0828208460217984       -0.0634368715658381    0.0
                       -0.3500000000000000       -0.0620609986623682    0.0
                       -0.3350963339084556       -0.0620623969904881    0.0
                       -0.3202694104123972       -0.0620635800369427    0.0
                       -0.3055943358455870       -0.0620644573678709    0.0
                       -0.2911431735187526       -0.0620649836732889    0.0
                       -0.2769835891020379       -0.0620651318898157    0.0
                       -0.2631776753767847       -0.0620648817325292    0.0
                       -0.2497809961229129       -0.0620642145464268    0.0
                       -0.2368418726607521       -0.0620631108304413    0.0
                       -0.2244009200597924       -0.0620615489648508    0.0
                       -0.2124908248022620       -0.0620595046696197    0.0
                       -0.2011363434434185       -0.0620569512650523    0.0
                       -0.1903544939523868       -0.0620538611648658    0.0
                       -0.1801549085577368       -0.0620502092667906    0.0
                       -0.1705403183873726       -0.0620459789518395    0.0
                       -0.1615071439248381       -0.0620411711476975    0.0
                       -0.1530461684582937       -0.0620358162810160    0.0
                       -0.1451432719284416       -0.0620299880119892    0.0
                       -0.1377801994207680       -0.0620238167188204    0.0
                       -0.1309353338943598       -0.0620175002766802    0.0
                       -0.1245844398823014       -0.0620113102204532    0.0
                       -0.1187013466139665       -0.0620055929348013    0.0
                       -0.1132585464503326       -0.0620007674294909    0.0
                       -0.1082276985743496       -0.0619973223316890    0.0
                       -0.1035800530239884       -0.0619958136720155    0.0
                       -0.0992868572327348       -0.0619968607637315    0.0
                       -0.0953198830730682       -0.0620011292243889    0.0
                       -0.0916522732373487       -0.0620092792551491    0.0
                       -0.0882597855070729       -0.0620218523336837    0.0
                       -0.0851220426235570       -0.0620391009137701    0.0
                       -0.0822233732161436       -0.0620609986623682    0.0
                       -0.3500000000000000       -0.0606851257588982    0.0
                       -0.3350648129910335       -0.0606865948165759    0.0
                       -0.3202065640437756       -0.0606878329919964    0.0
                       -0.3055005469950495       -0.0606887420843332    0.0
                       -0.2910190066245432       -0.0606892728446049    0.0
                       -0.2768297817882072       -0.0606893958953970    0.0
                       -0.2629951280717802       -0.0606890892164540    0.0
                       -0.2495707597567526       -0.0606883325171675    0.0
                       -0.2366051344256166       -0.0606871045290671    0.0
                       -0.2241389868375044       -0.0606853816132039    0.0
                       -0.2122051033514221       -0.0606831371700757    0.0
                       -0.2008283159354925       -0.0606803419403436    0.0
                       -0.1900256871730430       -0.0606769656849615    0.0
                       -0.1798068553066222       -0.0606729809972845    0.0
                       -0.1701745104953708       -0.0606683700504774    0.0
                       -0.1611249778186978       -0.0606631347907510    0.0
                       -0.1526488859933847       -0.0606573103662514    0.0
                       -0.1447319007200902       -0.0606509805196474    0.0
                       -0.1373554976220315       -0.0606442926190503    0.0
                       -0.1304977441720037       -0.0606374695163431    0.0
                       -0.1241340567340161       -0.0606308160094315    0.0
                       -0.1182379013069963       -0.0606247193519869    0.0
                       -0.1127814165034391       -0.0606196452153513    0.0
                       -0.1077359561118667       -0.0606161313716954    0.0
                       -0.1030725802029139       -0.0606147797525992    0.0
                       -0.0987625731235072       -0.0606162426768716    0.0
                       -0.0947781215016827       -0.0606211915061410    0.0
                       -0.0910932731710798       -0.0606302494722975    0.0
                       -0.0876850740409865       -0.0606438738926439    0.0
                       -0.0845343459362455       -0.0606622071944416    0.0
                       -0.0816259004104887       -0.0606851257588982    0.0
                       -0.3500000000000000       -0.0593092528554282    0.0
                       -0.3350331347240926       -0.0593107811639792    0.0
                       -0.3201434011900981       -0.0593120644458517    0.0
                       -0.3054062795762821       -0.0593129973373977    0.0
                       -0.2908941949800748       -0.0593135269453539    0.0
                       -0.2766751582840820       -0.0593136217519616    0.0
                       -0.2628115867060262       -0.0593132581264469    0.0
                       -0.2493593438486512       -0.0593124142497034    0.0
                       -0.2363670223851210       -0.0593110671897172    0.0
                       -0.2238754756293945       -0.0593091913958352    0.0
                       -0.2119175887542872       -0.0593067580632224    0.0
                       -0.2005182681833896       -0.0593037354742303    0.0
                       -0.1896946202818721       -0.0593000908647069    0.0
                       -0.1794562885924111       -0.0592957946560494    0.0
                       -0.1698059216766257       -0.0592908279489013    0.0
                       -0.1607397486287864       -0.0592851938428129    0.0
                       -0.1522482430804408       -0.0592789323322198    0.0
                       -0.1443168562338370       -0.0592721373323486    0.0
                       -0.1369267947865686       -0.0592649732023368    0.0
                       -0.1300558132334025       -0.0592576875787848    0.0
                       -0.1236789865092500       -0.0592506179530761    0.0
                       -0.1177694323622607       -0.0592441911874324    0.0
                       -0.1122989654241916       -0.0592389171508632    0.0
                       -0.1072386879056929       -0.0592353783255535    0.0
                       -0.1025595567430116       -0.0592342152289350    0.0
                       -0.0982330103118220       -0.0592361025845410    0.0
                       -0.0942317600910021       -0.0592417052487289    0.0
                       -0.0905307739548087       -0.0592516009640279    0.0
                       -0.0871082112825950       -0.0592661658198619    0.0
                       -0.0839457579707831       -0.0592854492972741    0.0
                       -0.0810284276048338       -0.0593092528554282    0.0
                       -0.3500000000000000       -0.0579333799519582    0.0
                       -0.3350012981289275       -0.0579349568448883    0.0
                       -0.3200799198566519       -0.0579362759910361    0.0
                       -0.3053115304701500       -0.0579372254946936    0.0
                       -0.2907687341564863       -0.0579377491303608    0.0
                       -0.2765197125780182       -0.0579378134226133    0.0
                       -0.2626270433103080       -0.0579373932608265    0.0
                       -0.2491467379806705       -0.0579364654100332    0.0
                       -0.2361275230540553       -0.0579350053851118    0.0
                       -0.2236103691366974       -0.0579329858394597    0.0
                       -0.2116282590452722       -0.0579303758870240    0.0
                       -0.2002061726494950       -0.0579271414843138    0.0
                       -0.1893612593153898       -0.0579232474802480    0.0
                       -0.1791031673866621       -0.0579186622630305    0.0
                       -0.1694345036436668       -0.0579133659921975    0.0
                       -0.1603514013584784       -0.0579073630321183    0.0
                       -0.1518441796767932       -0.0579006982932402    0.0
                       -0.1438980766084560       -0.0578934758513904    0.0
                       -0.1364940325917802       -0.0578858768912287    0.0
                       -0.1296094945159681       -0.0578781733913759    0.0
                       -0.1232192064414696       -0.0578707346122807    0.0
                       -0.1172959577451746       -0.0578640252914090    0.0
                       -0.1118112744260662       -0.0578585964589143    0.0
                       -0.1067360651032960       -0.0578550703195886    0.0
                       -0.1020412674815041       -0.0578541184815315    0.0
                       -0.0976985710314334       -0.0578564283499122    0.0
                       -0.0936812774023660       -0.0578626486916252    0.0
                       -0.0899652340695386       -0.0578733073523638    0.0
                       -0.0865295219662173       -0.0578887051420313    0.0
                       -0.0833564181205579       -0.0579088145256742    0.0
                       -0.0804309547991789       -0.0579333799519582    0.0
                       -0.3500000000000000       -0.0565575070484883    0.0
                       -0.3349693021598623       -0.0565591225303356    0.0
                       -0.3200161179081061       -0.0565604689441582    0.0
                       -0.3052162963357639       -0.0565614285166008    0.0
                       -0.2906426194134812       -0.0565619420179837    0.0
                       -0.2763634382473734       -0.0565619742064327    0.0
                       -0.2624414893932317       -0.0565614986278460    0.0
                       -0.2489329310876435       -0.0565604907495117    0.0
                       -0.2358866221583125       -0.0565589246501702    0.0
                       -0.2233436491105171       -0.0565567713111779    0.0
                       -0.2113370911255926       -0.0565539978992323    0.0
                       -0.1998920004581941       -0.0565505681883686    0.0
                       -0.1890255687508262       -0.0565464447888623    0.0
                       -0.1787474488780720       -0.0565415942000456    0.0
                       -0.1690602061279094       -0.0565359957663788    0.0
                       -0.1599598789024438       -0.0565296552027039    0.0
                       -0.1514366336397687       -0.0565226223462948    0.0
                       -0.1434754981115520       -0.0565150113144331    0.0
                       -0.1360571513814791       -0.0565070197795707    0.0
                       -0.1291587410220441       -0.0564989433655462    0.0
                       -0.1227546944980585       -0.0564911818280478    0.0
                       -0.1168174971185937       -0.0564842356029572    0.0
                       -0.1113184258514283       -0.0564786933548508    0.0
                       -0.1062282550931106       -0.0564752116487863    0.0
                       -0.1015179800622583       -0.0564744857967177    0.0
                       -0.0971596153545619       -0.0564772073136586    0.0
                       -0.0931270784341502       -0.0564840018277138    0.0
                       -0.0893970190887784       -0.0564953460443228    0.0
                       -0.0859492512216896       -0.0565114730855270    0.0
                       -0.0827664277031658       -0.0565322927844146    0.0
                       -0.0798334819935240       -0.0565575070484883    0.0
                       -0.3500000000000000       -0.0551816341450183    0.0
                       -0.3349371457211998       -0.0551832787838087    0.0
                       -0.3199519931040687       -0.0551846444126289    0.0
                       -0.3051205736665861       -0.0551856080559186    0.0
                       -0.2905158457781565       -0.0551861078224986    0.0
                       -0.2762063285624783       -0.0551861069032501    0.0
                       -0.2622549160729845       -0.0551855776424525    0.0
                       -0.2487179116195802       -0.0551844943331597    0.0
                       -0.2356443048309340       -0.0551828297414109    0.0
                       -0.2230752965845130       -0.0551805533085022    0.0
                       -0.2110440610353564       -0.0551776303975922    0.0
                       -0.1995757217095448       -0.0551740227543425    0.0
                       -0.1886875118624534       -0.0551696909084581    0.0
                       -0.1783890888707793       -0.0551645996196546    0.0
                       -0.1686829773166068       -0.0551587275367715    0.0
                       -0.1595651225147940       -0.0551520817828916    0.0
                       -0.1510255412115654       -0.0551447170708964    0.0
                       -0.1430490556135612       -0.0551367573291930    0.0
                       -0.1356160905755464       -0.0551284162044106    0.0
                       -0.1287035055603896       -0.0551200120146230    0.0
                       -0.1222854292591241       -0.0551119733985367    0.0
                       -0.1163340710300167       -0.0551048339074270    0.0
                       -0.1108205012335775       -0.0550992159124675    0.0
                       -0.1057154182289269       -0.0550958047687077    0.0
                       -0.1009899412655460       -0.0550953124394168    0.0
                       -0.0966164604881099       -0.0550984272605841    0.0
                       -0.0925695020990021       -0.0551057469352551    0.0
                       -0.0888264192212849       -0.0551176981070189    0.0
                       -0.0853675847657924       -0.0551344545283991    0.0
                       -0.0821758611283260       -0.0551558761567896    0.0
                       -0.0792360091878692       -0.0551816341450183    0.0
                       -0.3500000000000000       -0.0538057612415483    0.0
                       -0.3349048276798878       -0.0538074260858771    0.0
                       -0.3198875431256600       -0.0538088033434971    0.0
                       -0.3050243588323502       -0.0538097655307863    0.0
                       -0.2903884081039361       -0.0538102484509448    0.0
                       -0.2760483765644401       -0.0538102139341692    0.0
                       -0.2620673141760611       -0.0538096332702023    0.0
                       -0.2485016676635291       -0.0538084797066378    0.0
                       -0.2354005557594065       -0.0538067248266281    0.0
                       -0.2228052920498735       -0.0538043366713898    0.0
                       -0.2107491441581203       -0.0538012789539002    0.0
                       -0.1992573057145643       -0.0537975115561517    0.0
                       -0.1883470509874120       -0.0537929930949124    0.0
                       -0.1780280420784258       -0.0537876867440067    0.0
                       -0.1683027641696766       -0.0537815705686292    0.0
                       -0.1591670721383557       -0.0537746531283814    0.0
                       -0.1506108373426343       -0.0537669938961086    0.0
                       -0.1426186828724790       -0.0537587262670416    0.0
                       -0.1351707888561820       -0.0537500791707750    0.0
                       -0.1282437407248158       -0.0537413924175867    0.0
                       -0.1218113894993338       -0.0537331215944768    0.0
                       -0.1158456998122702       -0.0537258304220266    0.0
                       -0.1103175792259161       -0.0537201707395292    0.0
                       -0.1051977048695702       -0.0537168510618795    0.0
                       -0.1004573743983091       -0.0537165934470280    0.0
                       -0.0960693815280795       -0.0537200770668173    0.0
                       -0.0920088288081874       -0.0537278688381076    0.0
                       -0.0882536635027449       -0.0537403480430133    0.0
                       -0.0847846632581232       -0.0537576375209897    0.0
                       -0.0815847731761028       -0.0537795585575447    0.0
                       -0.0786385363822143       -0.0538057612415483    0.0
                       -0.3500000000000000       -0.0524298883380784    0.0
                       -0.3348723468749659       -0.0524315648521031    0.0
                       -0.3198227655953183       -0.0524329465589333    0.0
                       -0.3049276481103334       -0.0524339021776623    0.0
                       -0.2902603011145701       -0.0524343655734756    0.0
                       -0.2758895751233064       -0.0524342974291179    0.0
                       -0.2618786743111906       -0.0524336681317872    0.0
                       -0.2482841870349990       -0.0524324500174992    0.0
                       -0.2351553592963667       -0.0524306136226123    0.0
                       -0.2225336155869664       -0.0524281257361630    0.0
                       -0.2104523153747290       -0.0524249485838770    0.0
                       -0.1989367211716011       -0.0524210403592970    0.0
                       -0.1880041477233951       -0.0524163579433129    0.0
                       -0.1776642623394876       -0.0524108630817640    0.0
                       -0.1679195126453617       -0.0524045333600762    0.0
                       -0.1587656666278406       -0.0523973787720464    0.0
                       -0.1501924558906767       -0.0523894633687932    0.0
                       -0.1421843126716415       -0.0523809295525211    0.0
                       -0.1347211841800953       -0.0523720206672022    0.0
                       -0.1277793986701459       -0.0523630965683284    0.0
                       -0.1213325535511311       -0.0523546375539063    0.0
                       -0.1153524023038520       -0.0523472342513486    0.0
                       -0.1098097335277881       -0.0523415635061395    0.0
                       -0.1046752528180211       -0.0523383514269663    0.0
                       -0.0999204775978264       -0.0523383242073921    0.0
                       -0.0955186131294450       -0.0523421471148216    0.0
                       -0.0914452875791749       -0.0523503549908313    0.0
                       -0.0876789310407943       -0.0523632835226471    0.0
                       -0.0842005925298737       -0.0523810128708213    0.0
                       -0.0809932038303185       -0.0524033354482802    0.0
                       -0.0780410635765594       -0.0524298883380784    0.0
                       -0.3500000000000000       -0.0510540154346084    0.0
                       -0.3348397021246570       -0.0510556954460912    0.0
                       -0.3197576580916745       -0.0510570747820777    0.0
                       -0.3048304377088366       -0.0510580190898977    0.0
                       -0.2901315194372092       -0.0510584606745787    0.0
                       -0.2757299169818658       -0.0510583592905793    0.0
                       -0.2616889869251353       -0.0510576845791100    0.0
                       -0.2480654573471418       -0.0510564081034241    0.0
                       -0.2349086995435750       -0.0510544994953482    0.0
                       -0.2222602469653492       -0.0510519244474688    0.0
                       -0.2101535491801047       -0.0510486438706969    0.0
                       -0.1986139362996238       -0.0510446144558159    0.0
                       -0.1876587630763900       -0.0510397915342782    0.0
                       -0.1772977027746584       -0.0510341355859045    0.0
                       -0.1675331678583540       -0.0510276238118186    0.0
                       -0.1583608438937140       -0.0510202676064770    0.0
                       -0.1497703297257094       -0.0510121353507166    0.0
                       -0.1417458768455469       -0.0510033778779648    0.0
                       -0.1342672136579082       -0.0509942519026927    0.0
                       -0.1273104307365724       -0.0509851356424013    0.0
                       -0.1208488985160491       -0.0509765315893147    0.0
                       -0.1148541944758614       -0.0509690537468737    0.0
                       -0.1092970308996909       -0.0509633993616927    0.0
                       -0.1041481851873732       -0.0509603067318630    0.0
                       -0.0993794228747833       -0.0509605008746466    0.0
                       -0.0949643516753950       -0.0509646295462113    0.0
                       -0.0908790623781197       -0.0509731954587326    0.0
                       -0.0871023598024684       -0.0509864951108671    0.0
                       -0.0836154508975049       -0.0510045737903616    0.0
                       -0.0804011815412926       -0.0510272036074772    0.0
                       -0.0774435907709045       -0.0510540154346084    0.0
                       -0.3500000000000000       -0.0496781425311384    0.0
                       -0.3348068922317522       -0.0496798181890855    0.0
                       -0.3196922181608386       -0.0496811886560290    0.0
                       -0.3047327237850304       -0.0496821172460788    0.0
                       -0.2900020576275853       -0.0496825350907042    0.0
                       -0.2755693947890740       -0.0496824012404060    0.0
                       -0.2614982423454056       -0.0496816847511626    0.0
                       -0.2478454660638920       -0.0496803565570186    0.0
                       -0.2346605604166189       -0.0496783855335767    0.0
                       -0.2219851657209741       -0.0496757364404476    0.0
                       -0.2098528197733320       -0.0496723690556225    0.0
                       -0.1982889189404259       -0.0496682387632812    0.0
                       -0.1873108575722777       -0.0496632995413060    0.0
                       -0.1769283159020689       -0.0496575107695879    0.0
                       -0.1671436741883528       -0.0496508493520197    0.0
                       -0.1579525409872023       -0.0496433280188842    0.0
                       -0.1493443907645504       -0.0496350191653082    0.0
                       -0.1413033062208114       -0.0496260813651709    0.0
                       -0.1338088133332550       -0.0496167834881027    0.0
                       -0.1268367869633305       -0.0496075202052328    0.0
                       -0.1203603993775956       -0.0495988134319436    0.0
                       -0.1143510880316031       -0.0495912967960298    0.0
                       -0.1087795293259247       -0.0495856832679103    0.0
                       -0.1036166086785534       -0.0495827181634796    0.0
                       -0.0988343557188722       -0.0495831206659885    0.0
                       -0.0944067576415742       -0.0495875184053843    0.0
                       -0.0903102975891411       -0.0495963828412095    0.0
                       -0.0865240534091190       -0.0496099760114095    0.0
                       -0.0830292944061395       -0.0496283156051834    0.0
                       -0.0798087254539338       -0.0496511609483562    0.0
                       -0.0768461179652496       -0.0496781425311384    0.0
                       -0.3500000000000000       -0.0483022696276685    0.0
                       -0.3347739159877647       -0.0483039333671197    0.0
                       -0.3196264433251138       -0.0483052887580083    0.0
                       -0.3046345024587404       -0.0483061975311669    0.0
                       -0.2898719101895076       -0.0483065900383331    0.0
                       -0.2754080011260208       -0.0483064248547412    0.0
                       -0.2613064308135738       -0.0483056706156993    0.0
                       -0.2476242005415908       -0.0483042977741261    0.0
                       -0.2344109256957955       -0.0483022746036215    0.0
                       -0.2217083512170530       -0.0482995651019535    0.0
                       -0.2095501011286099       -0.0482961281055058    0.0
                       -0.1979616366385266       -0.0482919178985136    0.0
                       -0.1869603913424087       -0.0482868873107197    0.0
                       -0.1765560537219320       -0.0482809947925481    0.0
                       -0.1667509753522897       -0.0482742170296829    0.0
                       -0.1575406941415433       -0.0482665679925620    0.0
                       -0.1489145699521110       -0.0482581237091257    0.0
                       -0.1408565304926943       -0.0482490496899901    0.0
                       -0.1333459178865580       -0.0482396255785922    0.0
                       -0.1263584155237002       -0.0482302603790665    0.0
                       -0.1198670280571315       -0.0482214924310711    0.0
                       -0.1138430890261386       -0.0482139710594073    0.0
                       -0.1082572763543032       -0.0482084202685332    0.0
                       -0.1030806122272967       -0.0482055874996369    0.0
                       -0.0982853951031332       -0.0482061820726539    0.0
                       -0.0938459579427012       -0.0482108097128190    0.0
                       -0.0897391026053649       -0.0482199121706386    0.0
                       -0.0859440863379180       -0.0482337218410729    0.0
                       -0.0824421605861254       -0.0482522355184832    0.0
                       -0.0792158469343344       -0.0482752063780893    0.0
                       -0.0762486451595948       -0.0483022696276685    0.0
                       -0.3500000000000000       -0.0469263967241985    0.0
                       -0.3347407721761912       -0.0469280412364496    0.0
                       -0.3195603310898435       -0.0469293756101388    0.0
                       -0.3045357698233077       -0.0469302607526010    0.0
                       -0.2897410715902698       -0.0469306266353624    0.0
                       -0.2752457285265343       -0.0469304315906211    0.0
                       -0.2611135425118375       -0.0469296440009724    0.0
                       -0.2474016480623497       -0.0469282339906040    0.0
                       -0.2341597790670978       -0.0469261693911130    0.0
                       -0.2214297826932362       -0.0469234136171249    0.0
                       -0.2092453670525265       -0.0469199247641153    0.0
                       -0.1976320567051103       -0.0469156562336148    0.0
                       -0.1866073241904722       -0.0469105599224569    0.0
                       -0.1761808677790175       -0.0469045935268814    0.0
                       -0.1663550144498426       -0.0468977335860337    0.0
                       -0.1571252387805357       -0.0468899951850172    0.0
                       -0.1484807972023432       -0.0468814575387294    0.0
                       -0.1404054780525413       -0.0468722921810901    0.0
                       -0.1328784602826408       -0.0468627879889037    0.0
                       -0.1258752621061742       -0.0468533659808417    0.0
                       -0.1193687524440340       -0.0468445777209000    0.0
                       -0.1133301965373456       -0.0468370841695088    0.0
                       -0.1077303076210935       -0.0468316157109980    0.0
                       -0.1025402659629753       -0.0468289173226395    0.0
                       -0.0977326337447391       -0.0468296850105055    0.0
                       -0.0932820481200475       -0.0468345014959524    0.0
                       -0.0891655555901712       -0.0468437808077227    0.0
                       -0.0853625078537945       -0.0468577304403013    0.0
                       -0.0818540711237099       -0.0468763324270468    0.0
                       -0.0786225506043936       -0.0468993396924575    0.0
                       -0.0756511723539399       -0.0469263967241985    0.0
                       -0.3500000000000000       -0.0455505238207285    0.0
                       -0.3347074595751298       -0.0455521420277883    0.0
                       -0.3194938789489119       -0.0455534496878691    0.0
                       -0.3044365219543362       -0.0455543076528971    0.0
                       -0.2896095362731095       -0.0455546459178420    0.0
                       -0.2750825694939246       -0.0455544228067894    0.0
                       -0.2609195675847342       -0.0455536066205613    0.0
                       -0.2471777958614983       -0.0455521673110906    0.0
                       -0.2339071041561247       -0.0455500724336090    0.0
                       -0.2211494393064505       -0.0455472850057733    0.0
                       -0.2089385912315858       -0.0455437625922216    0.0
                       -0.1973001462705808       -0.0455394579397162    0.0
                       -0.1862516156459549       -0.0455343222375495    0.0
                       -0.1758027092090590       -0.0455283126085312    0.0
                       -0.1659557339892701       -0.0455214055106360    0.0
                       -0.1567061095025216       -0.0455136169899290    0.0
                       -0.1480430013084122       -0.0455050289405298    0.0
                       -0.1399500757777982       -0.0454958179008542    0.0
                       -0.1324063713769983       -0.0454862802897670    0.0
                       -0.1253872692610222       -0.0454768466395957    0.0
                       -0.1188655354232049       -0.0454680783639859    0.0
                       -0.1128124014075098       -0.0454606439007067    0.0
                       -0.1071986455542564       -0.0454552754316618    0.0
                       -0.1019956204162823       -0.0454527111896738    0.0
                       -0.0971761385042687       -0.0454536309294849    0.0
                       -0.0927150942807002       -0.0454585937974957    0.0
                       -0.0885897064799722       -0.0454679883465861    0.0
                       -0.0847793449252342       -0.0454820017224317    0.0
                       -0.0812650337201940       -0.0455006067836757    0.0
                       -0.0780288350171883       -0.0455235615009357    0.0
                       -0.0750536995482850       -0.0455505238207285    0.0
                       -0.3500000000000000       -0.0441746509172586    0.0
                       -0.3346739769594302       -0.0441762359497020    0.0
                       -0.3194270843892764       -0.0441775114267770    0.0
                       -0.3043367549169209       -0.0441783389198423    0.0
                       -0.2894772986675489       -0.0441786488535231    0.0
                       -0.2749185165149643       -0.0441783997805520    0.0
                       -0.2607244961573915       -0.0441775600934697    0.0
                       -0.2469526311508117       -0.0441760997322827    0.0
                       -0.2336528845569615       -0.0441739861469753    0.0
                       -0.2208673001658305       -0.0441711821517940    0.0
                       -0.2086297472728473       -0.0441676449999731    0.0
                       -0.1969658723290688       -0.0441633270223037    0.0
                       -0.1858932250080714       -0.0441581789364778    0.0
                       -0.1754215287735933       -0.0441521574789611    0.0
                       -0.1655530758987815       -0.0441452390870474    0.0
                       -0.1562832400459001       -0.0441374405880393    0.0
                       -0.1476011098293711       -0.0441288459889959    0.0
                       -0.1394902487936133       -0.0441196357140594    0.0
                       -0.1319295794923479       -0.0441101118913043    0.0
                       -0.1248943757271410       -0.0441007118994804    0.0
                       -0.1183573339163731       -0.0440920034776108    0.0
                       -0.1122896850648229       -0.0440846583175627    0.0
                       -0.1066622982382126       -0.0440794059134747    0.0
                       -0.1014467059133801       -0.0440769737718768    0.0
                       -0.0966159508291657       -0.0440780228965485    0.0
                       -0.0921451347364077       -0.0440830886752721    0.0
                       -0.0880115793046761       -0.0440925365379543    0.0
                       -0.0841946043168121       -0.0441065375619358    0.0
                       -0.0806750433258893       -0.0441250605016519    0.0
                       -0.0774346930567863       -0.0441478731782589    0.0
                       -0.0744562267426301       -0.0441746509172586    0.0
                       -0.3500000000000000       -0.0427987780137886    0.0
                       -0.3346403231025083       -0.0428003231914434    0.0
                       -0.3193599448947991       -0.0428015612282868    0.0
                       -0.3042364647717931       -0.0428023551950916    0.0
                       -0.2893443531982363       -0.0428026363532935    0.0
                       -0.2747535620719142       -0.0428023637220013    0.0
                       -0.2605283183513364       -0.0428015059610833    0.0
                       -0.2467261411387797       -0.0428000331625628    0.0
                       -0.2333971038575528       -0.0427979128476201    0.0
                       -0.2205833443635537       -0.0427951078279382    0.0
                       -0.2083188087398153       -0.0427915752741510    0.0
                       -0.1966292017773996       -0.0427872673509383    0.0
                       -0.1855321113830911       -0.0427821345514490    0.0
                       -0.1750372768866410       -0.0427761334202944    0.0
                       -0.1651469815274347       -0.0427692404315145    0.0
                       -0.1558565632408863       -0.0427614729906850    0.0
                       -0.1471550489590563       -0.0427529165971426    0.0
                       -0.1390259202132180       -0.0427437543484322    0.0
                       -0.1314480099747547       -0.0427342921176967    0.0
                       -0.1243965157507033       -0.0427249713128237    0.0
                       -0.1178440979484082       -0.0427163623478329    0.0
                       -0.1117620184269980       -0.0427091359069918    0.0
                       -0.1061212584176564       -0.0427040144231626    0.0
                       -0.1008935320985481       -0.0427017109715012    0.0
                       -0.0960520871681518       -0.0427028656632844    0.0
                       -0.0915721813144567       -0.0427079902036474    0.0
                       -0.0874311738967773       -0.0427174292356999    0.0
                       -0.0836082740012657       -0.0427313417212000    0.0
                       -0.0800840828731334       -0.0427496968978030    0.0
                       -0.0768401121137257       -0.0427722768396873    0.0
                       -0.0738587539369752       -0.0427987780137886    0.0
                       -0.3500000000000000       -0.0414229051103186    0.0
                       -0.3346064967779302       -0.0414244039254320    0.0
                       -0.3192924579496069       -0.0414255994647196    0.0
                       -0.3041356475807222       -0.0414263570817782    0.0
                       -0.2892106942927593       -0.0414266092813115    0.0
                       -0.2745876986532195       -0.0414263157866200    0.0
                       -0.2603310242986560       -0.0414254457021933    0.0
                       -0.2464983130488903       -0.0414239694393808    0.0
                       -0.2331397456627428       -0.0414218547721737    0.0
                       -0.2202975510029824       -0.0414190647177251    0.0
                       -0.2080057491852401       -0.0414155566022659    0.0
                       -0.1962901014504765       -0.0414112826855188    0.0
                       -0.1851682337173648       -0.0414061934949231    0.0
                       -0.1746499036359439       -0.0414002455864195    0.0
                       -0.1647373916387641       -0.0413934155273626    0.0
                       -0.1554260109513446       -0.0413857210787823    0.0
                       -0.1467047433818934       -0.0413772485622518    0.0
                       -0.1385570108630248       -0.0413681824501728    0.0
                       -0.1309615847369175       -0.0413588302763211    0.0
                       -0.1238936184044973       -0.0413496345265992    0.0
                       -0.1173257697457863       -0.0413411645348868    0.0
                       -0.1112293608841347       -0.0413340856986875    0.0
                       -0.1055755026153423       -0.0413291091337555    0.0
                       -0.1003360875338059       -0.0413269300248491    0.0
                       -0.0954845393010728       -0.0413281657269324    0.0
                       -0.0909962203284934       -0.0413333044839270    0.0
                       -0.0868484670496339       -0.0413426723703208    0.0
                       -0.0830203239931051       -0.0413564198154409    0.0
                       -0.0794921235877341       -0.0413745206720148    0.0
                       -0.0762450740646789       -0.0413967753384243    0.0
                       -0.0732612811313204       -0.0414229051103186    0.0
                       -0.3500000000000000       -0.0400470322068486    0.0
                       -0.3345724967608433       -0.0400484783095359    0.0
                       -0.3192246210411381       -0.0400496264840014    0.0
                       -0.3040342994114514       -0.0400503451516404    0.0
                       -0.2890763163888212       -0.0400505684644980    0.0
                       -0.2744209187633899       -0.0400502570870924    0.0
                       -0.2601326041551558       -0.0400493807470692    0.0
                       -0.2462691341367293       -0.0400479103455341    0.0
                       -0.2328807936159525       -0.0400458140959092    0.0
                       -0.2200098992252720       -0.0400430554359455    0.0
                       -0.2076905421822032       -0.0400395920950830    0.0
                       -0.1959485381547131       -0.0400353767008226    0.0
                       -0.1848015508279852       -0.0400303600862617    0.0
                       -0.1742593588010545       -0.0400244990320682    0.0
                       -0.1643242463998743       -0.0400177702572166    0.0
                       -0.1549915140100002       -0.0400101916395280    0.0
                       -0.1462501161196752       -0.0400018496091961    0.0
                       -0.1380834389975601       -0.0399929286369168    0.0
                       -0.1304702217949759       -0.0399837357239412    0.0
                       -0.1233856069148326       -0.0399747113650417    0.0
                       -0.1168022828712739       -0.0399664199730031    0.0
                       -0.1106916593546230       -0.0399595173775810    0.0
                       -0.1050249903384205       -0.0399546992374717    0.0
                       -0.0997743393312673       -0.0399526395974058    0.0
                       -0.0949132745429226       -0.0399539313918014    0.0
                       -0.0904172132060204       -0.0399590396693809    0.0
                       -0.0862634131728181       -0.0399682739521466    0.0
                       -0.0824307066723430       -0.0399817793159868    0.0
                       -0.0788991249243281       -0.0399995379225569    0.0
                       -0.0756495550675628       -0.0400213722849469    0.0
                       -0.0726638083256655       -0.0400470322068486    0.0
                       -0.3500000000000000       -0.0386711593033787    0.0
                       -0.3345383218293341       -0.0386725464893135    0.0
                       -0.3191564316630467       -0.0386736426143298    0.0
                       -0.3039324163424116       -0.0386743199521021    0.0
                       -0.2889412139411260       -0.0386745147019795    0.0
                       -0.2742532149325202       -0.0386741887050489    0.0
                       -0.2599330481130981       -0.0386733124914514    0.0
                       -0.2460385917066099       -0.0386718576253479    0.0
                       -0.2326202314203611       -0.0386697929510486    0.0
                       -0.2197203682354853       -0.0386670825490255    0.0
                       -0.2073731613547313       -0.0386636848089847    0.0
                       -0.1956044787009919       -0.0386595530108531    0.0
                       -0.1844320214328443       -0.0386546385781495    0.0
                       -0.1738655918703801       -0.0386488987416291    0.0
                       -0.1639074853685286       -0.0386423104349306    0.0
                       -0.1545530021500839       -0.0386348914027933    0.0
                       -0.1457910883730678       -0.0386267274334430    0.0
                       -0.1376051200088756       -0.0386180015503048    0.0
                       -0.1299738348043621       -0.0386090179322270    0.0
                       -0.1228723980013989       -0.0386002119108462    0.0
                       -0.1162735613966960       -0.0385921390674352    0.0
                       -0.1101488474059832       -0.0385854413918064    0.0
                       -0.1044696633491578       -0.0385807950534918    0.0
                       -0.0992082327813697       -0.0385788498767852    0.0
                       -0.0943382357919596       -0.0385801728369450    0.0
                       -0.0898350967735009       -0.0385852060096041    0.0
                       -0.0856759444790135       -0.0385942441069960    0.0
                       -0.0818393566389553       -0.0386074295932453    0.0
                       -0.0783050341438098       -0.0386247561983577    0.0
                       -0.0750535251686120       -0.0386460720894485    0.0
                       -0.0720663355200106       -0.0386711593033787    0.0
                       -0.3500000000000000       -0.0372952863999087    0.0
                       -0.3345039707657799       -0.0372966086003581    0.0
                       -0.3190878873181060       -0.0372976481690869    0.0
                       -0.3038299944674569       -0.0372982820137424    0.0
                       -0.2888053814283131       -0.0372984487750522    0.0
                       -0.2740845797259022       -0.0372981117034587    0.0
                       -0.2597323464140915       -0.0372972423113133    0.0
                       -0.2458066731284407       -0.0372958130017438    0.0
                       -0.2323580428604517       -0.0372937934460694    0.0
                       -0.2194289373292450       -0.0372911485964970    0.0
                       -0.2070535804091761       -0.0372878377695459    0.0
                       -0.1952578899386272       -0.0372838151944887    0.0
                       -0.1840596041818562       -0.0372790331844005    0.0
                       -0.1734685520593079       -0.0372734496594198    0.0
                       -0.1634870474807849       -0.0372670418390527    0.0
                       -0.1541104039364872       -0.0372598270791316    0.0
                       -0.1453275793615684       -0.0372518897457535    0.0
                       -0.1371219661349220       -0.0372434099102712    0.0
                       -0.1294723325997404       -0.0372346865548230    0.0
                       -0.1223539012344854       -0.0372261465873671    0.0
                       -0.1157395191142693       -0.0372183327914707    0.0
                       -0.1096008444318830       -0.0372118690596074    0.0
                       -0.1039094449783087       -0.0372074081349717    0.0
                       -0.0986376909472672       -0.0372055726686401    0.0
                       -0.0937593414004544       -0.0372069021953315    0.0
                       -0.0892497832011654       -0.0372118159185651    0.0
                       -0.0850859707236103       -0.0372205951474832    0.0
                       -0.0812461901143685       -0.0372333820021717    0.0
                       -0.0777097855268968       -0.0372501845914772    0.0
                       -0.0744569477034907       -0.0372708800303141    0.0
                       -0.0714688627143557       -0.0372952863999087    0.0
                       -0.3500000000000000       -0.0359194134964387    0.0
                       -0.3344694423582770       -0.0359206647708937    0.0
                       -0.3190189855212824       -0.0359216434523179    0.0
                       -0.3037270299008864       -0.0359222318586292    0.0
                       -0.2886688133603177       -0.0359223714582953    0.0
                       -0.2739150057542268       -0.0359220271404581    0.0
                       -0.2595304893627646       -0.0359211715793282    0.0
                       -0.2455733658556159       -0.0359197781952801    0.0
                       -0.2320942118248745       -0.0359178176872389    0.0
                       -0.2191355859210739       -0.0359152561149455    0.0
                       -0.2067317731677290       -0.0359120539978183    0.0
                       -0.1949087387919726       -0.0359081668240662    0.0
                       -0.1836842576913083       -0.0359035481109043    0.0
                       -0.1730681883317586       -0.0358981567232945    0.0
                       -0.1630628710419884       -0.0358919702498093    0.0
                       -0.1536636466997869       -0.0358850054014910    0.0
                       -0.1448595061659098       -0.0358773443207637    0.0
                       -0.1366338861715309       -0.0358691625733494    0.0
                       -0.1289656187440056       -0.0358607514984056    0.0
                       -0.1218300184135260       -0.0358525262444759    0.0
                       -0.1152000587864288       -0.0358450127864635    0.0
                       -0.1090475548770133       -0.0358388126788441    0.0
                       -0.1033442394627214       -0.0358345513797430    0.0
                       -0.0980626142025166       -0.0358328215005985    0.0
                       -0.0931764848533803       -0.0358341336495889    0.0
                       -0.0886611596089901       -0.0358388840708812    0.0
                       -0.0844933785052914       -0.0358473416841566    0.0
                       -0.0806511038840440       -0.0358596500150419    0.0
                       -0.0771132991943232       -0.0358758338756811    0.0
                       -0.0738597784583123       -0.0358958023537912    0.0
                       -0.0708713899087008       -0.0359194134964387    0.0
                       -0.3500000000000000       -0.0345435405929688    0.0
                       -0.3344347354022372       -0.0345447151248269    0.0
                       -0.3189497238031867       -0.0345456287651586    0.0
                       -0.3036235187830767       -0.0345461700100906    0.0
                       -0.2885315042866120       -0.0345462835325983    0.0
                       -0.2737444856849802       -0.0345459360855511    0.0
                       -0.2593274673419965       -0.0345451016841672    0.0
                       -0.2453386574448831       -0.0345437549464602    0.0
                       -0.2318287223317878       -0.0345418678038464    0.0
                       -0.2188402935758174       -0.0345394076660712    0.0
                       -0.2064077136057401       -0.0345363365411255    0.0
                       -0.1945569923016601       -0.0345326114988529    0.0
                       -0.1833059405837095       -0.0345281875918197    0.0
                       -0.1726644494279982       -0.0345230249038354    0.0
                       -0.1626348937244881       -0.0345171014919927    0.0
                       -0.1532126564771144       -0.0345104331731422    0.0
                       -0.1443867835775458       -0.0345030990520815    0.0
                       -0.1361407851932380       -0.0344952685977583    0.0
                       -0.1284535910917233       -0.0344872230006686    0.0
                       -0.1213006429711435       -0.0344793622512736    0.0
                       -0.1146550714344208       -0.0344721914684981    0.0
                       -0.1084888675030460       -0.0344662856433029    0.0
                       -0.1027739312929305       -0.0344622391495877    0.0
                       -0.0974828796959148       -0.0344606117395999    0.0
                       -0.0925895342460441       -0.0344618835497371    0.0
                       -0.0880690873339648       -0.0344664275315709    0.0
                       -0.0838980301237573       -0.0344745007821740    0.0
                       -0.0800539737537034       -0.0344862494089267    0.0
                       -0.0765154794785474       -0.0345017167005037    0.0
                       -0.0732619645360687       -0.0345208464131322    0.0
                       -0.0702739171030460       -0.0345435405929688    0.0
                       -0.3500000000000000       -0.0331676676894988    0.0
                       -0.3343998487022842       -0.0331687597854918    0.0
                       -0.3188800997141562       -0.0331696044137045    0.0
                       -0.3035194572871464       -0.0331700970046652    0.0
                       -0.2883934488059303       -0.0331701858010871    0.0
                       -0.2735730122558295       -0.0331698396394077    0.0
                       -0.2591232708307156       -0.0331690340540831    0.0
                       -0.2451025355794431       -0.0331677450429965    0.0
                       -0.2315615585582069       -0.0331659459790445    0.0
                       -0.2185430400449831       -0.0331636058709884    0.0
                       -0.2060813758950308       -0.0331606885107081    0.0
                       -0.1942026176730748       -0.0331571528859497    0.0
                       -0.1829246115362277       -0.0331529559337493    0.0
                       -0.1722572839023635       -0.0331480592520434    0.0
                       -0.1622030525763830       -0.0331424414868372    0.0
                       -0.1527573579649035       -0.0331361173250664    0.0
                       -0.1439093239610011       -0.0331291620173184    0.0
                       -0.1356425642893427       -0.0331217373188665    0.0
                       -0.1279361413734886       -0.0331141117190504    0.0
                       -0.1207656594079198       -0.0331066665997809    0.0
                       -0.1141044356673653       -0.0330998821462595    0.0
                       -0.1079246546916939       -0.0330943025709767    0.0
                       -0.1021983845616584       -0.0330904874038684    0.0
                       -0.0968983407343823       -0.0330889607288233    0.0
                       -0.0919983315571812       -0.0330901705592262    0.0
                       -0.0874734008577283       -0.0330944659258604    0.0
                       -0.0832997619795881       -0.0331020921713996    0.0
                       -0.0794546524697803       -0.0331131985187342    0.0
                       -0.0759162127615437       -0.0331278478549590    0.0
                       -0.0726634428461987       -0.0331460208600460    0.0
                       -0.0696764442973911       -0.0331676676894988    0.0
                       -0.3500000000000000       -0.0317917947860288    0.0
                       -0.3343647810746139       -0.0317927988804301    0.0
                       -0.3188101108293602       -0.0317935707190200    0.0
                       -0.3034148416272483       -0.0317940134072550    0.0
                       -0.2882546415783132       -0.0317940791093007    0.0
                       -0.2734005782911138       -0.0317937389589508    0.0
                       -0.2589178904256862       -0.0317929701867838    0.0
                       -0.2448649880970434       -0.0317917503543539    0.0
                       -0.2312927048754965       -0.0317900544889265    0.0
                       -0.2182438053105629       -0.0317878534536922    0.0
                       -0.2057527344562488       -0.0317851131294305    0.0
                       -0.1938455823356691       -0.0317817947721116    0.0
                       -0.1825402293419672       -0.0317778575716469    0.0
                       -0.1718466401759067       -0.0317732649595277    0.0
                       -0.1617672840471582       -0.0317679963171224    0.0
                       -0.1522976744902944       -0.0317620649872735    0.0
                       -0.1434270371367809       -0.0317555415577462    0.0
                       -0.1351391203236321       -0.0317485784399703    0.0
                       -0.1274131548097927       -0.0317414288354378    0.0
                       -0.1202249427653948       -0.0317344520252195    0.0
                       -0.1135480170563816       -0.0317280991562282    0.0
                       -0.1073547717852884       -0.0317228794510477    0.0
                       -0.1016174423107968       -0.0317193138548363    0.0
                       -0.0963088260829108       -0.0317178879519293    0.0
                       -0.0914026917205428       -0.0317190158372669    0.0
                       -0.0868739063941592       -0.0317230216577419    0.0
                       -0.0826983824916900       -0.0317301385208975    0.0
                       -0.0788529670314032       -0.0317405185714139    0.0
                       -0.0753153646550341       -0.0317542446218521    0.0
                       -0.0720641380949236       -0.0317713359082897    0.0
                       -0.0690789714917362       -0.0317917947860288    0.0
                       -0.3500000000000000       -0.0304159218825589    0.0
                       -0.3343295313500929       -0.0304168325477031    0.0
                       -0.3187397547554498       -0.0304175280302504    0.0
                       -0.3033096680693543       -0.0304179198309515    0.0
                       -0.2881150773407014       -0.0304179643715710    0.0
                       -0.2732271767230684       -0.0304176352901452    0.0
                       -0.2587113168693572       -0.0304169116884813    0.0
                       -0.2446260030256326       -0.0304157728769053    0.0
                       -0.2310221458941273       -0.0304141957536106    0.0
                       -0.2179425696400746       -0.0304121532978887    0.0
                       -0.2054217640246968       -0.0304096137941555    0.0
                       -0.1934858540183462       -0.0304065411314907    0.0
                       -0.1821527529902268       -0.0304028971418398    0.0
                       -0.1714324666111372       -0.0303986474369383    0.0
                       -0.1613275240385559       -0.0303937723115939    0.0
                       -0.1518335280107970       -0.0303882835804692    0.0
                       -0.1429398302956741       -0.0303822463793198    0.0
                       -0.1346303457296316       -0.0303758021454750    0.0
                       -0.1268845097666950       -0.0303691861843305    0.0
                       -0.1196783581489436       -0.0303627321508645    0.0
                       -0.1129856675634321       -0.0303568580237735    0.0
                       -0.1067790564720781       -0.0303520338188165    0.0
                       -0.1010309258834571       -0.0303487381544766    0.0
                       -0.0957141391910272       -0.0303474152349307    0.0
                       -0.0908024015071409       -0.0303484432682242    0.0
                       -0.0862703801403538       -0.0303521201892847    0.0
                       -0.0820936695011256       -0.0303586657932104    0.0
                       -0.0782487152963098       -0.0303682341235449    0.0
                       -0.0747127763494180       -0.0303809272535958    0.0
                       -0.0714639600936345       -0.0303968037003455    0.0
                       -0.0684814986860813       -0.0304159218825589    0.0
                       -0.3500000000000000       -0.0290400489790889    0.0
                       -0.3342940983784641       -0.0290408609444571    0.0
                       -0.3186690291396036       -0.0290414767423202    0.0
                       -0.3032039329458536       -0.0290418169637182    0.0
                       -0.2879747509279434       -0.0290418426065028    0.0
                       -0.2730528006202533       -0.0290415300120866    0.0
                       -0.2585035410869230       -0.0290408603264035    0.0
                       -0.2443855686304740       -0.0290398147946525    0.0
                       -0.2307498665224272       -0.0290383724059431    0.0
                       -0.2176393136584755       -0.0290365085234263    0.0
                       -0.2050884397363320       -0.0290341941596419    0.0
                       -0.1931234008487838       -0.0290313962167471    0.0
                       -0.1817621417749439       -0.0290280795801748    0.0
                       -0.1710147116195845       -0.0290242124191959    0.0
                       -0.1608837079930817       -0.0290197761577585    0.0
                       -0.1513648391564145       -0.0290147809376246    0.0
                       -0.1424476079604598       -0.0290092856851066    0.0
                       -0.1341161283589776       -0.0290034192470250    0.0
                       -0.1263500774719379       -0.0289973964155698    0.0
                       -0.1191257603193319       -0.0289915216692223    0.0
                       -0.1124172250430326       -0.0289861756626539    0.0
                       -0.1061973282340256       -0.0289817849718754    0.0
                       -0.1004386343007691       -0.0289787821269084    0.0
                       -0.0951140573700533       -0.0289775670002910    0.0
                       -0.0901972182446220       -0.0289784797533966    0.0
                       -0.0856625662044318       -0.0289817903978217    0.0
                       -0.0814853671289657       -0.0289877037002930    0.0
                       -0.0776416617572500       -0.0289963736340675    0.0
                       -0.0741082598905098       -0.0290079196153838    0.0
                       -0.0708628001086376       -0.0290224388263367    0.0
                       -0.0678840258804264       -0.0290400489790889    0.0
                       -0.3500000000000000       -0.0276641760756189    0.0
                       -0.3342584810343004       -0.0276648842588669    0.0
                       -0.3185979316822548       -0.0276654173204502    0.0
                       -0.3030976326760336       -0.0276657056052887    0.0
                       -0.2878336573021417       -0.0276657149860078    0.0
                       -0.2728774432270658       -0.0276654246979293    0.0
                       -0.2582945542375268       -0.0276648181013544    0.0
                       -0.2441436734788189       -0.0276638785631318    0.0
                       -0.2304758520467261       -0.0276625873864404    0.0
                       -0.2173340184457957       -0.0276609225919282    0.0
                       -0.2047527372443897       -0.0276588582545003    0.0
                       -0.1927581914889566       -0.0276563646849627    0.0
                       -0.1813683554456197       -0.0276534102575928    0.0
                       -0.1705933238187572       -0.0276499661106419    0.0
                       -0.1604357710392595       -0.0276460150569734    0.0
                       -0.1508915273360635       -0.0276415654701148    0.0
                       -0.1419502720196395       -0.0276366693545379    0.0
                       -0.1335963514101564       -0.0276314413787538    0.0
                       -0.1258097218209377       -0.0276260732086273    0.0
                       -0.1185669933839611       -0.0276208365774363    0.0
                       -0.1118425128491877       -0.0276160706318300    0.0
                       -0.1056093878918462       -0.0276121542474546    0.0
                       -0.0998403437032267       -0.0276094700672064    0.0
                       -0.0945083309682060       -0.0276083705949533    0.0
                       -0.0895868684239209       -0.0276091555879613    0.0
                       -0.0850501742446336       -0.0276120650362894    0.0
                       -0.0808731820651932       -0.0276172862927759    0.0
                       -0.0770315323415881       -0.0276249702180020    0.0
                       -0.0735015920525232       -0.0276352500645067    0.0
                       -0.0702605258247282       -0.0276482590750270    0.0
                       -0.0672865530747715       -0.0276641760756189    0.0
                       -0.3500000000000000       -0.0262883031721489    0.0
                       -0.3342226782256749       -0.0262889027272436    0.0
                       -0.3185264601556220       -0.0262893503350643    0.0
                       -0.3029907637957924       -0.0262895867196000    0.0
                       -0.2876917915950696       -0.0262895829049496    0.0
                       -0.2727010980206014       -0.0262893212014140    0.0
                       -0.2580843477875735       -0.0262887873507560    0.0
                       -0.2439003065319943       -0.0262879670285756    0.0
                       -0.2302000882448313       -0.0262868440781215    0.0
                       -0.2170266656747374       -0.0262853994568142    0.0
                       -0.2044146328834535       -0.0262836106458850    0.0
                       -0.1923901953265504       -0.0262814517764659    0.0
                       -0.1809713544236315       -0.0262788951726094    0.0
                       -0.1701682522649994       -0.0262759153908976    0.0
                       -0.1599836482241176       -0.0262724969438679    0.0
                       -0.1504135109430802       -0.0262686464016658    0.0
                       -0.1414477218724805       -0.0262644081938852    0.0
                       -0.1330708934813643       -0.0262598812672389    0.0
                       -0.1252632993206382       -0.0262552315652675    0.0
                       -0.1180018906398239       -0.0262506944950655    0.0
                       -0.1112613396040415       -0.0262465634791543    0.0
                       -0.1050150173101147       -0.0262431653919505    0.0
                       -0.0992358069289908       -0.0262408291390043    0.0
                       -0.0938966826276051       -0.0262398567259322    0.0
                       -0.0889710462837740       -0.0262405049583379    0.0
                       -0.0844328768948295       -0.0262429813353183    0.0
                       -0.0802567792952791       -0.0262474527296369    0.0
                       -0.0764180080724549       -0.0262540626484034    0.0
                       -0.0728925063541499       -0.0262629526705282    0.0
                       -0.0696569742458606       -0.0262742865498838    0.0
                       -0.0666890802691167       -0.0262883031721489    0.0
                       -0.3500000000000000       -0.0249124302686790    0.0
                       -0.3341866889072485       -0.0249129166592057    0.0
                       -0.3184546124315526       -0.0249132765128887    0.0
                       -0.3028833230021700       -0.0249134615114480    0.0
                       -0.2875491491715382       -0.0249134480829231    0.0
                       -0.2725237587952882       -0.0249132217832986    0.0
                       -0.2578729136194033       -0.0249127708992147    0.0
                       -0.2436554572812769       -0.0249120836020273    0.0
                       -0.2299225615526662       -0.0249111465035255    0.0
                       -0.2167172378119007       -0.0249099437825148    0.0
                       -0.2040741039088719       -0.0249084566801445    0.0
                       -0.1920193827548923       -0.0249066635761287    0.0
                       -0.1805711001218182       -0.0249045412324988    0.0
                       -0.1697394468059945       -0.0249020681153689    0.0
                       -0.1595272748831416       -0.0248992308060718    0.0
                       -0.1499307077171247       -0.0248960341080379    0.0
                       -0.1409398547501996       -0.0248925142977834    0.0
                       -0.1325396288200926       -0.0248887531178646    0.0
                       -0.1247106592517427       -0.0248848882242274    0.0
                       -0.1174302746569779       -0.0248811151099165    0.0
                       -0.1106734992266501       -0.0248776772197594    0.0
                       -0.1044139793733701       -0.0248748450726241    0.0
                       -0.0986247533567541       -0.0248728899229753    0.0
                       -0.0932788067700874       -0.0248720600576223    0.0
                       -0.0883494125342220       -0.0248725666165909    0.0
                       -0.0838103071275635       -0.0248745818081918    0.0
                       -0.0796357773392062       -0.0248782483004957    0.0
                       -0.0758007174419410       -0.0248836967073372    0.0
                       -0.0722806826057097       -0.0248910689384731    0.0
                       -0.0690519414325858       -0.0249005493776055    0.0
                       -0.0660916074634618       -0.0249124302686790    0.0
                       -0.3500000000000000       -0.0235365573652090    0.0
                       -0.3341505121005998       -0.0235369264758187    0.0
                       -0.3183823865247401       -0.0235371968140504    0.0
                       -0.3027753072222765       -0.0235373315419976    0.0
                       -0.2874057257272225       -0.0235373127175721    0.0
                       -0.2723454197931677       -0.0235371293018032    0.0
                       -0.2576602441980247       -0.0235367722853126    0.0
                       -0.2434091159555924       -0.0235362325215956    0.0
                       -0.2296432593180090       -0.0235354996214564    0.0
                       -0.2164057184230957       -0.0235345612746462    0.0
                       -0.2037311288592048       -0.0235334028452804    0.0
                       -0.1916457255970878       -0.0235320074069061    0.0
                       -0.1801675554319393       -0.0235303566767179    0.0
                       -0.1693068586274180       -0.0235284335675309    0.0
                       -0.1590665872331546       -0.0235262271648080    0.0
                       -0.1494430353599508       -0.0235237406262806    0.0
                       -0.1404265663237161       -0.0235210015888014    0.0
                       -0.1320024278936275       -0.0235180731877094    0.0
                       -0.1241516441880955       -0.0235150622711912    0.0
                       -0.1168519577571944       -0.0235121208284909    0.0
                       -0.1100787713949832       -0.0235094380291097    0.0
                       -0.1038060184291912       -0.0235072236149134    0.0
                       -0.0980068892377229       -0.0235056872030880    0.0
                       -0.0926543695692057       -0.0235050200611805    0.0
                       -0.0877215935059797       -0.0235053848261549    0.0
                       -0.0831820558465832       -0.0235069153591385    0.0
                       -0.0790097432196038       -0.0235097258154752    0.0
                       -0.0751792274220186       -0.0235139270410398    0.0
                       -0.0716657331798773       -0.0235196502908755    0.0
                       -0.0684451672351393       -0.0235270844086017    0.0
                       -0.0654941346578069       -0.0235365573652090    0.0
                       -0.3500000000000000       -0.0221606844617390    0.0
                       -0.3341141469269074       -0.0221609327692372    0.0
                       -0.3183097806619810       -0.0221611125521900    0.0
                       -0.3026667137235520       -0.0221611989085960    0.0
                       -0.2872615174448085       -0.0221611797232097    0.0
                       -0.2721660759113617       -0.0221610475089961    0.0
                       -0.2574463328359450       -0.0221607961145424    0.0
                       -0.2431612738504724       -0.0221604192605635    0.0
                       -0.2293621702011464       -0.0221599097887532    0.0
                       -0.2160920926540220       -0.0221592591937838    0.0
                       -0.2033856881256618       -0.0221584573349372    0.0
                       -0.1912691977723705       -0.0221574924421572    0.0
                       -0.1797606854935826       -0.0221563517356377    0.0
                       -0.1688704411245956       -0.0221550231622918    0.0
                       -0.1586015233381188       -0.0221534988215975    0.0
                       -0.1489504125761020       -0.0221517804444779    0.0
                       -0.1399077517919999       -0.0221498866514352    0.0
                       -0.1314591584993267       -0.0221478606666825    0.0
                       -0.1235860911189704       -0.0221457760711421    0.0
                       -0.1162667431633069       -0.0221437377636196    0.0
                       -0.1094769227510067       -0.0221418762889769    0.0
                       -0.1031908615492433       -0.0221403361094705    0.0
                       -0.0973818989173333       -0.0221392611406985    0.0
                       -0.0920230098662645       -0.0221387822721083    0.0
                       -0.0870871812419517       -0.0221390107415673    0.0
                       -0.0825476702630695       -0.0221400388665768    0.0
                       -0.0783781876595532       -0.0221419475531828    0.0
                       -0.0745530332540843       -0.0221448197659915    0.0
                       -0.0710471849903304       -0.0221487617208006    0.0
                       -0.0678363118482901       -0.0221539416304440    0.0
                       -0.0648966618521520       -0.0221606844617390    0.0
                       -0.3500000000000000       -0.0207848115582691    0.0
                       -0.3340775926611760       -0.0207849363991796    0.0
                       -0.3182367933969579       -0.0207850255882316    0.0
                       -0.3025575402961559       -0.0207850665346569    0.0
                       -0.2871165212518472       -0.0207850531154446    0.0
                       -0.2719857230440522       -0.0207849815284963    0.0
                       -0.2572311741288535       -0.0207848486281316    0.0
                       -0.2429119238680748       -0.0207846511851188    0.0
                       -0.2290792848310603       -0.0207843855044578    0.0
                       -0.2157763480157073       -0.0207840471833851    0.0
                       -0.2030377648808727       -0.0207836309572052    0.0
                       -0.1908897763823876       -0.0207831306922591    0.0
                       -0.1793504589503650       -0.0207825396918101    0.0
                       -0.1684301513361817       -0.0207818515788494    0.0
                       -0.1581320247193998       -0.0207810620601314    0.0
                       -0.1484527608481842       -0.0207801717711838    0.0
                       -0.1393833078025134       -0.0207791900694541    0.0
                       -0.1309096878119307       -0.0207781390853156    0.0
                       -0.1230138336216887       -0.0207770567509212    0.0
                       -0.1156744273225432       -0.0207759972967028    0.0
                       -0.1088677094160159       -0.0207750282336732    0.0
                       -0.1025682212503288       -0.0207742241465472    0.0
                       -0.0967494476770431       -0.0207736591047416    0.0
                       -0.0913843418630917       -0.0207734002352792    0.0
                       -0.0864457354763502       -0.0207735045130465    0.0
                       -0.0819066541052040       -0.0207740195460028    0.0
                       -0.0777405615714082       -0.0207749880967103    0.0
                       -0.0739215476741113       -0.0207764562333953    0.0
                       -0.0704244560294032       -0.0207784872949356    0.0
                       -0.0672249185474733       -0.0207811916309179    0.0
                       -0.0642991890464971       -0.0207848115582691    0.0
                       -0.3500000000000000       -0.0194089386547991    0.0
                       -0.3340408488253430       -0.0194089386547991    0.0
                       -0.3181634238069748       -0.0194089386547991    0.0
                       -0.3024477855651955       -0.0194089386547991    0.0
                       -0.2869707352615781       -0.0194089386547991    0.0
                       -0.2718043586663290       -0.0194089386547991    0.0
                       -0.2570147646983651       -0.0194089386547991    0.0
                       -0.2426610614363385       -0.0194089386547991    0.0
                       -0.2287945969204013       -0.0194089386547991    0.0
                       -0.2154584757167771       -0.0194089386547991    0.0
                       -0.2026873466519152       -0.0194089386547991    0.0
                       -0.1905074435497040       -0.0194089386547991    0.0
                       -0.1789368500781061       -0.0194089386547991    0.0
                       -0.1679859523825723       -0.0194089386547991    0.0
                       -0.1576580391174887       -0.0194089386547991    0.0
                       -0.1479500075248040       -0.0194089386547991    0.0
                       -0.1388531358602447       -0.0194089386547991    0.0
                       -0.1303538861107263       -0.0194089386547991    0.0
                       -0.1224347059226892       -0.0194089386547991    0.0
                       -0.1150748043483130       -0.0194089386547991    0.0
                       -0.1082508818814354       -0.0194089386547991    0.0
                       -0.1019378008800079       -0.0194089386547991    0.0
                       -0.0961091875628096       -0.0194089386547991    0.0
                       -0.0907379611462469       -0.0194089386547991    0.0
                       -0.0857967892721426       -0.0194089386547991    0.0
                       -0.0812584716660019       -0.0194089386547991    0.0
                       -0.0770962560083912       -0.0194089386547991    0.0
                       -0.0732840913851153       -0.0194089386547991    0.0
                       -0.0697968255075634       -0.0194089386547991    0.0
                       -0.0666103522702333       -0.0194089386547991    0.0
                       -0.0637017162408423       -0.0194089386547991    0.0
                </DataArray>
            </Points>
            <PointData>
                <DataArray type="Float32" Name="orthogonality" NumberOfComponents="1" format="ascii">
                        0.0000000000000000
                        0.0218459886517816
                        0.0435139857170646
                        0.0648313156181099
                        0.0856338871456193
                        0.1057697680105065
                        0.1251020156223787
                        0.1435107397002504
                        0.1608945088521681
                        0.1771713431885527
                        0.1922796178090090
                        0.2061791976960891
                        0.2188530046843979
                        0.2303089837334661
                        0.2405821404321645
                        0.2497360656578238
                        0.2578632678922859
                        0.2650837855448341
                        0.2715419474644118
                        0.2774016817812738
                        0.2828412780310607
                        0.2880488664306899
                        0.2932201143093539
                        0.2985599715056536
                        0.3042912079831043
                        0.3106751520411450
                        0.3180586547581508
                        0.3269968111400058
                        0.3386849760125719
                        0.3569589842704516
                        0.3983152037699098
                        0.0000174421160074
                        0.0219388464368334
                        0.0437175869913183
                        0.0651463546105830
                        0.0860609091429574
                        0.1063093361356042
                        0.1257547817311643
                        0.1442774811442297
                        0.1617761619281004
                        0.1781690621971752
                        0.1933948960854514
                        0.2074140953994665
                        0.2202105300428649
                        0.2317936634707295
                        0.2422007890774484
                        0.2514987278990557
                        0.2597842772985747
                        0.2671828752386089
                        0.2738453772150348
                        0.2799434121558905
                        0.2856643145052831
                        0.2912070062500039
                        0.2967804748052744
                        0.3026069329868170
                        0.3089329376112754
                        0.3160550518878075
                        0.3243761866206048
                        0.3345377248025768
                        0.3477500847133744
                        0.3664909852371984
                        0.3960245807165711
                        0.0000333830707712
                        0.0220343509216732
                        0.0439250039457057
                        0.0654664288909692
                        0.0864942674160806
                        0.1068566560116739
                        0.1264168667040668
                        0.1450553018065415
                        0.1626708935815982
                        0.1791821466338409
                        0.1945281622701321
                        0.2086699818085990
                        0.2215924531671379
                        0.2333065662469641
                        0.2438518776294914
                        0.2532983703127168
                        0.2617470079494902
                        0.2693284398794123
                        0.2761997796484362
                        0.2825399813178749
                        0.2885448864992688
                        0.2944233939204773
                        0.3003964784024649
                        0.3067012493163435
                        0.3136034487645795
                        0.3214248154440298
                        0.3305984494140804
                        0.3417736774134037
                        0.3559485419957330
                        0.3741537318013186
                        0.3946036599992174
                        0.0000474921008014
                        0.0221332106606312
                        0.0441373463867235
                        0.0657930944697405
                        0.0869360361134335
                        0.1074144192389403
                        0.1270917087644288
                        0.1458485484243010
                        0.1635841558903729
                        0.1802173859480535
                        0.1956878070782296
                        0.2099571358678130
                        0.2230112353792091
                        0.2348626131674156
                        0.2455530157926620
                        0.2551554328447751
                        0.2637747406437590
                        0.2715464314857392
                        0.2786333687931149
                        0.2852211327034324
                        0.2915130703636413
                        0.2977265146539897
                        0.3040918407238966
                        0.3108563247789283
                        0.3182954308287935
                        0.3267350346986221
                        0.3365859996478062
                        0.3483676941110729
                        0.3625673141645102
                        0.3787630605614940
                        0.3935822719686371
                        0.0000598228397375
                        0.0222341716591567
                        0.0443521442874740
                        0.0661226353165379
                        0.0873812115455772
                        0.1079762785687674
                        0.1277715452107238
                        0.1466479530626939
                        0.1645050656037796
                        0.1812621479000366
                        0.1968592874254805
                        0.2112589072235985
                        0.2244478793894422
                        0.2364401657467492
                        0.2472795607520232
                        0.2570418188566252
                        0.2658353676384267
                        0.2738000387262637
                        0.2811037640124209
                        0.2879378196048873
                        0.2945117306094370
                        0.3010492304235455
                        0.3077867148637651
                        0.3149755326247521
                        0.3228889746837151
                        0.3318321703280670
                        0.3421407871655539
                        0.3541094568303174
                        0.3676773168024974
                        0.3816023170264615
                        0.3927779130269454
                        0.0000705470855522
                        0.0223367549478027
                        0.0445686051787933
                        0.0664539347534476
                        0.0878283405660514
                        0.1085404291186136
                        0.1284542004255519
                        0.1474509460165645
                        0.1654306303585924
                        0.1823129822404659
                        0.1980386508600281
                        0.2125707839013740
                        0.2258972374740437
                        0.2380333370623855
                        0.2490247446703393
                        0.2589496855051431
                        0.2679197066554369
                        0.2760783813024811
                        0.2835979002889882
                        0.2906741253598220
                        0.2975211675855069
                        0.3043667235254961
                        0.3114491982739261
                        0.3190169537673711
                        0.3273280419210360
                        0.3366425243191702
                        0.3471811090026157
                        0.3589830886607211
                        0.3715611523591651
                        0.3833951186605318
                        0.3921133021083675
                        0.0000798521731547
                        0.0224407960207852
                        0.0447865848432941
                        0.0667868656089003
                        0.0882773118025395
                        0.1091067751821137
                        0.1291395950332128
                        0.1482574655711213
                        0.1663608078311355
                        0.1833698674509551
                        0.1992258961879040
                        0.2138927797251510
                        0.2273593235449301
                        0.2396421094530066
                        0.2507884601710016
                        0.2608787383492812
                        0.2700271232050933
                        0.2783802541934060
                        0.2861136632623159
                        0.2934265333624675
                        0.3005357463048050
                        0.3076702012424957
                        0.3150658605321465
                        0.3229605969319032
                        0.3315845016748832
                        0.3411328645899649
                        0.3516916276696595
                        0.3630669114270000
                        0.3745122951454218
                        0.3845581152568404
                        0.3915513917518008
                        0.0000879055498927
                        0.0225462517877752
                        0.0450061634776712
                        0.0671216307496735
                        0.0887284530786661
                        0.1096757741739370
                        0.1298283228637336
                        0.1490682510234881
                        0.1672964940133459
                        0.1844338691724565
                        0.2004222721290940
                        0.2152263378601189
                        0.2288357801675461
                        0.2412683168267088
                        0.2525727022570681
                        0.2628310690099405
                        0.2721596913682884
                        0.2807075299550277
                        0.2886524429289105
                        0.2961955355537872
                        0.3035544620378982
                        0.3109563326816936
                        0.3186300044676554
                        0.3267955074942576
                        0.3356440327749477
                        0.3452935886450403
                        0.3556952596362104
                        0.3664743638106117
                        0.3767753778364809
                        0.3853359936365676
                        0.3910713418028869
                        0.0000948464163908
                        0.0226531205822192
                        0.0452274763953700
                        0.0674585025538647
                        0.0891821767343040
                        0.1102479837554361
                        0.1305210946228685
                        0.1498841762936932
                        0.1682387386702492
                        0.1855062277490213
                        0.2016292253256271
                        0.2165731255833918
                        0.2303285040819217
                        0.2429140823736882
                        0.2543797968884933
                        0.2648091503557460
                        0.2743199283908472
                        0.2830626028816348
                        0.2912162558548917
                        0.2989824018141515
                        0.3065773316262127
                        0.3142232516287058
                        0.3221372947521446
                        0.3305150221919257
                        0.3395006458977491
                        0.3491303709093365
                        0.3592355258898249
                        0.3693229037984744
                        0.3785378936380871
                        0.3858752717727672
                        0.3906594801404382
                        0.0001007873896775
                        0.0227614104074235
                        0.0454506518091971
                        0.0677977295250493
                        0.0896388540488509
                        0.1108239026575511
                        0.1312185432837554
                        0.1507060175913465
                        0.1691884724734230
                        0.1865880414507802
                        0.2028480356469756
                        0.2179346169773532
                        0.2318391708439448
                        0.2445812789276062
                        0.2562117900326449
                        0.2668151464615256
                        0.2765100172079186
                        0.2854475156812453
                        0.2938067685689515
                        0.3017880957145124
                        0.3096042039214188
                        0.3174692744248319
                        0.3255843961390784
                        0.3341152460044592
                        0.3431544163483557
                        0.3526590954783439
                        0.3623652019834268
                        0.3717197249745709
                        0.3799382226211402
                        0.3862654677572242
                        0.3903058343489670
                        0.0001058190994435
                        0.0228711275201051
                        0.0456757924617735
                        0.0681395107626511
                        0.0900987822912874
                        0.1114039299585198
                        0.1319211751380936
                        0.1515343956732262
                        0.1701464397758003
                        0.1876801889471184
                        0.2040797274098951
                        0.2193119918121554
                        0.2333691201728558
                        0.2462713994984827
                        0.2580703020873943
                        0.2688507497388384
                        0.2787316254723030
                        0.2878637604716953
                        0.2964250824265137
                        0.3046130485526318
                        0.3126345333996144
                        0.3206926860717764
                        0.3289687594465571
                        0.3375946753656296
                        0.3466102804889477
                        0.3559022584851445
                        0.3651392292440670
                        0.3737566899540124
                        0.3810768838717247
                        0.3865624757775170
                        0.3900027274620152
                        0.0001100149581847
                        0.0229822732800444
                        0.0459029740582205
                        0.0684839959568143
                        0.0905621862992873
                        0.1119883682847264
                        0.1326293746682779
                        0.1523697824537147
                        0.1711132070488819
                        0.1887833396905225
                        0.2053250818753756
                        0.2207061503985583
                        0.2349193735203937
                        0.2479855780959467
                        0.2599565527675903
                        0.2709172111171590
                        0.2809859429447651
                        0.2903123264346532
                        0.2990717964649442
                        0.3074572450918326
                        0.3156674987312358
                        0.3238918952096024
                        0.3322887699250473
                        0.3409541246305081
                        0.3498771205421908
                        0.3588862461221305
                        0.3676105664442254
                        0.3755098731291090
                        0.3820266397417597
                        0.3868020483134630
                        0.3897441319458565
                        0.0001134351969901
                        0.0230948441028503
                        0.0461322492055677
                        0.0688312933541520
                        0.0910292305765962
                        0.1125774401898429
                        0.1333434254068538
                        0.1532125265966942
                        0.1720891935219027
                        0.1898979899952871
                        0.2065846792605362
                        0.2221177621642000
                        0.2364906900257459
                        0.2497246541321719
                        0.2618714353782643
                        0.2730154261081934
                        0.2832737820039570
                        0.2927938185301781
                        0.3017471496473663
                        0.3103203962838289
                        0.3187022118990265
                        0.3270656710384929
                        0.3355439435673207
                        0.3441966487971317
                        0.3529669162115222
                        0.3616392852435029
                        0.3698280183959002
                        0.3770411291507546
                        0.3828404042551105
                        0.3870076868583353
                        0.3895253057008146
                        0.0001161300053811
                        0.0232088323786172
                        0.0463636523966500
                        0.0691814788546100
                        0.0915000326161665
                        0.1131713058642364
                        0.1340635322431491
                        0.1540628806836300
                        0.1730747035425847
                        0.1910245010033697
                        0.2078589428281053
                        0.2235473165238001
                        0.2380836250148393
                        0.2514892396580275
                        0.2638155942473834
                        0.2751460243802633
                        0.2855956819885512
                        0.2953085801661508
                        0.3044511664986895
                        0.3132021128244023
                        0.3217379203521742
                        0.3302133539580812
                        0.3387350616884408
                        0.3473273816028155
                        0.3558939412393290
                        0.3641899612799388
                        0.3718353348796639
                        0.3784003370323645
                        0.3835570643540570
                        0.3871953279743790
                        0.3893425426101421
                        0.0001181418753778
                        0.0233242275254630
                        0.0465972044683259
                        0.0695346039178939
                        0.0919746743493859
                        0.1137700782632747
                        0.1347898404063319
                        0.1549210242754772
                        0.1740699539982652
                        0.1921631308146388
                        0.2091481761679249
                        0.2249951658806542
                        0.2396985794657680
                        0.2532797762758458
                        0.2657894903933574
                        0.2773094459285147
                        0.2879519982014362
                        0.2978567980716918
                        0.3071837814072260
                        0.3161020514144215
                        0.3247741706747063
                        0.3333350074183268
                        0.3418642203523568
                        0.3503532953516517
                        0.3586740362543675
                        0.3665662105299557
                        0.3736710798391427
                        0.3796276710572318
                        0.3842056368832852
                        0.3873761691374929
                        0.3891929810245033
                        0.0001195073201424
                        0.0234410168970257
                        0.0468329161415300
                        0.0698907017666816
                        0.0924532110862801
                        0.1143738348887668
                        0.1355224502239441
                        0.1557870818219032
                        0.1750750955914681
                        0.1933140594011715
                        0.2104525920991630
                        0.2264615589757990
                        0.2413358384175945
                        0.2550965794345656
                        0.2677934528254474
                        0.2795060008811559
                        0.2903429721912307
                        0.3004385854768211
                        0.3099449370707971
                        0.3190200285691907
                        0.3278109286185855
                        0.3364315089936881
                        0.3449348046587869
                        0.3532829150724834
                        0.3613239884652856
                        0.3687946924877101
                        0.3753689326644327
                        0.3807556261299204
                        0.3848081954339137
                        0.3875584016516124
                        0.3890744509430390
                        0.0001202581264135
                        0.0235591864841365
                        0.0470707906792395
                        0.0702497920229325
                        0.0929356781846517
                        0.1149826265676455
                        0.1362614281115962
                        0.1566611359881863
                        0.1760902286631382
                        0.1944774071306913
                        0.2117723341612616
                        0.2279466657055093
                        0.2429955996083964
                        0.2569398715737265
                        0.2698277171364255
                        0.2817359148058842
                        0.2927687853869886
                        0.3030540458855014
                        0.3127346596041048
                        0.3219561049182570
                        0.3308486598440151
                        0.3395045896732171
                        0.3479514081439943
                        0.3561260207347287
                        0.3638610332655831
                        0.3709004518977018
                        0.3769582035959504
                        0.3818107153414480
                        0.3853819224432730
                        0.3877482937705085
                        0.3889853520731071
                        0.0001204222687554
                        0.0236787214260057
                        0.0473108258249949
                        0.0706118840900894
                        0.0934220959140058
                        0.1155964838537853
                        0.1370068145839625
                        0.1575432373659830
                        0.1771154147188646
                        0.1956532482576945
                        0.2131074922699062
                        0.2294505952210041
                        0.2446779944170394
                        0.2588098064758521
                        0.2718924540576993
                        0.2839993625249456
                        0.2952295994614012
                        0.3057033212132475
                        0.3155531145549186
                        0.3249106450314205
                        0.3338883783095047
                        0.3425568331360558
                        0.3509197180210032
                        0.3588933636160144
                        0.3663024776814126
                        0.3729067909779152
                        0.3784644299343962
                        0.3828148458797103
                        0.3859405521271379
                        0.3879508829712746
                        0.3889245579962283
                        0.0001200245846688
                        0.0237996063693775
                        0.0475530151975045
                        0.0709769795912018
                        0.0939124729661736
                        0.1162154216500239
                        0.1377586300388383
                        0.1584334114841975
                        0.1781506847485585
                        0.1968416206591548
                        0.2144581140179710
                        0.2309734090120379
                        0.2463831030524365
                        0.2607064870345240
                        0.2739877904747547
                        0.2862964932548082
                        0.2977255865836481
                        0.3083866278397987
                        0.3184006478792869
                        0.3278843576986592
                        0.3369316692452345
                        0.3455916462983743
                        0.3538463837750689
                        0.3615964136736063
                        0.3686654352325399
                        0.3748352865611187
                        0.3799099766104542
                        0.3837864148209043
                        0.3864953939591361
                        0.3881704305698533
                        0.3888913424343879
                        0.0001190872789260
                        0.0239218257123727
                        0.0477973492816455
                        0.0713450741166587
                        0.0944068089776688
                        0.1168394425329898
                        0.1385168789208879
                        0.1593316638562369
                        0.1791960452134692
                        0.1980425328377392
                        0.2158242128066500
                        0.2325151303356942
                        0.2481109655426467
                        0.2626299782011833
                        0.2761138248966681
                        0.2886274493161548
                        0.3002569520858013
                        0.3111042834274747
                        0.3212778151823458
                        0.3308783208362208
                        0.3399806927859624
                        0.3486132107976426
                        0.3567388824462063
                        0.3642471467363854
                        0.3709666563495916
                        0.3767059016953587
                        0.3813146012459616
                        0.3847411757731667
                        0.3870560691208891
                        0.3884107305653717
                        0.3888853240066391
                        0.0001176303077885
                        0.0240453637619323
                        0.0480438161294773
                        0.0717161584712198
                        0.0949050963381763
                        0.1174685391430065
                        0.1392815527170084
                        0.1602379836107304
                        0.1802514823508926
                        0.1992559689548715
                        0.2172057736880231
                        0.2340757510008623
                        0.2498615896763854
                        0.2645803164182861
                        0.2782706388564099
                        0.2909923800761498
                        0.3028239514163147
                        0.3138567266368267
                        0.3241854017625307
                        0.3338939943732819
                        0.3430381733161579
                        0.3516264232043755
                        0.3596053899240642
                        0.3668578743203147
                        0.3732224368011853
                        0.3785371546059583
                        0.3826959663675256
                        0.3856929251492552
                        0.3876310514162849
                        0.3886753287639901
                        0.3889064263605418
                        0.0001156716792681
                        0.0241702048260687
                        0.0482924018445682
                        0.0720902195572211
                        0.0954073214811763
                        0.1181026958953535
                        0.1400526321045409
                        0.1611523460964128
                        0.1813169652616193
                        0.2004818924363055
                        0.2186027575473735
                        0.2356552362289021
                        0.2516349567174673
                        0.2665575164683984
                        0.2804583052905629
                        0.2933914523051711
                        0.3054269027169429
                        0.3166445312842477
                        0.3271244353663988
                        0.3369332237716844
                        0.3461073786265943
                        0.3546368299655923
                        0.3624546641959266
                        0.3694411148362631
                        0.3754485872707945
                        0.3803463190042464
                        0.3840700946520367
                        0.3866540503103400
                        0.3882280758267597
                        0.3889676871615141
                        0.3889548511662427
                        0.0001132276932876
                        0.0242963332558801
                        0.0485430909080929
                        0.0724672409869877
                        0.0959134657907638
                        0.1187418901901559
                        0.1408300884752176
                        0.1620747147324478
                        0.1823924481011362
                        0.2017202485260185
                        0.2200151040593332
                        0.2372535280883749
                        0.2534310254592647
                        0.2685615763813155
                        0.2826768946222975
                        0.2958248577649223
                        0.3080661959524733
                        0.3194684160432703
                        0.3300961930795269
                        0.3399982362731324
                        0.3491920921529759
                        0.3576505615109515
                        0.3652959438244615
                        0.3720095025376495
                        0.3776604491745051
                        0.3821496383817288
                        0.3854517703665243
                        0.3876359744394453
                        0.3888544587093248
                        0.3892913161499029
                        0.3890310620959399
                        0.0001103131412008
                        0.0244237334436514
                        0.0487958663770082
                        0.0728472034864828
                        0.0964235062146551
                        0.1193860932408236
                        0.1416138849845981
                        0.1630050422853751
                        0.1834778715900492
                        0.2029709660407021
                        0.2214427337089776
                        0.2388705478376394
                        0.2552497349983237
                        0.2705924808266450
                        0.2849264790304286
                        0.2982928185737682
                        0.3107422992250516
                        0.3223292504660584
                        0.3331022034242525
                        0.3430916315307242
                        0.3522965808550222
                        0.3606742686196680
                        0.3681388629342381
                        0.3745757293173350
                        0.3798729442543268
                        0.3839625433713476
                        0.3868548938074122
                        0.3886495262867164
                        0.3895173608812561
                        0.3896498898578369
                        0.3891357785468935
                        0.0001069414787062
                        0.0245523897819728
                        0.0490507099775199
                        0.0732300851279149
                        0.0969374156395103
                        0.1200352705946640
                        0.1424039772207437
                        0.1639432716864980
                        0.1845731639800322
                        0.2042339584837279
                        0.2228855490634958
                        0.2405061973866952
                        0.2570910064665177
                        0.2726502032622842
                        0.2872071352099871
                        0.3007955906967778
                        0.3134557626883607
                        0.3252280578674659
                        0.3361442444702374
                        0.3462163679277506
                        0.3554255606801207
                        0.3637150630430071
                        0.3709933825571365
                        0.3771525140239121
                        0.3821006479360234
                        0.3857998658597246
                        0.3882927970509644
                        0.3897052574172000
                        0.3902240165395147
                        0.3900473558641057
                        0.3892699785067109
                        0.0001031249821611
                        0.0246822865815533
                        0.0493076021019436
                        0.0736158614100534
                        0.0974551630568614
                        0.1206893823851589
                        0.1432003135424646
                        0.1648893364525482
                        0.1856782415500149
                        0.2055091246078364
                        0.2243434353967394
                        0.2421603599955241
                        0.2589547438551853
                        0.2747347069900694
                        0.2895189457935093
                        0.3033334657587879
                        0.3162072203121729
                        0.3281660154333840
                        0.3392243385536014
                        0.3493757455856601
                        0.3585841610195821
                        0.3667804634735971
                        0.3738697372018888
                        0.3797525940114256
                        0.3843578786372246
                        0.3876760466837143
                        0.3897785296481256
                        0.3908137253708971
                        0.3909819458065966
                        0.3904880485404575
                        0.3894349106185286
                        0.0000988748992369
                        0.0248134079417917
                        0.0495665217048129
                        0.0740045051882386
                        0.0979767135260582
                        0.1213483833268278
                        0.1440028351019644
                        0.1658431607291708
                        0.1867930086573265
                        0.2067963484562806
                        0.2258162607004112
                        0.2438329002488482
                        0.2608408339758151
                        0.2768459451675783
                        0.2918619994899036
                        0.3059067712549209
                        0.3189973896110579
                        0.3311444517642348
                        0.3423447440205102
                        0.3525733867875252
                        0.3617778890848389
                        0.3698783472109079
                        0.3767783948464792
                        0.3823887339279887
                        0.3866587970172205
                        0.3896053357796221
                        0.3913251226045746
                        0.3919857581107693
                        0.3917991658181520
                        0.3909768148126685
                        0.3896321162223378
                        0.0000942016029034
                        0.0249457375637872
                        0.0498274460899246
                        0.0743959864392536
                        0.0985020279178829
                        0.1220122224332737
                        0.1448114755313184
                        0.1668046589338036
                        0.1879173573181357
                        0.2080954988529694
                        0.2273038750508246
                        0.2455236632713557
                        0.2627491455165013
                        0.2789838597294202
                        0.2942363898918428
                        0.3085158691134180
                        0.3218270693220784
                        0.3341648419213266
                        0.3455079442283387
                        0.3558132142694660
                        0.3650125946794515
                        0.3730169072502761
                        0.3797300280962325
                        0.3850737471103515
                        0.3890175105169036
                        0.3916019848355763
                        0.3929458383968206
                        0.3932327131213869
                        0.3926844141516908
                        0.3915191619625194
                        0.3898634630179834
                        0.0000891147578182
                        0.0250792584871214
                        0.0500903505559511
                        0.0747902718269743
                        0.0990310623954219
                        0.1226808424068962
                        0.1456261602312121
                        0.1677737349270649
                        0.1890511662357138
                        0.2094064282491023
                        0.2288061092261021
                        0.2472324730640076
                        0.2646795270586686
                        0.2811483790654584
                        0.2966422127823928
                        0.3111611524337039
                        0.3246971348698301
                        0.3372287998762394
                        0.3487166338290222
                        0.3590994275344988
                        0.3682944353920669
                        0.3762046139677764
                        0.3827354938966064
                        0.3878205252442037
                        0.3914481794228486
                        0.3936804330016649
                        0.3946544140301692
                        0.3945667433588639
                        0.3936473987893961
                        0.3921214393278776
                        0.3901311931549954
                        0.0000836235124520
                        0.0252139527218639
                        0.0503552078631919
                        0.0751873240080034
                        0.0995637675548303
                        0.1233541786057837
                        0.1464468051486620
                        0.1687502805802507
                        0.1901942991225010
                        0.2107289707505288
                        0.2303227723722703
                        0.2489591297329528
                        0.2666318037950814
                        0.2833394141646743
                        0.2990795616174699
                        0.3138430400512615
                        0.3276085312644884
                        0.3403380680444457
                        0.3519737020936946
                        0.3624364769833285
                        0.3716298417454493
                        0.3794501800173158
                        0.3858058188278304
                        0.3906420720601694
                        0.3939651210763477
                        0.3958554861202996
                        0.3964653032536128
                        0.3960010817735704
                        0.3946990906754733
                        0.3927910698080899
                        0.3904379902081729
                        0.0000777367315157
                        0.0253498007350198
                        0.0506219874450502
                        0.0755871005785735
                        0.1001000870983392
                        0.1240321574284154
                        0.1472733148539236
                        0.1697341735139455
                        0.1913466020561334
                        0.2120629390266582
                        0.2318536483777588
                        0.2507034052247590
                        0.2686057725130890
                        0.2855568527345942
                        0.3015485206375173
                        0.3165619683307525
                        0.3305622628009094
                        0.3434945032687895
                        0.3552822126591252
                        0.3658290351805644
                        0.3750254812417653
                        0.3827625264127388
                        0.3889521865195016
                        0.3935515366371071
                        0.3965829086705038
                        0.3981424892245044
                        0.3983939228901305
                        0.3975503561326468
                        0.3958520784097344
                        0.3935368537864887
                        0.3907870719870797
                        0.0000714632889121
                        0.0254867807214031
                        0.0508906542552169
                        0.0759895525037905
                        0.1006399558320226
                        0.1247146938592338
                        0.1481055796065611
                        0.1707252736432262
                        0.1925078994458751
                        0.2134081196136212
                        0.2333984904013988
                        0.2524650369383250
                        0.2706011941317540
                        0.2878005504956156
                        0.3040491547135497
                        0.3193183792000540
                        0.3335593784927549
                        0.3467000581249913
                        0.3586453785042733
                        0.3692819638889461
                        0.3784882194338680
                        0.3861507469006016
                        0.3921859229371029
                        0.3965622412022278
                        0.3993164601909126
                        0.4005574905499685
                        0.4004569065351061
                        0.3992309460654012
                        0.3971210100177413
                        0.3943693789757605
                        0.3911823200460359
                        0.0000648124531721
                        0.0256248675583396
                        0.0511611670705452
                        0.0763946217722311
                        0.1011832966526566
                        0.1254016877583427
                        0.1489434709065990
                        0.1717234179352846
                        0.1936779879179630
                        0.2147642658182159
                        0.2349570126474808
                        0.2542437181848217
                        0.2726177826315474
                        0.2900703183436049
                        0.3065814944671184
                        0.3221127028054528
                        0.3366009514650894
                        0.3499567556214926
                        0.3620665300505933
                        0.3728002744438170
                        0.3820250749372829
                        0.3896240664113834
                        0.3955184739468442
                        0.3996876968769339
                        0.4021811111675372
                        0.4031173926501496
                        0.4026723660864502
                        0.4010613941251966
                        0.3985231544976019
                        0.3953015875196433
                        0.3916284631515295
                        0.0000577944081964
                        0.0257640312712483
                        0.0514334759530095
                        0.0768022378552545
                        0.1017300159715609
                        0.1260930182054218
                        0.1497868346996415
                        0.1727284123974862
                        0.1948566269776375
                        0.2161310869077075
                        0.2365288778875224
                        0.2560390837953329
                        0.2746551884568750
                        0.2923659032234613
                        0.3091455142489381
                        0.3249453321001113
                        0.3396880493328989
                        0.3532666540238281
                        0.3655490727582603
                        0.3763890773101133
                        0.3856431633422810
                        0.3931917872213294
                        0.3989613672218883
                        0.4029415981280639
                        0.4051926614641838
                        0.4058400816881594
                        0.4050601567324523
                        0.4030628812158978
                        0.4000791264452350
                        0.3963495813667296
                        0.3921313427107326
                        0.0000504209789107
                        0.0259042347351381
                        0.0517075183836471
                        0.0772123122640097
                        0.1022799966460684
                        0.1267885347380408
                        0.1506354808352526
                        0.1737400196386021
                        0.1960435245206107
                        0.2175082313674607
                        0.2381136781991203
                        0.2578506880079736
                        0.2767129731547485
                        0.2946869590758578
                        0.3117410989013180
                        0.3278165848209302
                        0.3428216905180988
                        0.3566317962074042
                        0.3690964279765201
                        0.3800535137147388
                        0.3893496216711601
                        0.3968632127617678
                        0.4025261464135820
                        0.4063377818480031
                        0.4083673803019968
                        0.4087445183018010
                        0.4076421323926297
                        0.4052597720104650
                        0.4018138307272455
                        0.3975337974473074
                        0.3926983067710957
                        0.0000427066713899
                        0.0260454301350354
                        0.0519832132259526
                        0.0776247299895436
                        0.1028330868187845
                        0.1274880434860627
                        0.1514891663597111
                        0.1747579391446148
                        0.1972383138655073
                        0.2188952603973669
                        0.2397109045527108
                        0.2596779696802513
                        0.2787905696611042
                        0.2970330015756025
                        0.3143679922694383
                        0.3307266449979459
                        0.3460027777577008
                        0.3600541338051038
                        0.3727119461702584
                        0.3837986570412380
                        0.3931514991822901
                        0.4006475324547853
                        0.4062242580810843
                        0.4098901283155909
                        0.4117219431311625
                        0.4118507601810975
                        0.4104423629881690
                        0.4076802241070075
                        0.4037577001117597
                        0.3988807722623610
                        0.3933388123360236
                        0.0000346702050372
                        0.0261875533640541
                        0.0522604510402051
                        0.0780393356830599
                        0.1033890818380517
                        0.1281912846639692
                        0.1523475683630214
                        0.1757817752060472
                        0.1984405164127976
                        0.2202916048631415
                        0.2413198975063645
                        0.2615201960540201
                        0.2808872183396366
                        0.2994033355446570
                        0.3170257150109627
                        0.3336754700882730
                        0.3492319932968316
                        0.3635354088673333
                        0.3763987731987142
                        0.3876293622092740
                        0.3970555896980502
                        0.4045536389930273
                        0.4100668582809492
                        0.4136123655156071
                        0.4152732550563105
                        0.4151798630948200
                        0.4134872563553193
                        0.4103568279105146
                        0.4059483132885183
                        0.4004258729716544
                        0.3940653764186198
                        0.0000263368373794
                        0.0263305148764524
                        0.0525390780824722
                        0.0784559106944460
                        0.1039476941293724
                        0.1288978949971776
                        0.1532102386050552
                        0.1768109832955663
                        0.1996494792155569
                        0.2216964933715239
                        0.2429397649408902
                        0.2633763691302131
                        0.2830018607969469
                        0.3017969348506673
                        0.3197134290980712
                        0.3366626384827384
                        0.3525096276010045
                        0.3670769616219248
                        0.3801596345344205
                        0.3915500235857420
                        0.4010681607921406
                        0.4085898271152641
                        0.4140644803026098
                        0.4175177089790481
                        0.4190380808730214
                        0.4187535647206292
                        0.4168054747585828
                        0.4133271872436808
                        0.4084324827031926
                        0.4022176608273258
                        0.3948951305325762
                        0.0000177420060333
                        0.0264741842671760
                        0.0528188690270475
                        0.0788741337423873
                        0.1045085014583927
                        0.1296073431057922
                        0.1540765254146532
                        0.1778447777255016
                        0.2008642674671798
                        0.2231088284590357
                        0.2445692405865044
                        0.2652450649118202
                        0.2851329579492166
                        0.3042122371523329
                        0.3224297068836001
                        0.3396870903365679
                        0.3558352891134158
                        0.3706794058105283
                        0.3839964720421306
                        0.3955641681069947
                        0.4051944971563122
                        0.4127632800645552
                        0.4182264563736107
                        0.4216182134628404
                        0.4230323364790125
                        0.4225935767307836
                        0.4204274366566340
                        0.4166342327107990
                        0.4112688620752585
                        0.4043250956992060
                        0.3958524548293387
                        0.0000089372267491
                        0.0266183633993626
                        0.0530994789557877
                        0.0792935113959426
                        0.1050708552843720
                        0.1303188148994074
                        0.1549454350618569
                        0.1788819676778527
                        0.2020834735826671
                        0.2245269667913604
                        0.2462064330411473
                        0.2671241485362465
                        0.2872781681346237
                        0.3066467814372251
                        0.3251721241182820
                        0.3427466717343757
                        0.3592073947227851
                        0.3743420597392358
                        0.3879098084195062
                        0.3996737437231796
                        0.4094381007567928
                        0.4170791656881834
                        0.4225598906401705
                        0.4259236035671320
                        0.4272697697495411
                        0.4267201593192160
                        0.4243840041758686
                        0.4203258184960711
                        0.4145309712361325
                        0.4068498364965782
                        0.3969736106229173
                        0.0000000000000000
                        0.0267626946340679
                        0.0533802573196998
                        0.0797130721315581
                        0.1056334142213183
                        0.1310305272212152
                        0.1558146416329302
                        0.1799195440814675
                        0.2033032093226795
                        0.2259458655834701
                        0.2478447581624741
                        0.2690049578121841
                        0.2894260264908438
                        0.3090853630593744
                        0.3279205936762765
                        0.3458151190657531
                        0.3625921616254381
                        0.3780223542521305
                        0.3918471890292729
                        0.4038154856995485
                        0.4137240540481496
                        0.4214500119291494
                        0.4269636957127807
                        0.4303179713654074
                        0.4316184744140832
                        0.4309846616953757
                        0.4285103859351374
                        0.4242253533064112
                        0.4180457128493154
                        0.4096738240100219
                        0.3983152037699197
                </DataArray>
                <DataArray type="Float32" Name="aspect_ratio" NumberOfComponents="1" format="ascii">
                        7.9936910872739233
                        7.9524103274985575
                        7.8872403380492631
                        7.7792560083663883
                        7.6309450172557903
                        7.4456447989063614
                        7.2273708755430756
                        6.9806278054100706
                        6.7102144848738411
                        6.4210358225561518
                        6.1179311030981875
                        5.8055267765487423
                        5.4881186414958328
                        5.1695858365144965
                        4.8533368121499850
                        4.5422854375174742
                        4.2388535152376045
                        3.9449943193532682
                        3.6622306455904245
                        3.3917006528048742
                        3.1342056489894327
                        2.8902556823828241
                        2.6601107034180868
                        2.4438164605322343
                        2.2412347289543485
                        2.0520666419398669
                        1.8758642582083063
                        1.7120086515202449
                        1.5595417607929274
                        1.4162661912071875
                        1.2692568432682322
                        8.0101747996375495
                        7.9686433457347802
                        7.9031386419998890
                        7.7946890360658555
                        7.6457925006869740
                        7.4597989780820877
                        7.2407381655075811
                        6.9931299548627638
                        6.7217893569643623
                        6.4316379878694175
                        6.1275324458418217
                        5.8141172574439508
                        5.4957072337393005
                        5.1762014786803445
                        4.8590290589393401
                        4.5471244053990371
                        4.2429287711517545
                        3.9484125608601651
                        3.6651123264807187
                        3.3941760365417272
                        3.1364110458672025
                        2.8923308289693655
                        2.6621984659196726
                        2.4460665431192033
                        2.2438144761956479
                        2.0551863720682347
                        1.8798406221115252
                        1.7174623646154247
                        1.5681913508635438
                        1.4345529107506912
                        1.3069697636537370
                        8.0267395704350605
                        7.9849426516153875
                        7.9190877920649013
                        7.8101575299534861
                        7.6606604762838606
                        7.4739593278209214
                        7.2540981323336189
                        7.0056122339619017
                        6.7333328393726734
                        6.4421983483950593
                        6.1370827901847951
                        5.8226489819958138
                        5.5032311139913706
                        5.1827488145605892
                        4.8646525276222547
                        4.5518981814441436
                        4.2469475334308426
                        3.9517892316732836
                        3.6679747321456976
                        3.3966630483436256
                        3.1386690741453036
                        2.8945117974651615
                        2.6644607228234885
                        2.4485809309556493
                        2.2467798850116806
                        2.0588651549711181
                        1.8846419852614221
                        1.7241444884646355
                        1.5782381712157628
                        1.4495213940741181
                        1.3308195121244629
                        8.0433873119469174
                        8.0013118640557359
                        7.9350926639766946
                        7.8256674136118689
                        7.6755557524280699
                        7.4881333701255499
                        7.2674588113140885
                        7.0180829546387192
                        6.7448532485595506
                        6.4527249248697115
                        6.1465895466706397
                        5.8311284428306772
                        5.5106955834460345
                        5.1892317460305621
                        4.8702096089163713
                        4.5566076519152466
                        4.2509093164967240
                        3.9551227196686723
                        3.6708154459664202
                        3.3991588077068421
                        3.1409766656602704
                        2.8967954163909400
                        2.6668938449913438
                        2.4513541245596693
                        2.2501191707433989
                        2.0630701319559492
                        1.8901586558447908
                        1.7316639180470819
                        1.5885914412862523
                        1.4624917047075286
                        1.3468462505603107
                        8.0601185539062285
                        8.0177732335249189
                        7.9511973184949377
                        7.8412841786038020
                        7.6905644828445153
                        7.5024268155032064
                        7.2809440885064290
                        7.0306825882661988
                        6.7565059095087926
                        6.4633860861174660
                        6.1562322958006200
                        5.8397446233117881
                        5.5182972780576149
                        5.1958528953313208
                        4.8759073460773844
                        4.5614628272267836
                        4.2550257599985604
                        3.9586250692954233
                        3.6738457912368120
                        3.4018728477894903
                        3.1435404522640198
                        2.8993840358106210
                        2.6696937207000755
                        2.4545712423430932
                        2.2539965701527847
                        2.0679179588747213
                        1.8963884692375864
                        1.7397556669912915
                        1.5987473774094438
                        1.4737115253583616
                        1.3583268408566175
                        8.0769334083247784
                        8.0343328416538643
                        7.9674138783034068
                        7.8570258997266039
                        7.7057104938472158
                        7.5168689486098817
                        7.2945883389418082
                        7.0434501757494240
                        6.7683340651254004
                        6.4742287884109809
                        6.1660612047981225
                        5.8485503925070049
                        5.5260912565756415
                        5.2026689969493395
                        4.8818036336334486
                        4.5665222437766308
                        4.2593555188520177
                        3.9623545165941174
                        3.6771230086308421
                        3.4048607361508973
                        3.1464134066587262
                        2.9023265489364277
                        2.6729023925001858
                        2.4582617080978481
                        2.2584160036028100
                        2.0733581702883017
                        1.9031718107804532
                        1.7481069991251047
                        1.6084154159853557
                        1.4834567567407829
                        1.3670697521967057
                        8.0938319381045106
                        8.0509907694854663
                        7.9837425058027932
                        7.8728928464196884
                        7.7209941806950991
                        7.5314603090790178
                        7.3083922664570960
                        7.0563866059127315
                        6.7803388088558154
                        6.4852543439488235
                        6.1760778066778054
                        5.8575474857580634
                        5.5340794082474059
                        5.2096820065727061
                        4.8879003594612617
                        4.5717875340365320
                        4.2638997215070551
                        3.9663113610004003
                        3.6806461307543972
                        3.4081196038288271
                        3.1495897420508444
                        2.9056124575594307
                        2.6765012320000599
                        2.4623919200217795
                        2.2633151629741825
                        2.0792749203010597
                        1.9103099399607920
                        1.7564568613952845
                        1.6174553299947291
                        1.4919835028871060
                        1.3740931384653537
                        8.1108142815522548
                        8.0677452499740723
                        8.0001795871522592
                        7.8888796245197989
                        7.7364084621894898
                        7.5461922515705714
                        7.3223458103742300
                        7.0694805710319595
                        6.7925077650787176
                        6.4964494882988202
                        6.1862681142621649
                        5.8667213317195535
                        5.5422466738248599
                        5.2168764172148336
                        4.8941815411577169
                        4.5772421345769056
                        4.2686410282397172
                        3.9704771800552846
                        3.6843951872491068
                        3.4116272046609980
                        3.1530437278209297
                        2.9092104148747039
                        2.6804493535618663
                        2.4669041830384505
                        2.2686069129708942
                        2.0855344788669380
                        1.9176164349121041
                        1.7646169148162686
                        1.6258217423044175
                        1.4995096338562063
                        1.3799836358750550
                        8.1278806801048567
                        8.0845942946594388
                        8.0167209589778463
                        7.9049799724064125
                        7.7519450875586629
                        7.5610546798306521
                        7.3364372027484414
                        7.0827188278679224
                        6.8048264241887133
                        6.5077986544449323
                        6.1966156971809299
                        5.8760547991960255
                        5.5505753350666295
                        5.2242339723758552
                        4.9006283535737059
                        4.5828665293650042
                        4.2735590028688499
                        3.9748302540641450
                        3.6883466202909488
                        3.4153572774154220
                        3.1567449857312653
                        2.9130835157971593
                        2.6846991469183116
                        2.4717331905910201
                        2.2741981828644470
                        2.0920074990970002
                        1.9249361832165635
                        1.7724643868442561
                        1.6335237783231443
                        1.5062121880301360
                        1.3850883954720231
                        8.1450314710180957
                        8.1015362536498795
                        8.0333630359915167
                        7.9211884446433783
                        7.7675968545175322
                        7.5760387688060720
                        7.3506561569012204
                        7.0960898095077039
                        6.8172821310617778
                        6.5192882893344347
                        6.2071062777611518
                        5.8855330247300608
                        5.5590500286123103
                        5.2317388237955343
                        4.9072243916495585
                        4.5886435828893771
                        4.2786354859548072
                        3.9793509546473333
                        3.6924786717190738
                        3.4192849291822393
                        3.1606638990928256
                        2.9171948382694267
                        2.6892022363292203
                        2.4768130166905209
                        2.2799987747243268
                        2.0985787636790448
                        1.9321489707349283
                        1.7799271491635142
                        1.6405984569159076
                        1.5122315143486437
                        1.3896191128619518
                        8.1622670701771093
                        8.1185699410798493
                        8.0501030793312559
                        7.9375008197026478
                        7.7833581504347884
                        7.5911376310662506
                        7.3649946491029436
                        7.1095845109626148
                        6.8298650623714323
                        6.5309079102985959
                        6.2177288539455604
                        5.8951445898324164
                        5.5676589659450601
                        5.2393787834519495
                        4.9139569448015454
                        4.5945598286360424
                        4.2838558909383745
                        3.9840230453442552
                        3.6967726913148397
                        3.4233879688084705
                        3.1647730222043076
                        2.9215090551416929
                        2.6939115680465182
                        2.4820801157686597
                        2.2859254299548827
                        2.1051505144998635
                        1.9391663352662251
                        1.7869689061938361
                        1.6470943413605564
                        1.5176774388412849
                        1.3937091258483593
                        8.1795879545782596
                        8.1356945999247662
                        8.0669391440572776
                        7.9539140298482857
                        7.7992248647423019
                        7.6063462121075185
                        7.3794467974238852
                        7.1231963523659617
                        6.8425680751089090
                        6.5426499400145890
                        6.2284755219291014
                        5.9048813325998164
                        5.5763937353439390
                        5.2471451172555833
                        4.9208167838870215
                        4.6006052512233072
                        4.2892089843857836
                        3.9888334655786818
                        3.7012129365074243
                        3.4276467494167987
                        3.1690470264136550
                        2.9259926118249574
                        2.6987820458156314
                        2.4874746475534020
                        2.2919035339260041
                        2.1116425045223835
                        1.9459260336606452
                        1.7935770662816759
                        1.6530621376970877
                        1.5226353483458144
                        1.3974452114974860
                        8.1969946475216127
                        8.1529098211696887
                        8.0838699326034734
                        7.9704259497325197
                        7.8151941147070022
                        7.6216609564224998
                        7.3940084720283043
                        7.1369207381024125
                        6.8553862196134659
                        6.5545091788184587
                        6.2393409132825866
                        5.9147377551204785
                        5.5852486849800744
                        5.2550319090429656
                        4.9277975111538121
                        4.6067726275449964
                        4.2946862245216353
                        3.9937716755600926
                        3.7057859395434956
                        3.4320435893425611
                        3.1734622381258264
                        2.9306134976301416
                        2.7037706959130326
                        2.4929410781372146
                        2.2978675696084058
                        2.1179904602479915
                        1.9523862042674569
                        1.7997536902595952
                        1.6585496973499327
                        1.5271714147372739
                        1.4008855877815105
                        8.2144877070064110
                        8.1702154619139525
                        8.1008946429498579
                        7.9870351756796639
                        7.8312639581328583
                        7.6370794570550965
                        7.4086768858803598
                        7.1507545937392071
                        6.8683162282776364
                        6.5664822510373862
                        6.2503216048915104
                        5.9247104030421607
                        5.5942202779896895
                        5.2630353968689868
                        4.9348948833612686
                        4.6130568425632416
                        4.3002810766746344
                        3.9988289815166230
                        3.7104798600491168
                        3.4365621849726686
                        3.1779961725653601
                        2.9353409958268225
                        2.7088367223992977
                        2.4984284337826510
                        2.3037608764717714
                        2.1241438819768679
                        1.9585201254733236
                        1.8055091165588621
                        1.6635996646419613
                        1.5313367946828325
                        1.4040702983597299
                        8.2320677169412053
                        8.1876115768922545
                        8.1180128408107225
                        8.0037408394286993
                        7.8474331506694755
                        7.6526001593807690
                        7.4234502487519236
                        7.1646959745666013
                        6.8813560833649015
                        6.5785671371419698
                        6.2614156206435086
                        5.9347973420364150
                        5.6033065488942737
                        5.2711534144701492
                        4.9421062434308518
                        4.6194543166641782
                        4.3059884432366687
                        4.0039979786919501
                        3.7152839590786973
                        3.4411871482682677
                        3.1826271888781442
                        2.9401455257133691
                        2.7139415581335732
                        2.5038903537049390
                        2.3095350197694828
                        2.1300636882973391
                        1.9643118730676566
                        1.8108576603554903
                        1.6682486292252171
                        1.5351708878727402
                        1.4070273312390450
                        8.2497352805763883
                        8.2050983657356277
                        8.1352243609966714
                        8.0205424643339376
                        7.8637009583647342
                        7.6682221322929986
                        7.4383274999270499
                        7.1787437631568492
                        6.8945046831469322
                        6.5907628124204211
                        6.2726220467829640
                        5.9449977540268064
                        5.6125066849435755
                        5.2793849619916950
                        4.9494300849562676
                        4.6259625689647946
                        4.3118042323925328
                        4.0092721358550915
                        3.7201882172203874
                        3.4459036888008443
                        3.1873342809758510
                        2.9449985840920247
                        2.7190489228245915
                        2.5092850030961048
                        2.3151489535220956
                        2.1357199706863228
                        1.9697528932375633
                        1.8158148176895897
                        1.6725270799580401
                        1.5387038140614623
                        1.4097763073758274
                        8.2674910156020558
                        8.2226761339429441
                        8.1525292345735271
                        8.0374398592113558
                        7.8800670193059015
                        7.6839448992993768
                        7.4533081108380066
                        7.1928974460374436
                        6.9077615954068488
                        6.6030689802930396
                        6.2839407481762026
                        5.9553116396974500
                        5.6218207182637202
                        5.2877298912961674
                        4.9568657344586385
                        4.6325799010436040
                        4.3177250496681492
                        4.0146455047792286
                        3.7251830790884733
                        3.4506974203341780
                        3.1920969802576808
                        2.9498727595345130
                        2.7241248727243040
                        2.5145748801212436
                        2.3205680946497053
                        2.1410899846806008
                        1.9748393861239146
                        1.8203955138779153
                        1.6764597440312377
                        1.5419582734748074
                        1.4123307567148543
                        8.2853355504699328
                        8.2403452646325403
                        8.1699276363067974
                        8.0544330418190945
                        7.8965312439070431
                        7.6997683167739961
                        7.4683919428111853
                        7.2071569527238423
                        6.9211268797569449
                        6.6154858801330488
                        6.2953721640398097
                        5.9657396047001373
                        5.6312493052760571
                        5.2961886815374976
                        4.9644131264647791
                        4.6393051757049324
                        4.3237479864290558
                        4.0201125282501806
                        3.7302592967031577
                        3.4555542625231413
                        3.1968953382562359
                        2.9547417880603552
                        2.7291378256436449
                        2.5197265432229224
                        2.3257633853427395
                        2.1461564238435757
                        1.9795703562647702
                        1.8246130514671541
                        1.6800660753133034
                        1.5449509324647398
                        1.4146995525999029
                        8.3032695215977870
                        8.2581061982821650
                        8.1874198471573274
                        8.0715221843606567
                        7.9130937439282274
                        7.7156924873116448
                        7.4835791458154354
                        7.2215225411181832
                        6.9346009611354264
                        6.6280141505106063
                        6.3069171627724040
                        5.9762827081268116
                        5.6407935710767164
                        5.3047622820124339
                        4.9720726478499006
                        4.6461376667521068
                        4.3298704808976524
                        4.0256679215932623
                        3.7354078458032419
                        3.4604604102458925
                        3.2017099604053949
                        2.9595806244555420
                        2.7340585516738440
                        2.5247102830310037
                        2.3307103934721482
                        2.1509059780560550
                        1.9839461872978830
                        1.8284785119439750
                        1.6833607645697716
                        1.5476934473382987
                        1.4168878292558028
                        8.3212935712156614
                        8.2759594182125059
                        8.2050062276774624
                        8.0887075749182321
                        7.9297547822879960
                        7.7317176984652111
                        7.4988700868279349
                        7.2359947163932742
                        6.9481845402837744
                        6.6406547325027452
                        6.3185769395227712
                        5.9869423560119944
                        5.6504550008509700
                        5.3134520037970287
                        4.9798450325111078
                        4.6530769604598223
                        4.3360902320103505
                        4.0313066075053487
                        3.7406198940375200
                        3.4654023483905648
                        3.2065220685087127
                        2.9643655114200153
                        2.7388601272556813
                        2.5294997613947711
                        2.3353884814431436
                        2.1553281544974916
                        1.9879676159692269
                        1.8320004417876122
                        1.6863542074719832
                        1.5501932123380606
                        1.4188975695540521
                        8.3394083456756377
                        8.2939054402282883
                        8.2226871991796431
                        8.1059895902625385
                        7.9465147377135493
                        7.7478443795681322
                        7.5142652993391020
                        7.2505741738102316
                        6.9618785306443169
                        6.6534088016016200
                        6.3303529442903815
                        5.9977202270586641
                        5.6602353649900801
                        5.3222594464134822
                        4.9877312922790712
                        4.6601228943694136
                        4.3424051513795487
                        4.0370236890100071
                        3.7458868051308603
                        3.4703668954465698
                        3.2113135759181314
                        2.9690740359646688
                        2.7435178557353570
                        2.5340716374170214
                        2.3397800600066853
                        2.1594143294535998
                        1.9916350031078800
                        1.8351847090571571
                        1.6890529017283272
                        1.5524538953717788
                        1.4207279723203431
                        8.3576144940965270
                        8.3119448051989895
                        8.2404632304831188
                        8.1233686767921461
                        7.9633740799849111
                        7.7640730715156149
                        7.5297654479923935
                        7.2652617586618791
                        6.9756840141481584
                        6.6662777200918934
                        6.3422468318668993
                        6.0086182214464356
                        5.6701366684082414
                        5.3311864497253585
                        4.9957326740226133
                        4.6672755231145777
                        4.3488133427776385
                        4.0428144495235516
                        3.7512001674335897
                        3.4753412639715055
                        3.2160671648138165
                        2.9736851681049735
                        2.7480091608486527
                        2.5384051970283939
                        2.3438699338366006
                        2.1631569964135672
                        1.9949478212532431
                        1.8380344556803211
                        1.6914597635085352
                        1.5544758074087014
                        1.4223756632954701
                        8.3759126672545059
                        8.3300780737675313
                        8.2583348286844118
                        8.1408453373826326
                        7.9803333528970237
                        7.7804044059701463
                        7.5453713042227833
                        7.2800584386270396
                        6.9896022107121689
                        6.6792630042861221
                        6.3542604276608426
                        6.0196384264255544
                        5.6801611174927393
                        5.3402350642699455
                        5.0038506359709903
                        4.6745351041023301
                        4.3553131017494590
                        4.0486743722537669
                        3.7565518386524873
                        3.4803131297265634
                        3.2207663591280711
                        2.9781792808983856
                        2.7523134611146739
                        2.5424819990821172
                        2.3476447392244239
                        2.1665491774630517
                        1.9979042978208470
                        1.8405500972101858
                        1.6935743625741663
                        1.5562561377925406
                        1.4238347868645653
                        8.3943035166490139
                        8.3483058226860258
                        8.2763025329601136
                        8.1584201226483638
                        7.9973931629852017
                        7.7968390915805693
                        7.5610837300989428
                        7.2949652854001782
                        7.0036344579787224
                        6.6923663028577621
                        6.3663957054046997
                        6.0307830944930388
                        5.6903111003051120
                        5.3494075355110276
                        5.0120868385776512
                        4.6819020982195013
                        4.3619029303000401
                        4.0545991735875056
                        3.7619340011292501
                        3.4852707041187467
                        3.2253955897580094
                        2.9825381534908950
                        2.7564120334769137
                        2.5462855476382517
                        2.3510924703030741
                        2.1695839686869811
                        2.0005011684966538
                        1.8427293396333325
                        1.6953930793933570
                        1.5577890771798972
                        1.4250969987248299
                        8.4127876936912720
                        8.3666286423658193
                        8.2943669107355252
                        8.1760936256770678
                        8.0145541727652269
                        7.8133779057350707
                        7.5769036686128417
                        7.3099834636374198
                        7.0177821991160705
                        6.7055893839214766
                        6.3786547741869982
                        6.0420546314763818
                        5.7005891772453233
                        5.3587062991229412
                        5.0204431469293964
                        4.6893771824607195
                        4.3685815633384603
                        4.0605848469017651
                        3.7673392239663551
                        3.4902028067351056
                        3.2299402509799781
                        2.9867449604292110
                        2.7602878741214575
                        2.5498009972955001
                        2.3542020881689398
                        2.1722541949452781
                        2.0027335081558580
                        1.8445671946039928
                        1.6969091884631426
                        1.5590658414930503
                        1.4261513681829257
                        8.4313658489744172
                        8.3850471354602132
                        8.3125285558334141
                        8.1938664796956474
                        8.0318170978234995
                        7.8300216910084269
                        7.5928321394545947
                        7.3251142260982327
                        7.0320469774630299
                        6.7189341295172849
                        6.3910398733986407
                        6.0534555930123637
                        5.7109980805888161
                        5.3681339856201766
                        5.0289216429707308
                        4.6969612726361349
                        4.3753480048974951
                        4.0666277146224554
                        3.7727605298073619
                        3.4950989364088731
                        3.2343867485994037
                        2.9907842514155408
                        2.7639255636387469
                        2.5530148962481798
                        2.3569632066256629
                        2.1745521542934218
                        2.0045946165326197
                        1.8460559822778894
                        1.6981128714892873
                        1.5600746033696141
                        1.4269841899927938
                        8.4500386315844140
                        8.4035619164048948
                        8.3307880884773381
                        8.2117393584581324
                        8.0491827074855940
                        7.8467713559766513
                        7.6088702399006719
                        7.3403589145572338
                        7.0464304375461082
                        6.7324025369805116
                        6.4035533750676221
                        6.0649886888397050
                        5.7215407222819462
                        5.3776934336885265
                        5.0375246468401480
                        4.7046555553577413
                        4.3822015732226720
                        4.0727244875132905
                        3.7781914652980941
                        3.4999493405976417
                        3.2387225415552050
                        2.9946419261794199
                        2.7673111429024666
                        2.5559149702461570
                        2.3593658486602654
                        2.1764694371668553
                        2.0060759437567599
                        1.8471853162197995
                        1.6989911627927826
                        1.5608003314404769
                        1.4275786977418125
                        8.4688066884179320
                        8.4221736118683146
                        8.3491461571825460
                        8.2297129794580855
                        8.0666518291789223
                        7.8636278805950105
                        7.6250191510222706
                        7.3557189667460368
                        7.0609343327343223
                        6.7459967275041807
                        6.4161977938537314
                        6.0766567952045380
                        5.7322202102803642
                        5.3873877125045718
                        5.0462547475580575
                        4.7124615294998783
                        4.3891419548130009
                        4.0788723312110509
                        3.7836261754088040
                        3.5047450840301092
                        3.2429361796775219
                        2.9983052094296378
                        2.7704320053836102
                        2.5584899498244189
                        2.3614002689345281
                        2.1779968101516591
                        2.0071670473729590
                        1.8479420687762630
                        1.6995278278090897
                        1.5612245317790764
                        1.4279146623807608
                        8.4876706634626979
                        8.4408828622684351
                        8.3676034428187740
                        8.2477881103908855
                        8.0842253570856173
                        7.8805923268279700
                        7.6412801500606490
                        7.3711959302607466
                        7.0755605405719162
                        6.7597189630087408
                        6.4289758058784446
                        6.0884629765987926
                        5.7430398746911057
                        5.3972201543115743
                        5.0551148443433122
                        4.7203810583814532
                        4.3961692686020129
                        4.0850689411614912
                        3.7890594829953306
                        3.5094781187605693
                        3.2470173412599910
                        3.0017626311884023
                        2.7732768112769961
                        2.5607294430581191
                        2.3630568393938528
                        2.1791241587970579
                        2.0078555782032463
                        1.8483103187236551
                        1.6997031741488436
                        1.5613248794029851
                        1.4279678491939523
                        8.5066311969978746
                        8.4596903245944519
                        8.3861606653568401
                        8.2659655796805870
                        8.1019042661883532
                        7.8976658558766324
                        7.6576546305521687
                        7.3867914852298866
                        7.0903110877890476
                        6.7735716734578572
                        6.4418902786970684
                        6.1004105192315695
                        5.7540033062016565
                        5.4071943997856185
                        5.0641082011114345
                        4.7284164352148324
                        4.4032841428284763
                        4.0913126285259258
                        3.7944869763949740
                        3.5141413591513088
                        3.2509568752343120
                        3.0050040184360095
                        2.7758354290000746
                        2.5626238567203974
                        2.3643259975452858
                        2.1798404886945178
                        2.0081272980531532
                        1.8482712867421516
                        1.6994937937424995
                        1.5610747200444006
                        1.4277092925620872
                        8.5256889246393352
                        8.4785966769142075
                        8.4048185942508562
                        8.2842462924563145
                        8.1196896335290126
                        7.9148497543213004
                        7.6741441328719429
                        7.4025074788180904
                        7.1051881883595772
                        6.7875574982876151
                        6.4549443162909343
                        6.1125029802990394
                        5.7651144109920302
                        5.4173144604857983
                        5.0732385185247031
                        4.7365704662254196
                        4.4104878090105181
                        4.0976024215408613
                        3.7999051098120930
                        3.5187287671759049
                        3.2547468543223189
                        3.0080205051589275
                        2.7780989105481423
                        2.5641643702277398
                        2.3651982601609216
                        2.1801339893082493
                        2.0079661385321330
                        1.8478032692712766
                        1.6988722346500303
                        1.5604424126461353
                        1.4271043277041658
                        8.5448444761572245
                        8.4976026253020308
                        8.4235780638869229
                        8.3026312542400893
                        8.1375826696806533
                        7.9321454728575432
                        7.6907503895536207
                        7.4183459764862053
                        7.1201943000473187
                        6.8016793478431984
                        6.4681413253339253
                        6.1247442596188211
                        5.7763774889408355
                        5.4275848053882683
                        5.0825100307369806
                        4.7448465786863798
                        4.4177822203036986
                        4.1039381897179866
                        3.8053113241400755
                        3.5232354562517080
                        3.2583806480806660
                        3.0108045700520187
                        2.7800595092460777
                        2.5653429694824851
                        2.3656643094655086
                        2.1799921713437890
                        2.0073543180891876
                        1.8468815888513641
                        1.6978066031823819
                        1.5593904699523602
                        1.4261112880915108
                        8.5640984739109634
                        8.5167089142839791
                        8.4424399964899124
                        8.3211216059447311
                        8.1555847652520820
                        7.9495546835243822
                        7.7074753923749622
                        7.4343093379087380
                        7.1353322082129728
                        6.8159404942888515
                        6.4814851128395951
                        6.1371387042519500
                        5.7877973461524119
                        5.4380104828653482
                        5.0919276384051354
                        4.7532489656173216
                        4.4251702061338656
                        4.1103208029141778
                        3.8107042004869815
                        3.5276578263050989
                        3.2618530290097440
                        3.0133501150658789
                        2.7817107523492479
                        2.5661525522920582
                        2.3657151649393684
                        2.1794020966565724
                        2.0062725450597100
                        1.8454785910855371
                        1.6962601029630464
                        1.5578744363367105
                        1.4246797294891632
                        8.5834515307295023
                        8.5359163426020289
                        8.4614054363847076
                        8.3397186760742959
                        8.1736975602398293
                        7.9670793651348212
                        7.7243214925643946
                        7.4504003304816633
                        7.1506051511805744
                        6.8303447075163693
                        6.4949800317323609
                        6.1496912634787329
                        5.7993794598569775
                        5.4485972966774993
                        5.1014970969551775
                        4.7617827864110788
                        4.4326556826158357
                        4.1167523449697808
                        3.8160836663601813
                        3.5319937503078516
                        3.2651603321845889
                        3.0156526050270398
                        2.7830475879928346
                        2.5665871247112087
                        2.3653424629642719
                        2.1783507312738865
                        2.0047003500741399
                        1.8435637380146380
                        1.6941905311821828
                        1.5558414159181060
                        1.4227479645411090
                        8.6029042468886364
                        8.5552257874031265
                        8.4804756020370088
                        8.3584240599290219
                        8.1919230492719109
                        7.9847219330122200
                        7.7412915530588897
                        7.4666223019644294
                        7.1660170109848741
                        6.8448964619010876
                        6.5086312018966570
                        6.1624077231046005
                        5.8111302258125955
                        5.4593520670018079
                        5.1112252918431395
                        4.7704544556504525
                        4.4402439513855524
                        4.1232364148278855
                        3.8214512876482705
                        3.5362428455936006
                        3.2683007016662156
                        3.0177093011243580
                        2.7840666385719429
                        2.5666421207829125
                        2.3645388810213019
                        2.1768254695551733
                        2.0026166148473561
                        1.8411038802881063
                        1.6915497808776240
                        1.5532281258592229
                        1.4202395639176040
                        8.6224572057090700
                        8.5746382420415253
                        8.4996519668980202
                        8.3772397425469845
                        8.2102637449876664
                        8.0024854404473396
                        7.7583891851465802
                        7.4829794489793411
                        7.1815726101963737
                        6.8596012580227780
                        6.5224448537733306
                        6.1752950686560482
                        5.8230573397655942
                        5.4702830296596564
                        5.1211206551708712
                        4.7792720754042596
                        4.4479421427690944
                        4.1297785714899044
                        3.8268107029851721
                        3.5404068865755548
                        3.2712744800031958
                        3.0195196438444739
                        2.7847666153860418
                        2.5663149012845357
                        2.3632987675281073
                        2.1748149054664735
                        2.0000004017324109
                        1.8380638451972513
                        1.6882834560512718
                        1.5499582928991852
                        1.4170582617669332
                        8.6421109668762722
                        8.5941548766730227
                        8.5189363884029768
                        8.3961682946916247
                        8.2287229385225044
                        8.0203739000654679
                        7.7756191261842875
                        7.4994772458118218
                        7.1972781862210603
                        6.8744661368518958
                        6.5364288772137253
                        6.1883620645295616
                        5.8351704036085174
                        5.4814004670139205
                        5.1311938192993869
                        4.7882461082549975
                        4.4557599016797221
                        4.1363870218964449
                        3.8321682999160677
                        3.5444904581935998
                        3.2740848395723860
                        3.0210858830674929
                        2.7851489913348282
                        2.5656055291742212
                        2.3616190814865534
                        2.1723099742057900
                        1.9968322495034575
                        1.8344075705726806
                        1.6843308225880030
                        1.5459391249674095
                        1.4130803203997142
                        8.6618660560540600
                        8.6137771383149171
                        8.5383313199946896
                        8.4152131948416973
                        8.2473051275207223
                        8.0383928120995142
                        7.7929878607510212
                        7.5161231499648770
                        7.2131421721055491
                        6.8895005264621626
                        6.5505937251408348
                        6.2016202065779082
                        5.8474819202126464
                        5.4927177396721427
                        5.1414586805815541
                        4.7973904671113139
                        4.4637104943413707
                        4.1430737310916106
                        3.8375343127420717
                        3.5485020297781841
                        3.2767388345521748
                        3.0224141326669144
                        2.7852191076897060
                        2.5645179984140721
                        2.3595008255732583
                        2.1693056714015126
                        1.9930962044302441
                        1.8301001749057357
                        1.6796255505082492
                        1.5410564565347455
                        1.4081427194692067
                        8.6817229481273155
                        8.6335069214022056
                        8.5578401712767458
                        8.4343793758351052
                        8.2660167428432673
                        8.0565500615112587
                        7.8105046759253447
                        7.5329278013842780
                        7.2291765242142996
                        6.9047176822203925
                        6.5649539506831599
                        6.2150853416856475
                        5.8600089826679359
                        5.5042530344280608
                        5.1519341961121866
                        4.8067243502024951
                        4.4718126680183070
                        4.1498562891650547
                        3.8429246774947269
                        3.5524557845119100
                        3.2792492073803916
                        3.0235161813780894
                        2.7849880446033318
                        2.5630622455449674
                        2.3569513084924407
                        2.1658037134058839
                        1.9887830386252562
                        1.8251116358618116
                        1.6740981715618891
                        1.5351679559832844
                        1.4020242592124564
                        8.7016820393647391
                        8.6533468687858957
                        8.5774679415794083
                        8.4536741860174820
                        8.2848674262702693
                        8.0748574955952356
                        7.8281835175315556
                        7.5499071325779884
                        7.2453990591695676
                        6.9201372225164116
                        6.5795309139073177
                        6.2287805191255110
                        5.8727762462162798
                        5.5160324354155116
                        5.1626475348397307
                        4.8162754531330818
                        4.4800939028380853
                        4.1567611783750518
                        3.8483642893020423
                        3.5563748494605271
                        3.2816375926297328
                        3.0244126996255135
                        2.7844758914031300
                        2.5612575776486641
                        2.3539878742079869
                        2.1618168059854768
                        1.9838954451610317
                        1.8194232558685028
                        1.6676821302071017
                        1.5280934411293128
                        1.3944142458248724
                        8.7217435995264770
                        8.6732946267059650
                        8.5972093977268978
                        8.4730895904958048
                        8.3038466004757570
                        8.0933023878442385
                        7.8460100247180498
                        7.5670457921950115
                        7.2617942323039051
                        6.9357444004663985
                        6.5943119026159063
                        6.2426965920119242
                        5.8857799679887878
                        5.5280596903475621
                        5.1736120983057688
                        4.8260687875105794
                        4.4885922386317787
                        4.1638401019442910
                        3.8539183507383092
                        3.5603372201920843
                        3.2839939345442975
                        3.0252049116016758
                        2.7837946968503360
                        2.5592263721783916
                        2.3507422288764073
                        2.1574837455322685
                        1.9785742110878902
                        1.8131648963693816
                        1.6604571597454422
                        1.5197164938630793
                        1.3848587127107862
                </DataArray>
                <DataArray type="Float32" Name="jacobian" NumberOfComponents="1" format="ascii">
                        0.0242116272554328
                        0.0240835710809875
                        0.0238955735201466
                        0.0235897614333096
                        0.0231722766694437
                        0.0226512470324785
                        0.0220364838411325
                        0.0213391145497039
                        0.0205711818251946
                        0.0197452359051516
                        0.0188739430887629
                        0.0179697287204528
                        0.0170444680773619
                        0.0161092335621361
                        0.0151741020158941
                        0.0142480221560802
                        0.0133387392393456
                        0.0124527719611466
                        0.0115954350467792
                        0.0107708996547668
                        0.0099822824761391
                        0.0092317534771185
                        0.0085206520664804
                        0.0078496023998735
                        0.0072186202205636
                        0.0066272048148352
                        0.0060744080952218
                        0.0055588647993740
                        0.0050787337023637
                        0.0046311773345155
                        0.0041912066356717
                        0.0242615538119734
                        0.0241334985646580
                        0.0239452971560777
                        0.0236389150987412
                        0.0232205030759617
                        0.0226982030453233
                        0.0220818455477211
                        0.0213825820588734
                        0.0206124840630830
                        0.0197841358917404
                        0.0189102442480313
                        0.0180032826093463
                        0.0170751834538808
                        0.0161370860036093
                        0.0151991425483804
                        0.0142703828941105
                        0.0133586341899249
                        0.0124704920523715
                        0.0116113379200067
                        0.0107853963605560
                        0.0099958244781252
                        0.0092448241656419
                        0.0085337677732654
                        0.0078633299137001
                        0.0072336237996047
                        0.0066443539150712
                        0.0060950397265081
                        0.0055855461566430
                        0.0051179806157170
                        0.0047045620930934
                        0.0043204024711665
                        0.0243117258755362
                        0.0241837192454659
                        0.0239953622924638
                        0.0236884578974986
                        0.0232691644642377
                        0.0227456372205283
                        0.0221277252079043
                        0.0214266033614964
                        0.0206543716127631
                        0.0198236482743319
                        0.0189471806993401
                        0.0180374912314057
                        0.0171065709045067
                        0.0161656278391917
                        0.0152248926115437
                        0.0142934796580567
                        0.0133793021478980
                        0.0124890372156147
                        0.0116281380665019
                        0.0108008883898076
                        0.0100104926113174
                        0.0092591937064653
                        0.0085484103036784
                        0.0078788886687682
                        0.0072508760214053
                        0.0066643495480641
                        0.0061194175166603
                        0.0056172528579882
                        0.0051623934604954
                        0.0047657979857294
                        0.0044021714853083
                        0.0243621492402115
                        0.0242342344734298
                        0.0240457669140679
                        0.0237383849210304
                        0.0233182532998825
                        0.0227935396159168
                        0.0221741106978287
                        0.0214711644051299
                        0.0206968287725102
                        0.0198637559941292
                        0.0189847343091469
                        0.0180723356216279
                        0.0171386108064804
                        0.0161948388682970
                        0.0152513314046433
                        0.0143172909381186
                        0.0134007207411787
                        0.0125083840779378
                        0.0116458110340036
                        0.0108173501649677
                        0.0100262599538306
                        0.0092748328597060
                        0.0085645449619568
                        0.0078962296988768
                        0.0072702891774937
                        0.0066869912561663
                        0.0061469760517694
                        0.0056521930271869
                        0.0052071531858234
                        0.0048173866738982
                        0.0044573093184604
                        0.0244128255122669
                        0.0242849809078210
                        0.0240963837599424
                        0.0237885074219426
                        0.0233675228322741
                        0.0228416098631881
                        0.0222206531505865
                        0.0215158734889370
                        0.0207394270207730
                        0.0199039998733651
                        0.0190224213692571
                        0.0181073134527369
                        0.0171707877558700
                        0.0162241956576659
                        0.0152779319259521
                        0.0143412899837340
                        0.0134223666234333
                        0.0125280151646473
                        0.0116638469429393
                        0.0108342802023018
                        0.0100426328474838
                        0.0092912528240647
                        0.0085816800847891
                        0.0079148402952877
                        0.0072912857221884
                        0.0067115253358671
                        0.0061765073389718
                        0.0056882032312426
                        0.0052495188736253
                        0.0048606890622545
                        0.0044969856205017
                        0.0244637550322671
                        0.0243359409397889
                        0.0241471774448525
                        0.0238387729691352
                        0.0234169046335534
                        0.0228897648566916
                        0.0222672563234821
                        0.0215606229403722
                        0.0207820490668086
                        0.0199442548507574
                        0.0190601108573137
                        0.0181422894341229
                        0.0172029636913681
                        0.0162535586048177
                        0.0153045539331259
                        0.0143653364411212
                        0.0134440994488732
                        0.0125477897954611
                        0.0116821038515895
                        0.0108515334967826
                        0.0100594599022354
                        0.0093082895933900
                        0.0085996268719937
                        0.0079344818496054
                        0.0073135236464017
                        0.0067373931525804
                        0.0062070411710557
                        0.0057238172287538
                        0.0052884375369402
                        0.0048973079498383
                        0.0045273261948912
                        0.0245149379916262
                        0.0243871146203759
                        0.0241981477438427
                        0.0238891811477457
                        0.0234663982271704
                        0.0229380042166258
                        0.0223139201196827
                        0.0216054131546908
                        0.0208246960188213
                        0.0199845229599665
                        0.0190978059047267
                        0.0181772678832338
                        0.0172351440673368
                        0.0162829340574989
                        0.0153312041753240
                        0.0143894366723907
                        0.0134659240566211
                        0.0125677097202592
                        0.0117005782479591
                        0.0108690981130300
                        0.0100767158075982
                        0.0093258960948934
                        0.0086183012915267
                        0.0079550045655224
                        0.0073367329516312
                        0.0067641138969445
                        0.0062378016816301
                        0.0057581275343854
                        0.0053236994715857
                        0.0049286522184274
                        0.0045517693568380
                        0.0245663748098651
                        0.0244385080283572
                        0.0242493061729502
                        0.0239397487883454
                        0.0235160255884561
                        0.0229863548460937
                        0.0223606761180529
                        0.0216502801109165
                        0.0208674079620107
                        0.0200248480747292
                        0.0191355538128010
                        0.0182122990893140
                        0.0172673815936421
                        0.0163123763941465
                        0.0153579377045181
                        0.0144136451077587
                        0.0134878925927453
                        0.0125878226617863
                        0.0117193105950830
                        0.0108870032670744
                        0.0100944124888971
                        0.0093440571098005
                        0.0086376440544213
                        0.0079762756843946
                        0.0073606600588552
                        0.0067912576735441
                        0.0062681923628265
                        0.0057906301189851
                        0.0053554823054446
                        0.0049558425482447
                        0.0045722960853296
                        0.0246180662186814
                        0.0244901285765401
                        0.0243006666040107
                        0.0239904960634330
                        0.0235658129703669
                        0.0230348487985028
                        0.0224075618470552
                        0.0216952664558574
                        0.0209102322813304
                        0.0200652819105472
                        0.0191734101730775
                        0.0182474419811480
                        0.0172997378600767
                        0.0163419489884788
                        0.0153848185336173
                        0.0144380249183399
                        0.0135100654869809
                        0.0126081838574648
                        0.0117383476811549
                        0.0109052827353911
                        0.0101125638984387
                        0.0093627560179476
                        0.0086575905907440
                        0.0079981556547304
                        0.0073850555083918
                        0.0068184460730304
                        0.0062977768764929
                        0.0058210913276805
                        0.0053841137841476
                        0.0049797333009700
                        0.0045900817578608
                        0.0246700132398667
                        0.0245419832862181
                        0.0243522418646993
                        0.0240414414745079
                        0.0236157843656894
                        0.0230835153260299
                        0.0224546115494993
                        0.0217404111291650
                        0.0209532122997616
                        0.0201058718333524
                        0.0192114260033306
                        0.0182827507435341
                        0.0173322695793854
                        0.0163717102158208
                        0.0154119055319177
                        0.0144626339153717
                        0.0135324974603572
                        0.0126288422749621
                        0.0117577291496073
                        0.0109239618431339
                        0.0101311737171337
                        0.0093819637595043
                        0.0086780624875315
                        0.0080204943766541
                        0.0074096773357676
                        0.0068453568628624
                        0.0063262534983246
                        0.0058494474322997
                        0.0054099545446130
                        0.0050009644781656
                        0.0046058466241119
                        0.0247222171332826
                        0.0245940782994452
                        0.0244040428207958
                        0.0240926005198410
                        0.0236659597825003
                        0.0231323787910016
                        0.0225018537629231
                        0.0217857466494274
                        0.0209963843091584
                        0.0201466576753766
                        0.0192496443888615
                        0.0183182713233780
                        0.0173650249959685
                        0.0164017097998559
                        0.0154392487427791
                        0.0144875208695255
                        0.0135552338769504
                        0.0126498370330046
                        0.0117774840457408
                        0.0109430542471857
                        0.0101502326152083
                        0.0094016371043278
                        0.0086989678201083
                        0.0080431350696648
                        0.0074342982229010
                        0.0068717255124330
                        0.0063534273843793
                        0.0058757343841331
                        0.0054333447045796
                        0.0050200131598271
                        0.0046200472515406
                        0.0247746793438252
                        0.0246464188705646
                        0.0244560784091632
                        0.0241439857671725
                        0.0237163553538258
                        0.0231814588093374
                        0.0225493114930397
                        0.0218312993136936
                        0.0210397777917690
                        0.0201876719746217
                        0.0192881007360767
                        0.0183540416939392
                        0.0173980441578514
                        0.0164319890899215
                        0.0154668896646941
                        0.0145127257960415
                        0.0135783110379715
                        0.0126711977207212
                        0.0117976312050443
                        0.0109625624996087
                        0.0101697192309515
                        0.0094217205370381
                        0.0087202047474094
                        0.0080659201712096
                        0.0074587116871887
                        0.0068973425726852
                        0.0063791844193292
                        0.0059000412701955
                        0.0054545831319546
                        0.0050372355671184
                        0.0046329828992405
                        0.0248274014565896
                        0.0246990095122058
                        0.0245083559692223
                        0.0241956073634842
                        0.0237669840155635
                        0.0232307710836766
                        0.0225970031872140
                        0.0218770902948933
                        0.0210834166243702
                        0.0202289412681735
                        0.0193268241377592
                        0.0183900932758520
                        0.0174313603783636
                        0.0164625825499704
                        0.0154948627564181
                        0.0145382814683511
                        0.0136017577029508
                        0.0126929459399858
                        0.0118181808615052
                        0.0109824798318769
                        0.0101896023649256
                        0.0094421492811732
                        0.0087416658747620
                        0.0080886968714650
                        0.0074827358628978
                        0.0069220480135370
                        0.0064034687160221
                        0.0059224808198556
                        0.0054739226018869
                        0.0050528988811770
                        0.0046448557520579
                        0.0248803851617308
                        0.0247518541652998
                        0.0245608816126367
                        0.0242474735967335
                        0.0238178562493552
                        0.0232803283136243
                        0.0226449437962015
                        0.0219231368373703
                        0.0211273203890578
                        0.0202704874995030
                        0.0193658388586265
                        0.0184264524835831
                        0.0174650018277658
                        0.0164935193816288
                        0.0155231970804154
                        0.0145642150751044
                        0.0136255967614333
                        0.0127150970089532
                        0.0118391364328797
                        0.0110027921347836
                        0.0102098433711253
                        0.0094628524254673
                        0.0087632423264556
                        0.0081113214054824
                        0.0075062148597806
                        0.0069457239684716
                        0.0064262644415752
                        0.0059431715113327
                        0.0054915720552945
                        0.0050672044440946
                        0.0046558057556750
                        0.0249336322278483
                        0.0248049563472111
                        0.0246136605413908
                        0.0242995913774795
                        0.0238689807184179
                        0.0233301409741514
                        0.0226931456813593
                        0.0219694532779603
                        0.0211715054925024
                        0.0203123292200168
                        0.0194051656038182
                        0.0184631420465773
                        0.0174989928944160
                        0.0165248249148770
                        0.0155519177153179
                        0.0145905496513477
                        0.0136498466883290
                        0.0127376614637282
                        0.0118604961233373
                        0.0110234797733300
                        0.0102303983716778
                        0.0094837557522201
                        0.0087848271339106
                        0.0081336619314049
                        0.0075290182119861
                        0.0069682870674272
                        0.0064475818028125
                        0.0059622272536716
                        0.0055077015292940
                        0.0050803043896655
                        0.0046659312355075
                        0.0249871444820979
                        0.0248583192671108
                        0.0246666972947479
                        0.0243519666122739
                        0.0239203647601923
                        0.0233802179183689
                        0.0227416193169376
                        0.0220160518362491
                        0.0212159860320062
                        0.0203544825188077
                        0.0194448225007480
                        0.0185001820328332
                        0.0175333552412537
                        0.0165565216907554
                        0.0155810468612097
                        0.0146173052074345
                        0.0136745227062784
                        0.0127606462808337
                        0.0118822542632138
                        0.0110445191481045
                        0.0102512201891457
                        0.0095047841423184
                        0.0088063178487149
                        0.0081556001328645
                        0.0075510390377037
                        0.0069896811386808
                        0.0064674466237996
                        0.0059797518488309
                        0.0055224476403656
                        0.0050923134884786
                        0.0046753014047920
                        0.0250409237953473
                        0.0249119459111078
                        0.0247199959312048
                        0.0244046044787067
                        0.0239720147491638
                        0.0234305668213585
                        0.0227903738071662
                        0.0220629431962858
                        0.0212607744328664
                        0.0203969617069376
                        0.0194848258222500
                        0.0185375906039440
                        0.0175681085874027
                        0.0165886302663875
                        0.0156106046680037
                        0.0146444995855388
                        0.0136996376838302
                        0.0127840558468936
                        0.0119044024072422
                        0.0110658840144812
                        0.0102722599921334
                        0.0095258635452621
                        0.0088276184243595
                        0.0081770317962079
                        0.0075721914603491
                        0.0070098707095228
                        0.0064858928269147
                        0.0059958363704093
                        0.0055359186907653
                        0.0051033175796796
                        0.0046839641401625
                        0.0250949720710391
                        0.0249658391029706
                        0.0247735601586950
                        0.0244575096223558
                        0.0240239363566832
                        0.0234811944980358
                        0.0228394172564265
                        0.0221101369228629
                        0.0213058819044903
                        0.0204397798073056
                        0.0195251905048143
                        0.0185753845575174
                        0.0176032712723230
                        0.0166211698006511
                        0.0156406098454554
                        0.0146721491017953
                        0.0137252028261531
                        0.0128078927293767
                        0.0119269302397272
                        0.0110875465987907
                        0.0102934686822838
                        0.0095469225467585
                        0.0088486404650474
                        0.0081978666304001
                        0.0075924077157316
                        0.0070288354822977
                        0.0065029571566812
                        0.0060105582544818
                        0.0055481990585371
                        0.0051133795848090
                        0.0046919509214052
                        0.0251492912367260
                        0.0250200015466610
                        0.0248273934262268
                        0.0245106862954798
                        0.0240761347340090
                        0.0235321071270051
                        0.0228887570298533
                        0.0221576417545241
                        0.0213513187614307
                        0.0204829488996199
                        0.0195659305141922
                        0.0186135797113698
                        0.0176388606583473
                        0.0166541584770875
                        0.0156710801116673
                        0.0147002690305144
                        0.0137512282133234
                        0.0128321583007396
                        0.0119498263339808
                        0.0111094785512080
                        0.0103147980566130
                        0.0095678935814241
                        0.0088693039564249
                        0.0082180275715966
                        0.0076116352417975
                        0.0070465658016874
                        0.0065186755787003
                        0.0060239813437844
                        0.0055593528080297
                        0.0051225438041514
                        0.0046992800168477
                        0.0252038832375492
                        0.0250744358557791
                        0.0248814989875833
                        0.0245641384535807
                        0.0241286146397547
                        0.0235833104064112
                        0.0229383999347853
                        0.0222054658075395
                        0.0213970946468076
                        0.0205264803606454
                        0.0196070591007535
                        0.0186521911735838
                        0.0176748934168171
                        0.0166876138099347
                        0.0157020325261067
                        0.0147288739760594
                        0.0137777232305131
                        0.0128568532578550
                        0.0119730788036228
                        0.0111316517675211
                        0.0103362017763191
                        0.0095887138413470
                        0.0088895375912514
                        0.0082374497725198
                        0.0076298339400843
                        0.0070630590393725
                        0.0065330808969526
                        0.0060361564188321
                        0.0055694265752700
                        0.0051308389804195
                        0.0047059585406483
                        0.0252587500311195
                        0.0251291445735466
                        0.0249358799451262
                        0.0246178698218949
                        0.0241813805277109
                        0.0236348096613998
                        0.0229883523457702
                        0.0222536167162856
                        0.0214432186860483
                        0.0205703850297995
                        0.0196485889762540
                        0.0186912335312370
                        0.0177113857314810
                        0.0167215528674173
                        0.0157334837413267
                        0.0147579781661155
                        0.0138046969227881
                        0.0128819780672008
                        0.0119966758728477
                        0.0111540391036027
                        0.0103576361686804
                        0.0096093259298765
                        0.0089092787926179
                        0.0082560794324188
                        0.0076469737165065
                        0.0070783167809040
                        0.0065462012378629
                        0.0060471219367711
                        0.0055784518222230
                        0.0051382804622049
                        0.0047119837495972
                        0.0253138935834151
                        0.0251841301861433
                        0.0249905392793529
                        0.0246718839404332
                        0.0242344366064096
                        0.0236866099169228
                        0.0230386202891777
                        0.0223021017281446
                        0.0214896995908447
                        0.0206146733213721
                        0.0196905324345126
                        0.0187307209811539
                        0.0177483534430583
                        0.0167559924364844
                        0.0157654501975496
                        0.0147875956901476
                        0.0138321582973465
                        0.0129075333568590
                        0.0120206063841957
                        0.0111766149996548
                        0.0103790608848098
                        0.0096296783067411
                        0.0089284735235715
                        0.0082738725830414
                        0.0076630323517567
                        0.0070923426885619
                        0.0065580591392440
                        0.0060569048163323
                        0.0055864465578703
                        0.0051448716935169
                        0.0047173437965853
                        0.0253693158654222
                        0.0252393951312278
                        0.0250454798681652
                        0.0247261841934137
                        0.0242877868780746
                        0.0237387159453176
                        0.0230892094984351
                        0.0223509277654235
                        0.0215365457269468
                        0.0206593552979773
                        0.0197329014313163
                        0.0187706674186448
                        0.0177858121513348
                        0.0167909491455659
                        0.0157979482766215
                        0.0148177406992182
                        0.0138601165884394
                        0.0129335202691703
                        0.0120448602559490
                        0.0111993560264944
                        0.0104004394331937
                        0.0096497255664827
                        0.0089470759573986
                        0.0082907939121983
                        0.0076779937140117
                        0.0071051409201050
                        0.0065686710543708
                        0.0060655211797994
                        0.0055934166131813
                        0.0051506051818388
                        0.0047220180673663
                        0.0254250188503066
                        0.0252949418027121
                        0.0251007044983232
                        0.0247807738269646
                        0.0243414351621122
                        0.0237911322950414
                        0.0231401254472668
                        0.0224001014625217
                        0.0215837651548190
                        0.0207044407149217
                        0.0197757076337173
                        0.0188110864947390
                        0.0178237772855287
                        0.0168264395561154
                        0.0158309944260834
                        0.0148484275775654
                        0.0138885814946911
                        0.0129599407826082
                        0.0120694288967726
                        0.0112222413629590
                        0.0104217396067521
                        0.0096694285876933
                        0.0089650480686498
                        0.0083068156795850
                        0.0076918463039334
                        0.0071167149980284
                        0.0065780471373412
                        0.0060729770069809
                        0.0055993565414259
                        0.0051554630448764
                        0.0047259771699432
                        0.0254810045109560
                        0.0253507725526609
                        0.0251562158706960
                        0.0248356559574912
                        0.0243953851063581
                        0.0238438633043828
                        0.0231913733654779
                        0.0224496291833757
                        0.0216313656487183
                        0.0207499390413997
                        0.0198189624450701
                        0.0188519916484063
                        0.0178622641495163
                        0.0168624802295505
                        0.0158646052598807
                        0.0148796710921103
                        0.0139175633944970
                        0.0129867980077654
                        0.0120943055821554
                        0.0112452532114097
                        0.0104429338192957
                        0.0096887545858272
                        0.0089823591921379
                        0.0083219167590637
                        0.0077045821098780
                        0.0071270670420093
                        0.0065861912183307
                        0.0060792686826696
                        0.0056042501993802
                        0.0051594171981496
                        0.0047291826066712
                        0.0255372748177712
                        0.0254068896906064
                        0.0252120166001440
                        0.0248908335719475
                        0.0244496401876681
                        0.0238969131021982
                        0.0232429582396293
                        0.0224995170219212
                        0.0216793546971305
                        0.0207958594617240
                        0.0198626770090895
                        0.0188933961171887
                        0.0179012879453943
                        0.0168990877731144
                        0.0158987976390239
                        0.0149114865229857
                        0.0139470735421192
                        0.0130140964596050
                        0.0121194857950321
                        0.0112683771568214
                        0.0104639993655147
                        0.0097076770974556
                        0.0089989855858657
                        0.0083360818266253
                        0.0077161957463572
                        0.0071361972956834
                        0.0065931009093840
                        0.0060843834350833
                        0.0056080710506440
                        0.0051624292165054
                        0.0047315861288295
                        0.0255938317365784
                        0.0254632954802314
                        0.0252681092101508
                        0.0249463095203635
                        0.0245042037023325
                        0.0239502855962867
                        0.0232948847993113
                        0.0225497707863926
                        0.0217277394854643
                        0.0208422108575543
                        0.0199068621938196
                        0.0189353129271885
                        0.0179408637762785
                        0.0169362788654593
                        0.0159335887329075
                        0.0149438897756403
                        0.0139771242446757
                        0.0130418423059286
                        0.0121449675313504
                        0.0112916024736420
                        0.0104849186167598
                        0.0097261759188470
                        0.0090149100240254
                        0.0083493007026400
                        0.0077266838485250
                        0.0071441038962825
                        0.0065987678058122
                        0.0060882996729247
                        0.0056107822200851
                        0.0051644498785536
                        0.0047331287458618
                        0.0256506772265636
                        0.0255199921333341
                        0.0253244961218311
                        0.0250020865000298
                        0.0245590787456802
                        0.0240039844485099
                        0.0233471574880748
                        0.0226003959663409
                        0.0217765268598398
                        0.0208890017697916
                        0.0199515285542309
                        0.0189777548609662
                        0.0179810066268279
                        0.0169740702602982
                        0.0159689960595746
                        0.0149768974726109
                        0.0140077290180073
                        0.0130700435901048
                        0.0121707515696879
                        0.0113149223831588
                        0.0105056791625507
                        0.0097442370167156
                        0.0090301214378009
                        0.0083615678496510
                        0.0077360446978619
                        0.0071507828513749
                        0.0066031777674609
                        0.0060909872360752
                        0.0056123363183997
                        0.0051654183808046
                        0.0047337393319732
                        0.0257078132380933
                        0.0255769818003379
                        0.0253811796361970
                        0.0250581670297868
                        0.0246142681788015
                        0.0240580130343218
                        0.0233997804162221
                        0.0226513976793144
                        0.0218257232686081
                        0.0209362403365520
                        0.0199966862696507
                        0.0190207343993743
                        0.0180217313173357
                        0.0170124787638583
                        0.0160050375005068
                        0.0150105270204452
                        0.0140389027168831
                        0.0130987104238493
                        0.0121968417020626
                        0.0113383342621864
                        0.0105262739047730
                        0.0097618524236869
                        0.0090446146143063
                        0.0083728820217684
                        0.0077442780579092
                        0.0071562282008720
                        0.0066063112800750
                        0.0060924075818342
                        0.0056126750479815
                        0.0051652611852328
                        0.0047333327364493
                        0.0257652417102928
                        0.0256342665562967
                        0.0254381619078051
                        0.0251145534116650
                        0.0246697745787913
                        0.0241123743824113
                        0.0234527572904939
                        0.0227027805916567
                        0.0218753346754868
                        0.0209839342007245
                        0.0200423450490569
                        0.0190642636300826
                        0.0180630524238841
                        0.0170515211784610
                        0.0160417312821805
                        0.0150447966439980
                        0.0140706616318107
                        0.0131278551428754
                        0.0122232449204220
                        0.0113618398010653
                        0.0105467011076632
                        0.0097790201251679
                        0.0090583899570295
                        0.0083832460576992
                        0.0077513852028030
                        0.0071604323546910
                        0.0066081439113860
                        0.0060925139370241
                        0.0056117285961074
                        0.0051638904372610
                        0.0047318072547406
                        0.0258229645681538
                        0.0256918483808584
                        0.0254954449065255
                        0.0251712476753049
                        0.0247256001667162
                        0.0241670710872461
                        0.0235060913124790
                        0.0227545488041301
                        0.0219253664342492
                        0.0210320903762639
                        0.0200885139928463
                        0.0191083541109276
                        0.0181049841523763
                        0.0170912141998282
                        0.0160790959118547
                        0.0150797253756079
                        0.0141030235402561
                        0.0131574924139858
                        0.0122499715491521
                        0.0113854451046387
                        0.0105669644014197
                        0.0097957439374765
                        0.0090714533039358
                        0.0083926668054848
                        0.0077573691244806
                        0.0071633866070162
                        0.0066086468907719
                        0.0060912514582111
                        0.0056094148198235
                        0.0051612018571999
                        0.0047290412458343
                        0.0258809837189542
                        0.0257497291293596
                        0.0255530303625440
                        0.0252282514978922
                        0.0247817467038819
                        0.0242221051832051
                        0.0235597850325616
                        0.0228067056876836
                        0.0219758231089342
                        0.0210807150560378
                        0.0201352013930265
                        0.0191530166693005
                        0.0181475401471271
                        0.0171315742484507
                        0.0161171500477801
                        0.0151153329794390
                        0.0141360076931020
                        0.0131876392754339
                        0.0122770353074127
                        0.0114091607230708
                        0.0105870727296261
                        0.0098120333683487
                        0.0090838157908058
                        0.0084011551617246
                        0.0077622349056336
                        0.0071650818367266
                        0.0066077878564851
                        0.0060885574601749
                        0.0056056382310204
                        0.0051570719620390
                        0.0047248885729797
                        0.0259393010475171
                        0.0258079104909438
                        0.0256109196866193
                        0.0252855660880518
                        0.0248382153414118
                        0.0242774779623038
                        0.0236138401384409
                        0.0228592536460019
                        0.0220267082139632
                        0.0211298133339266
                        0.0201824144430096
                        0.0191982611076028
                        0.0181907332032490
                        0.0171726172037186
                        0.0161559122724555
                        0.0151516397798302
                        0.0141696347058433
                        0.0132183150813839
                        0.0123044532743382
                        0.0114330015884607
                        0.0106070402190191
                        0.0098279034385669
                        0.0090954937355813
                        0.0084087261995683
                        0.0077659902430279
                        0.0071655094093540
                        0.0066055318312012
                        0.0060843617999185
                        0.0056002888044447
                        0.0051513544088023
                        0.0047191723745530
                        0.0259979184097910
                        0.0258663939269616
                        0.0256691138526412
                        0.0253431920150215
                        0.0248950063989681
                        0.0243331897060864
                        0.0236682571443664
                        0.0229121937668428
                        0.0220780238327372
                        0.0211793887967659
                        0.0202301588102661
                        0.0192440957663224
                        0.0182345748331250
                        0.0172143579904342
                        0.0161954007183191
                        0.0151886663434775
                        0.0142039263052763
                        0.0132495413029905
                        0.0123322457120740
                        0.0114569868151849
                        0.0106268859316597
                        0.0098433744245922
                        0.0091065085015339
                        0.0084153993449702
                        0.0077686460968570
                        0.0071646622967901
                        0.0066018425049183
                        0.0060785875445514
                        0.0055932406644473
                        0.0051438751537380
                        0.0047116763962118
                        0.0260568376236963
                        0.0259251805783239
                        0.0257276132213415
                        0.0254011289521239
                        0.0249521190325012
                        0.0243892392831401
                        0.0237230349249838
                        0.0229655252992544
                        0.0221297700461192
                        0.0212294429127139
                        0.0202784379946430
                        0.0192905268646571
                        0.0182790746049068
                        0.0172568099345582
                        0.0162356324623906
                        0.0152264329325429
                        0.0142389048502896
                        0.0132813411070522
                        0.0123604356707013
                        0.0114811392912358
                        0.0106466334289133
                        0.0098584714515121
                        0.0091168862676542
                        0.0084211985342847
                        0.0077702174211701
                        0.0071625364223658
                        0.0065966839222224
                        0.0060711521127084
                        0.0055843507747404
                        0.0051344259741774
                        0.0047021326564709
                        0.0261160604557923
                        0.0259842711229283
                        0.0257864172690065
                        0.0254593752819879
                        0.0250095507229424
                        0.0244456235299861
                        0.0237781699984068
                        0.0230192448500019
                        0.0221819440543139
                        0.0212799740915522
                        0.0203272523414218
                        0.0193375574828510
                        0.0183242391139295
                        0.0172999837471737
                        0.0162766225484722
                        0.0152649585881674
                        0.0142745924885197
                        0.0133137385774341
                        0.0123890482445042
                        0.0115054849341287
                        0.0106663100236091
                        0.0098732238133734
                        0.0091266575839800
                        0.0084261522386141
                        0.0077707238885378
                        0.0071591322118020
                        0.0065900226830423
                        0.0060619691691046
                        0.0055734578915350
                        0.0051227556695026
                        0.0046902034320078
                        0.0261755886010477
                        0.0260436655501585
                        0.0258455241582268
                        0.0255179274718397
                        0.0250672964671001
                        0.0245023362714083
                        0.0238336553920678
                        0.0230733451129277
                        0.0222345387888281
                        0.0213309761994800
                        0.0203765974805163
                        0.0193851859493423
                        0.0183700703444455
                        0.0173438858909496
                        0.0163183823904910
                        0.0153042595995378
                        0.0143110097076403
                        0.0133467573434311
                        0.0124181092501060
                        0.0115300513881171
                        0.0106859455017859
                        0.0098876638049693
                        0.0091358564990094
                        0.0084302931529613
                        0.0077701904406265
                        0.0071544562667229
                        0.0065818307585343
                        0.0060509516799116
                        0.0055603823070023
                        0.0051085578879122
                        0.0046754541666012
                        0.0262354236513856
                        0.0261033627930157
                        0.0259049300376331
                        0.0255767790540053
                        0.0251253474570241
                        0.0245593667214088
                        0.0238894787920263
                        0.0231278127960836
                        0.0222875406487979
                        0.0213824361374238
                        0.0204264617807994
                        0.0194334032068634
                        0.0184165629858345
                        0.0173885158878607
                        0.0163609171145447
                        0.0153443469188379
                        0.0143481728478392
                        0.0133804181906087
                        0.0124476429126507
                        0.0115548657595179
                        0.0107055699197764
                        0.0099018246776998
                        0.0091445188790885
                        0.0084336571850997
                        0.0077686473392797
                        0.0071485229406479
                        0.0065720889652649
                        0.0060380167097546
                        0.0055449274308698
                        0.0050914539158500
                        0.0046573114096403
                        0.0262955670449356
                        0.0261633601082583
                        0.0259646278608586
                        0.0256359189056860
                        0.0251836888512515
                        0.0246166967847682
                        0.0239456194201850
                        0.0231826251246964
                        0.0223409256831244
                        0.0214343297575690
                        0.0204768220572823
                        0.0194821883677980
                        0.0184636998953043
                        0.0174338617503742
                        0.0164042210198925
                        0.0153852217074552
                        0.0143860897721841
                        0.0134147348669662
                        0.0124776677920763
                        0.0115799506420076
                        0.0107252097466372
                        0.0099157370052432
                        0.0091526792209158
                        0.0084362810670886
                        0.0077661290874380
                        0.0071413553137832
                        0.0065607909618314
                        0.0060230927515119
                        0.0055268852800544
                        0.0050709677319255
                        0.0046349952560109
                        0.0263560199817318
                        0.0262236519945729
                        0.0260246053228865
                        0.0256953282416439
                        0.0252422958776716
                        0.0246742963384066
                        0.0240020425739444
                        0.0232377437274877
                        0.0223946529173518
                        0.0214866147274382
                        0.0205276360699934
                        0.0195315009454755
                        0.0185114441591247
                        0.0174798919698961
                        0.0164482695893728
                        0.0154268674540694
                        0.0144247521571978
                        0.0134497065776242
                        0.0125081894794155
                        0.0116053170007482
                        0.0107448809584455
                        0.0099294221001771
                        0.0091603646308003
                        0.0084381972983378
                        0.0077626709845495
                        0.0071329844787981
                        0.0065479471792228
                        0.0060061305716991
                        0.0055060499684452
                        0.0050464888157712
                        0.0046074069372297
                        0.0264167832786754
                        0.0262842473443598
                        0.0260848806343161
                        0.0257550349582817
                        0.0253012060587472
                        0.0247322122349048
                        0.0240588040122844
                        0.0232932328040974
                        0.0224487945716215
                        0.0215393710135992
                        0.0205789915189652
                        0.0195814367400652
                        0.0185599005168776
                        0.0175267215564605
                        0.0164931898165099
                        0.0154694249646403
                        0.0144643161905528
                        0.0134855058597263
                        0.0125393971051235
                        0.0116311702726982
                        0.0107648048891658
                        0.0099431170309643
                        0.0091678281058232
                        0.0084396751283898
                        0.0077585583499810
                        0.0071237095701923
                        0.0065338615987240
                        0.0059874072194449
                        0.0054825530862657
                        0.0050175102750237
                        0.0045729349870874
                </DataArray>
            </PointData>
        </Piece>
    </StructuredGrid>
</VTKFile>