<?xml version="1.0"?>
<VTKFile type="StructuredGrid" version="0.1" byte_order="LittleEndian" header_type="UInt32" compressor="vtkZLibDataCompressor">
  <StructuredGrid WholeExtent="0 30 0 40 0 0">
  <Piece Extent="0 30 0 40 0 0">
    <PointData>
      <DataArray type="Float32" Name="orthogonality" format="ascii" RangeMin="0" RangeMax="0.9736592173576355">
        0 0.008486871 0.01686054 0.025056308 0.033017438 0.040691134
        0.04802844 0.054984473 0.06151848 0.06759368 0.073176906 0.07823794
        0.0827485 0.08668031 0.09000097 0.09266419 0.09458603 0.09559125
        0.09530151 0.09292445 0.086894095 0.0743118 0.05013408 0.0060254587
        0.0711088 0.19910955 0.38861346 0.6088861 0.79403085 0.9127681
        0.9736592 8.8884415e-05 0.008587391 0.01697668 0.02519247 0.033178207
        0.040881038 0.04825189 0.05524572 0.061821584 0.0679425 0.07357508
        0.07868887 0.08325533 0.08724587 0.09062765 0.09335344 0.09533728
        0.096399225 0.096150726 0.09377959 0.08768792 0.07494556 0.050547715
        0.0065080547 0.06897188 0.19055603 0.3660995 0.5735408 0.7618862
        0.89392364 0.96883214 0.00023874524 0.008754713 0.017165583 0.025407668
        0.03342471 0.04116386 0.048576042 0.055616155 0.062243205 0.068420134
        0.07411349 0.079292774 0.0839294 0.08799472 0.091455705 0.0942646
        0.09633385 0.09747955 0.0973042 0.094978146 0.088876046 0.07604456
        0.051531043 0.007709033 0.06597742 0.18131033 0.34352717 0.53729236
        0.7266515 0.8734142 0.96465796 0.00044113258 0.008985524 0.017429264
        0.025709612 0.03377078 0.041560173 0.049028914 0.05613212 0.06282902
        0.0690828 0.07486029 0.08013135 0.084867775 0.08904137 0.09261953
        0.095554695 0.09775878 0.09904547 0.099011086 0.09681368 0.09081054
        0.07804461 0.053651836 0.010420234 0.060958024 0.16971576 0.31916374
        0.4995333 0.6879935 0.84907657 0.9581978 0.0006864461 0.009270853
        0.017759442 0.026090756 0.034209687 0.042064123 0.049605656 0.056789897
        0.06357661 0.06992958 0.07581634 0.08120751 0.086075805 0.090394065
        0.094130814 0.097239554 0.09963286 0.1011239 0.101306066 0.099331185
        0.09355069 0.081025206 0.057016004 0.014772551 0.053781975 0.15564965
        0.292744 0.45983872 0.64535123 0.8198059 0.9482929 0.0009641671
        0.009600284 0.01814581 0.02654091 0.03473137 0.042665787 0.050296493
        0.05757989 0.06447661 0.07095141 0.076972924 0.08251304 0.08754594
        0.09204612 0.095984 0.09931511 0.101954 0.10371544 0.104193605
        0.10254096 0.09711588 0.085019454 0.061674297 0.02082876 0.044400755
        0.1390804 0.26410392 0.4178358 0.59808815 0.7841843 0.93332934
        0.0012624038 0.009960684 0.01857395 0.027044265 0.035318486 0.043346155
        0.05108058 0.058479223 0.06550388 0.07212064 0.078299604 0.08401439
        0.08924115 0.09395665 0.09813392 0.10173146 0.10466714 0.106759496
        0.10760739 0.10637134 0.101430334 0.08994931 0.067546025 0.028494587
        0.03294983 0.120179094 0.23330298 0.37335494 0.5456374 0.7405108
        0.9110632 0.0015697648 0.010338562 0.019028144 0.027582703 0.035950307
        0.044081602 0.051931065 0.059457432 0.06662392 0.07339818 0.07975216
        0.085661516 0.09110479 0.09606152 0.10050793 0.10440629 0.10767901
        0.11015041 0.11142797 0.11068775 0.10634307 0.095645465 0.07443734
        0.03753292 0.01974345 0.09933798 0.20069842 0.3266249 0.4878684
        0.68699557 0.8785605 0.0018728605 0.010715999 0.019485751 0.028128535
        0.03659368 0.044833023 0.052802294 0.06046161 0.067775704 0.07471396
        0.081250265 0.08736253 0.093031876 0.098240845 0.10296921 0.107183464
        0.11081141 0.11368488 0.11542345 0.11522577 0.11155261 0.101762995
        0.081948236 0.047465395 0.0053706714 0.07725431 0.16700962 0.27834564
        0.42524597 0.62229913 0.83218586 0.0021646125 0.011080764 0.019929165
        0.028658455 0.037219178 0.045564324 0.05365087 0.061440267 0.06889875
        0.07599739 0.08271199 0.08902265 0.09491305 0.10036872 0.10537296
        0.10989662 0.1138733 0.11714353 0.11934178 0.119695395 0.11672392
        0.107911125 0.08961364 0.057720643 0.009449022 0.05481395 0.13326846
        0.22978428 0.35932037 0.54579306 0.7669365 0.0024383466 0.011423412
        0.020346038 0.029157005 0.037807968 0.046252996 0.054450195 0.06236228
        0.06995685 0.077206545 0.08408892 0.090586156 0.09668427 0.10237158
        0.107634746 0.11244887 0.116753496 0.12039863 0.12303604 0.12392691
        0.12165925 0.11385532 0.09714645 0.06793237 0.024237674 0.032621507
        0.100215666 0.181997 0.29196042 0.45800114 0.6770639 0.002682024
        0.011728573 0.020717537 0.029601667 0.03833356 0.04686822 0.055164725
        0.063186854 0.07090338 0.078288294 0.08532065 0.091984384 0.09826757
        0.10416094 0.109654136 0.11472619 0.11932247 0.123302944 0.12633845
        0.1277284 0.12613732 0.11933647 0.10423537 0.07771461 0.038509257
        0.011278017 0.06860118 0.13610987 0.22545883 0.3624671 0.56058806
        0.0028865768 0.011984363 0.021028863 0.029974554 0.03877477 0.04738523
        0.055765785 0.063881025 0.07170064 0.079199634 0.08635826 0.0931618
        0.099599965 0.105665416 0.11135027 0.11663698 0.12147637 0.12573855
        0.12911464 0.13094565 0.12997855 0.12414028 0.11061554 0.08672846
        0.051824935 0.008657628 0.039152674 0.09325568 0.16223218 0.26489314
        0.42214698 0.0030431044 0.012181621 0.021270595 0.030265974 0.0391216
        0.047793727 0.056242738 0.0644338 0.07233725 0.079928815 0.08718959
        0.09410587 0.10066852 0.10687172 0.1127095 0.11816726 0.123200946
        0.1276908 0.13134933 0.13356167 0.1331619 0.12823667 0.11623915
        0.094896965 0.064070754 0.027034787 0.012083627 0.053896137 0.10375383
        0.1710198 0.2737171 0.003144277 0.012314683 0.021438802 0.030473799
        0.039373852 0.04809556 0.05659967 0.06485172 0.07282248 0.08048815
        0.08783041 0.09483621 0.10149731 0.10780894 0.11376672 0.11935857
        0.12454527 0.12921734 0.13310948 0.13565323 0.13577332 0.13171834
        0.12120124 0.10231349 0.07534185 0.04396504 0.012732654 0.0179986
        0.05059458 0.084972665 0.1301197 0.0031834585 0.012379546 0.021532191
        0.030599559 0.03953602 0.048298407 0.05684769 0.06514966 0.073175326
        0.08090121 0.08830938 0.09538726 0.10212721 0.10852532 0.11457847
        0.12027687 0.125586 0.13040686 0.1344971 0.13733667 0.13794366
        0.13472974 0.12565829 0.10914781 0.0858324 0.059691105 0.03560533
        0.014769694 0.0026618917 0.0087419795 0.002741467 0.003154761 0.012372853
        0.021549998 0.03064516 0.039612815 0.048409943 0.056997657 0.06534188
        0.07341383 0.08119019 0.08865331 0.09579095 0.10259594 0.10906503
        0.115196235 0.12098188 0.12639214 0.13133867 0.13560294 0.1387147
        0.1397876 0.1373965 0.12974586 0.11554793 0.09571561 0.07443715
        0.056835603 0.04478714 0.040416233 0.057324167 0.10337926 0.003052902
        0.012291326 0.021490972 0.030611416 0.039607175 0.04843533 0.057057086
        0.06543847 0.07355078 0.08137088 0.08888127 0.09607 0.10293024
        0.10945935 0.115656324 0.12151558 0.12701198 0.13206804 0.13648966
        0.13985759 0.14138232 0.13980131 0.13355076 0.1216071 0.10510282
        0.08835615 0.07664561 0.0723683 0.07907327 0.11381199 0.18831882
        0.0028724102 0.012131057 0.021352772 0.030497532 0.03951986 0.04837692
        0.05702999 0.06544514 0.073593765 0.08145281 0.08900494 0.0962384
        0.103146695 0.109727666 0.11598129 0.121904 0.12747537 0.13262895
        0.13719551 0.1408076 0.14277323 0.14199102 0.13712004 0.1273747
        0.114056334 0.101544105 0.09519107 0.09776216 0.11373543 0.16172124
        0.25470942 0.002608703 0.011888557 0.021132976 0.030302094 0.039350424
        0.048235204 0.05691776 0.06536423 0.07354604 0.08144023 0.08902958
        0.09630251 0.1032528 0.109878756 0.11618125 0.122158706 0.1277954
        0.13303603 0.13773642 0.14158124 0.14397597 0.1439781 0.14046061
        0.13285248 0.122580275 0.11402392 0.11253666 0.1211128 0.14473718
        0.20209432 0.30584508 0.0022517946 0.011555619 0.020825097 0.030020198
        0.03909545 0.04800818 0.056719784 0.06519646 0.07340971 0.08133663
        0.088960126 0.096268766 0.10325658 0.10992234 0.116267756 0.12229323
        0.12798773 0.13330714 0.1381325 0.14220062 0.14501409 0.14578694
        0.14359798 0.13807096 0.1307205 0.12587398 0.12881501 0.14264359
        0.17250942 0.2360462 0.34479332 0.0018028846 0.011132994 0.020429393
        0.029651472 0.038753804 0.047693834 0.056433033 0.064937666 0.07317929
        0.08113508 0.088787995 0.096126765 0.10314562 0.10984369 0.11622352
        0.12228736 0.1280288 0.13341472 0.13835102 0.142626 0.1458375
        0.14735167 0.14644335 0.14291158 0.13832653 0.13691784 0.1438397
        0.16219649 0.19704051 0.2641777 0.374025 0.0012212764 0.010586904
        0.019918682 0.029174745 0.0383099 0.047281835 0.056052245 0.064587556
        0.07285945 0.08084527 0.08852809 0.09589682 0.10294594 0.10967499
        0.11608731 0.122187056 0.12797241 0.1334213 0.13846453 0.14294168
        0.14654526 0.14879161 0.14914599 0.14756942 0.14566132 0.14751032
        0.15807791 0.18037976 0.21919082 0.28781337 0.39554203 0.0005575176
        0.009975216 0.01935819 0.028662939 0.037844814 0.046862043 0.055676773
        0.064255826 0.07257128 0.08060079 0.08832786 0.09574176 0.10283747
        0.10961519 0.11607935 0.12223632 0.12808931 0.13362786 0.13880855
        0.14352387 0.14756343 0.15059698 0.15228292 0.15274176 0.15358673
        0.15873006 0.17288375 0.19889687 0.24111253 0.309902 0.41229305
        3.9092498e-05 0.009434669 0.018873105 0.028231613 0.037466127 0.04653545
        0.05540225 0.06403385 0.0724028 0.08048726 0.08827123 0.09574459
        0.10290298 0.10974749 0.116283946 0.12252127 0.12846819 0.1341267
        0.13948068 0.14447823 0.14901088 0.15290919 0.15603325 0.15866727
        0.16242836 0.17102051 0.18885528 0.2185437 0.26381084 0.33210155
        0.42729378 0.0005186232 0.009003067 0.018489523 0.027895609 0.037177704
        0.04629507 0.055210806 0.063892655 0.07231359 0.08045223 0.08829308
        0.09582659 0.10304908 0.109962575 0.11657432 0.12289594 0.128942
        0.1347277 0.14026576 0.1455632 0.15061957 0.15543576 0.16008477
        0.16502008 0.17184985 0.1840303 0.20561418 0.23889534 0.2868038
        0.35414064 0.44211748 0.00091101165 0.008651411 0.018179238 0.02762709
        0.036951702 0.046112716 0.055073585 0.06380241 0.07227257 0.08046308
        0.0883589 0.09595104 0.10323651 0.11021824 0.116904944 0.12331106
        0.12945731 0.13537282 0.14110106 0.14671187 0.15232013 0.15810898
        0.16437893 0.17176113 0.18184061 0.1977775 0.22319241 0.25996715
        0.3101034 0.37594453 0.45670483 0.0012147579 0.008383421 0.01794804
        0.027433729 0.036797542 0.045999452 0.055003244 0.063777365 0.07229554
        0.08053721 0.08848778 0.09613883 0.10348804 0.11053932 0.11730287
        0.12379611 0.13004622 0.1360971 0.14202477 0.14796576 0.15415776
        0.16097845 0.16897155 0.17895612 0.19248012 0.21235491 0.24168633
        0.28183848 0.33377603 0.39767832 0.47118422 0.0014381129 0.008191685
        0.017789276 0.027309464 0.036709603 0.045949977 0.05499468 0.06381249
        0.072377466 0.08066946 0.08867437 0.09638429 0.10379762 0.11091923
        0.11776093 0.12434318 0.13069999 0.13689081 0.14302614 0.14931329
        0.1561207 0.16403411 0.17385866 0.1866144 0.20379831 0.22781312
        0.26115307 0.30454895 0.35785672 0.41940704 0.48568356 0.0015869308
        0.008071461 0.01769924 0.027251508 0.03668592 0.04596306 0.05504733
        0.06390782 0.07251896 0.080860995 0.08892028 0.0966895 0.104167774
        0.11136095 0.1182825 0.12495609 0.13142285 0.13775863 0.14411026
        0.15075998 0.15821533 0.16728468 0.1790551 0.19476421 0.21584493
        0.24422377 0.28167132 0.3281613 0.38240838 0.4412571 0.50039387
        0.0016677666 0.008016939 0.017672814 0.027255358 0.036722533 0.046035215
        0.055158112 0.06406064 0.0727176 0.081109636 0.089223586 0.097052716
        0.10459689 0.11186299 0.11886615 0.1256334 0.13221332 0.13869894
        0.14527528 0.15230373 0.16043948 0.17072922 0.18456534 0.20342404
        0.22866255 0.26165476 0.30331767 0.35273856 0.4075012 0.46335664
        0.515527 0.001686974 0.008022364 0.017704803 0.02731632 0.036815193
        0.046162594 0.055323545 0.0642678 0.07297051 0.081412755 0.08958188
        0.09747172 0.10508292 0.11242341 0.11951008 0.1263734 0.13306968
        0.13970987 0.14651908 0.15394193 0.16278997 0.17436498 0.19039123
        0.21260989 0.24229367 0.2801777 0.32617474 0.37835318 0.43322158
        0.4858527 0.5313166 0.0016507771 0.0080819195 0.017789764 0.027429283
        0.036959082 0.046340644 0.0555393 0.06452514 0.07327372 0.08176652
        0.08999142 0.09794287 0.105622254 0.11303863 0.12021065 0.12717235
        0.13398807 0.14078735 0.14783701 0.15566893 0.1652598 0.17818415
        0.19652815 0.2223313 0.25677708 0.2998649 0.35032934 0.4050859
        0.4596696 0.5088993 0.547996 0.0015651261 0.0081899045 0.017922219
        0.027588964 0.03714909 0.04656438 0.055800498 0.06482788 0.07362247
        0.08216622 0.090447485 0.098461375 0.10621007 0.11370372 0.12096281
        0.12802504 0.13496296 0.1419253 0.14922217 0.15747634 0.16783823
        0.18217365 0.20296457 0.23259042 0.2721473 0.32079014 0.3758739
        0.43302706 0.48695725 0.53264946 0.5657785 0.001435623 0.00834083
        0.018096771 0.02779003 0.037379913 0.04682852 0.056101836 0.06517067
        0.07401135 0.082606286 0.09094439 0.09902139 0.10684029 0.11441236
        0.12175994 0.12892443 0.13598682 0.14311548 0.15066507 0.15935254
        0.17051025 0.18631427 0.20968054 0.2433804 0.28843346 0.3430287
        0.40290737 0.46227613 0.5152023 0.55724055 0.58483094 0.0012674639
        0.008529495 0.018308189 0.028027201 0.037646193 0.04712759 0.056437705
        0.06554771 0.07443435 0.0830805 0.09147561 0.09961607 0.1075057
        0.11515689 0.12259388 0.1298618 0.13705015 0.14434734 0.15215348
        0.16128246 0.17325604 0.19057992 0.21664663 0.25468388 0.3056588
        0.3666587 0.43153667 0.4929393 0.5445179 0.58277494 0.6052442
        0.0010654134 0.008751026 0.01855147 0.028295312 0.037942585 0.04745602
        0.056802273 0.06595288 0.07488501 0.08358201 0.092033856 0.100237615
        0.10819792 0.11592831 0.123454876 0.13082652 0.1381413 0.14560777
        0.1536721 0.16324714 0.17605048 0.19493681 0.22382256 0.26647177
        0.32384062 0.3917631 0.4618778 0.5251243 0.57499737 0.6092966
        0.62700164 0.0008338128 0.009000873 0.018821832 0.028589323 0.038263746
        0.04780814 0.057189494 0.06637972 0.07535637 0.084103286 0.09261099
        0.100877196 0.10890734 0.1167161 0.12433142 0.13180594 0.13924618
        0.1468808 0.15520218 0.16522318 0.17886254 0.19934262 0.23115616
        0.278702 0.3429913 0.41843355 0.49405673 0.558931 0.6066931
        0.6367645 0.6499474 0.0005766249 0.009274764 0.019114668 0.028904261
        0.038604297 0.04817811 0.057593018 0.06682128 0.07584085 0.08463603
        0.09319789 0.101524755 0.10962287 0.11750801 0.12520993 0.13278487
        0.14034775 0.148147 0.15672077 0.16718209 0.18165435 0.2037453
        0.23858164 0.29131845 0.36312032 0.4467757 0.5282088 0.59443617
        0.63958997 0.6650242 0.67375845 0.0002975185 0.009568606 0.019425433
        0.02923509 0.03895866 0.04855976 0.058005996 0.06726997 0.07633003
        0.085170895 0.09378414 0.102168694 0.110331565 0.11828956 0.12607417
        0.13374512 0.14142539 0.14938267 0.15819992 0.16908917 0.18438008
        0.20808193 0.2460183 0.30425027 0.3842386 0.47691756 0.56447506
        0.63167083 0.6735746 0.6937807 0.697918 0 0.009880232
        0.01975334 0.029582452 0.039328974 0.048956785 0.058433797 0.06773293
        0.07683291 0.08571888 0.094382904 0.10282451 0.11105143 0.11908149
        0.12694786 0.13471371 0.14250992 0.15062322 0.1596809 0.1709936
        0.187098 0.21241173 0.25347868 0.3172981 0.40555435 0.50700533
        0.5999731 0.66756046 0.70623827 0.72137916 0.72092783
      </DataArray>
      <DataArray type="Float32" Name="aspect_ratio" format="ascii" RangeMin="1.4635833501815796" RangeMax="22.59494972229004">
        21.825449 21.679018 21.482286 21.183401 20.787933 20.303186
        19.737917 19.101997 18.406052 17.6611 16.878214 16.068207
        15.241378 14.407302 13.574687 12.751298 11.943961 11.158675
        10.400829 9.675526 8.987904 8.343113 7.7451 7.192227
        6.66565 6.1058865 5.404349 4.542501 3.7810886 3.423392
        3.6241488 21.831863 21.646605 21.411253 21.074541 20.642633
        20.123365 19.525963 18.860685 18.13846 17.370522 16.568062
        15.741932 14.9023905 14.058903 13.220005 12.393234 11.585134
        10.801334 10.046741 9.325772 8.642579 8.000871 7.4025393
        6.8432527 6.302272 5.7276134 5.0471497 4.2799516 3.6322212
        3.3274715 3.5071945 21.838293 21.616915 21.345722 20.973991
        20.508427 19.957355 19.330431 18.638266 17.892057 17.103224
        16.283056 15.442433 14.591562 13.739795 12.8955 12.065995
        11.257546 10.475435 9.724097 9.007295 8.328228 7.689265
        7.0904827 6.5254736 5.9728255 5.3883705 4.727732 4.032009
        3.465459 3.1970816 3.3394632 21.84474 21.592894 21.291368
        20.88989 20.395626 19.817327 19.16502 18.449623 17.682577
        16.87547 16.039696 15.186166 14.325059 13.465646 12.616161
        11.783745 10.974429 10.193193 9.44405 8.730158 8.053842
        7.416252 6.8159375 6.245033 5.682555 5.092138 4.449585
        3.8059614 3.2941017 3.0489101 3.1311133 21.851217 21.575233
        21.249592 20.824366 20.307089 19.706861 19.034006 18.299702
        17.515594 16.693419 15.844665 14.98028 14.1104355 13.244345
        12.390148 11.554846 10.744287 9.96319 9.2152 8.502922
        7.827877 7.190123 6.5869308 6.009518 5.4381194 4.843685
        4.2162113 3.608824 3.128757 2.8903117 2.8975902 21.857727
        21.564695 21.221933 20.779743 20.245932 19.629843 18.942028
        18.193861 17.397142 16.563725 15.705178 14.832491 13.955838
        13.084405 12.226271 11.388341 10.5763235 9.794732 9.046889
        8.334902 7.6595507 7.019903 6.412174 5.8270974 5.2466407
        4.648323 4.031765 3.4474204 2.9801922 2.7305274 2.6565216
        21.864283 21.561588 21.209017 20.756983 20.21345 19.587917
        18.891077 18.134428 17.329874 16.489357 15.624502 14.74634
        13.865061 12.989846 12.128746 11.288612 10.475062 9.69245
        8.943824 8.230839 7.5535884 6.910232 6.296103 5.701788
        5.1112976 4.5079045 3.8975432 3.3255465 2.8566496 2.5790138
        2.4230797 21.870886 21.566416 21.21186 20.757612 20.211687
        19.583632 18.884188 18.124907 17.317738 16.474669 15.607364
        14.726889 13.843458 12.966272 12.103388 11.261644 10.446613
        9.662537 8.912237 8.1969595 7.5161424 6.867095 6.2443895
        5.638704 5.0362515 4.4253035 3.8158755 3.2473223 2.7661865
        2.4460518 2.211845 21.877544 21.577826 21.227764 20.777636
        20.235403 19.610579 18.913881 18.156843 17.351423 16.509611
        15.643101 14.7629795 13.8794985 13.001892 12.138251 11.295438
        10.479014 9.6931505 8.940477 8.221857 7.5361004 6.8797007
        6.2465653 5.627649 5.0114717 4.390707 3.7780278 3.2068515
        2.7076073 2.3362691 2.0262275 21.884256 21.593687 21.252491
        20.810755 20.27633 19.658632 18.968302 18.21682 17.41611
        16.578152 15.714644 14.836702 13.954614 13.07766 12.213984
        11.37049 10.552758 9.764912 9.009411 8.286753 7.595134
        6.9302554 6.2854414 5.652088 5.0211177 4.3891773 3.7707405
        3.19381 2.675066 2.2497902 1.8608083 21.89102 21.615593
        21.289219 20.861712 20.340715 19.735466 19.056461 18.31507
        17.52313 16.692587 15.835122 14.961869 14.083159 13.208338
        12.345621 11.501988 10.683067 9.892969 9.134012 8.406343
        7.7075434 7.032521 6.374042 5.7240357 5.0758758 4.4299135
        3.8020713 3.215838 2.6767516 2.1983144 1.732058 21.897831
        21.64431 21.3395 20.932821 20.431616 19.844852 19.1828
        18.456646 17.678099 16.859018 16.011055 15.1453495 14.272284
        13.401282 12.540663 11.69751 10.877541 10.084886 9.321752
        8.587949 7.880432 7.1932874 6.518711 5.849208 5.1806474
        4.51698 3.8755956 3.2765498 2.7168732 2.1903193 1.6553696
        21.904684 21.678835 21.401321 21.021084 20.545074 19.981913
        19.34157 18.634995 17.87372 17.069492 16.23391 15.378119
        14.512555 13.646736 12.789105 11.946885 11.125911 10.330367
        9.562373 8.821408 8.103788 7.4027457 6.709886 6.018329
        5.3265147 4.642015 3.9838867 3.3697958 2.7907195 2.2248385
        1.6339895 21.91157 21.718601 21.47354 21.124767 20.678764
        20.143738 19.529297 18.846104 18.105478 17.319025 16.49828
        15.654389 14.7978525 13.938299 13.084322 12.243307 11.421241
        10.622395 9.84882 9.099678 8.370631 7.654023 6.940853
        6.2248893 5.5072336 4.799176 4.1217422 3.4911654 2.8945322
        2.2999523 1.6702266 21.91848 21.762861 21.554638 21.241562
        20.829584 20.326433 19.741316 19.084566 18.367264 17.600859
        16.796814 15.966286 15.119845 14.267255 13.417278 12.577499
        11.754085 10.951416 10.171508 9.413209 8.671526 7.9378943
        7.2026935 6.4603796 5.7148066 4.981108 4.2825885 3.634857
        3.0229113 2.4104238 1.7600043 21.92541 21.811136 21.643616
        21.36992 20.995415 20.527304 19.974354 19.346544 18.654697
        17.910103 17.124155 16.308023 15.472373 14.627119 13.781227
        12.942502 12.117323 11.310215 10.523174 9.754758 8.999317
        8.247375 7.488683 6.718422 5.943271 5.1823316 4.461473
        3.7963505 3.171303 2.5503976 1.8957664 21.932356 21.862972
        21.739534 21.508387 21.174263 20.743814 20.225334 19.628437
        18.963682 18.242195 17.475311 16.674234 15.849739 15.011921
        14.169973 13.331954 12.504482 11.692255 10.897278 10.117835
        9.347634 8.576286 7.792923 6.9934635 6.18747 5.398108
        4.6540656 3.9715781 3.3354053 2.7135382 2.0678644 21.939316
        21.918224 21.84206 21.6564 21.365316 20.974876 20.49289
        19.928593 19.29228 18.594929 17.847828 17.062231 16.249054
        15.418599 14.580315 13.742541 12.912171 12.094099 11.290367
        10.499012 9.713115 8.92138 8.112323 7.2826037 6.4446936
        5.625904 4.857971 4.158148 3.5123844 2.8947546 2.2676098
        21.946287 21.97666 21.950691 21.813173 21.567484 21.219088
        20.775307 20.245 19.638206 18.965763 18.238934 17.469053
        16.667198 15.8439045 15.00891 14.170868 13.3369665 12.512332
        11.699066 10.894983 10.092562 9.279611 8.44402 7.583182
        6.7124705 5.8634095 5.070989 4.3538404 3.6996095 3.0894353
        2.4873786 21.953272 22.0397 22.068178 21.982668 21.785822
        21.482487 21.079475 20.58527 20.009665 19.363375 18.657671
        17.903988 17.113607 16.297337 15.46524 14.626318 13.788101
        12.955976 12.132142 11.31422 10.494101 9.658705 8.795272
        7.901889 6.996829 6.115927 5.2976885 4.5624833 3.8999512
        3.29832 2.7253542 21.960266 22.105516 22.190907 22.159567
        22.013414 21.756676 21.395666 20.938503 20.394753 19.77504
        19.09065 18.353165 17.574083 16.76452 15.934888 15.094564
        14.251441 13.411193 12.576142 11.74374 10.905314 10.046906
        9.155091 8.228594 7.288537 6.3751035 5.530504 4.77712
        4.1067057 3.5139866 2.9728339 21.967274 22.183779 22.337652
        22.371086 22.285183 22.083483 21.771778 21.35781 20.85093
        20.261702 19.6015 18.8821 18.115316 17.31265 16.484955
        15.642082 14.792372 13.941868 13.093082 12.243341 11.383415
        10.49842 9.574175 8.609976 7.6298614 6.678679 5.802891
        5.027406 4.3460913 3.7588477 3.250455 21.97429 22.258997
        22.478313 22.573568 22.545097 22.395803 22.130985 21.758043
        21.286139 20.725786 20.088448 19.386103 18.630863 17.834606
        17.008612 16.163181 15.30709 14.446737 13.584819 12.718549
        11.838171 10.927908 9.972819 8.972678 7.954274 6.9669976
        6.0615973 5.2656474 4.575037 3.9935417 3.5193338 21.981327
        22.270937 22.495056 22.59495 22.570883 22.425701 22.164648
        21.795084 21.326143 20.768322 20.133072 19.432379 18.678366
        17.882925 17.057365 16.212006 15.355629 14.494619 13.631593
        12.763576 11.880479 10.966083 10.005136 8.997792 7.972418
        6.9807553 6.075401 5.2848926 4.6068406 4.0483727 3.6073523
        21.9884 22.219736 22.388142 22.435617 22.363054 22.173811
        21.873518 21.469797 20.971912 20.390368 19.736515 19.02214
        18.259094 17.458927 16.632565 15.789922 14.93937 14.0869
        13.234786 12.3798 11.511725 10.614355 9.672584 8.68683
        7.6857963 6.721319 5.8453317 5.085609 4.441195 3.9213848
        3.508656 21.995508 22.162167 22.268599 22.257633 22.130884
        21.892302 21.547968 21.10582 20.575277 19.966883 19.291885
        18.561867 17.788374 16.982597 16.155039 15.315168 14.470907
        13.627822 12.787829 11.947466 11.096439 10.218631 9.299106
        8.338426 7.3653345 6.4314003 5.587603 4.8608427 4.251396
        3.7685995 3.3816273 22.002651 22.11346 22.166039 22.103981
        21.929573 21.647335 21.2638 20.787216 20.227201 19.59436
        18.899897 18.155243 17.371717 16.560204 15.73086 14.892772
        14.053476 13.218178 12.388488 11.560742 10.724587 9.863962
        8.964014 8.025323 7.0766187 6.169334 5.3537827 4.6562576
        4.078004 3.6265533 3.2626925 22.00982 22.066795 22.067226
        21.955482 21.734533 21.409477 20.987314 20.476637 19.887283
        19.229952 18.515827 17.756224 16.96225 16.144518 15.312857
        14.475996 13.641108 12.81305 11.993157 11.177594 10.355978
        9.512323 8.631816 7.714915 6.790155 5.9087467 5.120397
        4.4508667 3.9019744 3.4783118 3.13413 22.017017 22.024511
        21.976793 21.818962 21.554642 21.1895 20.731 20.188086
        19.570822 18.890028 18.156902 17.382671 16.578276 15.754088
        14.919652 14.083375 13.252103 12.430388 11.619319 10.814925
        10.006826 9.179108 8.31693 7.420477 6.5179396 5.6603117
        4.896864 4.2529564 3.7305663 3.330555 3.0029445 22.024239
        21.986092 21.893776 21.693079 21.388252 20.98551 20.49277
        19.919323 19.275482 18.5722 17.820711 17.032183 16.217419
        15.38659 14.548984 13.712726 12.884365 12.068184 11.265063
        10.470935 9.675447 8.862765 8.017952 7.1407514 6.25883
        5.4229536 4.6821427 4.061472 3.5626667 3.1824565 2.8682823
        22.031483 21.951717 21.818577 21.57849 21.23629 20.798714
        20.274115 19.672125 19.003305 18.278753 17.509756 16.70745
        15.88253 15.044997 14.20392 13.367174 12.541052 11.729599
        10.933529 10.148714 9.364867 8.566233 7.7377024 6.878392
        6.0152416 5.198786 4.4780216 3.8778746 3.3994646 3.035299
        2.7317538 22.03875 21.921307 21.751076 21.475073 21.098677
        20.629105 20.07512 19.446692 18.754612 18.010136 17.224617
        16.40918 15.574437 14.730247 13.885492 13.047834 12.223344
        11.415869 10.62599 9.849566 9.076408 8.290849 7.4775276
        6.6347213 5.788399 4.988851 4.2853136 3.702739 3.2413821
        2.889724 2.594401 22.046036 21.894747 21.691097 21.382627
        20.975218 20.476524 19.895699 19.243011 18.529493 17.766554
        16.965616 16.137812 15.293691 14.443 13.594463 12.75556
        11.932172 11.127988 10.343499 9.57459 8.811213 8.037798
        7.238653 6.4109755 5.5794654 4.794126 4.104746 3.536545
        3.0887928 2.7463868 2.4574165 22.05334 21.871862 21.638319
        21.30073 20.865414 20.340439 19.735302 19.060566 18.327477
        17.547592 16.732416 15.893096 15.040139 14.183199 13.330872
        12.490481 11.667756 10.866258 10.0864315 9.324235 8.569807
        7.8076963 7.0217934 6.207947 5.389213 4.6152205 3.9366755
        3.3794172 2.9417877 2.6057477 2.321874 22.060663 21.852428
        21.592325 21.228798 20.768566 20.220057 19.593084 18.898474
        18.147676 17.352388 16.524199 15.674272 14.813091 13.950235
        13.094193 12.252164 11.4297495 10.6304245 9.854623 9.098427
        8.352218 7.600691 6.8272433 6.0260663 5.218099 4.452429
        3.7811208 3.2311466 2.8001957 2.4680889 2.1887069 22.068005
        21.836187 21.552635 21.166157 20.683825 20.114391 19.467953
        18.755571 17.988886 17.179724 16.339748 15.480156 14.61141
        13.743033 12.883428 12.039689 11.217322 10.4197445 9.647427
        8.896624 8.158021 7.4165053 6.6549163 5.865439 5.066289
        4.305739 3.637742 3.091162 2.663561 2.333487 2.0586362
        22.075361 21.82288 21.518742 21.112082 20.610277 20.022367
        19.358702 18.630554 17.849728 17.02817 16.177622 15.309309
        14.433682 13.560221 12.697259 11.851809 11.029305 10.233139
        9.463855 8.717941 7.986457 7.2545457 6.504439 5.725931
        4.9337378 4.1748757 3.5058513 2.9585266 2.5311434 2.2018049
        1.9321078 22.082733 21.812254 21.490166 21.065876 20.547035
        19.942934 19.264137 18.522108 17.7288 16.896267 16.036322
        15.160215 14.2783985 13.400316 12.5342455 11.687138 10.864377
        10.069361 9.302748 8.561317 7.836587 7.1140423 6.375284
        5.607293 4.8202925 4.059363 3.384417 2.831928 2.401918
        2.0726821 1.8092359 22.090118 21.8041 21.466494 21.026945
        20.493336 19.87517 19.183208 18.429075 17.624855 16.782703
        15.914488 15.031495 14.144175 13.261944 12.393041 11.544367
        10.721281 9.927211 9.162976 8.425708 7.707474 6.9942183
        6.2669277 5.509308 4.7258205 3.9585881 3.2720566 2.7096574
        2.2745743 1.945524 1.689747 22.097515 21.798275 21.447449
        20.994879 20.448645 19.818436 19.115175 18.350634 17.537006
        16.686533 15.811139 14.922141 14.02999 13.144087 12.272638
        11.422515 10.599066 9.805782 9.043681 8.310313 7.598404
        6.8944983 6.1790385 5.4319715 4.6503644 3.8718581 3.1669872
        2.5895586 2.1475036 1.8194847 1.5729318 22.104921 21.7936
        21.430696 20.966234 20.40847 19.767263 19.053694 18.279654
        17.457445 16.599386 15.717455 14.822992 13.926455 13.037226
        12.1634865 11.31208 10.488362 9.695899 8.935939 8.206513
        7.5011244 6.8071456 6.1048126 5.3704476 4.5928392 3.803514
        3.078966 2.4845862 2.033573 1.7043709 1.4635834
      </DataArray>
      <DataArray type="Float32" Name="jacobian" format="ascii" RangeMin="0.0004315168771427125" RangeMax="0.010659502819180489">
        0.010470176 0.010433175 0.010367263 0.010247146 0.010075457 0.00985581
        0.009592631 0.009290987 0.008956392 0.008594616 0.008211498 0.007812777
        0.007403944 0.006990126 0.006575988 0.0061656674 0.0057627177 0.0053700656
        0.004989962 0.004623926 0.0042726835 0.0039361436 0.0036134645 0.003303335
        0.0030044299 0.0027147222 0.0024226815 0.0020793383 0.001600281 0.0009907503
        0.00043151688 0.010473253 0.010454912 0.010407703 0.010305999 0.010152127
        0.00994941 0.009702024 0.009414817 0.009093136 0.008742622 0.00836904
        0.007978095 0.007575288 0.00716579 0.00675434 0.0063451645 0.0059419074
        0.005547558 0.005164357 0.0047936784 0.0044358927 0.0040902705 0.0037550246
        0.003427608 0.0031052146 0.002784712 0.0024582613 0.0020970465 0.0016479869
        0.0010979063 0.0005187498 0.010476337 0.010475427 0.010445769 0.010361426
        0.010224435 0.010037848 0.009805593 0.009532309 0.009223171 0.008883694
        0.008519555 0.008136419 0.0077397814 0.007334844 0.0069264024 0.0065187556
        0.0061156205 0.005720026 0.005334174 0.0049592485 0.0045951987 0.004240577
        0.0038925824 0.0035474887 0.0032014346 0.0028512685 0.002493781 0.0021174503
        0.0016945942 0.0011989597 0.00060108426 0.01047943 0.01049328 0.010478619
        0.010409251 0.010286967 0.01011458 0.0098958 0.009635071 0.009337407
        0.009008193 0.008653013 0.008277473 0.007887044 0.007486933 0.007081963
        0.006676478 0.006274232 0.0058782594 0.0054906793 0.0051124324 0.0047429744
        0.004380053 0.004019806 0.0036574341 0.0032885177 0.002910951 0.0025267827
        0.002138195 0.0017369973 0.0012951801 0.00069807534 0.010482535 0.010508117
        0.010505471 0.010448203 0.010337907 0.010177204 0.009969623 0.009719446
        0.009431545 0.009111187 0.00876387 0.008395135 0.008010419 0.007614915
        0.0072134556 0.0068104 0.0064095147 0.0060138046 0.0056252712 0.005244564
        0.004870589 0.004500238 0.0041285874 0.003749939 0.003359847 0.002958152
        0.0025524343 0.002155413 0.001772784 0.0013826512 0.0008099204 0.010485656
        0.01051955 0.010525481 0.01047692 0.010375321 0.010223169 0.010023858
        0.009781553 0.009501013 0.009187418 0.008846188 0.008482812 0.008102689
        0.0077109938 0.0073125516 0.00691172 0.006512254 0.0061171055 0.005728127
        0.0053456505 0.004968006 0.004591227 0.0042093988 0.0038161762 0.0034076232
        0.0029862006 0.0025648896 0.0021641324 0.0017985005 0.001456228 0.0009319455
        0.010488797 0.010527416 0.010538273 0.010494762 0.010398263 0.0102511775
        0.010056822 0.009819283 0.009543255 0.0092338575 0.008896461 0.008536513
        0.008159385 0.007770232 0.0073738643 0.0069746273 0.006576247 0.006181605
        0.0057923924 0.005408614 0.0050280364 0.004645889 0.0042554145 0.0038499318
        0.0034264983 0.0029905816 0.0025600223 0.0021604763 0.0018112345 0.001511128
        0.0010551007 0.01049196 0.010531464 0.010543302 0.010500864 0.010405511
        0.010259624 0.010066498 0.009830199 0.009555396 0.009247187 0.008910921
        0.008552031 0.008175868 0.007787571 0.007391938 0.006993292 0.0065953205
        0.006200826 0.005811333 0.0054265372 0.0050436934 0.0046573435 0.004260107
        0.0038453105 0.0034113906 0.0029668864 0.0025336007 0.0021401735 0.0018074278
        0.0015427797 0.0011644053 0.010495149 0.010532351 0.010541899 0.010497222
        0.010399715 0.010251791 0.0100567695 0.0098187355 0.009542374 0.009232792
        0.008895346 0.008535464 0.008158497 0.007769572 0.0073734713 0.006974493
        0.0065762815 0.0061815544 0.0057916814 0.005406076 0.0050215586 0.0046321247
        0.0042300024 0.0038088283 0.0033686385 0.0029208336 0.0024901286 0.0021063294
        0.0017895291 0.0015526812 0.001251721 0.010498363 0.010531122 0.01053618
        0.010487043 0.010385176 0.010233054 0.010034052 0.009792305 0.009512538
        0.009199889 0.008859734 0.008497515 0.008118583 0.00772806 0.0073307124
        0.0069308113 0.006531954 0.0061367764 0.005746503 0.005360304 0.0049746367
        0.0045830864 0.004177684 0.0037525815 0.0033094764 0.0028622642 0.0024375916
        0.0020651172 0.0017627414 0.0015450168 0.0013149218 0.010501601 0.010527001
        0.010524588 0.010467993 0.010358795 0.010199576 0.009993811 0.009745721
        0.009460105 0.009142159 0.0087973 0.008430997 0.008048612 0.0076552634
        0.0072557013 0.006854164 0.006454196 0.006058353 0.0056677284 0.005281294
        0.00489524 0.0045028976 0.0040963106 0.00367032 0.0032282262 0.0027859048
        0.0023709447 0.00201184 0.0017235179 0.0015183707 0.0013438906 0.010504861
        0.01051962 0.010506402 0.010439017 0.0103192115 0.010149727 0.009934181
        0.009676925 0.009382864 0.0090572825 0.008705658 0.0083335 0.007946187
        0.0075488365 0.007146174 0.0067423983 0.006340994 0.005944432 0.005553692
        0.0051675946 0.0047821635 0.0043906406 0.003985277 0.0035617095 0.0031246708
        0.0026914084 0.0022895369 0.0019456572 0.001671508 0.0014750708 0.0013360776
        0.010508143 0.010509477 0.0104826735 0.010401769 0.010268719 0.010086465
        0.0098588085 0.009590259 0.009285853 0.008950979 0.008591192 0.008212041
        0.007818924 0.0074169487 0.007010807 0.0066046445 0.006201875 0.005804881
        0.0054145358 0.0050295508 0.0046458663 0.0042567616 0.00385482 0.0034364918
        0.0030076904 0.0025864625 0.002199755 0.0018718839 0.0016115553 0.0014217409
        0.0013003933 0.010511441 0.010496857 0.010454035 0.010357277 0.010208789
        0.0100117475 0.009770163 0.009488725 0.00917262 0.008827347 0.008458536
        0.008071779 0.007672479 0.00726572 0.0068561467 0.006447834 0.0060441075
        0.005647251 0.0052580386 0.004875101 0.004494358 0.004109215 0.0037126576
        0.003301899 0.0028837551 0.0024765828 0.0021061834 0.0017944505 0.0015474203
        0.001363665 0.0012473356 0.010514753 0.010482132 0.010421297 0.010306847
        0.010141271 0.009928 0.009671272 0.009375966 0.00904742 0.00869124
        0.008313124 0.007918688 0.007513325 0.0071020764 0.006689515 0.0062796236
        0.0058756215 0.005479682 0.0050924784 0.004712577 0.0043359194 0.003956088
        0.0035664898 0.0031650078 0.0027590988 0.0023670555 0.002013268 0.0017172612
        0.0014828547 0.0013053692 0.0011873316 0.010518076 0.010465548 0.010385016
        0.010251401 0.010067493 0.00983699 0.009564364 0.009254681 0.008913419
        0.008546278 0.008159 0.0077572083 0.007346257 0.006931119 0.00651627
        0.0061055766 0.0057021314 0.0053079813 0.0049236957 0.0045477864 0.004176238
        0.0038028362 0.0034213958 0.0030303607 0.0026376015 0.0022610864 0.0019236791
        0.0016427024 0.0014202181 0.0012494199 0.0011272394 0.010521409 0.010447338
        0.010345713 0.010191796 0.009988684 0.009740344 0.009451469 0.009127299
        0.008773432 0.008395636 0.007999671 0.0075911316 0.007175309 0.0067570745
        0.0063407817 0.0059301555 0.0055281417 0.005136648 0.004756132 0.0043850574
        0.004019463 0.0036533433 0.0032808897 0.0029010007 0.0025217768 0.0021606945
        0.001839083 0.0015722843 0.0013610244 0.0011972259 0.0010709119 0.010524751
        0.010427588 0.010303619 0.010128452 0.0099054845 0.009638941 0.009333717
        0.008995197 0.008629069 0.008241136 0.007837141 0.007422617 0.0070027565
        0.006582301 0.0061654523 0.005755772 0.00535604 0.0049680113 0.004592029
        0.0042265067 0.0038675463 0.0035093466 0.0031464386 0.002778078 0.0024124524
        0.002066444 0.001759898 0.0015064052 0.0013057155 0.0011490434 0.0010196334
        0.010528102 0.010406424 0.010259041 0.010061885 0.009818643 0.0095337685
        0.009212325 0.0088598095 0.00848196 0.008084571 0.007673332 0.007253678
        0.0068306667 0.0064088814 0.0059923474 0.0055844416 0.005187763 0.004803906
        0.0044330927 0.004073691 0.0037218672 0.0033720157 0.0030189701 0.0026622585
        0.0023100488 0.0019785736 0.0016862769 0.0014452179 0.0012544638 0.0011048684
        0.00097364903 0.010531459 0.010383198 0.010210778 0.009990442 0.009726131
        0.009422496 0.009084727 0.008718384 0.008329209 0.007922944 0.007505176
        0.0070811994 0.0066559007 0.00623367 0.005818328 0.0054130447 0.0050202217
        0.0046412805 0.004276319 0.0039236583 0.0035795306 0.0032385215 0.002895734
        0.0025508995 0.0022120746 0.0018947982 0.0016161829 0.0013869308 0.0012056531
        0.0010630771 0.00093124196 0.010534824 0.010358794 0.010160593 0.009916726
        0.009631339 0.009309221 0.008955635 0.008576151 0.008176458 0.0077622
        0.0073388205 0.006911435 0.0064847292 0.006062877 0.0056494754 0.0052474765
        0.004859077 0.0044855224 0.0041267877 0.0037811522 0.0034449124 0.0031128353
        0.0027802614 0.0024470664 0.0021211386 0.0018173238 0.001551508 0.0013332136
        0.0011607768 0.001024954 0.0008934656 0.010538195 0.010328728 0.010100061
        0.009828898 0.009519521 0.009176778 0.008805924 0.008412451 0.008001913
        0.007579771 0.007151244 0.006721198 0.0062940493 0.0058736955 0.00546346
        0.005066031 0.0046833665 0.0043165106 0.0039652986 0.0036279599 0.0033008605
        0.0029789517 0.0026577972 0.0023373656 0.002025287 0.0017356356 0.0014830601
        0.00127597 0.0011125632 0.0009838807 0.00085361756 0.010541571 0.010300261
        0.010042984 0.0097465385 0.0094152475 0.009053938 0.0086677885 0.008262157
        0.007842423 0.007413829 0.006981355 0.006549607 0.0061227325 0.005704361
        0.0052975547 0.004904756 0.0045277015 0.004167255 0.0038231283 0.0034935127
        0.0031748426 0.002862235 0.0025514446 0.002242498 0.0019427671 0.0016656308
        0.0014246617 0.0012273338 0.0010718129 0.0009495152 0.00082092197 0.010544953
        0.010301166 0.010041606 0.009743069 0.009409896 0.00904692 0.00865932
        0.008252457 0.007831703 0.007402294 0.0069691977 0.0065370067 0.0061098537
        0.005691352 0.0052845464 0.0048918664 0.0045150365 0.004154919 0.0038112355
        0.0034822107 0.0031643372 0.002852814 0.0025434843 0.0022364517 0.0019391321
        0.0016648244 0.0014267792 0.0012321296 0.0010791136 0.0009590412 0.0008319858
        0.010548347 0.010331393 0.0100957425 0.009818125 0.009502872 0.00915487
        0.008779399 0.008381959 0.007968101 0.0075432654 0.0071126465 0.0066810725
        0.0062529175 0.005832032 0.005421691 0.0050245402 0.0046425033 0.004276619
        0.003926757 0.0035912541 0.0032666677 0.0029482143 0.0026317462 0.0023174784
        0.0020131697 0.0017326238 0.0014894613 0.0012909962 0.0011355786 0.0010139702
        0.00088860583 0.010551756 0.010364801 0.010156248 0.009902658 0.009608281
        0.0092779845 0.008917097 0.008531224 0.008126069 0.0077072713 0.0072802496
        0.00685008 0.0064213965 0.005998311 0.0055843573 0.005182428 0.004794678
        0.004422355 0.0040655104 0.0037226211 0.003390334 0.0030638974 0.0027391703
        0.0024164736 0.0021039268 0.0018159177 0.0015665647 0.0013634701 0.0012050867
        0.0010817854 0.00095844007 0.010555179 0.010394269 0.0102096535 0.009977656
        0.009702366 0.009388559 0.009041531 0.008666918 0.008270505 0.007858058
        0.0074351626 0.0070070853 0.0065786703 0.0061542513 0.0057375855 0.005331786
        0.0049392194 0.004561333 0.0041983593 0.0038489338 0.0035098216 0.0031763392
        0.002844375 0.002514329 0.0021946102 0.0019001117 0.0016454178 0.0014384149
        0.0012776492 0.0011534137 0.0010324778 0.010558615 0.010422958 0.0102618905
        0.010051442 0.009795486 0.009498645 0.009166127 0.008803543 0.008416712
        0.008011484 0.0075935693 0.0071683987 0.0067410027 0.006315919 0.0058971173
        0.0054879254 0.0050909235 0.004707764 0.004338878 0.0039830836 0.0036373008
        0.0032969508 0.002957969 0.0026208127 0.0022941262 0.001993279 0.001733352
        0.0015225661 0.00135958 0.0012348074 0.0011170931 0.010562065 0.01044974
        0.010310738 0.01012077 0.009883455 0.009603224 0.009285153 0.008934779
        0.008557908 0.008160427 0.0077481316 0.007326575 0.0069009396 0.006475939
        0.0060557313 0.0056438423 0.005243053 0.0048552216 0.0044809855 0.0041193697
        0.0037674904 0.003420922 0.0030756746 0.0027322355 0.0023993966 0.0020929198
        0.0018283718 0.0016143351 0.0014496202 0.001324989 0.0012113573 0.010565527
        0.010474832 0.010356552 0.010186065 0.009966722 0.009702732 0.009399006
        0.009060972 0.008694382 0.008305123 0.007899036 0.007481759 0.007058597
        0.006634409 0.006213519 0.00579963 0.005395715 0.005003833 0.0046248385
        0.0042579914 0.0039006514 0.003548605 0.0031979752 0.002849251 0.0025112648
        0.0022000584 0.0019316522 0.0017150195 0.0015491864 0.001425472 0.0013170245
        0.010569001 0.010498123 0.010399055 0.010246847 0.010044575 0.009796215
        0.009506494 0.009180703 0.008824511 0.008443771 0.008044334 0.0076318947
        0.0072118435 0.0067891567 0.0063682985 0.005953131 0.0055468 0.005151561
        0.004768496 0.0043971287 0.0040351185 0.0036785349 0.003323668 0.0029709819
        0.0026292182 0.0023145373 0.0020433427 0.0018250165 0.0016588893 0.0015370381
        0.0014349662 0.010572486 0.01051963 0.010438221 0.010302997 0.010116768
        0.009883275 0.009607049 0.00929323 0.008947382 0.008575295 0.00818281
        0.007775641 0.00735924 0.006938672 0.006518515 0.006102766 0.005694732
        0.0052968576 0.0049104583 0.004535359 0.004169578 0.0038095575 0.0034518263
        0.003096809 0.0027530014 0.0024364665 0.0021638689 0.0019450038 0.001779621
        0.0016607249 0.0015662484 0.010575982 0.010539384 0.010474057 0.010354456
        0.010183133 0.009963605 0.009700205 0.009397916 0.009062182 0.00869872
        0.008313327 0.007911722 0.00749939 0.007081459 0.0066625965 0.0062469156
        0.005837865 0.0054380735 0.005049102 0.0046711075 0.004302545 0.0039403304
        0.0035813309 0.0032259333 0.0028822166 0.0025658654 0.0022936116 0.0020756451
        0.0019122688 0.0017975306 0.0017117215 0.010579487 0.010557449 0.01050665
        0.010401284 0.01024367 0.010037107 0.009785743 0.009494402 0.009168406
        0.008813378 0.00843507 0.008039176 0.007631199 0.007216307 0.0067992364
        0.0063841958 0.0059747617 0.005573739 0.0051829447 0.004802911 0.004432609
        0.0040695523 0.003711077 0.0033575657 0.0030165003 0.0027028315 0.002433067
        0.0022177354 0.0020578364 0.0019484829 0.0018720254 0.010583003 0.01057392
        0.0105361445 0.010443637 0.010298506 0.010103855 0.009863651 0.009582569
        0.009265805 0.008918891 0.008547515 0.008157343 0.007753872 0.007342297
        0.0069274055 0.006513482 0.006104218 0.00570259 0.005310685 0.0049294527
        0.00455847 0.004195997 0.0038400048 0.0034909537 0.0031555549 0.002847584
        0.0025828993 0.00237225 0.0022174674 0.0021146014 0.0020474365 0.010586527
        0.010588905 0.010562724 0.010481742 0.0103478795 0.01016406 0.00993409
        0.0096625015 0.009354371 0.009015139 0.008650425 0.0082658585 0.007866921
        0.0074588205 0.0070463778 0.006633943 0.00622531 0.0058236253 0.005431258
        0.005049624 0.004679005 0.0043185754 0.0039671594 0.003625442 0.003299221
        0.0030005572 0.002744051 0.002540449 0.0023925074 0.0022968764 0.0022377165
        0.010590059 0.010602517 0.010586593 0.010515865 0.010392087 0.010218026
        0.009997344 0.009734439 0.009434277 0.009102211 0.008743795 0.00836461
        0.007970122 0.007565538 0.0071557043 0.006745023 0.0063373833 0.005936099
        0.00554384 0.0051625357 0.0047932807 0.0044363555 0.0040917126 0.0037605024
        0.0034475273 0.0031624925 0.0029178667 0.0027239984 0.0025845738 0.0024962283
        0.0024419115 0.010593597 0.010614869 0.010607954 0.010546275 0.010431446
        0.010266094 0.010053749 0.009798695 0.009505797 0.009180321 0.008827759
        0.0084536495 0.00806343 0.007662306 0.0072551393 0.006846376 0.006439994
        0.006039476 0.005647808 0.005267485 0.0049005295 0.0045485436 0.0042129485
        0.003895732 0.0036007308 0.0033345404 0.0031062535 0.0029251298 0.0027956346
        0.0027134516 0.0026581255 0.010597142 0.010626053 0.010626979 0.01057321
        0.010466238 0.010308568 0.010103621 0.009855573 0.009569201 0.009249696
        0.008902487 0.008533073 0.008146864 0.0077490574 0.0073445262 0.0069377543
        0.006532803 0.006133327 0.005742646 0.0053638723 0.005000074 0.004654414
        0.0043302057 0.0040308153 0.0037593308 0.0035183784 0.00331189 0.0031468507
        0.003028102 0.0029491428 0.0028832788 0.010600692 0.010636132 0.010643782
        0.010596824 0.010496642 0.010345644 0.010147151 0.009905251 0.00962464
        0.009310445 0.008968038 0.008602879 0.008220353 0.007825647 0.0074236407
        0.007018853 0.006615425 0.006217185 0.0058278046 0.005451064 0.005091195
        0.0047531878 0.004442761 0.0041654333 0.0039240606 0.0037163624 0.0035385292
        0.0033932393 0.003284946 0.0032036277 0.003112922 0.010604246 0.010645675
        0.010659503 0.010618814 0.010524899 0.010380072 0.010187562 0.009951379
        0.009676144 0.00936692 0.009029031 0.0086678965 0.008288879 0.007897152
        0.007497604 0.0070947856 0.0066929203 0.0062960167 0.005908119 0.0055337274
        0.005178364 0.004849118 0.0045546624 0.0043035084 0.0040987898 0.0039319065
        0.003787379 0.0036601645 0.0035547279 0.003460865 0.003331403
      </DataArray>
    </PointData>
    <CellData>
    </CellData>
    <Points>
      <DataArray type="Float32" Name="Points" NumberOfComponents="3" format="ascii" RangeMin="0.7725564497878942" RangeMax="0.8957099382750421">
        0.47601324 -0.014806153 0.60830563 0.485677 -0.014817411 0.6087681
        0.49529928 -0.014828187 0.60921085 0.50483114 -0.014838433 0.6096318
        0.5142254 -0.014848107 0.6100292 0.52343774 -0.014857179 0.6104019
        0.5324273 -0.014865623 0.6107489 0.5411574 -0.014873427 0.61106956
        0.5495962 -0.014880587 0.6113637 0.5577166 -0.014887106 0.6116315
        0.5654969 -0.014892995 0.61187345 0.57292044 -0.014898276 0.6120904
        0.5799755 -0.014902973 0.6122834 0.5866552 -0.014907118 0.6124537
        0.592957 -0.014910747 0.61260283 0.5988824 -0.014913899 0.6127323
        0.6044362 -0.014916614 0.6128438 0.6096264 -0.014918932 0.61293906
        0.6144633 -0.014920893 0.61301965 0.6189595 -0.014922539 0.61308724
        0.6231289 -0.014923905 0.6131434 0.6269867 -0.014925028 0.6131895
        0.63054883 -0.01492594 0.61322695 0.63383186 -0.01492667 0.613257
        0.63685226 -0.014927248 0.6132807 0.6396266 -0.0149276955 0.61329913
        0.64217126 -0.014928035 0.6133131 0.644502 -0.014928285 0.61332333
        0.6466342 -0.014928458 0.6133304 0.64858264 -0.01492857 0.613335
        0.65036124 -0.014928633 0.61333764 0.47601324 -0.014473065 0.6083136
        0.48567984 -0.014483247 0.6087763 0.49530494 -0.014493031 0.6092192
        0.50483954 -0.014502372 0.60964024 0.51423657 -0.014511226 0.6100378
        0.5234515 -0.014519561 0.6104106 0.5324436 -0.0145273525 0.61075765
        0.54117614 -0.014534582 0.6110783 0.5496171 -0.014541243 0.6113726
        0.5577397 -0.014547335 0.6116404 0.5655219 -0.01455287 0.6118824
        0.5729472 -0.014557861 0.61209935 0.58000386 -0.014562333 0.6122923
        0.58668494 -0.014566313 0.61246264 0.59298795 -0.014569833 0.6126117
        0.59891427 -0.01457293 0.6127412 0.60446876 -0.0145756425 0.61285263
        0.60965925 -0.014578019 0.6129478 0.6144961 -0.014580116 0.61302835
        0.61899143 -0.014582012 0.6130959 0.62315875 -0.014583823 0.6131519
        0.62701213 -0.01458572 0.6131979 0.630566 -0.014587948 0.61323524
        0.6338341 -0.014590828 0.6132651 0.63682914 -0.014594717 0.6132885
        0.639562 -0.014600099 0.6133066 0.64204216 -0.014608638 0.6133201
        0.6442844 -0.014627075 0.6133297 0.64632285 -0.014669512 0.6133358
        0.6482146 -0.014743852 0.61333877 0.65001184 -0.0148324305 0.61333954
        0.47601324 -0.014139971 0.6083214 0.48568267 -0.014148479 0.60878426
        0.49531063 -0.014156663 0.6092273 0.50484806 -0.014164478 0.6096485
        0.51424783 -0.014171884 0.61004627 0.52346545 -0.014178844 0.61041915
        0.5324601 -0.014185335 0.6107663 0.5411951 -0.014191335 0.6110871
        0.5496385 -0.014196838 0.61138135 0.5577632 -0.014201843 0.6116493
        0.5655475 -0.014206355 0.6118913 0.5729747 -0.01421039 0.6121083
        0.580033 -0.014213967 0.61230123 0.58671564 -0.0142171085 0.6124716
        0.5930199 -0.014219849 0.61262065 0.5989472 -0.014222219 0.6127501
        0.60450256 -0.01422426 0.6128615 0.6096935 -0.014226027 0.61295664
        0.6145303 -0.014227595 0.61303717 0.6190249 -0.01422909 0.61310464
        0.62319005 -0.014230716 0.6131606 0.6270389 -0.0142328 0.61320657
        0.6305842 -0.014235828 0.6132437 0.6338369 -0.014240432 0.6132733
        0.6368062 -0.01424732 0.6132965 0.63949823 -0.014257412 0.6133143
        0.641918 -0.014273713 0.6133274 0.64408046 -0.014307848 0.61333644
        0.6460315 -0.014384604 0.6133416 0.64785576 -0.014523166 0.61334324
        0.6496462 -0.014703626 0.6133422 0.47601324 -0.013806874 0.60832906
        0.48568553 -0.013813191 0.6087921 0.49531636 -0.013819239 0.60923535
        0.50485665 -0.01382498 0.6096567 0.51425916 -0.013830373 0.61005455
        0.5234796 -0.013835384 0.61042756 0.53247684 -0.013839982 0.6107748
        0.54121447 -0.013844156 0.6110957 0.54966027 -0.013847891 0.6113901
        0.5577873 -0.013851184 0.6116581 0.56557375 -0.013854044 0.6119002
        0.5730029 -0.01385648 0.6121172 0.58006305 -0.013858509 0.61231023
        0.5867472 -0.013860159 0.6124805 0.5930529 -0.01386145 0.6126296
        0.59898144 -0.013862422 0.61275905 0.60453767 -0.013863113 0.6128705
        0.60972923 -0.013863585 0.61296564 0.61456615 -0.013863942 0.61304605
        0.61906 -0.013864355 0.6131135 0.623223 -0.013865132 0.6131694
        0.62706727 -0.013866777 0.6132152 0.6306037 -0.013870038 0.6132523
        0.6338408 -0.013875895 0.6132817 0.63678426 -0.0138854105 0.6133047
        0.6394365 -0.013899899 0.6133221 0.6417999 -0.013923387 0.61333483
        0.6438907 -0.013970824 0.6133434 0.64576113 -0.014074475 0.613348
        0.6475104 -0.014265661 0.6133485 0.6492672 -0.014535308 0.6133457
        0.47601324 -0.0134737715 0.60833657 0.48568842 -0.013477473 0.60879976
        0.49532214 -0.013480942 0.60924315 0.5048653 -0.013484149 0.6096647
        0.51427066 -0.013487055 0.6100627 0.5234938 -0.0134896245 0.6104359
        0.5324939 -0.013491828 0.6107833 0.5412341 -0.013493651 0.6111043
        0.54968244 -0.01349508 0.61139876 0.55781186 -0.013496113 0.6116668
        0.5656006 -0.013496754 0.611909 0.5730318 -0.013497013 0.61212605
        0.58009386 -0.013496906 0.6123191 0.5867798 -0.013496453 0.61248946
        0.593087 -0.013495683 0.6126386 0.59901685 -0.013494623 0.612768
        0.6045741 -0.013493322 0.6128794 0.60976636 -0.013491848 0.6129746
        0.6146035 -0.0134903295 0.613055 0.61909676 -0.013489 0.6131224
        0.62325776 -0.013488273 0.61317825 0.6270975 -0.01348885 0.613224
        0.63062495 -0.013491775 0.6132609 0.63384634 -0.013498393 0.6132902
        0.6367642 -0.0135101285 0.6133129 0.63937825 -0.013528615 0.61333
        0.6416896 -0.013558566 0.61334246 0.6437162 -0.01361692 0.61335063
        0.6455132 -0.0137404855 0.61335474 0.64718336 -0.0139714265 0.61335444
        0.64888036 -0.014320597 0.6133501 0.47601324 -0.013140667 0.60834384
        0.48569134 -0.013141424 0.60880727 0.49532795 -0.013141977 0.60925084
        0.504874 -0.013142298 0.60967255 0.5142823 -0.013142346 0.6100707
        0.5235083 -0.013142088 0.610444 0.5325111 -0.013141495 0.61079156
        0.54125404 -0.013140551 0.6111127 0.54970497 -0.013139244 0.6114073
        0.5578369 -0.01313757 0.61167544 0.56562793 -0.013135528 0.6119177
        0.57306135 -0.013133134 0.6121348 0.5801255 -0.013130395 0.6123279
        0.5868133 -0.013127335 0.6124983 0.5931222 -0.013123975 0.6126474
        0.59905344 -0.013120347 0.61277694 0.6046119 -0.013116497 0.61288834
        0.60980505 -0.013112507 0.61298347 0.61464256 -0.013108532 0.6130639
        0.6191354 -0.013104866 0.6131313 0.6232945 -0.01310205 0.6131871
        0.62712973 -0.013100991 0.6132328 0.63064843 -0.013103056 0.61326957
        0.63385427 -0.013109974 0.61329865 0.63674724 -0.013123518 0.6133212
        0.6393251 -0.013145544 0.61333805 0.6415889 -0.013181102 0.61335015
        0.64355874 -0.013247972 0.6133581 0.64528966 -0.01338492 0.61336184
        0.64688027 -0.013642043 0.61336106 0.64849466 -0.014053919 0.6133555
        0.47601324 -0.012807556 0.60835093 0.48569423 -0.012805166 0.60881454
        0.49533382 -0.012802584 0.6092583 0.5048828 -0.0127997855 0.60968024
        0.514294 -0.012796734 0.6100785 0.5235229 -0.012793393 0.61045206
        0.5325286 -0.0127897365 0.6107997 0.54127425 -0.012785746 0.61112094
        0.54972786 -0.012781407 0.6114156 0.55786234 -0.012776717 0.61168385
        0.5656558 -0.012771677 0.6119262 0.57309157 -0.012766293 0.6121434
        0.5801578 -0.012760579 0.6123366 0.5868476 -0.012754547 0.61250705
        0.5931583 -0.012748224 0.6126562 0.5990912 -0.012741637 0.61278564
        0.604651 -0.012734837 0.61289716 0.60984516 -0.012727912 0.6129923
        0.6146832 -0.01272105 0.6130727 0.6191758 -0.012714609 0.61314005
        0.6233332 -0.012709262 0.6131959 0.6271642 -0.012706138 0.6132415
        0.63067436 -0.012706938 0.61327815 0.6338652 -0.01271379 0.6133071
        0.6367345 -0.01272878 0.6133294 0.6392787 -0.012753877 0.61334604
        0.6414999 -0.0127941035 0.6133579 0.64342004 -0.012867104 0.6133656
        0.6450927 -0.0130114155 0.61336917 0.64660704 -0.013281201 0.6133682
        0.64812255 -0.013733183 0.613362 0.47601324 -0.012474445 0.60835785
        0.48569718 -0.01246881 0.6088217 0.4953397 -0.01246299 0.6092656
        0.5048917 -0.012456967 0.6096877 0.5143059 -0.012450698 0.6100862
        0.5235377 -0.012444148 0.6104598 0.5325463 -0.012437294 0.6108076
        0.54129475 -0.012430114 0.61112905 0.5497511 -0.012422596 0.6114238
        0.5578882 -0.012414732 0.6116922 0.5656842 -0.012406525 0.61193454
        0.5731223 -0.012397976 0.61215186 0.58019084 -0.012389097 0.61234504
        0.5868827 -0.0123799015 0.61251557 0.5931953 -0.012370409 0.61266476
        0.5991299 -0.012360648 0.6127943 0.6046912 -0.01235067 0.6129058
        0.6098866 -0.012340577 0.61300087 0.6147254 -0.012330581 0.61308134
        0.6192179 -0.0123211155 0.6131487 0.62337387 -0.012312979 0.6132045
        0.62720096 -0.0123075405 0.61325 0.6307031 -0.012306837 0.6132866
        0.6338797 -0.012313386 0.6133154 0.63672686 -0.012329555 0.6133375
        0.6392405 -0.012357292 0.6133539 0.6414241 -0.012401252 0.6133656
        0.64330167 -0.012478154 0.6133731 0.64492416 -0.01262456 0.6133767
        0.64636886 -0.012894611 0.6133758 0.6477782 -0.013360808 0.61336946
        0.47601324 -0.012141326 0.60836464 0.48570016 -0.012132488 0.6088286
        0.49534568 -0.012123471 0.6092728 0.5049007 -0.012114256 0.60969496
        0.5143178 -0.012104804 0.61009365 0.52355266 -0.012095081 0.61046743
        0.5325641 -0.01208506 0.61081535 0.54131544 -0.012074721 0.61113685
        0.5497746 -0.012064051 0.6114318 0.5579144 -0.01205304 0.61170024
        0.565713 -0.012041687 0.6119427 0.57315356 -0.012029996 0.61216
        0.5802244 -0.012017973 0.6123534 0.5869184 -0.012005631 0.61252385
        0.59323305 -0.0119929835 0.61267316 0.5991695 -0.011980062 0.6128027
        0.6047324 -0.011966917 0.61291414 0.60992914 -0.011953663 0.6130093
        0.61476886 -0.011940543 0.61308974 0.6192615 -0.011928053 0.6131571
        0.62341636 -0.011917133 0.6132128 0.62723994 -0.011909379 0.6132583
        0.6307346 -0.011907165 0.61329484 0.63389814 -0.01191338 0.61332345
        0.6367251 -0.01193061 0.6133454 0.6392116 -0.011960656 0.6133616
        0.6413629 -0.012007519 0.61337304 0.64320475 -0.012086379 0.6133805
        0.6447855 -0.012230548 0.6133841 0.6461699 -0.012490367 0.6133836
        0.6474762 -0.012946329 0.6133777 0.47601324 -0.011808205 0.6083712
        0.48570314 -0.011796273 0.6088354 0.49535167 -0.011784169 0.6092797
        0.5049097 -0.011771875 0.6097021 0.5143299 -0.0117593575 0.61010087
        0.5235677 -0.011746576 0.6104748 0.53258216 -0.011733507 0.6108229
        0.54133636 -0.011720127 0.61114454 0.5497983 -0.011706424 0.6114395
        0.55794084 -0.011692388 0.61170805 0.5657421 -0.011678015 0.61195064
        0.57318515 -0.0116633065 0.6121681 0.58025837 -0.011648268 0.61236143
        0.58695465 -0.011632908 0.61253196 0.5932714 -0.0116172405 0.61268127
        0.5992097 -0.011601292 0.6128108 0.60477436 -0.011585116 0.6129223
        0.6099726 -0.011568839 0.61301744 0.6148134 -0.0115527315 0.61309785
        0.61930645 -0.011537358 0.6131652 0.6234604 -0.011523791 0.6132209
        0.6272809 -0.011513854 0.6132663 0.6307689 -0.0115102455 0.6133027
        0.6339206 -0.011516196 0.61333126 0.63672954 -0.011534459 0.61335295
        0.63919234 -0.011566574 0.61336905 0.6413163 -0.011615661 0.6133804
        0.6431289 -0.011694952 0.61338776 0.64467615 -0.011833739 0.6133915
        0.6460112 -0.012075615 0.6133914 0.64722496 -0.012499421 0.61338633
        0.47601324 -0.011475082 0.6083775 0.48570612 -0.01146023 0.60884196
        0.49535772 -0.011445221 0.6092864 0.5049188 -0.011430035 0.60970896
        0.514342 -0.011414636 0.61010796 0.5235829 -0.011398992 0.61048204
        0.5326003 -0.011383071 0.61083025 0.5413574 -0.011366856 0.611152
        0.5498222 -0.011350329 0.61144704 0.5579675 -0.0113334805 0.6117157
        0.56577134 -0.011316304 0.6119583 0.573217 -0.011298802 0.61217576
        0.58029264 -0.011280973 0.6123692 0.5869912 -0.0112628285 0.61253977
        0.59331006 -0.011244377 0.6126891 0.5992505 -0.0112256445 0.61281866
        0.6048169 -0.011206687 0.6129301 0.6100167 -0.011187641 0.6130253
        0.61485875 -0.011168805 0.6131057 0.6193524 -0.011150811 0.61317295
        0.6235058 -0.011134859 0.6132286 0.6273236 -0.011122988 0.613274
        0.63080573 -0.011118204 0.61331034 0.6339469 -0.011124051 0.6133387
        0.63673997 -0.0111434 0.6133603 0.63918245 -0.011177439 0.6133762
        0.64128375 -0.011228243 0.6133874 0.6430732 -0.011306861 0.61339474
        0.64459467 -0.011438203 0.6133987 0.6458921 -0.011657426 0.6133991
        0.64702964 -0.0120317405 0.61339515 0.47601324 -0.011141954 0.6083837
        0.4857092 -0.011124479 0.6088483 0.49536383 -0.011106866 0.6092929
        0.50492793 -0.011089102 0.6097157 0.5143542 -0.011071148 0.6101148
        0.5235981 -0.011052971 0.610489 0.53261846 -0.011034543 0.6108373
        0.54137856 -0.01101584 0.61115915 0.5498462 -0.010996848 0.6114543
        0.55799425 -0.010977557 0.611723 0.5658007 -0.010957956 0.6119657
        0.5732489 -0.010938049 0.6121833 0.58032703 -0.010917831 0.61237663
        0.5870279 -0.01089731 0.6125473 0.593349 -0.010876496 0.6126966
        0.5992914 -0.01085541 0.61282617 0.6048597 -0.010834114 0.6129377
        0.61006117 -0.010812749 0.6130328 0.61490446 -0.010791647 0.61311316
        0.6193989 -0.010771499 0.6131804 0.6235519 -0.010753623 0.613236
        0.6273676 -0.010740265 0.6132813 0.63084465 -0.010734707 0.61331755
        0.6339766 -0.010740772 0.6133458 0.63675606 -0.010761389 0.6133672
        0.6391815 -0.010797345 0.613383 0.6412647 -0.010849583 0.61339414
        0.6430364 -0.010926885 0.61340153 0.6445395 -0.011049777 0.6134056
        0.6458107 -0.011244528 0.61340654 0.6468928 -0.011560553 0.61340386
        0.47601324 -0.010808823 0.60838974 0.48571223 -0.010789108 0.6088545
        0.49536994 -0.010769292 0.6092993 0.5049372 -0.010749357 0.60972214
        0.51436645 -0.010729266 0.61012137 0.52361333 -0.010708985 0.6104957
        0.5326367 -0.010688488 0.61084414 0.54139966 -0.010667752 0.61116606
        0.54987013 -0.0106467595 0.61146134 0.55802095 -0.010625498 0.6117301
        0.5658301 -0.010603962 0.61197287 0.5732808 -0.010582143 0.61219037
        0.5803613 -0.010560044 0.61238384 0.5870645 -0.010537668 0.6125545
        0.5933877 -0.010515021 0.6127038 0.59933215 -0.010492126 0.6128334
        0.6049024 -0.0104690455 0.6129448 0.61010545 -0.01044593 0.6130399
        0.6149502 -0.010423137 0.61312026 0.6194454 -0.010401411 0.6131875
        0.62359834 -0.010382185 0.613243 0.62741226 -0.010367885 0.6132882
        0.63088495 -0.010362044 0.61332434 0.63400906 -0.010368714 0.6133525
        0.6367771 -0.010390855 0.61337376 0.6391885 -0.0104288105 0.61338943
        0.6412575 -0.01048238 0.61340046 0.6430165 -0.01055812 0.61340785
        0.6445074 -0.010672426 0.61341214 0.645763 -0.010843136 0.6134136
        0.6468107 -0.011099579 0.61341214 0.47601324 -0.010475688 0.6083956
        0.48571527 -0.010454208 0.60886043 0.49537605 -0.010432671 0.6093054
        0.50494635 -0.01041106 0.60972846 0.5143787 -0.010389339 0.6101278
        0.5236286 -0.010367475 0.6105022 0.5326549 -0.010345439 0.6108507
        0.54142076 -0.01032321 0.61117274 0.549894 -0.010300766 0.6114681
        0.55804753 -0.010278097 0.61173683 0.56585926 -0.010255193 0.61197966
        0.57331246 -0.010232049 0.6121972 0.58039534 -0.010208662 0.6123907
        0.5871008 -0.010185031 0.61256135 0.5934261 -0.010161164 0.6127106
        0.59937257 -0.010137082 0.6128402 0.6049446 -0.010112849 0.61295164
        0.6101493 -0.0100886235 0.61304665 0.6149954 -0.010064784 0.61312693
        0.6194915 -0.010042129 0.6131941 0.62364453 -0.010022185 0.61324954
        0.6274571 -0.010007542 0.6132947 0.63092613 -0.010001947 0.6133307
        0.63404375 -0.010009649 0.61335874 0.63680226 -0.010033597 0.6133799
        0.6392025 -0.010073693 0.61339545 0.64126074 -0.010128628 0.6134064
        0.64301103 -0.010202883 0.6134139 0.64449525 -0.010309128 0.6134183
        0.6457439 -0.010457803 0.61342025 0.64677614 -0.010659313 0.6134199
        0.47601324 -0.010142552 0.6084012 0.48571834 -0.010119847 0.6088663
        0.4953822 -0.010097142 0.60931134 0.50495553 -0.010074421 0.6097345
        0.51439095 -0.0100516435 0.61013395 0.5236438 -0.010028775 0.6105085
        0.532673 -0.010005791 0.61085707 0.5414417 -0.009982663 0.6111792
        0.5499177 -0.009959374 0.6114745 0.5580739 -0.009935911 0.6117434
        0.56588817 -0.009912258 0.6119862 0.5733438 -0.009888412 0.6122038
        0.580429 -0.009864367 0.61239725 0.5871366 -0.00984012 0.61256784
        0.593464 -0.009815676 0.61271715 0.5994124 -0.009791057 0.6128466
        0.6049862 -0.009766324 0.612958 0.61019254 -0.009741645 0.613053
        0.61503994 -0.009717418 0.61313325 0.61953694 -0.009694484 0.61320037
        0.6236901 -0.009674453 0.61325574 0.62750167 -0.009660056 0.61330074
        0.6309678 -0.009655226 0.6133367 0.63408 -0.009664364 0.6133646
        0.63683075 -0.009690391 0.6133856 0.63922215 -0.009732786 0.61340106
        0.6412726 -0.009789212 0.613412 0.64301777 -0.009862265 0.6134195
        0.6444996 -0.009961391 0.61342406 0.64574826 -0.010090886 0.6134264
        0.64678043 -0.010245467 0.6134269 0.47601324 -0.00980941 0.60840666
        0.4857214 -0.00978609 0.6088718 0.49538833 -0.009762831 0.60931706
        0.5049647 -0.009739614 0.6097403 0.5144031 -0.009716405 0.6101399
        0.52365893 -0.0096931625 0.6105145 0.532691 -0.009669859 0.61086315
        0.5414625 -0.009646468 0.6111853 0.5499412 -0.009622971 0.6114807
        0.5580999 -0.0095993485 0.6117496 0.5659167 -0.009575588 0.6119924
        0.5733747 -0.009551682 0.61221 0.5804621 -0.009527619 0.61240345
        0.58717185 -0.009503398 0.612574 0.5935012 -0.009479021 0.61272323
        0.5994514 -0.009454503 0.6128527 0.60502696 -0.009429912 0.61296403
        0.6102348 -0.009405417 0.613059 0.6150835 -0.009381432 0.61313915
        0.61958146 -0.009358837 0.61320615 0.62373495 -0.009339316 0.61326146
        0.6275458 -0.009325714 0.6133064 0.6310095 -0.009322118 0.6133422
        0.63411736 -0.009333055 0.61337 0.6368619 -0.009361406 0.6133909
        0.63924664 -0.009406252 0.6134063 0.6412918 -0.009464334 0.6134172
        0.6430346 -0.009536589 0.61342466 0.6445176 -0.0096297525 0.6134294
        0.6457716 -0.009743288 0.6134321 0.6468149 -0.009860205 0.61343336
        0.47601324 -0.009476267 0.60841197 0.48572448 -0.00945299 0.60887724
        0.49539447 -0.009429839 0.6093226 0.5049738 -0.009406792 0.6097459
        0.51441526 -0.009383807 0.61014557 0.52367395 -0.009360848 0.61052024
        0.5327088 -0.0093378825 0.610869 0.54148304 -0.009314881 0.61119115
        0.5499644 -0.009291821 0.6114866 0.5581257 -0.009268684 0.6117555
        0.56594485 -0.009245454 0.6119983 0.57340515 -0.009222119 0.6122159
        0.5804947 -0.009198668 0.6124093 0.5872065 -0.009175095 0.6125799
        0.5935377 -0.009151396 0.6127291 0.5994897 -0.009127592 0.6128585
        0.6050668 -0.009103742 0.61296976 0.6102761 -0.009080024 0.6130646
        0.6151261 -0.009056865 0.6131447 0.619625 -0.009035175 0.61321163
        0.6237788 -0.009016695 0.6132668 0.62758917 -0.009004375 0.6133117
        0.6310511 -0.009002423 0.6133474 0.6341556 -0.009015468 0.61337507
        0.6368954 -0.009046345 0.6133959 0.63927525 -0.009093779 0.6134112
        0.6413171 -0.009153697 0.61342204 0.6430598 -0.009225609 0.61342955
        0.64454675 -0.009314032 0.61343443 0.6458101 -0.009414827 0.61343735
        0.6468722 -0.009503206 0.61343914 0.47601324 -0.009143121 0.60841703
        0.48572755 -0.0091205975 0.6088825 0.4954006 -0.009098257 0.6093279
        0.50498295 -0.009076072 0.60975134 0.5144273 -0.009053999 0.61015105
        0.52368885 -0.009031998 0.6105258 0.5327265 -0.009010034 0.6108746
        0.5415034 -0.008988076 0.6111968 0.5499874 -0.0089660995 0.6114923
        0.55815107 -0.008944081 0.61176115 0.56597257 -0.008922002 0.6120039
        0.573435 -0.008899848 0.61222154 0.58052665 -0.008877606 0.6124149
        0.58724034 -0.008855266 0.61258537 0.5935734 -0.008832821 0.61273456
        0.599527 -0.008810288 0.6128639 0.6051057 -0.008787731 0.6129751
        0.6103164 -0.008765327 0.6130699 0.61516756 -0.008743512 0.6131499
        0.61966735 -0.008723225 0.61321676 0.62382174 -0.008706257 0.6132719
        0.6276318 -0.008695635 0.6133166 0.6310925 -0.008695673 0.6133522
        0.6341944 -0.00871108 0.6133798 0.6369307 -0.008744643 0.6134005
        0.6393072 -0.008794777 0.6134157 0.64134765 -0.008856708 0.61342657
        0.6430921 -0.008928736 0.6134341 0.6445851 -0.009013607 0.6134391
        0.6458606 -0.009104676 0.6134422 0.64694625 -0.0091727665 0.6134444
        0.47601324 -0.008809972 0.608422 0.48573065 -0.00878896 0.6088875
        0.4954067 -0.008768173 0.60933304 0.50499207 -0.008747574 0.6097565
        0.5144393 -0.008727118 0.61015636 0.5237037 -0.008706764 0.6105311
        0.5327441 -0.008686474 0.6108799 0.5415236 -0.008666212 0.6112022
        0.55000997 -0.008645951 0.61149764 0.55817604 -0.008625667 0.6117665
        0.5659998 -0.008605338 0.61200935 0.5734644 -0.008584945 0.61222684
        0.580558 -0.008564474 0.6124202 0.58727354 -0.008543911 0.6125906
        0.5936083 -0.008523249 0.6127397 0.59956354 -0.008502503 0.61286896
        0.60514367 -0.008481733 0.6129801 0.6103557 -0.00846112 0.61307484
        0.61520797 -0.00844111 0.61315477 0.61970866 -0.008422661 0.6132215
        0.6238636 -0.008407606 0.6132766 0.6276736 -0.008399037 0.6133212
        0.6311335 -0.008401355 0.6133567 0.6342336 -0.0084193265 0.6133842
        0.6369676 -0.0084557 0.61340487 0.63934207 -0.008508624 0.61342
        0.6413825 -0.008572727 0.6134308 0.64313024 -0.008645314 0.6134383
        0.6446309 -0.008727741 0.6134434 0.6459207 -0.008811798 0.61344665
        0.6470324 -0.008866749 0.6134491 0.47601324 -0.00847682 0.6084267
        0.48573372 -0.008458119 0.6088923 0.4954128 -0.008439655 0.6093379
        0.5050011 -0.008421386 0.60976154 0.5144512 -0.008403265 0.61016136
        0.52371836 -0.008385245 0.6105362 0.53276145 -0.008367289 0.610885
        0.5415435 -0.00834936 0.6112073 0.5500323 -0.008331426 0.61150277
        0.55820066 -0.008313465 0.61177164 0.56602657 -0.008295448 0.6120144
        0.5734932 -0.008277358 0.6122319 0.5805887 -0.008259176 0.6124252
        0.58730596 -0.008240889 0.61259556 0.5936424 -0.008222487 0.61274457
        0.5995991 -0.008203982 0.6128738 0.6051806 -0.008185435 0.61298484
        0.6103939 -0.008167031 0.6130795 0.61524725 -0.008149223 0.6131593
        0.6197489 -0.008132984 0.613226 0.6239044 -0.008120181 0.61328095
        0.62771463 -0.008113961 0.6133255 0.6311741 -0.008118789 0.6133609
        0.6342731 -0.008139486 0.6133883 0.6370057 -0.00817876 0.6134089
        0.6393794 -0.008234536 0.613424 0.6414211 -0.0083009545 0.61343473
        0.64317334 -0.008374501 0.6134423 0.6446829 -0.0084554795 0.6134474
        0.6459882 -0.00853488 0.61345077 0.64712685 -0.008582683 0.6134534
        0.47601324 -0.008143666 0.6084312 0.4857368 -0.008128164 0.608897
        0.49541888 -0.008112869 0.60934263 0.5050101 -0.008097733 0.6097663
        0.51446307 -0.008082709 0.6101662 0.5237329 -0.008067751 0.61054105
        0.53277856 -0.0080528185 0.6108899 0.5415631 -0.008037876 0.61121213
        0.55005425 -0.008022891 0.6115076 0.55822486 -0.008007837 0.6117765
        0.56605285 -0.00799269 0.6120192 0.57352144 -0.007977432 0.6122367
        0.5806187 -0.007962041 0.61242986 0.5873377 -0.0079465015 0.61260027
        0.5936756 -0.007930809 0.61274916 0.59963375 -0.007914972 0.6128783
        0.6052165 -0.007899052 0.6129893 0.61043096 -0.007883239 0.61308384
        0.6152854 -0.007867988 0.6131636 0.6197879 -0.00785429 0.61323017
        0.6239441 -0.007844039 0.613285 0.6277547 -0.007840422 0.61332947
        0.63121414 -0.007847961 0.6133648 0.63431275 -0.007871515 0.6133921
        0.6370447 -0.007913761 0.6134127 0.63941866 -0.007972441 0.61342764
        0.6414626 -0.008041301 0.6134384 0.64322037 -0.008116186 0.61344594
        0.64473975 -0.008196623 0.6134511 0.6460613 -0.008273427 0.6134546
        0.64722675 -0.008319157 0.61345726 0.47601324 -0.007810509 0.60843563
        0.48573986 -0.00779908 0.60890144 0.49542496 -0.0077877706 0.60934716
        0.50501907 -0.007776535 0.60977083 0.5144748 -0.007765326 0.61017084
        0.5237473 -0.007754101 0.6105457 0.53279555 -0.007742823 0.61089456
        0.54158247 -0.007731456 0.6112168 0.5500759 -0.007719971 0.61151224
        0.55824864 -0.0077083437 0.61178106 0.5660786 -0.0076965517 0.6120238
        0.57354903 -0.0076845763 0.6122412 0.58064806 -0.0076724007 0.6124344
        0.5873686 -0.007660011 0.6126047 0.59370804 -0.0076474 0.6127535
        0.5996675 -0.0076345797 0.61288255 0.60525155 -0.007621616 0.6129935
        0.6104671 -0.0076086977 0.61308795 0.61532253 -0.00759629 0.61316764
        0.6198259 -0.0075853937 0.6132341 0.62398285 -0.007577924 0.6132888
        0.62779397 -0.0075771036 0.6133332 0.6312537 -0.0075874957 0.61336845
        0.6343524 -0.0076139937 0.61339575 0.6370846 -0.007659246 0.61341614
        0.63945967 -0.0077208513 0.61343116 0.6415068 -0.0077922447 0.6134419
        0.6432708 -0.007868773 0.6134494 0.64480066 -0.007949419 0.6134546
        0.6461389 -0.008025287 0.61345816 0.64733034 -0.008072945 0.6134608
        0.47601324 -0.00747735 0.6084398 0.48574293 -0.0074712415 0.6089057
        0.49543098 -0.007465066 0.60935146 0.50502795 -0.0074587865 0.6097752
        0.5144864 -0.007452366 0.6101752 0.5237615 -0.00744577 0.6105501
        0.5328122 -0.0074389707 0.610899 0.5416015 -0.0074319406 0.6112212
        0.55009705 -0.0074246586 0.61151665 0.5582718 -0.0074171056 0.6117854
        0.5661037 -0.0074092667 0.61202806 0.57357585 -0.0074011274 0.61224544
        0.5806765 -0.0073926765 0.61243856 0.5873986 -0.0073839054 0.61260873
        0.59373933 -0.0073748105 0.61275756 0.59970003 -0.0073654098 0.61288655
        0.6052852 -0.007355771 0.61299735 0.61050177 -0.00734609 0.61309177
        0.6153581 -0.0073368372 0.61317134 0.6198624 -0.0073290267 0.61323774
        0.62402004 -0.0073245885 0.6132924 0.6278319 -0.0073267724 0.6133367
        0.63129216 -0.0073401765 0.61337185 0.6343914 -0.0073697194 0.613399
        0.63712454 -0.00741803 0.6134194 0.63950145 -0.0074825953 0.6134344
        0.6415523 -0.007556631 0.61344504 0.6433232 -0.0076351366 0.6134526
        0.6448637 -0.0077167456 0.6134578 0.6462184 -0.0077931653 0.6134614
        0.6474341 -0.007846475 0.613464 0.47601324 -0.007144189 0.6084438
        0.48574603 -0.0071441694 0.6089097 0.495437 -0.0071438244 0.60935557
        0.50503683 -0.0071431305 0.60977936 0.51449794 -0.0071420707 0.61017936
        0.5237756 -0.0071406243 0.6105543 0.5328287 -0.0071387757 0.61090314
        0.5416202 -0.0071365135 0.6112254 0.55011797 -0.0071338257 0.6115208
        0.5582947 -0.007130705 0.6117896 0.56612843 -0.007127144 0.6120322
        0.57360226 -0.0071231383 0.6122495 0.5807045 -0.0071186842 0.61244255
        0.587428 -0.0071137804 0.61261266 0.59377 -0.00710843 0.6127614
        0.599732 -0.007102656 0.6128903 0.6053182 -0.0070965327 0.61300105
        0.61053574 -0.007090262 0.61309534 0.61539304 -0.0070843226 0.6131748
        0.6198981 -0.007079735 0.61324114 0.6240566 -0.007078445 0.61329573
        0.62786925 -0.0070837233 0.61333996 0.63133043 -0.0071001947 0.613375
        0.6344307 -0.0071327966 0.6134021 0.6371653 -0.0071841427 0.6134225
        0.6395447 -0.0072516375 0.6134374 0.64160013 -0.007328338 0.6134481
        0.6433783 -0.007409005 0.6134556 0.64492995 -0.0074920505 0.61346084
        0.64630115 -0.0075700367 0.6134644 0.6475399 -0.007631323 0.613467
        0.47601324 -0.0068110256 0.6084476 0.4857491 -0.006816475 0.60891366
        0.49544305 -0.0068214033 0.60935956 0.5050457 -0.006825797 0.6097834
        0.51450956 -0.0068296464 0.6101834 0.5237899 -0.006832945 0.61055833
        0.5328454 -0.0068356856 0.61090726 0.54163927 -0.0068378635 0.6112295
        0.5501392 -0.006839477 0.6115249 0.55831796 -0.006840523 0.6117936
        0.5661536 -0.0068410034 0.61203617 0.5736292 -0.0068409187 0.6122534
        0.58073306 -0.006840272 0.6124465 0.5874581 -0.0068390644 0.61261654
        0.5938015 -0.0068373056 0.6127652 0.5997647 -0.0068350234 0.612894
        0.6053521 -0.006832296 0.6130047 0.6105707 -0.0068293284 0.61309886
        0.615429 -0.0068266033 0.6131783 0.619935 -0.006825148 0.61324453
        0.6240945 -0.006826918 0.6132991 0.6279082 -0.006835195 0.6133432
        0.63137066 -0.0068546208 0.61337817 0.6344726 -0.006890149 0.6134053
        0.6372094 -0.0069443793 0.61342555 0.6395923 -0.0070146476 0.6134404
        0.64165324 -0.00709389 0.61345106 0.6434399 -0.0071766777 0.61345863
        0.64500386 -0.0072612944 0.6134639 0.64639276 -0.007341479 0.61346745
        0.6476551 -0.0074113747 0.61346996 0.47601324 -0.0064778603 0.60845125
        0.4857522 -0.006487686 0.60891736 0.4954492 -0.0064968886 0.6093634
        0.5050548 -0.0065054568 0.6097873 0.5145214 -0.006513384 0.61018735
        0.52380437 -0.006520668 0.6105623 0.5328625 -0.006527303 0.61091125
        0.5416588 -0.006533286 0.61123353 0.550161 -0.00653862 0.61152893
        0.5583419 -0.0065433057 0.61179763 0.5661796 -0.006547345 0.61204016
        0.5736571 -0.006550742 0.6122574 0.5807627 -0.0065535004 0.61245036
        0.5874893 -0.006555625 0.61262035 0.5938343 -0.0065571265 0.612769
        0.5997988 -0.0065580346 0.61289775 0.6053875 -0.006558429 0.6130083
        0.6106073 -0.0065585147 0.6131025 0.6154667 -0.006558778 0.6131818
        0.6199739 -0.0065602446 0.613248 0.6241346 -0.0065648705 0.6133024
        0.6279497 -0.0065759397 0.61334646 0.631414 -0.006598103 0.6133814
        0.6345183 -0.0066363174 0.61340845 0.6372584 -0.006693173 0.6134287
        0.63964593 -0.006765952 0.61344355 0.64171374 -0.0068474985 0.6134542
        0.64351034 -0.0069322395 0.61346173 0.6450883 -0.007018431 0.613467
        0.6464966 -0.0071013006 0.61347055 0.647784 -0.007179676 0.613473
        0.47601324 -0.006144693 0.60845476 0.48575532 -0.0061580753 0.60892093
        0.49545535 -0.006170791 0.6093671 0.5050639 -0.0061828275 0.60979104
        0.5145334 -0.006194179 0.6101912 0.52381915 -0.006204839 0.61056626
        0.5328799 -0.006214805 0.6109152 0.5416787 -0.0062240744 0.61123747
        0.5501833 -0.006232648 0.61153287 0.5583665 -0.0062405267 0.61180156
        0.5662063 -0.0062477137 0.6120441 0.57368577 -0.006254211 0.6122613
        0.5807932 -0.0062600253 0.61245424 0.58752155 -0.0062651597 0.6126242
        0.59386814 -0.0062696254 0.61277276 0.59983414 -0.0062734517 0.61290145
        0.6054242 -0.0062767174 0.613012 0.61064535 -0.0062796283 0.6131061
        0.61550605 -0.0062826653 0.6131853 0.6200145 -0.0062868507 0.6132514
        0.6241767 -0.006294134 0.61330575 0.6279936 -0.006307789 0.6133498
        0.6314602 -0.00633246 0.61338466 0.63456774 -0.0063731014 0.61341166
        0.6373121 -0.0064322967 0.6134319 0.6397056 -0.0065072915 0.6134467
        0.64178175 -0.006590879 0.6134574 0.64358985 -0.0066774 0.6134649
        0.6451835 -0.0067651984 0.6134702 0.6466127 -0.006851172 0.6134738
        0.64792603 -0.0069381734 0.6134761 0.47601324 -0.0058115236 0.608458
        0.48575848 -0.005827622 0.6089243 0.49546158 -0.0058430596 0.6093706
        0.50507313 -0.0058578183 0.6097946 0.5145456 -0.0058718915 0.61019486
        0.52383417 -0.0058852695 0.61057 0.53289765 -0.005897947 0.610919
        0.54169905 -0.005909921 0.6112413 0.5502061 -0.00592119 0.61153674
        0.5583917 -0.0059317527 0.61180544 0.56623363 -0.00594161 0.61204803
        0.57371527 -0.0059507648 0.61226517 0.5808247 -0.0059592184 0.61245805
        0.5875549 -0.0059669754 0.612628 0.5939032 -0.005974045 0.6127765
        0.5998708 -0.0059804544 0.61290514 0.60546243 -0.00598628 0.6130156
        0.610685 -0.0059917243 0.61310965 0.6155471 -0.0059972634 0.6131888
        0.62005705 -0.006003908 0.61325485 0.62422097 -0.0060135885 0.61330914
        0.6280401 -0.0060295593 0.6133531 0.6315097 -0.006056439 0.6133879
        0.6346214 -0.0060991696 0.6134149 0.63737136 -0.006160328 0.6134351
        0.63977224 -0.0062371516 0.61344993 0.6418584 -0.006322424 0.6134606
        0.6436799 -0.0064104646 0.61346817 0.6452911 -0.0064998344 0.6134734
        0.64674294 -0.0065892097 0.613477 0.6480834 -0.0066846358 0.61347926
        0.47601324 -0.005478353 0.6084611 0.48576164 -0.005496399 0.6089276
        0.4954679 -0.005513824 0.6093739 0.5050825 -0.0055306056 0.6097981
        0.51455796 -0.0055467305 0.61019844 0.52384937 -0.005562189 0.61057365
        0.53291565 -0.005576974 0.6109227 0.5417198 -0.005591077 0.61124504
        0.55022943 -0.0056044944 0.6115405 0.55841744 -0.005617224 0.61180925
        0.56626177 -0.0056292624 0.6120518 0.5737456 -0.0056406106 0.6122689
        0.5808571 -0.005651267 0.6124618 0.58758926 -0.0056612347 0.61263174
        0.59393936 -0.00567052 0.6127802 0.5999088 -0.005679148 0.6129088
        0.60550207 -0.00568719 0.6130192 0.61072624 -0.005694846 0.61311316
        0.61559 -0.005702579 0.6131923 0.62010163 -0.005711384 0.61325824
        0.6242676 -0.0057231653 0.6133125 0.62808937 -0.0057411343 0.61335635
        0.63156277 -0.005769868 0.61339116 0.6346796 -0.0058142818 0.6134181
        0.63743657 -0.005876949 0.6134383 0.6398466 -0.0059551257 0.61345315
        0.64194465 -0.006041639 0.6134638 0.64378154 -0.0061308644 0.61347145
        0.6454124 -0.0062217033 0.6134767 0.64688873 -0.006314632 0.61348027
        0.6482573 -0.0064180903 0.6134825 0.47601324 -0.0051451805 0.608464
        0.48576483 -0.005164459 0.60893065 0.49547422 -0.005183175 0.6093771
        0.50509197 -0.0052013053 0.6098014 0.5145704 -0.005218834 0.61020184
        0.52386487 -0.005235748 0.6105771 0.532934 -0.005252036 0.6109263
        0.5417409 -0.005267689 0.6112487 0.5502532 -0.0052826996 0.61154413
        0.5584438 -0.0052970615 0.61181295 0.5662906 -0.00531077 0.6120555
        0.5737767 -0.005323822 0.6122727 0.5808905 -0.0053362167 0.6124655
        0.5876247 -0.00534795 0.61263543 0.59397686 -0.0053590275 0.61278385
        0.59994817 -0.005369471 0.6129124 0.6055432 -0.0053793485 0.61302274
        0.61076915 -0.0053888503 0.6131166 0.6156346 -0.0053984276 0.6131957
        0.62014824 -0.0054090507 0.6132616 0.6243166 -0.0054225824 0.61331576
        0.6281416 -0.005442177 0.6133597 0.6316195 -0.0054723416 0.61339444
        0.6347428 -0.0055179466 0.6134213 0.63750833 -0.005581568 0.6134416
        0.63992953 -0.005660513 0.6134564 0.64204174 -0.0057477113 0.61346716
        0.64389634 -0.00583768 0.6134747 0.6455491 -0.0059297825 0.61348003
        0.64705175 -0.006026216 0.6134836 0.6484498 -0.0061369706 0.61348575
        0.47601324 -0.004812006 0.6084667 0.48576805 -0.004831858 0.6089335
        0.4954806 -0.00485122 0.6093801 0.5051015 -0.0048700674 0.6098046
        0.51458305 -0.004888382 0.6102051 0.52388054 -0.0049061477 0.61058044
        0.53295267 -0.0049233516 0.61092967 0.5417624 -0.0049399827 0.6112521
        0.55027753 -0.0049560308 0.6115477 0.5584708 -0.0049714865 0.6118165
        0.5663201 -0.004986345 0.6120591 0.5738087 -0.0050005997 0.61227626
        0.58092475 -0.005014244 0.61246914 0.58766127 -0.005027275 0.612639
        0.59401554 -0.0050396947 0.6127874 0.5999888 -0.005051521 0.61291593
        0.6055859 -0.0050628176 0.61302626 0.61081374 -0.0050737653 0.61312014
        0.6156812 -0.0050847973 0.6131991 0.620197 -0.005096854 0.613265
        0.6243681 -0.005111741 0.6133191 0.62819684 -0.0051325294 0.6133629
        0.63168025 -0.005163633 0.6133977 0.6348113 -0.00520985 0.6134246
        0.63758737 -0.0052737617 0.61344486 0.640022 -0.0053527644 0.6134597
        0.6421508 -0.005439961 0.6134705 0.64402586 -0.0055301054 0.6134781
        0.6457031 -0.005623126 0.6134835 0.64723414 -0.005722762 0.613487
        0.64866287 -0.005839681 0.61348903 0.47601324 -0.0044788304 0.6084693
        0.48577124 -0.004498654 0.6089362 0.49548703 -0.004518067 0.609383
        0.5051111 -0.0045370413 0.60980755 0.51459587 -0.004555558 0.6102082
        0.5238964 -0.004573601 0.61058366 0.53297156 -0.0045911553 0.61093295
        0.5417842 -0.0046082074 0.6112555 0.55030227 -0.004624746 0.61155117
        0.55849826 -0.0046407618 0.61182 0.5663503 -0.004656245 0.61206263
        0.57384145 -0.004671189 0.61227983 0.58096 -0.0046855863 0.61247265
        0.5876988 -0.00469943 0.6126425 0.59405535 -0.00471272 0.61279094
        0.6000309 -0.004725471 0.6129194 0.60563004 -0.0047377422 0.6130297
        0.61086 -0.0047497028 0.6131235 0.61572963 -0.0047617666 0.61320245
        0.6202479 -0.0047748317 0.61326826 0.6244221 -0.0047906316 0.6133223
        0.6282553 -0.00481213 0.6133661 0.63174516 -0.004843606 0.6134009
        0.6348855 -0.0048897606 0.6134278 0.6376742 -0.004953176 0.61344814
        0.6401249 -0.0050313836 0.6134631 0.6422734 -0.0051177405 0.6134739
        0.64417183 -0.0052073365 0.6134816 0.64587635 -0.0053007375 0.6134869
        0.64743805 -0.005402948 0.6134904 0.6488988 -0.005524419 0.61349237
        0.47601324 -0.0041456535 0.60847163 0.4857745 -0.004164906 0.60893875
        0.49549353 -0.004183825 0.60938567 0.5051208 -0.0042023817 0.60981035
        0.51460874 -0.0042205574 0.6102112 0.52391243 -0.0042383354 0.61058676
        0.5329907 -0.004255701 0.6109361 0.54180646 -0.00427264 0.61125875
        0.5503274 -0.0042891405 0.61155444 0.55852634 -0.0043051904 0.6118234
        0.5663811 -0.0043207817 0.612066 0.573875 -0.004335905 0.6122832
        0.5809961 -0.004350551 0.6124761 0.58773744 -0.004364713 0.6126459
        0.5940964 -0.004378388 0.61279434 0.60007423 -0.004391589 0.6129228
        0.60567564 -0.004404369 0.61303306 0.6109079 -0.0044168853 0.6131268
        0.61577994 -0.0044295276 0.61320573 0.620301 -0.0044431416 0.6132715
        0.62447876 -0.0044593723 0.61332554 0.628317 -0.00448104 0.6133693
        0.6318144 -0.0045122537 0.6134041 0.63496584 -0.004557572 0.61343104
        0.6377696 -0.004619573 0.61345136 0.6402394 -0.004695976 0.6134664
        0.64241093 -0.00478048 0.6134773 0.6443363 -0.004868612 0.61348504
        0.64607126 -0.0049616066 0.61349034 0.647666 -0.0050653564 0.6134938
        0.64916027 -0.005189223 0.61349577 0.47601324 -0.0038124754 0.60847384
        0.48577774 -0.0038306697 0.6089411 0.49550003 -0.0038486007 0.6093881
        0.5051306 -0.003866242 0.60981303 0.51462173 -0.003883576 0.61021394
        0.5239287 -0.003900586 0.6105896 0.5330101 -0.0039172573 0.6109391
        0.541829 -0.003933576 0.61126184 0.550353 -0.003949531 0.6115576
        0.5585549 -0.00396511 0.61182654 0.56641257 -0.0039803046 0.61206925
        0.5739092 -0.0039951047 0.6122865 0.58103305 -0.0040095015 0.6124794
        0.5877771 -0.004023487 0.61264926 0.59413856 -0.004037058 0.6127976
        0.6001189 -0.0040502246 0.61292607 0.6057227 -0.004063034 0.6130363
        0.61095744 -0.0040756315 0.61313 0.61583215 -0.004088376 0.6132089
        0.62035626 -0.0041020536 0.61327463 0.624538 -0.0041181967 0.61332864
        0.6283821 -0.00413945 0.6133724 0.6318883 -0.0041696965 0.6134072
        0.6350526 -0.0042133066 0.6134342 0.6378742 -0.0042728395 0.6134546
        0.6403666 -0.0043462524 0.6134697 0.6425652 -0.0044276854 0.6134806
        0.64452136 -0.0045132055 0.61348844 0.6462904 -0.004604688 0.6134938
        0.64792085 -0.004708442 0.61349726 0.6494502 -0.004831947 0.6134991
        0.47601324 -0.0034792959 0.6084758 0.485781 -0.003495997 0.6089433
        0.49550658 -0.0035124975 0.6093905 0.5051404 -0.003528773 0.6098155
        0.5146349 -0.003544807 0.61021656 0.5239451 -0.003560585 0.61059237
        0.53302974 -0.0035760924 0.61094195 0.5418518 -0.0035913175 0.61126477
        0.5503789 -0.0036062489 0.6115606 0.55858386 -0.0036208762 0.6118296
        0.5664446 -0.00363519 0.61207235 0.57394415 -0.0036491815 0.6122896
        0.58107084 -0.003662842 0.61248255 0.5878176 -0.0036761654 0.6126524
        0.5941818 -0.0036891464 0.6128008 0.6001648 -0.0037017933 0.6129292
        0.60577124 -0.0037141496 0.6130394 0.6110086 -0.003726345 0.6131331
        0.6158861 -0.0037387041 0.613212 0.6204136 -0.0037519406 0.6132776
        0.6245998 -0.0037674524 0.6133316 0.62845045 -0.003787667 0.6133754
        0.6319667 -0.0038161834 0.6134102 0.63514614 -0.0038571171 0.61343724
        0.6379886 -0.0039129835 0.6134578 0.64050776 -0.003982028 0.613473
        0.6427379 -0.0040589427 0.613484 0.6447297 -0.0041404185 0.61349183
        0.64653677 -0.0042288764 0.6134972 0.64820576 -0.004330507 0.61350065
        0.6497718 -0.004450255 0.61350244 0.47601324 -0.0031461157 0.60847765
        0.4857843 -0.0031609382 0.60894525 0.49551314 -0.0031756128 0.60939264
        0.5051503 -0.0031901174 0.60981774 0.51464814 -0.003204438 0.610219
        0.52396166 -0.0032185612 0.6105949 0.5330496 -0.0032324744 0.6109446
        0.5418749 -0.0032461674 0.6112675 0.55040526 -0.00325963 0.61156344
        0.55861336 -0.003272853 0.6118325 0.5664771 -0.003285829 0.61207527
        0.57397974 -0.0032985497 0.61229265 0.58110934 -0.003311008 0.6124855
        0.58785903 -0.0033231974 0.61265546 0.594226 -0.0033351148 0.6128038
        0.6002118 -0.0033467668 0.6129322 0.605821 -0.0033581909 0.61304235
        0.6110612 -0.003369501 0.61313605 0.6159418 -0.0033809827 0.6132149
        0.62047297 -0.0033932645 0.61328053 0.6246641 -0.0034075852 0.61333454
        0.62852216 -0.0034261092 0.6133783 0.6320499 -0.0034520805 0.6134131
        0.63524663 -0.0034892801 0.6134403 0.6381136 -0.003540134 0.6134609
        0.6406641 -0.003603222 0.6134762 0.6429313 -0.0036739022 0.6134873
        0.6449639 -0.0037495526 0.61349523 0.6468137 -0.0038329673 0.6135006
        0.64852446 -0.003929656 0.613504 0.65012884 -0.004041626 0.6135057
        0.47601324 -0.0028129343 0.60847926 0.48578757 -0.0028255393 0.60894704
        0.4955198 -0.0028380377 0.6093946 0.5051603 -0.0028504105 0.6098199
        0.51466143 -0.002862646 0.6102212 0.52397835 -0.0028747332 0.61059725
        0.5330696 -0.002886661 0.61094713 0.54189825 -0.0028984214 0.61127007
        0.55043185 -0.002910005 0.61156607 0.5586432 -0.002921406 0.61183524
        0.56651014 -0.0029326172 0.6120781 0.5740159 -0.0029436324 0.61229545
        0.5811486 -0.0029544467 0.6124884 0.58790123 -0.0029650542 0.6126583
        0.59427124 -0.0029754534 0.6128066 0.6002599 -0.0029856502 0.61293507
        0.60587204 -0.002995676 0.6130452 0.6111153 -0.0030056275 0.61313885
        0.6159992 -0.0030157447 0.61321765 0.62053436 -0.0030265597 0.61328334
        0.62473094 -0.0030391237 0.6133373 0.6285972 -0.0030552878 0.6133811
        0.63213784 -0.0030778598 0.61341596 0.63535446 -0.0031101843 0.61344314
        0.6382498 -0.0031545283 0.6134639 0.64083713 -0.0032098396 0.6134793
        0.6431477 -0.0032722554 0.6134906 0.64522755 -0.0033398706 0.6134985
        0.6471252 -0.0034155957 0.6135039 0.6488812 -0.003503741 0.6135072
        0.6505252 -0.003603338 0.6135089 0.47601324 -0.0024797523 0.6084807
        0.48579088 -0.0024898427 0.60894865 0.4955264 -0.0024998563 0.6093964
        0.50517035 -0.0025097784 0.6098218 0.51467484 -0.0025195987 0.6102233
        0.52399516 -0.0025293082 0.61059946 0.5330898 -0.0025388985 0.6109494
        0.54192185 -0.0025483635 0.6112725 0.5504588 -0.0025576963 0.61156857
        0.55867344 -0.0025668915 0.6118378 0.56654364 -0.0025759446 0.6120807
        0.5740526 -0.0025848525 0.6122981 0.58118844 -0.0025936104 0.6124911
        0.5879442 -0.002602216 0.612661 0.59431726 -0.0026106678 0.61280936
        0.600309 -0.002618972 0.61293775 0.60592425 -0.002627154 0.6130479
        0.6111707 -0.0026352901 0.61314154 0.6160581 -0.0026435708 0.6132203
        0.62059754 -0.0026524167 0.6132859 0.6248001 -0.0026626633 0.6133399
        0.62867534 -0.0026757924 0.61338365 0.63223046 -0.0026940838 0.6134186
        0.6354696 -0.0027203187 0.6134459 0.6383978 -0.002756499 0.6134668
        0.6410283 -0.0028019513 0.6134824 0.64338976 -0.0028536995 0.61349374
        0.6455243 -0.0029105325 0.6135017 0.6474759 -0.0029751493 0.6135071
        0.64928085 -0.0030502838 0.6135103 0.6509655 -0.0031324753 0.61351186
        0.47601324 -0.0021465695 0.608482 0.48579416 -0.0021538867 0.6089501
        0.49553308 -0.0021611466 0.609398 0.50518036 -0.0021683376 0.6098236
        0.5146884 -0.0021754515 0.61022514 0.5240121 -0.0021824813 0.6106015
        0.5331102 -0.0021894213 0.6109515 0.5419456 -0.0021962665 0.6112747
        0.55048597 -0.0022030126 0.61157084 0.55870396 -0.0022096562 0.6118402
        0.5665775 -0.0022161952 0.6120831 0.57408977 -0.0022226274 0.6123005
        0.5812289 -0.0022289513 0.6124936 0.5879879 -0.0022351658 0.6126635
        0.5943641 -0.0022412718 0.61281186 0.6003591 -0.0022472744 0.61294025
        0.60597754 -0.0022531927 0.6130504 0.61122733 -0.0022590817 0.613144
        0.6161185 -0.0022650752 0.6132228 0.62066245 -0.002271469 0.61328834
        0.6248714 -0.0022788523 0.6133423 0.6287565 -0.0022882794 0.6133861
        0.6323277 -0.0023013942 0.6134211 0.63559234 -0.0023202598 0.6134485
        0.6385583 -0.0023464584 0.61346954 0.64123935 -0.0023796684 0.61348534
        0.64366084 -0.0024178852 0.6134968 0.64585906 -0.0024605044 0.6135048
        0.6478715 -0.0025096396 0.6135101 0.64972913 -0.0025663718 0.6135132
        0.6514546 -0.0026259294 0.61351454 0.47601324 -0.0018133859 0.608483
        0.4857975 -0.0018177081 0.60895133 0.49553975 -0.0018219817 0.6093994
        0.5051905 -0.0018261984 0.60982513 0.5147019 -0.0018303524 0.61022687
        0.5240291 -0.0018344385 0.6106033 0.53313065 -0.0018384529 0.61095345
        0.54196954 -0.0018423924 0.61127675 0.5505133 -0.0018462548 0.611573
        0.5587348 -0.0018500388 0.61184233 0.56661177 -0.0018537438 0.61208534
        0.5741274 -0.0018573699 0.61230284 0.58126986 -0.0018609178 0.6124959
        0.5880321 -0.0018643887 0.6126658 0.5944117 -0.0018677845 0.6128142
        0.6004099 -0.0018711105 0.6129426 0.6060317 -0.0018743784 0.61305267
        0.61128503 -0.0018776186 0.61314625 0.6161801 -0.0018809034 0.613225
        0.62072897 -0.0018843898 0.61329055 0.6249447 -0.0018883897 0.6133445
        0.62884057 -0.0018934656 0.6133883 0.6324293 -0.0019005078 0.61342335
        0.6357226 -0.001910667 0.61345094 0.638732 -0.0019248896 0.6134721
        0.6414723 -0.0019431121 0.6134881 0.6439648 -0.0019643481 0.6134997
        0.64623755 -0.0019884289 0.6135077 0.64831895 -0.0020165243 0.6135128
        0.6502329 -0.0020485152 0.61351573 0.65199804 -0.002080407 0.61351687
        0.47601324 -0.0014802018 0.6084839 0.4858008 -0.0014813414 0.6089524
        0.49554646 -0.0014824317 0.6094006 0.50520056 -0.0014834676 0.60982645
        0.5147155 -0.0014844453 0.61022836 0.5240462 -0.0014853613 0.6106049
        0.5331512 -0.0014862133 0.6109552 0.5419936 -0.001487 0.61127853
        0.5505409 -0.0014877209 0.6115749 0.5587658 -0.0014883762 0.6118443
        0.5666463 -0.0014889674 0.61208737 0.57416534 -0.0014894966 0.61230487
        0.5813112 -0.0014899663 0.6124979 0.5880769 -0.0014903797 0.6126679
        0.59445983 -0.0014907407 0.6128163 0.6004615 -0.0014910529 0.61294466
        0.6060868 -0.0014913208 0.61305475 0.61134374 -0.0014915483 0.6131483
        0.6162429 -0.0014917398 0.613227 0.62079686 -0.0014918991 0.6132925
        0.62501985 -0.0014920305 0.61334646 0.62892723 -0.0014921371 0.6133903
        0.63253516 -0.0014922225 0.61342543 0.6358603 -0.0014922898 0.61345315
        0.6389195 -0.001492342 0.61347455 0.6417294 -0.0014923812 0.6134907
        0.6443067 -0.0014924097 0.6135024 0.64666736 -0.0014924291 0.6135104
        0.6488269 -0.0014924412 0.6135153 0.6508003 -0.0014924475 0.6135179
        0.65260166 -0.0014924493 0.61351866
        <InformationKey name="L2_NORM_RANGE" location="vtkDataArray" length="2">
          <Value index="0">
            0.77255644979
          </Value>
          <Value index="1">
            0.89570993828
          </Value>
        </InformationKey>
      </DataArray>
    </Points>
  </Piece>
  </StructuredGrid>
</VTKFile>
