<?xml version="1.0"?>
<VTKFile type="StructuredGrid" version="0.1" byte_order="LittleEndian" header_type="UInt32" compressor="vtkZLibDataCompressor">
  <StructuredGrid WholeExtent="0 240 0 4 0 0">
  <Piece Extent="0 240 0 4 0 0">
    <PointData>
      <DataArray type="Float32" Name="orthogonality" format="ascii" RangeMin="1.3047805396126932e-06" RangeMax="0.43886327743530273">
        0.00040386975 0.051543344 0.07522542 0.084766075 0.08663745 0.08431331
        0.079947665 0.075138435 0.07123211 0.06984312 0.072019115 0.08206276
        0.09453075 0.14139342 0.17634109 0.14521144 0.13630018 0.12777396
        0.11804244 0.10731585 0.09565137 0.08328747 0.07054333 0.05783277
        0.045619003 0.034362108 0.02445569 0.016171625 0.009625741 0.0047730817
        0.001432435 0.00066785247 0.0018355027 0.0023646888 0.0025012037 0.0024266636
        0.0022598486 0.0020690635 0.0018882963 0.0017309982 0.0016001294 0.0014945227
        0.0014116634 0.0013487469 0.0013029443 0.0012712626 0.0012503105 0.0012360596
        0.0012236164 0.0012071485 0.001179638 0.0011343202 0.0010698023 0.0009851034
        0.0008846083 0.0007547489 0.0006429259 0.00042239402 0.00046344657 0.0001444552
        0.00033505625 0.00034896526 2.1654449e-05 0.00019452 0.00010453052 9.616747e-05
        7.948855e-05 5.4990116e-05 2.0959771e-05 1.5177611e-05 3.1754495e-05 6.0860107e-06
        6.356583e-05 0.0001675261 0.0002868395 0.00039755306 0.0004814256 0.00053119514
        0.00055153796 0.00055824535 0.0005685978 0.00059520913 0.00064909173 0.0007409554
        0.00088220363 0.0010851742 0.0013623893 0.0017243775 0.0021758506 0.002710517
        0.0033055171 0.0039170654 0.004479015 0.0049055503 0.0050981697 0.004955943
        0.004387223 0.0033205422 0.0017136849 0.00044278605 0.003117035 0.0062624384
        0.009728999 0.013589988 0.01709591 0.021720031 0.025561819 0.031140119
        0.03608638 0.042583108 0.049430177 0.056664176 0.06352493 0.069191
        0.072496235 0.07212553 0.066874444 0.055945694 0.039892957 0.019962037
        0.00050236756 0.018976355 0.03896014 0.05508096 0.06607162 0.071362324
        0.071744286 0.06842387 0.06272264 0.05581468 0.04852847 0.04163082
        0.03508784 0.030107455 0.024499606 0.02064648 0.016012501 0.012508846
        0.008655876 0.0052066427 0.0020875304 0.0005512036 0.002663379 0.004217937
        0.0052253846 0.0057291095 0.005801656 0.0055354685 0.0050318725 0.0043893447
        0.0036933322 0.003009402 0.002380687 0.0018294165 0.0013613233 0.000971246
        0.0006484042 0.0003804254 0.00015589206 3.4311313e-05 0.00019638223 0.00033315134
        0.00044359962 0.0005208167 0.0005564739 0.000548369 0.0005020075 0.00043269017
        0.00036343728 0.00031630724 0.00030601874 0.0003356941 0.00038627183 0.0004376735
        0.00047984422 0.000520768 0.0004968247 0.0004819494 0.00035693037 0.00056568737
        0.00057477236 0.0004350171 9.334695e-05 0.00011842141 2.7118065e-06 4.837886e-05
        0.000103794046 0.00013689137 0.00015438309 0.00015338493 0.00013335652 9.4501724e-05
        4.1398507e-05 2.1174801e-05 8.947369e-05 0.00016070242 0.00023301782 0.0003054005
        0.00037748175 0.0004493044 0.00052092917 0.00059168314 0.00065832754 0.0007109115
        0.0007251899 0.0006499003 0.0003903788 0.00020638033 0.0013589785 0.0033437146
        0.0064669778 0.011019265 0.01721894 0.02515893 0.034770906 0.04581827
        0.05792189 0.07061312 0.083400495 0.095833555 0.107549235 0.11829479
        0.12793387 0.13639706 0.14390747 0.15082686 0.182354 0.14497454
        0.09515382 0.08066966 0.06901326 0.0657444 0.066523515 0.07028455
        0.07537545 0.08038882 0.083636954 0.08284253 0.074369915 0.051529642
        0.000901726 0.3631483 0.26960486 0.18993779 0.1285522 0.08017844
        0.041064788 0.008360983 0.020304529 0.047042426 0.07399033 0.10290868
        0.13693762 0.1746464 0.23015781 0.267461 0.24419601 0.21690904
        0.1990721 0.17745446 0.15567628 0.13356265 0.111869134 0.091176964
        0.07207134 0.05503283 0.040400784 0.028340222 0.01883474 0.0117031215
        0.0066371937 0.0032533056 0.0011473742 5.687332e-05 0.0006743922 0.0009435037
        0.0010272298 0.0010259963 0.0009950756 0.0009610508 0.00093363406 0.00091478205
        0.00090459274 0.0009026939 0.0009083147 0.00092030433 0.0009370044 0.0009560805
        0.00097434485 0.0009875693 0.0009904495 0.0009764315 0.0009397204 0.00088079314
        0.0008001249 0.0007026586 0.00057480816 0.0004644566 0.000244053 0.00028548035
        0.00032132267 0.00047418696 0.0005376118 0.0001670319 0.0003768907 0.0002647379
        0.00023284495 0.00019472482 0.0001422878 6.96364e-05 1.7205384e-05 9.042937e-05
        0.00011580044 8.216016e-05 6.5917948e-06 0.00013184201 0.0002630218 0.0003699757
        0.00043064854 0.00043567768 0.0003923746 0.00031335017 0.0002047955 6.791733e-05
        0.000100465884 0.00030767958 0.0005657475 0.00089266204 0.001314366 0.0018672042
        0.0026003022 0.003577029 0.0048745708 0.006580828 0.008788365 0.01158583
        0.015047971 0.019225728 0.024138104 0.02976641 0.036054 0.042901844
        0.05019577 0.057731632 0.06550527 0.07281038 0.08085443 0.08858633
        0.09703456 0.104588345 0.112752 0.120318525 0.12695247 0.13169117
        0.1335045 0.131157 0.12342754 0.10938779 0.08871106 0.06228223
        0.03183199 0.0005620885 0.030730497 0.061243776 0.08776111 0.10853332
        0.122659944 0.13045903 0.13285705 0.13107799 0.1263624 0.11974552
        0.112195134 0.10404863 0.09651886 0.08809481 0.08039308 0.07238026
        0.06511739 0.05739327 0.049915403 0.04268706 0.03591143 0.029701203
        0.024153585 0.01932323 0.0152269 0.011843965 0.009122398 0.0069870255
        0.0053494787 0.0041180793 0.003206233 0.0025382426 0.0020521746 0.0017000756
        0.0014463204 0.0012650177 0.00113725 0.0010486128 0.0009871781 0.0009418144
        0.0009005723 0.00084931677 0.0007705609 0.0006547966 0.0005104979 0.00035770005
        0.00022295791 0.00013238598 0.000101198544 0.00013136245 0.00021131018 0.00030701124
        0.00039120123 0.0004554192 0.00050990423 0.00048240938 0.00045770165 0.0003256686
        0.0005351571 0.0005024689 0.0003911885 3.5935896e-05 5.1545463e-05 7.90683e-05
        0.00014426377 0.00021562299 0.00026556896 0.0003012547 0.00031941663 0.000318071
        0.00029562478 0.00025625463 0.00020503385 0.00014595484 8.194477e-05 1.4851766e-05
        5.4436725e-05 0.00012585192 0.00019996159 0.000277652 0.00035941246 0.0004433057
        0.0005213341 0.0005750628 0.0005665055 0.00042262202 1.7774746e-05 0.00084211817
        0.0024277077 0.0050803996 0.009188846 0.015148449 0.023309518 0.033923335
        0.04709659 0.062763065 0.08067831 0.10043763 0.12151732 0.14331645
        0.16526277 0.18663833 0.2076573 0.22476648 0.2513507 0.27454114
        0.2354518 0.17757244 0.13782208 0.102147296 0.07205376 0.044440657
        0.017547825 0.010805361 0.042818774 0.0809949 0.12834732 0.18881112
        0.2678495 0.36141148 0.43886328 0.37025124 0.30007526 0.2355723
        0.17812093 0.12788661 0.08419868 0.04588815 0.011587753 0.020095548
        0.050214056 0.07996875 0.10847545 0.13913222 0.1592818 0.14553604
        0.11581638 0.100616045 0.082702085 0.06688591 0.052587707 0.040238462
        0.029889617 0.02152538 0.015015523 0.010154009 0.0066833245 0.0043235025
        0.0027988357 0.0018607582 0.0013040014 0.00097418565 0.0007666359 0.00061831635
        0.00049624575 0.00038592052 0.0002822143 0.00018364415 8.976886e-05 1.3047805e-06
        8.109396e-05 0.00015826347 0.00023153608 0.00030187445 0.00036966102 0.00043455718
        0.00049537653 0.0005499527 0.0005949876 0.00062604464 0.00063736836 0.0006238737
        0.00058661134 0.0005263441 0.00044827492 0.00033875374 0.0002460243 4.182389e-05
        9.8578486e-05 0.0004898191 0.0005830859 0.0006972062 0.0003230187 0.0005305877
        0.00041560497 0.00038306625 0.00034455696 0.0002920451 0.0002190285 0.00013059175
        5.367549e-05 2.2353723e-05 4.808232e-05 0.00012776512 0.00024385875 0.00036666653
        0.0004663678 0.0005203038 0.00051746704 0.00046310714 0.0003677597 0.00023497951
        6.281788e-05 0.00015571108 0.00043236522 0.0007838929 0.0012323711 0.0018054057
        0.0025358668 0.003460899 0.0046201027 0.0060530016 0.0077961045 0.009879952
        0.012326487 0.01514696 0.018340414 0.021892926 0.025777008 0.02995354
        0.034367684 0.038970407 0.043652527 0.048481062 0.052964363 0.058147088
        0.06362565 0.068778805 0.072779834 0.07667665 0.07959982 0.08132407
        0.08130846 0.07911189 0.0743622 0.066896565 0.05683708 0.044561755
        0.030701205 0.015783781 0.00016083373 0.015469957 0.030410022 0.044307742
        0.05663321 0.06675249 0.074282795 0.0790973 0.08135541 0.081427634
        0.07975461 0.07687797 0.07302264 0.06906069 0.06393942 0.058488205
        0.05333291 0.048880626 0.04408421 0.039435547 0.03486694 0.030487053
        0.026344301 0.022492927 0.018971529 0.015807219 0.013013756 0.010592204
        0.0085317185 0.006811081 0.005400754 0.0042654546 0.0033669993 0.0026671074
        0.002129759 0.0017228122 0.0014187415 0.0011945656 0.0010311651 0.0009122015
        0.00082281796 0.00074807095 0.0006714809 0.0005735474 0.00044410778 0.00029256256
        0.00013961617 1.1421257e-05 6.772196e-05 8.559935e-05 4.3092063e-05 4.6540335e-05
        0.00014842175 0.00023596661 0.0003018988 0.000358156 0.00033110732 0.00030856996
        0.00017540574 0.00038898643 0.0003182515 0.00025478113 9.972577e-05 8.070414e-05
        0.0002129843 0.00027960932 0.0003548911 0.00041055848 0.00045438885 0.00048325173
        0.0004952835 0.0004887898 0.0004679863 0.00043799877 0.00040288002 0.0003656658
        0.000328362 0.00029206218 0.00025707312 0.00022303958 0.00018907804 0.0001539522
        0.000116840914 7.8088124e-05 3.7271217e-05 7.767349e-06 5.8224774e-05 0.000110052686
        0.00014646232 0.0001269987 2.5218082e-05 0.00043484665 0.0012803784 0.0027918457
        0.0052391444 0.008912124 0.014094928 0.021037668 0.029927049 0.040862855
        0.05382159 0.068708844 0.08504262 0.10340835 0.11873708 0.1490955
        0.16287237 0.1424299 0.111328624 0.08227122 0.052032642 0.02153903
        0.0103587555 0.044695362 0.0828763 0.12631014 0.17622894 0.23337695
        0.29765895 0.36774853 0.43649998 0.35870504 0.3132036 0.2644949
        0.22028695 0.18074553 0.14580101 0.11519801 0.08856037 0.065461546
        0.04543793 0.028062731 0.01260507 0.0011199667 0.015739413 0.026971295
        0.01889675 0.007243829 0.014857614 0.022344409 0.025990184 0.027201204
        0.026310693 0.023897655 0.020471906 0.016518667 0.0124621 0.0086478405
        0.005325953 0.0026431344 0.00064599054 0.0007036472 0.0015038041 0.0018829353
        0.0019723142 0.0018856103 0.0017083156 0.0014964326 0.00128143 0.0010778821
        0.0008916037 0.00072371616 0.00057225156 0.00043446932 0.00030806536 0.00019143854
        8.382383e-05 1.4610405e-05 0.000102661594 0.00017796746 0.00023701959 0.00027495675
        0.0002873151 0.00027521144 0.00023929033 0.0001848092 9.833665e-05 2.748926e-05
        0.00015409141 8.095987e-05 0.0006379037 0.0006766026 0.0008288557 0.00045727793
        0.0006602301 0.0005513438 0.000526297 0.00049511576 0.00045274195 0.00039344674
        0.00032166202 0.00026096115 0.000240987 0.00027036198 0.00034511264 0.0004490772
        0.0005561431 0.00064116926 0.000685951 0.000682354 0.00063597166 0.00055640435
        0.00044636222 0.0003037015 0.00012191834 0.000109405024 0.00040438067 0.00078031677
        0.001256586 0.0018525281 0.002584309 0.003461044 0.0044808965 0.0056281285
        0.006872035 0.008168329 0.009462979 0.010697873 0.011817486 0.012774851
        0.013538257 0.014089796 0.014445295 0.014592656 0.014694152 0.0144555485
        0.014874773 0.015834073 0.015941931 0.01487306 0.013516145 0.011446756
        0.008803643 0.0056501892 0.002233402 0.0010816591 0.0038251907 0.0055194814
        0.0058433744 0.004741694 0.0026027267 0.0003408856 0.0019250647 0.0040750117
        0.0051891836 0.004872895 0.0031762056 0.0004183144 0.0029219121 0.0063715004
        0.009561584 0.01224156 0.014345318 0.015731504 0.01682413 0.016730605
        0.015777469 0.015362946 0.015602636 0.015497061 0.015341015 0.014972288
        0.014403483 0.013619405 0.0126388185 0.011494425 0.010234269 0.008914963
        0.007595657 0.006331345 0.005167216 0.004134856 0.003250913 0.0025181829
        0.0019285288 0.0014666811 0.0011139485 0.0008511257 0.000660276 0.00052543037
        0.00043243243 0.00036823264 0.0003196898 0.00027234247 0.00020829818 0.000117356445
        6.493848e-06 0.000107737054 0.00020356847 0.00026004287 0.00026625444 0.00022215069
        0.00013797882 4.4181725e-05 3.61463e-05 9.661095e-05 0.00015003145 0.00012543789
        0.00010887301 2.085034e-05 0.00019250887 9.551303e-05 7.647852e-05 0.0002672946
        0.0002434891 0.0003719616 0.00043637244 0.00051171187 0.0005698342 0.0006189417
        0.0006562675 0.00068062195 0.0006908598 0.00069135433 0.0006871777 0.0006823851
        0.00068013463 0.00068267906 0.0006914856 0.0007073568 0.000730529 0.00076069665
        0.00079680106 0.0008368512 0.0008768986 0.0009056027 0.0008971541 0.00080522086
        0.00055680354 5.0359115e-05 0.00083807105 0.002238855 0.0042640697 0.0069784457
        0.010372143 0.014341259 0.018679768 0.023083579 0.027164323 0.030470306
        0.032505587 0.03276722 0.030695718 0.026010735 0.017277153 0.008686696
        0.019803224 0.028283197 0.017309831 0.0029731258 0.010442364 0.025551079
        0.042594474 0.0623471 0.08527211 0.111853674 0.14251998 0.17762938
        0.21740276 0.26186666 0.31081676 0.3566103 0.00025032889 0.0614193
        0.10809312 0.13907598 0.1556919 0.16093889 0.15854079 0.15216058
        0.14497404 0.13955814 0.13794057 0.14167535 0.15193622 0.16908221
        0.17227314 0.14997558 0.14026424 0.11895569 0.10214526 0.08612984
        0.07151191 0.05803478 0.045760944 0.034757145 0.025126182 0.016954891
        0.010285962 0.0050950097 0.0012832445 0.0013147517 0.0029108096 0.003736391
        0.004015699 0.0039440896 0.0036751002 0.0033169754 0.0029371972 0.0025718207
        0.002236109 0.00193466 0.0016666502 0.0014281792 0.0012148316 0.0010228313
        0.0008492497 0.0006921006 0.0005503994 0.0004242287 0.000314834 0.00022458946
        0.00015721197 0.00011624781 0.000100316014 0.00010870438 0.00013619145 0.00019543435
        0.00024117374 0.00039303582 0.00030655696 0.0008110815 0.000795225 0.0009817112
        0.00062696316 0.0008164286 0.00071546104 0.0006963048 0.00067151664 0.00063821365
        0.0005911893 0.00053399586 0.00048677283 0.00047505743 0.00050552323 0.0005741816
        0.00066684186 0.0007610591 0.0008357941 0.0008762333 0.0008759308 0.0008398356
        0.00077599176 0.0006857968 0.0005663522 0.00041084844 0.00020901788 5.253492e-05
        0.00038956772 0.0008185945 0.0013540218 0.002003844 0.0027640886 0.0036126734
        0.004503774 0.0053640893 0.0060924026 0.0065635163 0.006636814 0.0061690146
        0.0050287265 0.003113216 0.00035573717 0.0032468783 0.007692244 0.012782743
        0.018696042 0.024490276 0.029998759 0.03690846 0.045395434 0.05475406
        0.06495315 0.07535782 0.08506653 0.09279222 0.09698493 0.09603618
        0.088627145 0.07417549 0.053255983 0.027841633 0.0010730952 0.02572598
        0.051226526 0.072268724 0.08685401 0.09438521 0.095430836 0.09130521
        0.08361942 0.07392996 0.06353153 0.053332735 0.043974075 0.035490796
        0.028591879 0.023106232 0.017340234 0.011463397 0.0064183977 0.002026034
        0.0015170302 0.004210053 0.006057923 0.0071292706 0.007528674 0.0073892255
        0.006855667 0.00606979 0.005157706 0.004221343 0.003334613 0.002543937
        0.0018720429 0.0013235997 0.0008912944 0.0005612492 0.0003171233 0.00014269861
        2.3110664e-05 5.49503e-05 0.000103683094 0.00013517195 0.00016240572 0.00020179317
        0.00026301492 0.00034046994 0.00042066618 0.00048564668 0.00051805616 0.0005092205
        0.0004593871 0.00037700168 0.00028856067 0.00021367832 0.00015759988 0.00010714909
        0.00012832989 0.00013965055 0.00026116043 5.8498288e-05 0.00017715915 0.00015298114
        0.00047421962 0.00045061533 0.00057360856 0.00063745776 0.000714407 0.00077774376
        0.0008357578 0.00088616787 0.000928396 0.00096177444 0.0009906827 0.0010200612
        0.0010539497 0.0010956493 0.0011477175 0.0012120852 0.0012901723 0.001382976
        0.0014910692 0.0016142874 0.0017513075 0.0018984117 0.0020435622 0.002158154
        0.0021890518 0.0020493392 0.0016120534 0.0007103661 0.0008536674 0.0032917557
        0.0068056253 0.011561067 0.017665366 0.025153961 0.033990696 0.044082314
        0.05530584 0.06753711 0.0807012 0.0947274 0.109892815 0.12546295
        0.14565215 0.1512875 0.17348692 0.16938049 0.15074693 0.13891709
        0.13372652 0.13416153 0.1387996 0.14569929 0.15231736 0.15544973
        0.15133414 0.13607126 0.10642122 0.060790293 0.00045489016
      </DataArray>
      <DataArray type="Float32" Name="aspect_ratio" format="ascii" RangeMin="4.34420919418335" RangeMax="778.75146484375">
        24.309505 21.097464 19.106092 17.716824 16.706701 15.953968
        15.388669 14.968128 14.669487 14.467835 14.386994 14.3008795
        14.622734 13.835645 9.353402 5.009354 4.64397 5.6158056
        6.381684 7.3479724 8.432022 9.669979 11.067125 12.634495
        14.380161 16.312353 18.440184 20.775202 23.332527 26.131521
        29.1958 32.55265 36.231995 40.26521 44.683918 49.51899
        54.799717 60.55313 66.80325 73.569756 80.86597 88.697334
        97.06005 105.93908 115.30588 125.116165 135.30779 145.79872
        156.48569 167.24307 177.92276 188.35529 198.35757 207.74179
        216.3216 223.90996 230.34239 235.43741 239.12424 241.18657
        234.98026 227.28862 224.93932 221.40952 216.69888 210.99582
        204.41476 197.11201 189.25706 181.02467 172.55891 163.94041
        155.20108 146.35774 137.43513 128.48567 119.59412 110.86645
        102.411934 94.32119 86.65391 79.44367 72.70584 66.44254
        60.64634 55.302906 50.393066 45.894375 41.7824 38.03169
        34.616627 31.51207 28.693857 26.13917 23.826706 21.736736
        19.851006 18.152607 16.625704 15.255672 14.027835 12.931254
        11.945819 11.082501 10.269354 9.609135 9.473792 9.833172
        10.26082 10.645581 11.064902 11.506479 11.993081 12.52967
        13.117845 13.743257 14.374293 14.951486 15.409587 15.664043
        15.727492 15.670817 15.422351 14.9688635 14.394805 13.765658
        13.141259 12.553534 12.0170355 11.53026 11.088285 10.668305
        10.282699 9.853798 9.493161 9.627932 10.288088 11.100878
        11.962869 12.945902 14.038482 15.260179 16.621183 18.135227
        19.815723 21.676964 23.733898 26.0023 28.498783 31.24074
        34.246143 37.533184 41.11975 45.022778 49.257492 53.836594
        58.76947 64.06145 69.713295 75.72112 82.07704 88.77113
        95.795616 103.15294 110.86223 118.94799 127.415855 136.22917
        145.28996 154.43681 163.4617 172.13565 180.25124 187.65247
        194.2189 199.83823 204.43712 207.94684 210.3642 211.60294
        217.99774 223.19078 220.8504 217.3782 212.78107 207.1819
        200.66281 193.33632 185.31657 176.72765 167.69516 158.34389
        148.79916 139.1863 129.62477 120.22307 111.07513 102.25845
        93.833664 85.84503 78.32186 71.28022 64.724945 58.65206
        53.05049 47.90294 43.18687 38.87585 34.94076 31.351067
        28.076239 25.08722 22.35781 19.865705 17.592993 15.5259
        13.653892 11.968325 10.460846 9.122727 7.942012 6.9123354
        5.9967694 5.27774 4.344209 4.7669907 9.232872 13.813043
        14.600747 14.249777 14.309426 14.36213 14.537883 14.814876
        15.2204 15.779573 16.537191 17.565134 18.98699 21.027872
        24.305065 18.480919 17.692049 17.04972 16.503555 16.039738
        15.641734 15.292325 14.974034 14.670833 14.362149 14.042341
        13.653505 13.305577 12.545402 10.129712 7.296043 7.0912485
        8.340006 9.287807 10.44122 11.693062 13.082344 14.614995
        16.307524 18.177233 20.245049 22.53506 25.07449 27.89311
        31.022472 34.495007 38.343224 42.599224 47.29449 52.459923
        58.125893 64.322075 71.076866 78.416374 86.36255 94.930466
        104.126274 113.94537 124.369934 135.36633 146.88248 158.84526
        171.1584 183.70065 196.32475 208.8571 221.0993 232.83682
        243.84981 253.91951 262.82797 270.37878 276.36914 280.69128
        283.13614 275.852 266.8281 264.09744 259.95212 254.43446
        247.74335 240.01842 231.44293 222.21558 212.54095 202.58879
        192.45444 182.17737 171.77946 161.29153 150.77608 140.33278
        130.08519 120.160286 110.66308 101.66267 93.198074 85.2872
        77.93257 71.12561 64.849785 59.083046 53.79973 48.97206
        44.571342 40.568775 36.93606 33.64575 30.671381 27.98755
        25.569895 23.395075 21.440804 19.685818 18.110176 16.69446
        15.422761 14.273112 13.247091 12.287585 11.460709 11.282154
        11.713465 12.179114 12.585794 12.980926 13.346522 13.685166
        13.986384 14.240145 14.436652 14.574167 14.661081 14.721611
        14.780024 14.811072 14.783271 14.728173 14.671088 14.587644
        14.45338 14.259649 14.008019 13.708227 13.370319 13.004832
        12.609227 12.201598 11.73446 11.301434 11.479051 12.30564
        13.264358 14.288611 15.435287 16.702295 18.11101 19.67652
        21.417187 23.35158 25.499187 27.880035 30.514585 33.423584
        36.62791 40.14842 44.005688 48.219654 52.80911 57.79097
        63.17946 68.98514 75.214035 81.86693 88.939186 96.42144
        104.301834 112.57077 121.230095 130.30087 139.81052 149.76485
        160.12094 170.76476 181.50835 192.1094 202.3008 211.83943
        220.5425 228.26749 234.8832 240.29733 244.43698 247.28119
        248.75534 256.27902 262.38638 259.6495 255.56407 250.16446
        243.58049 235.91498 227.29828 217.86569 207.76317 197.13896
        186.14015 174.91452 163.60973 152.36636 141.31198 130.5569
        120.19212 110.288734 100.89863 92.05614 83.78012 76.076485
        68.94117 62.3625 56.322556 50.79874 45.765263 41.194065
        37.055286 33.317497 29.948017 26.913523 24.180912 21.718365
        19.496368 17.488483 15.671776 14.026668 12.537197 11.187979
        9.974218 8.856288 7.947354 6.714879 7.003025 9.938201
        12.363579 13.120228 13.470778 13.863906 14.191174 14.510225
        14.826587 15.160399 15.527071 15.943405 16.426071 16.99129
        17.652641 18.46118 15.198929 15.757331 16.229103 16.591747
        16.846289 16.991322 17.024279 16.94191 16.741518 16.4194
        15.981337 15.414349 14.789769 13.919937 12.1225605 10.171881
        10.415986 11.876857 13.0452795 14.412276 15.885388 17.507729
        19.294764 21.273266 23.472347 25.92538 28.668957 31.742126
        35.185226 39.038696 43.342087 48.13352 53.449715 59.326454
        65.79922 72.90356 80.674934 89.1479 98.35458 108.32218
        119.069496 130.60422 142.92046 155.99583 169.78804 184.23167
        199.23502 214.67725 230.40634 246.23766 261.9537 277.30597
        292.02545 305.83685 318.46558 329.6398 339.10934 346.63083
        352.04276 355.1319 345.9901 334.67065 331.2708 326.06448
        319.15292 310.76273 301.0741 290.3168 278.73993 266.59964
        254.10931 241.3887 228.4884 215.43713 202.27457 189.07982
        175.97816 163.12427 150.67664 138.76617 127.47891 116.86367
        106.94291 97.71997 89.18439 81.31576 74.08689 67.466125
        61.419216 55.910748 50.905132 46.367275 42.262897 38.558685
        35.2223 32.22237 29.528477 27.111284 24.942635 22.995935
        21.245724 19.67001 18.243475 16.958553 15.768025 14.709706
        14.480259 15.03957 15.608226 16.10441 16.558067 16.952303
        17.28393 17.54232 17.720804 17.819386 17.851334 17.844084
        17.83788 17.870853 17.90154 17.873777 17.843916 17.853582
        17.864573 17.836382 17.741226 17.565536 17.30914 16.97865
        16.584724 16.13062 15.633339 15.062965 14.50158 14.729761
        15.787467 16.976685 18.259197 19.68187 21.251694 22.993248
        24.92754 27.078726 29.4717 32.13242 35.0874 38.363464
        41.98748 45.986156 50.385826 55.21221 60.490036 66.24245
        72.49023 79.25077 86.536964 94.35605 102.70878 111.58915
        120.985214 130.88187 141.2667 152.14111 163.5304 175.46796
        187.96065 200.9549 214.30852 227.7869 241.08728 253.8756
        265.84677 276.77188 286.47125 294.78146 301.58054 306.7867
        310.3552 312.2217 321.66632 329.32993 325.90906 320.77618
        314.0035 305.7383 296.1163 285.29892 273.45697 260.7736
        247.43529 233.62685 219.53409 205.34251 191.22871 177.35275
        163.85309 150.84386 138.41414 126.62899 115.53137 105.1449
        95.47702 86.52275 78.26767 70.68986 63.762146 57.45414
        51.733437 46.566074 41.91639 37.746784 34.017727 30.6882
        27.716675 25.062346 22.686396 20.553095 18.630404 16.890854
        15.30932 13.872452 12.536652 11.40483 9.943465 9.777375
        11.830469 13.6202545 14.482226 15.11096 15.6908865 16.150896
        16.50215 16.736757 16.85583 16.859306 16.747839 16.521988
        16.182135 15.727404 15.182269 13.974294 15.071739 16.126009
        17.078836 17.881147 18.50064 18.920935 19.137438 19.152985
        18.973566 18.61065 18.068953 17.391472 16.508299 15.109234
        14.102905 14.921782 16.546598 18.06265 19.808252 21.739521
        23.900099 26.31752 29.027859 32.06993 35.486366 39.322723
        43.626846 48.447952 53.835876 59.840538 66.51177 73.8995
        82.05409 91.02653 100.868256 111.63032 123.361855 136.10797
        149.9064 164.78305 180.7482 197.79323 215.88657 234.9691
        254.94972 275.70102 297.0556 318.80313 340.68875 362.4127
        383.63297 403.97952 423.07346 440.5359 455.99377 469.0981
        479.52444 487.02255 491.34995 478.72775 463.09897 458.46225
        451.28915 441.7642 430.17053 416.76788 401.87357 385.8307
        368.9918 351.65314 333.98514 316.06616 297.9444 279.68143
        261.3901 243.24324 225.45117 208.22804 191.75008 176.13309
        161.44316 147.71083 134.94073 123.11871 112.217026 102.1985
        93.01974 84.633514 76.99076 70.04188 63.73775 58.030315
        52.872948 48.22065 44.030148 40.259953 36.87048 33.8241
        31.08543 28.62109 26.401148 24.395174 22.584425 20.92927
        19.438763 19.039469 19.670586 20.266403 20.762314 21.176651
        21.50258 21.741533 21.892946 21.96132 21.958582 21.907547
        21.841352 21.800234 21.82093 21.85114 21.823975 21.806494
        21.85114 21.921131 21.976028 21.982409 21.917175 21.768208
        21.530897 21.205784 20.791456 20.294817 19.697577 19.064547
        19.462831 20.953047 22.607052 24.415367 26.417126 28.630344
        31.084497 33.80824 36.83326 40.192745 43.92146 48.05532
        52.631145 57.68631 63.25843 69.384964 76.102684 83.447014
        91.451065 100.144485 109.55206 119.692154 130.5752 142.20248
        154.56577 167.6482 181.42798 195.8861 211.02083 226.8618
        243.44969 260.7903 278.80914 297.31284 315.98315 334.40906
        352.13556 368.7442 383.91788 397.40472 408.9771 418.4556
        425.72702 430.71115 433.35257 446.49185 457.15356 452.44205
        445.3249 435.93387 424.45792 411.0932 396.0626 379.60568
        361.9779 343.44006 324.25076 304.6699 284.95612 265.35507
        246.08894 227.34955 209.2947 192.04741 175.6972 160.30305
        145.89706 132.48889 120.07072 108.6212 98.10815 88.49168
        79.72717 71.76748 64.56408 58.06769 52.228363 46.99555
        42.31831 38.145863 34.428364 31.11783 28.169033 25.540077
        23.19318 21.093344 19.214613 17.512724 16.040705 14.41943
        13.664946 14.758062 16.147966 17.027454 17.713942 18.275705
        18.668737 18.886095 18.913582 18.742052 18.365421 17.785336
        17.015972 16.088543 15.052325 13.967724 15.723371 17.907925
        20.091585 22.061039 23.721659 25.023336 25.958992 26.549786
        26.825375 26.807158 26.498547 25.88316 24.930338 23.613504
        21.93312 21.723629 23.125854 24.891457 27.01767 29.536299
        32.477177 35.876244 39.772247 44.206795 49.224125 54.871548
        61.20016 68.26581 76.12988 84.85987 94.52935 105.21743
        117.007835 129.98753 144.24522 159.86948 176.94652 195.55754
        215.77557 237.66077 261.25372 286.57004 313.59506 342.27762
        372.52277 404.18497 437.06137 470.88605 505.32578 539.9776
        574.3688 607.96094 640.1716 670.404 698.06055 722.5543
        743.33057 759.8888 771.80493 778.75146 758.80786 734.10767
        726.8733 715.57574 700.5486 682.2028 660.96454 637.3361
        611.8582 585.0864 557.4923 529.3561 500.81808 471.97122
        442.92587 413.86682 385.06647 356.85074 329.54907 303.43164
        278.67593 255.38359 233.60167 213.33727 194.56818 177.2509
        161.32693 146.72763 133.37807 121.19995 110.114 100.041565
        90.90596 82.633316 75.153114 68.398506 62.306416 56.81756
        51.87632 47.4307 43.432224 39.83593 36.60029 33.68735
        31.062199 28.69438 27.954613 28.737396 29.420647 29.967833
        30.394894 30.719446 30.959429 31.132885 31.257519 31.350395
        31.427744 31.505005 31.597424 31.721424 31.793451 31.72696
        31.608353 31.521095 31.448679 31.375784 31.2869 31.165722
        30.995104 30.757267 30.434105 30.007633 29.460222 28.775948
        27.99147 28.730982 31.099632 33.72445 36.63534 39.86645
        43.454693 47.440186 51.86604 56.77827 62.22569 68.25975
        74.93443 82.30599 90.432655 99.374084 109.19059 119.94213
        131.68686 144.47942 158.36887 173.39635 189.59256 206.97534
        225.54768 245.2969 266.19604 288.20895 311.3019 335.46548
        360.73685 387.17007 414.7668 443.4076 472.79178 502.42737
        531.67816 559.83746 586.2498 610.4124 631.9198 650.40686
        665.57263 677.22845 685.22766 689.5207 710.4911 727.5113
        720.0766 708.7732 693.84546 675.5783 654.293 630.3446
        604.118 576.0227 546.4774 515.8978 484.7013 453.30185
        422.09134 391.42322 361.60205 332.8778 305.44485 279.4443
        254.96858 232.06744 210.75488 191.0166 172.81602 156.09819
        140.7945 126.82738 114.11413 102.569954 92.11055 82.654106
        74.122986 66.44486 59.5533 53.387726 47.89284 43.017773
        38.71514 34.940422 31.651608 28.809565 26.377922 24.326735
        22.623016 21.271053 21.491934 23.16316 24.488571 25.461756
        26.105253 26.447382 26.503592 26.270275 25.725748 24.839222
        23.58709 21.972826 20.042717 17.88868 15.7231
      </DataArray>
      <DataArray type="Float32" Name="jacobian" format="ascii" RangeMin="6.474844849435613e-05" RangeMax="0.015889136120676994">
        0.0014316255 0.0016255743 0.0017859171 0.0019076694 0.0019952974 0.0020527479
        0.002083797 0.002091917 0.0020807711 0.0020519162 0.0020124945 0.0019477925
        0.0019164963 0.0017241881 0.0010937055 0.00055457384 0.0004942113 0.00056938804
        0.00061636156 0.00067538756 0.0007379527 0.00080715027 0.00088360975 0.0009687969
        0.0010642092 0.0011715115 0.0012924337 0.0014287189 0.0015820687 0.0017541109
        0.0019463948 0.0021604109 0.0023976313 0.0026595518 0.0029477228 0.0032637566
        0.003609305 0.0039860094 0.004395431 0.0048389225 0.005317452 0.005831485
        0.006380897 0.006964836 0.0075815693 0.008228324 0.008901125 0.009594643
        0.010302066 0.011014999 0.011723401 0.0124156475 0.013079136 0.013701048
        0.0142687075 0.014769411 0.015191984 0.015524229 0.015761355 0.015889136
        0.015470331 0.014953358 0.014787446 0.01454412 0.01422567 0.013846436
        0.013412421 0.012934052 0.012422925 0.0118909525 0.011347535 0.010796619
        0.010238258 0.0096714785 0.009096269 0.008515319 0.007934439 0.007361565
        0.0068051973 0.0062724864 0.005768107 0.0052946648 0.0048533482 0.0044443524
        0.0040671816 0.003720863 0.0034041042 0.0031154114 0.0028531747 0.0026157298
        0.002401399 0.0022085172 0.0020354493 0.0018805987 0.0017424155 0.0016194037
        0.0015101291 0.0014132285 0.0013274107 0.0012514876 0.0011842854 0.0011249676
        0.0010719312 0.001026342 0.000981842 0.0009482007 0.00096476957 0.0010361952
        0.0011226069 0.0012125636 0.0013153759 0.0014301388 0.0015597629 0.0017043306
        0.0018623534 0.0020286113 0.0021937503 0.0023431175 0.0024611268 0.002530246
        0.0025501358 0.0025315671 0.002463599 0.002346447 0.002197606 0.002032695
        0.0018664412 0.0017082752 0.0015634795 0.0014335834 0.0013185291 0.0012154136
        0.0011251583 0.0010384306 0.00096671865 0.000949947 0.000983425 0.001027712
        0.0010729779 0.0011255674 0.0011842666 0.0012506258 0.0013254109 0.001409705
        0.0015045806 0.0016111814 0.0017306844 0.0018642916 0.0020132095 0.002178632
        0.0023617195 0.002563581 0.00278525 0.0030276587 0.003291606 0.0035777215
        0.003886425 0.004217892 0.0045720353 0.004948519 0.0053468393 0.0057665072
        0.00620741 0.006670462 0.007158094 0.0076731816 0.008217007 0.00878738
        0.009377155 0.0099742105 0.010562969 0.011126556 0.011650231 0.01212392
        0.012540382 0.012892967 0.013177987 0.013393969 0.013540284 0.013610761
        0.014013367 0.014339394 0.014183206 0.013956439 0.01365951 0.013300156
        0.012883405 0.012416159 0.011905393 0.011358704 0.010783747 0.010188007
        0.009579076 0.008964731 0.00835254 0.00774948 0.0071616787 0.0065942593
        0.006051281 0.005535761 0.0050497446 0.004594415 0.004170229 0.003777092
        0.00341449 0.0030815476 0.0027771199 0.0024999029 0.0022485137 0.002021536
        0.0018175271 0.0016350038 0.0014724154 0.0013281241 0.0012004054 0.0010874724
        0.0009875216 0.0008987962 0.0008196394 0.000748591 0.00068425 0.00062604534
        0.0005709988 0.0005275962 0.00045576386 0.00051979674 0.0010641313 0.0016979353
        0.0018883664 0.0019161771 0.0019771708 0.0020129802 0.0020389424 0.0020485977
        0.0020409876 0.002012863 0.0019608398 0.0018808219 0.001768115 0.0016171528
        0.0014313635 0.0007789631 0.000838184 0.0008815827 0.00090916443 0.00092467834
        0.00093072635 0.0009291055 0.00092093146 0.00090682117 0.0008866153 0.0008606984
        0.0008259175 0.00078948756 0.0007237388 0.00056620955 0.00040059254 0.00038426544
        0.00044417 0.00048679192 0.0005388181 0.00059468864 0.0006564527 0.00072451035
        0.00079982734 0.00088342896 0.0009765187 0.001080432 0.0011966098 0.0013265548
        0.0014717857 0.0016337987 0.0018140441 0.0020139231 0.0022348012 0.0024780296
        0.0027449592 0.0030369384 0.003355285 0.0037012335 0.004075839 0.0044798395
        0.0049135527 0.0053767944 0.00586876 0.0063879006 0.0069317934 0.0074970196
        0.008079052 0.008672162 0.009269365 0.009862391 0.010441749 0.010997168
        0.011518149 0.0119942585 0.012415106 0.012771327 0.013053283 0.013255851
        0.013369164 0.013022603 0.01259381 0.012461939 0.012263358 0.012000679
        0.0116838105 0.011318928 0.010914724 0.010480694 0.010026603 0.009560444
        0.00908636 0.00860567 0.00811886 0.007626952 0.007132696 0.0066408594
        0.0061575267 0.005689037 0.0052406606 0.0048158537 0.004416561 0.004043672
        0.0036973166 0.0033770865 0.0030821888 0.0028115693 0.0025640058 0.0023381794
        0.00213273 0.0019462933 0.001777525 0.001625114 0.0014877868 0.0013643085
        0.0012534829 0.001154154 0.0010652101 0.000985587 0.00091428566 0.0008503345
        0.0007929424 0.0007410123 0.0006946572 0.0006509594 0.00061337644 0.0006100157
        0.00064047374 0.0006742866 0.00070625317 0.0007390524 0.00077158323 0.0008038381
        0.00083491235 0.0008637559 0.0008891409 0.00091016066 0.000926449 0.00093866244
        0.00094767194 0.00095146254 0.0009479414 0.0009391963 0.00092723954 0.000911189
        0.00089037203 0.0008651413 0.0008363975 0.00080537016 0.0007731157 0.0007405468
        0.0007076767 0.00067561556 0.0006416817 0.00061109575 0.0006143753 0.0006519105
        0.00069552823 0.00074174535 0.00079346687 0.000850552 0.0009140652 0.0009847534
        0.0010635302 0.0011513204 0.0012490926 0.001357836 0.0014785526 0.0016122457
        0.0017599103 0.0019225248 0.0021010397 0.0022963644 0.0025093441 0.002740732
        0.0029911515 0.0032610549 0.0035506848 0.003860045 0.0041888985 0.0045368085
        0.0049032597 0.0052879066 0.0056910394 0.0061139683 0.0065583303 0.007024643
        0.007510938 0.008011644 0.008517486 0.009016523 0.009495664 0.009943147
        0.010350397 0.010710869 0.011018567 0.011269432 0.011460845 0.011591704
        0.011658339 0.012008623 0.012292722 0.012162946 0.011970561 0.011717169
        0.011408811 0.011050237 0.010647468 0.010206747 0.009734812 0.009238498
        0.0087245535 0.00819978 0.0076710214 0.007144836 0.0066272006 0.006123311
        0.005637467 0.005173044 0.0047325185 0.004317542 0.003929038 0.0035673208
        0.0032322402 0.002923297 0.002639705 0.0023804703 0.0021444652 0.0019304756
        0.0017372143 0.001563321 0.0014073569 0.0012678109 0.0011431233 0.0010317262
        0.00093209423 0.0008427929 0.0007625217 0.0006901325 0.0006246668 0.00056522456
        0.0005114775 0.00046137415 0.00042076994 0.00036178215 0.000382162 0.00055215333
        0.00070951646 0.00077500043 0.0008115717 0.0008465392 0.0008728444 0.00089365966
        0.00090864906 0.00091799634 0.0009210851 0.00091676926 0.00090318784 0.00087763846
        0.0008362226 0.00077869487 0.00041678856 0.0004164852 0.00041501538 0.00041094603
        0.00040504208 0.00039810277 0.00039074424 0.00038331436 0.00037591194 0.0003683805
        0.00036058231 0.00035180832 0.00034314313 0.00032974454 0.00029375512 0.00025085622
        0.00026031773 0.00030150768 0.00033683245 0.0003788048 0.00042507445 0.00047673815
        0.0005341038 0.0005977316 0.00066821283 0.000746249 0.00083265366 0.0009283603
        0.0010344117 0.001151938 0.0012821258 0.0014261892 0.0015853444 0.0017607962
        0.0019537304 0.0021653078 0.0023966522 0.0026488265 0.002922794 0.0032193537
        0.0035390463 0.0038820778 0.0042482484 0.004636864 0.005046638 0.0054755984
        0.0059209955 0.0063792258 0.0068457746 0.0073151826 0.007781047 0.008236078
        0.008672398 0.009081918 0.009456563 0.009788336 0.010069876 0.010294001
        0.01045594 0.010549354 0.010279823 0.009945671 0.00984696 0.009694507
        0.009490858 0.009242347 0.008954637 0.008634524 0.008289322 0.00792656
        0.0075526 0.00717128 0.0067845243 0.0063936105 0.006000048 0.005606339
        0.005216156 0.004833897 0.004464007 0.004110136 0.0037746888 0.0034590361
        0.0031638094 0.0028890965 0.0026345872 0.0023996823 0.0021835791 0.0019853404
        0.0018039484 0.0016383488 0.0014874829 0.0013503114 0.0012258283 0.0011130677
        0.0010111056 0.0009190583 0.00083607994 0.000761362 0.0006941318 0.00063366006
        0.0005792465 0.0005302823 0.00048606464 0.00044636527 0.00040989497 0.00037762529
        0.0003670341 0.0003759322 0.00038414958 0.0003897192 0.00039346179 0.0003951313
        0.00039488293 0.0003927799 0.00038904496 0.00038408118 0.00037855492 0.0003733499
        0.00036950348 0.00036790586 0.00036776115 0.00036794366 0.00036958506 0.00037348652
        0.00037875873 0.00038436078 0.00038940264 0.0003932111 0.0003953774 0.00039567493
        0.00039403842 0.00039031164 0.00038474126 0.00037650586 0.0003675779 0.00037815858
        0.00041043703 0.00044690195 0.00048657123 0.0005307255 0.00057957834 0.00063381414
        0.00069401675 0.0007608537 0.0008350113 0.00091720634 0.0010081758 0.0011086734
        0.0012194666 0.0013413326 0.0014750544 0.0016214119 0.0017811679 0.0019550475
        0.0021437104 0.0023477164 0.0025674896 0.0028032826 0.0030551462 0.003322919
        0.0036062426 0.0039046342 0.0042176414 0.0045451494 0.0048876666 0.005245922
        0.005619928 0.006008044 0.006406189 0.0068077026 0.007203982 0.0075854743
        0.0079433415 0.008270745 0.008562204 0.008812712 0.009018401 0.009176221
        0.009284915 0.009342683 0.009627113 0.009858103 0.009756918 0.0096040405
        0.009401637 0.009154148 0.00886569 0.008541159 0.008185749 0.007805017
        0.007404634 0.006990242 0.006567498 0.0061420132 0.005719096 0.0053035347
        0.0048994552 0.0045102434 0.0041385326 0.0037862333 0.0034545981 0.0031443024
        0.002855538 0.0025881198 0.0023415727 0.0021151856 0.0019080723 0.001719225
        0.0015475522 0.0013918998 0.0012510677 0.0011238292 0.0010089567 0.00090525736
        0.00081160926 0.0007269932 0.00065051153 0.00058139313 0.00051897875 0.00046271502
        0.00041206824 0.00036676307 0.0003256582 0.00029136302 0.00025018599 0.00024286058
        0.0002887408 0.0003249192 0.00033834012 0.00034723213 0.00035636328 0.00036462824
        0.00037269527 0.0003806653 0.00038865994 0.00039654935 0.0004039603 0.00041025982
        0.0004146443 0.00041635992 0.00041686473 0.0002160524 0.00020510174 0.00019588374
        0.00018786479 0.0001810949 0.00017557491 0.0001712427 0.0001679793 0.00016563095
        0.00016402353 0.00016301217 0.0001623848 0.0001622432 0.00016165012 0.00015667074
        0.00015393624 0.00017000748 0.00019675335 0.00022348951 0.0002542701 0.00028851707
        0.00032672434 0.00036915333 0.00041616772 0.00046816966 0.00052563054 0.00058909494
        0.0006591854 0.00073659926 0.00082210137 0.00091651164 0.0010206908 0.0011355251
        0.0012619114 0.001400743 0.0015528946 0.0017192044 0.0019004521 0.0020973305
        0.002310402 0.0025400403 0.0027863756 0.0030492428 0.0033281185 0.003622054
        0.003929609 0.0042487904 0.004577001 0.004911005 0.0052469093 0.005580171
        0.0059056454 0.006217775 0.00651084 0.0067791096 0.0070169386 0.007219041
        0.007380483 0.0074974466 0.00756619 0.0073744175 0.0071364306 0.0070679463
        0.0069603142 0.006815773 0.006638167 0.006431908 0.0062018437 0.005953146
        0.005691139 0.005420408 0.005143939 0.0048634764 0.0045803078 0.004295808
        0.00401191 0.0037312137 0.003456709 0.0031913533 0.002937554 0.0026969027
        0.002470318 0.002258227 0.0020606904 0.0018774963 0.0017082305 0.0015523356
        0.0014091554 0.001277973 0.0011580401 0.0010486011 0.0009489105 0.00085824623
        0.00077591767 0.0007012695 0.000633683 0.0005725751 0.00051739666 0.0004676302
        0.00042279033 0.00038241805 0.00034609818 0.00031340533 0.0002840643 0.00025752492
        0.00023386432 0.00022385869 0.00022540837 0.00022563388 0.00022389939 0.00022054878
        0.00021572049 0.00020970214 0.00020281832 0.00019547765 0.00018815711 0.00018138731
        0.00017570675 0.000171615 0.00016949161 0.00016895843 0.00016948995 0.00017161532
        0.00017571558 0.00018141279 0.00018820734 0.0001955592 0.00020293526 0.00020985561
        0.00021590879 0.00022076769 0.00022414274 0.00022589425 0.00022567737 0.00022412883
        0.00023414435 0.0002578259 0.00028438112 0.00031372844 0.00034641297 0.0003827023
        0.00042301172 0.00046774262 0.0005173359 0.0005722526 0.00063297857 0.0007000217
        0.0007739114 0.0008551979 0.00094444875 0.0010422444 0.0011491687 0.0012657967
        0.0013926771 0.0015303099 0.0016791229 0.0018394435 0.0020114728 0.0021952635
        0.002390706 0.0025975348 0.0028153693 0.0030438076 0.0032826182 0.0035319368
        0.0037920442 0.004062782 0.004342943 0.004629739 0.0049186745 0.0052039227
        0.0054789567 0.0057376195 0.0059749708 0.0061869468 0.0063698464 0.006520602
        0.006636648 0.006716855 0.0067605255 0.0069678444 0.0071363174 0.0070643327
        0.006954222 0.0068080495 0.0066288062 0.0064196214 0.0061840615 0.0059259636
        0.0056494153 0.0053586 0.005057696 0.0047508837 0.0044422746 0.004135732
        0.0038347214 0.0035422118 0.0032606286 0.0029918472 0.0027372201 0.0024976234
        0.0022735193 0.0020650208 0.0018719655 0.0016939725 0.0015304856 0.001380817
        0.001244189 0.0011197643 0.0010066716 0.0009040263 0.0008109507 0.0007265932
        0.00065014715 0.0005808667 0.0005180785 0.00046118782 0.00040967856 0.00036310562
        0.00032108885 0.00028327873 0.00024942818 0.00021902032 0.00019274084 0.00016599197
        0.00015075729 0.00015465332 0.00015975772 0.00016045397 0.00016077333 0.00016163624
        0.0001629224 0.00016482125 0.0001674536 0.00017097061 0.00017550706 0.00018116947
        0.00018801559 0.00019604966 0.00020523678 0.00021613644 0.0001075719 9.331821e-05
        8.312905e-05 7.583205e-05 7.085929e-05 6.7683344e-05 6.585071e-05 6.5000626e-05
        6.487076e-05 6.529527e-05 6.620022e-05 6.759874e-05 6.958658e-05 7.2325216e-05
        7.6391894e-05 8.6073516e-05 0.000101775 0.00011913703 0.00013810539 0.00015881477
        0.00018140898 0.00020607648 0.00023305102 0.00026261562 0.00029510268 0.00033089126
        0.00037040116 0.00041408572 0.0004624242 0.00051591586 0.0005750754 0.00064043084
        0.0007125214 0.000791894 0.0008790978 0.00097467506 0.0010791484 0.0011930044
        0.0013166737 0.0014505038 0.0015947244 0.001749412 0.0019144561 0.0020895205
        0.002274001 0.002466986 0.0026672177 0.0028730626 0.0030824898 0.003293063
        0.0035019475 0.0037059402 0.003901582 0.004085308 0.0042535407 0.0044027665
        0.004529659 0.0046312083 0.00470485 0.004748584 0.0046286676 0.004479801
        0.004437591 0.0043705553 0.004280326 0.0041690543 0.0040396363 0.0038951046
        0.003738681 0.003573682 0.0034029884 0.0032285452 0.0030515613 0.002872962
        0.0026937039 0.002515047 0.0023386157 0.002166236 0.0019996916 0.0018404236
        0.0016893892 0.001547146 0.0014139552 0.0012898562 0.0011747208 0.0010682973
        0.0009702442 0.0008801582 0.00079759624 0.00072209316 0.0006531752 0.000590371
        0.00053321954 0.00048127602 0.00043411666 0.0003913415 0.0003525766 0.00031747506
        0.00028571708 0.00025700932 0.00023108348 0.00020769442 0.00018661808 0.00016764867
        0.00015059803 0.00013528997 0.00012798347 0.00012715472 0.00012515488 0.000121865625
        0.00011745825 0.000112155416 0.00010622994 9.999661e-05 9.37971e-05 8.79782e-05
        8.286608e-05 7.8741105e-05 7.5817756e-05 7.423096e-05 7.378548e-05 7.422265e-05
        7.580297e-05 7.872291e-05 8.284851e-05 8.796587e-05 9.3794646e-05 0.00010000815
        0.000106258536 0.000112202746 0.0001175245 0.00012194952 0.00012525395 0.00012726555
        0.00012810242 0.00013542059 0.00015074601 0.00016781263 0.00018679483 0.00020787805
        0.00023126428 0.00025717236 0.00028584024 0.0003175265 0.00035251142 0.00039109742
        0.00043360857 0.00048038884 0.0005317995 0.00058821467 0.00065001595 0.00071758527
        0.0007912957 0.00087150076 0.0009585212 0.0010526305 0.0011540382 0.0012628742
        0.0013791734 0.0015028672 0.0016337853 0.0017716769 0.0019162655 0.0020673573
        0.002224961 0.0023891751 0.0025598502 0.002736222 0.0029165887 0.0030982185
        0.0032775614 0.0034506214 0.003613587 0.0037633434 0.0038972953 0.004013092
        0.004108709 0.004182429 0.0042334483 0.004261578 0.004392704 0.004499283
        0.0044543156 0.0043850522 0.004293008 0.0041799727 0.004047977 0.0038992714
        0.0037363002 0.0035616593 0.0033780092 0.003188014 0.002994335 0.0027995803
        0.002606192 0.002416354 0.0022319334 0.0020544515 0.0018850814 0.001724666
        0.0015737491 0.0014326135 0.0013013241 0.0011797715 0.001067707 0.0009647727
        0.00087053195 0.0007844966 0.00070614886 0.0006349569 0.0005703862 0.0005119067
        0.00045899703 0.0004111474 0.00036786354 0.00032867218 0.00029312808 0.00026082198
        0.0002313878 0.00020450754 0.00017991297 0.00015738457 0.00013674605 0.0001178649
        0.00010060759 8.506842e-05 7.5475546e-05 7.1478964e-05 6.88415e-05 6.698286e-05
        6.573854e-05 6.5002954e-05 6.474845e-05 6.5032546e-05 6.600563e-05 6.791817e-05
        7.112472e-05 7.607934e-05 8.331679e-05 9.34179e-05 0.000107570035
      </DataArray>
    </PointData>
    <CellData>
    </CellData>
    <Points>
      <DataArray type="Float32" Name="Points" NumberOfComponents="3" format="ascii" RangeMin="0.891468988706264" RangeMax="1.0194702680839827">
        0.81308824 0.033247396 0.6140662 0.81310314 0.03372216 0.6140405
        0.813065 0.034195345 0.6140138 0.8129747 0.034659848 0.6139865
        0.8128344 0.035108924 0.613959 0.81264716 0.035536487 0.6139318
        0.81241715 0.035937283 0.6139053 0.8121488 0.036307048 0.6138798
        0.8118471 0.03664243 0.6138556 0.8115168 0.03694113 0.61383307
        0.8111634 0.03720116 0.6138124 0.81078964 0.037422724 0.6137937
        0.81040704 0.037602015 0.6137773 0.80999464 0.03774858 0.6137624
        0.8096478 0.037837856 0.613752 0.809487 0.037871018 0.61374766
        0.8093819 0.037892394 0.61374485 0.80924535 0.03791999 0.61374116
        0.80909675 0.037949823 0.61373717 0.8089292 0.03798322 0.6137327
        0.80874175 0.038020276 0.61372775 0.8085318 0.03806141 0.61372215
        0.8082968 0.038107 0.61371595 0.8080338 0.038157444 0.613709
        0.8077396 0.03821318 0.6137013 0.8074107 0.038274646 0.61369264
        0.8070432 0.038342293 0.6136831 0.8066327 0.03841659 0.61367244
        0.80617446 0.038498007 0.61366063 0.8056634 0.038586978 0.6136475
        0.8050937 0.038683947 0.613633 0.8044592 0.03878931 0.6136169
        0.8037532 0.03890342 0.61359906 0.8029683 0.039026532 0.6135794
        0.80209666 0.039158843 0.6135577 0.80112976 0.039300404 0.6135338
        0.8000585 0.039451085 0.61350745 0.79887325 0.039610572 0.6134786
        0.79756373 0.039778244 0.6134469 0.79611933 0.03995315 0.61341214
        0.79452896 0.04013388 0.61337423 0.79278123 0.04031843 0.61333287
        0.7908648 0.040504124 0.6132879 0.7887685 0.04068742 0.6132392
        0.7864814 0.04086375 0.6131868 0.78399354 0.041027375 0.61313045
        0.781296 0.04117117 0.6130705 0.7783815 0.041286502 0.613007
        0.77524483 0.041363116 0.61294067 0.7718836 0.04138912 0.61287206
        0.7682985 0.04135109 0.61280227 0.7644944 0.041234452 0.61273277
        0.7604805 0.041023985 0.61266524 0.75627065 0.040704645 0.61260164
        0.75188345 0.040262442 0.6125445 0.7473419 0.03968534 0.612496
        0.7426734 0.038964294 0.61245877 0.7379085 0.03809404 0.6124348
        0.73308194 0.037074193 0.61242574 0.72822607 0.035908524 0.6124325
        0.7233825 0.034608096 0.6124552 0.7188443 0.033267356 0.61249053
        0.71437645 0.031835027 0.612538 0.70999855 0.030326946 0.6125956
        0.7057352 0.028762547 0.6126612 0.70160353 0.027158987 0.61273235
        0.6976196 0.025531823 0.61280674 0.6937966 0.023895029 0.6128823
        0.6901443 0.022260552 0.612957 0.6866695 0.0206379 0.6130293
        0.683376 0.019033942 0.61309797 0.680266 0.017453548 0.613162
        0.67734116 0.015900942 0.6132208 0.67460316 0.014380768 0.61327386
        0.67205274 0.012898733 0.613321 0.6696897 0.011461613 0.61336213
        0.6675114 0.010076631 0.6133973 0.6655128 0.008750547 0.6134268
        0.6636863 0.007488795 0.6134511 0.66202223 0.006294959 0.61347073
        0.6605099 0.005170772 0.6134861 0.65913814 0.0041164057 0.6134979
        0.657896 0.003130773 0.6135067 0.6567726 0.0022118206 0.6135129
        0.65575784 0.0013567922 0.61351687 0.654842 0.00056245184 0.61351913
        0.6540162 -0.00017473486 0.61352 0.653272 -0.00085845724 0.6135198
        0.65260166 -0.0014924493 0.61351866 0.65199804 -0.002080407 0.61351687
        0.6514546 -0.0026259294 0.61351454 0.6509655 -0.0031324753 0.61351186
        0.6505252 -0.003603338 0.6135089 0.65012884 -0.004041626 0.6135057
        0.6497718 -0.004450255 0.61350244 0.6494502 -0.004831947 0.6134991
        0.64916027 -0.005189223 0.61349577 0.6488988 -0.005524419 0.61349237
        0.64866287 -0.005839681 0.61348903 0.6484498 -0.0061369706 0.61348575
        0.6482573 -0.0064180903 0.6134825 0.6480834 -0.0066846358 0.61347926
        0.64792603 -0.0069381734 0.6134761 0.647784 -0.007179676 0.613473
        0.6476551 -0.0074113747 0.61346996 0.6475399 -0.007631323 0.613467
        0.6474341 -0.007846475 0.613464 0.64733034 -0.008072945 0.6134608
        0.64722675 -0.008319157 0.61345726 0.64712685 -0.008582683 0.6134534
        0.6470324 -0.008866749 0.6134491 0.64694625 -0.0091727665 0.6134444
        0.6468722 -0.009503206 0.61343914 0.6468149 -0.009860205 0.61343336
        0.64678043 -0.010245467 0.6134269 0.64677614 -0.010659313 0.6134199
        0.6468107 -0.011099579 0.61341214 0.6468928 -0.011560553 0.61340386
        0.64702964 -0.0120317405 0.61339515 0.64722496 -0.012499421 0.61338633
        0.6474762 -0.012946329 0.6133777 0.6477782 -0.013360808 0.61336946
        0.64812255 -0.013733183 0.613362 0.64849466 -0.014053919 0.6133555
        0.64888036 -0.014320597 0.6133501 0.6492672 -0.014535308 0.6133457
        0.6496462 -0.014703626 0.6133422 0.65001184 -0.0148324305 0.61333954
        0.65036124 -0.014928633 0.61333764 0.65069336 -0.014998443 0.61333627
        0.6510083 -0.015047083 0.6133353 0.6513067 -0.015078859 0.6133348
        0.65158856 -0.015097178 0.6133345 0.6518562 -0.015104895 0.6133344
        0.6521058 -0.0151042435 0.6133345 0.65234596 -0.015096976 0.6133347
        0.6525943 -0.01508309 0.613335 0.65285903 -0.015061669 0.61333555
        0.6531381 -0.015032237 0.6133362 0.65343434 -0.014993898 0.6133371
        0.65374917 -0.014945792 0.6133381 0.6540848 -0.014886876 0.61333936
        0.65444344 -0.014815988 0.61334085 0.6548276 -0.014731798 0.6133425
        0.6552401 -0.014632817 0.61334443 0.65568393 -0.01451737 0.6133467
        0.6561625 -0.014383592 0.6133492 0.65667933 -0.014229417 0.61335194
        0.65723836 -0.014052576 0.61335504 0.6578439 -0.013850592 0.61335844
        0.6585004 -0.013620781 0.61336213 0.6592127 -0.013360266 0.61336607
        0.659986 -0.013065997 0.6133703 0.66082585 -0.012734785 0.61337477
        0.6617379 -0.012363338 0.6133794 0.6627283 -0.0119483275 0.6133841
        0.6638032 -0.011486472 0.61338884 0.6649692 -0.010974621 0.6133934
        0.6662329 -0.0104098935 0.6133977 0.66760105 -0.009789788 0.61340153
        0.6690806 -0.009112335 0.61340463 0.67067856 -0.008376205 0.61340684
        0.67240214 -0.007580781 0.61340785 0.6742587 -0.0067261183 0.6134075
        0.6762564 -0.0058126906 0.6134055 0.67840403 -0.004840944 0.6134018
        0.680711 -0.0038109838 0.613396 0.6831862 -0.0027224536 0.6133883
        0.6858371 -0.0015747226 0.61337864 0.68866795 -0.00036743085 0.61336726
        0.6916788 0.00089875376 0.61335444 0.6948653 0.002221316 0.6133408
        0.6982183 0.0035951373 0.61332685 0.70172596 0.0050123464 0.61331344
        0.7053744 0.006462693 0.61330146 0.7091483 0.007933788 0.61329186
        0.71303046 0.009411355 0.6132857 0.7170034 0.010880332 0.6132839
        0.7210477 0.01232618 0.61328715 0.7251444 0.013735688 0.61329615
        0.7292696 0.015094923 0.6133112 0.7336518 0.016468903 0.61333376
        0.7380186 0.017763281 0.61336297 0.74234897 0.018971127 0.6133981
        0.7466175 0.020086955 0.61343825 0.7508022 0.021108791 0.6134824
        0.7548815 0.02203701 0.61352926 0.75883585 0.022874286 0.6135777
        0.7626478 0.023625074 0.6136265 0.7663023 0.024295129 0.6136747
        0.769787 0.02489107 0.6137214 0.7730923 0.025419887 0.61376595
        0.7762113 0.025888516 0.6138079 0.7791398 0.026303515 0.613847
        0.7818764 0.026670909 0.61388314 0.78442216 0.026996098 0.6139162
        0.78678066 0.02728386 0.6139463 0.7889571 0.02753839 0.61397356
        0.7909586 0.027763363 0.61399823 0.79279304 0.027962007 0.6140205
        0.7944695 0.028137166 0.6140405 0.7959973 0.028291369 0.61405855
        0.7973864 0.028426874 0.6140747 0.79864645 0.028545704 0.6140893
        0.79978716 0.028649686 0.6141024 0.80081797 0.028740484 0.6141142
        0.80174804 0.028819604 0.6141249 0.80258596 0.028888425 0.61413443
        0.80333996 0.028948192 0.614143 0.80401766 0.029000027 0.61415076
        0.8046261 0.029044934 0.61415774 0.80517197 0.029083814 0.614164
        0.80566126 0.029117469 0.61416966 0.80609953 0.029146591 0.6141747
        0.80649185 0.029171797 0.61417925 0.8068428 0.029193627 0.61418337
        0.8071567 0.029212544 0.61418706 0.80743724 0.02922895 0.61419034
        0.8076879 0.029243197 0.6141933 0.80791175 0.02925558 0.61419594
        0.80811167 0.029266357 0.6141983 0.80829 0.02927575 0.6142005
        0.80844945 0.02928396 0.6142024 0.8085907 0.029291082 0.61420405
        0.80872077 0.029297516 0.6142056 0.8088196 0.029302344 0.6142068
        0.80897695 0.029310143 0.6142087 0.80933005 0.02934458 0.6142121
        0.8097575 0.02942509 0.61421436 0.81015974 0.029541804 0.6142145
        0.8105596 0.029700685 0.61421245 0.8109451 0.029899484 0.6142083
        0.8113138 0.030138658 0.6142018 0.81166065 0.030417046 0.61419296
        0.81198096 0.030733272 0.6141817 0.81226987 0.031085175 0.61416805
        0.8125226 0.031469844 0.61415195 0.81273466 0.031883504 0.6141336
        0.81290185 0.032321475 0.61411303 0.8130206 0.032778215 0.61409044
        0.81308824 0.033247396 0.6140662 0.8119856 0.033342887 0.6140456
        0.8118914 0.03364627 0.61402774 0.8117873 0.033946052 0.6140098
        0.81166923 0.034239072 0.61399186 0.8115348 0.034522496 0.6139741
        0.8113831 0.034793742 0.6139567 0.8112144 0.035050474 0.61393964
        0.81102943 0.03529065 0.6139233 0.8108301 0.035512574 0.6139077
        0.8106187 0.035715025 0.613893 0.81039816 0.035897177 0.6138792
        0.81017154 0.03605918 0.6138665 0.809944 0.03620053 0.61385494
        0.8097145 0.03632515 0.6138443 0.8095038 0.036426127 0.61383533
        0.80935526 0.0364896 0.61382943 0.80924404 0.036533665 0.6138252
        0.8091029 0.0365872 0.61382 0.8089486 0.036642425 0.61381453
        0.80877495 0.036700863 0.6138085 0.808581 0.036761962 0.6138021
        0.80836445 0.036825653 0.61379516 0.80812293 0.036891855 0.6137877
        0.8078538 0.03696059 0.61377966 0.80755424 0.03703203 0.613771
        0.8072209 0.037106495 0.61376166 0.80685 0.037184477 0.61375153
        0.8064376 0.037266605 0.6137405 0.80597895 0.037353624 0.6137285
        0.80546886 0.03744635 0.6137153 0.8049014 0.0375456 0.6137008
        0.8042704 0.037652154 0.6136849 0.8035688 0.037766684 0.6136673
        0.8027891 0.037889738 0.61364794 0.8019233 0.03802168 0.6136266
        0.8009627 0.03816269 0.613603 0.7998982 0.038312726 0.6135771
        0.79872024 0.038471494 0.61354864 0.7974185 0.0386384 0.6135174
        0.79598236 0.038812503 0.6134832 0.7944008 0.03899238 0.6134457
        0.7926627 0.03917605 0.6134049 0.79075664 0.039360836 0.6133605
        0.7886716 0.03954321 0.6133124 0.7863969 0.039718624 0.6132605
        0.7839227 0.039881364 0.6132048 0.7812401 0.040024355 0.61314535
        0.7783422 0.040138997 0.61308247 0.77522385 0.040215127 0.6130166
        0.7718828 0.04024092 0.61294854 0.76831985 0.040203083 0.6128791
        0.7645399 0.040087145 0.61280984 0.760552 0.039878037 0.6127423
        0.7563698 0.039560825 0.6126786 0.75201184 0.039121605 0.6126209
        0.7475006 0.03854843 0.6125716 0.74286324 0.037832275 0.61253303
        0.73812973 0.036967877 0.6125073 0.7333341 0.0359547 0.61249596
        0.7285092 0.03479662 0.6125001 0.72369415 0.03350402 0.6125196
        0.7191828 0.032171395 0.6125517 0.7147389 0.030746918 0.61259556
        0.7103837 0.029246833 0.61264944 0.7061409 0.0276901 0.6127112
        0.70202845 0.026094006 0.6127785 0.6980628 0.024474185 0.6128492
        0.69425714 0.022844665 0.61292094 0.6906218 0.021217478 0.6129921
        0.68716395 0.01960228 0.61306095 0.6838877 0.018006139 0.6131263
        0.6807958 0.016434167 0.6131872 0.6778899 0.014890769 0.613243
        0.6751715 0.013380664 0.6132933 0.6726412 0.011909493 0.61333776
        0.6702981 0.010483841 0.61337644 0.6681392 0.009110668 0.61340934
        0.66615915 0.007796447 0.6134368 0.66435015 0.0065463884 0.6134593
        0.6627025 0.005363934 0.6134772 0.6612057 0.0042507756 0.613491
        0.6598487 0.003207097 0.6135015 0.6586206 0.0022318612 0.613509
        0.65751094 0.0013230846 0.61351407 0.6565097 0.00047809072 0.6135171
        0.65560734 -0.00030627465 0.6135185 0.6547951 -0.0010334678 0.6135186
        0.6540647 -0.0017071074 0.61351764 0.6534086 -0.0023308673 0.6135159
        0.6528197 -0.0029083984 0.6135135 0.6522917 -0.0034432702 0.6135108
        0.65181875 -0.0039389306 0.6135077 0.65139544 -0.004398677 0.61350435
        0.6510169 -0.004825633 0.6135009 0.6506787 -0.005222733 0.6134974
        0.6503768 -0.005592707 0.6134938 0.6501076 -0.0059380773 0.6134903
        0.64986783 -0.006261146 0.61348677 0.64965445 -0.006564001 0.6134833
        0.6494649 -0.006848513 0.61348 0.64929676 -0.007116352 0.61347663
        0.64914787 -0.007368967 0.6134734 0.6490164 -0.007607699 0.61347026
        0.6489006 -0.007833454 0.6134672 0.6487988 -0.008047795 0.6134643
        0.64871037 -0.008249855 0.61346143 0.6486326 -0.008443622 0.61345863
        0.6485587 -0.008646815 0.6134557 0.6484889 -0.00886356 0.61345243
        0.6484257 -0.009091903 0.61344904 0.6483709 -0.009332465 0.6134453
        0.64832705 -0.009584673 0.61344135 0.6482966 -0.009848005 0.61343706
        0.64828223 -0.010121315 0.6134326 0.6482867 -0.010402813 0.6134279
        0.6483126 -0.010689909 0.613423 0.64836204 -0.010979299 0.613418
        0.64843655 -0.011267277 0.6134129 0.6485369 -0.011550057 0.61340785
        0.64866334 -0.011824399 0.6134029 0.64881545 -0.012087304 0.613398
        0.64899147 -0.012334897 0.6133934 0.6491886 -0.01256391 0.6133891
        0.6494043 -0.012772758 0.6133851 0.6496356 -0.012960274 0.6133815
        0.6498786 -0.013125568 0.6133783 0.6501295 -0.013268447 0.61337554
        0.6503842 -0.013389472 0.6133732 0.6506393 -0.013489897 0.61337125
        0.6508921 -0.013571471 0.61336964 0.6511403 -0.013636185 0.61336845
        0.6513824 -0.013686123 0.61336744 0.6516169 -0.013723233 0.6133667
        0.65184355 -0.013749487 0.61336625 0.6520595 -0.013766403 0.61336595
        0.6522684 -0.01377583 0.61336577 0.65248936 -0.013778923 0.6133657
        0.65272695 -0.013774946 0.6133658 0.6529807 -0.013762991 0.61336607
        0.6532527 -0.013742059 0.6133665 0.6535445 -0.013711085 0.6133671
        0.65385795 -0.013668886 0.61336786 0.6541953 -0.013614165 0.61336887
        0.654559 -0.013545491 0.6133701 0.65495175 -0.013461292 0.6133716
        0.65537655 -0.013359834 0.6133734 0.6558368 -0.013239224 0.61337537
        0.6563361 -0.013097379 0.61337775 0.6568784 -0.012932038 0.6133803
        0.6574681 -0.012740736 0.61338323 0.6581096 -0.012520823 0.61338645
        0.658808 -0.012269452 0.6133899 0.6595684 -0.011983608 0.61339355
        0.6603964 -0.011660122 0.6133975 0.66129774 -0.011295722 0.6134015
        0.66227853 -0.010887085 0.6134055 0.66334504 -0.010430917 0.6134095
        0.66450393 -0.009924055 0.6134133 0.6657619 -0.009363576 0.6134167
        0.6671257 -0.008746941 0.61341953 0.6686025 -0.008072126 0.6134216
        0.67019933 -0.0073377555 0.61342263 0.6719234 -0.006543171 0.61342245
        0.6737821 -0.005688409 0.61342067 0.6757834 -0.0047739753 0.6134172
        0.67793584 -0.0038004322 0.6134117 0.68024844 -0.0027680905 0.61340415
        0.6827296 -0.0016768578 0.6133945 0.68538636 -0.00052637473 0.6133827
        0.68822265 0.00068350555 0.613369 0.6912386 0.0019520104 0.61335367
        0.69442976 0.0032766445 0.6133373 0.6977877 0.0046524284 0.61332047
        0.7013009 0.0060716895 0.613304 0.704956 0.0075243567 0.6132889
        0.70873773 0.008998165 0.61327606 0.71262944 0.010478958 0.6132665
        0.71661335 0.011951666 0.6132614 0.7206701 0.013401676 0.6132614
        0.7247802 0.014815503 0.6132672 0.7289207 0.016179511 0.6132793
        0.7333192 0.017558422 0.6132989 0.7377038 0.018857954 0.6133253
        0.742052 0.020070715 0.613358 0.7463387 0.02119128 0.61339605
        0.7505412 0.022217525 0.61343825 0.75463766 0.02314979 0.6134835
        0.75860834 0.023990717 0.61353046 0.76243556 0.024744745 0.613578
        0.7661041 0.025417645 0.61362517 0.7696015 0.026016055 0.613671
        0.7729182 0.026546987 0.61371475 0.77604717 0.02701741 0.6137561
        0.7789844 0.027433928 0.61379457 0.7817286 0.027802594 0.61383015
        0.7842812 0.02812885 0.61386275 0.7866456 0.028417496 0.61389244
        0.78882736 0.028672762 0.6139194 0.7908336 0.02889834 0.6139437
        0.7926724 0.029097479 0.6139657 0.7943529 0.029273035 0.6139855
        0.7958846 0.02942755 0.6140033 0.79727733 0.029563293 0.61401933
        0.79854095 0.029682295 0.61403376 0.7996852 0.029786408 0.61404675
        0.8007195 0.029877326 0.61405843 0.8016531 0.029956618 0.614069
        0.80249476 0.03002575 0.6140785 0.8032528 0.030086108 0.61408705
        0.80393505 0.030139022 0.61409473 0.80454886 0.030185774 0.6141016
        0.805101 0.03022758 0.6141077 0.80559766 0.030265601 0.6141132
        0.80604464 0.030300902 0.61411804 0.80644685 0.030334413 0.61412233
        0.80680895 0.030366912 0.61412597 0.8071349 0.030398998 0.6141292
        0.8074283 0.03043107 0.61413187 0.8076922 0.030463332 0.6141341
        0.8079296 0.030495817 0.6141359 0.8081427 0.03052841 0.61413735
        0.80833393 0.030560875 0.6141385 0.80850554 0.030592984 0.6141394
        0.8086583 0.030624177 0.61414 0.8087986 0.030655274 0.61414045
        0.8089078 0.030680878 0.61414075 0.80906 0.030720687 0.6141409
        0.80927974 0.030788058 0.6141407 0.8095217 0.030875199 0.6141398
        0.80976456 0.030978402 0.61413807 0.8100102 0.031101385 0.6141353
        0.81025344 0.031244496 0.6141315 0.81049156 0.03140844 0.61412656
        0.8107217 0.03159298 0.6141203 0.8109414 0.031797454 0.6141129
        0.8111487 0.032020643 0.6141042 0.81134236 0.032260884 0.6140944
        0.8115218 0.03251606 0.61408347 0.81168747 0.032783613 0.61407155
        0.8118409 0.033060476 0.61405885 0.8119856 0.033342887 0.6140456
        0.81102824 0.033425793 0.6140276 0.8109488 0.03362547 0.61401564
        0.81086487 0.033823594 0.61400354 0.8107746 0.034018528 0.6139915
        0.81067646 0.034208518 0.6139796 0.8105691 0.034391757 0.6139678
        0.81045187 0.034566466 0.61395633 0.8103247 0.034731 0.61394525
        0.81018835 0.034883954 0.61393464 0.810044 0.035024278 0.61392456
        0.8098934 0.035151325 0.6139152 0.8097387 0.035265047 0.6139065
        0.8095825 0.035365514 0.61389846 0.80942565 0.035454325 0.6138911
        0.809275 0.03552982 0.61388457 0.8091479 0.035586324 0.6138795
        0.8090357 0.035631754 0.61387527 0.8088987 0.035683844 0.61387026
        0.8087472 0.035737198 0.613865 0.8085765 0.035792816 0.6138593
        0.8083856 0.035850413 0.61385316 0.80817205 0.035910096 0.6138466
        0.80793357 0.035972 0.6138395 0.80766755 0.0360364 0.61383194
        0.8073711 0.036103673 0.61382365 0.807041 0.036174335 0.6138147
        0.8066736 0.036248967 0.61380494 0.8062647 0.036328267 0.6137942
        0.80580974 0.03641297 0.6137825 0.8053034 0.036503833 0.61376965
        0.80474 0.03660159 0.61375546 0.80411315 0.036706932 0.6137398
        0.80341595 0.036820445 0.6137225 0.8026409 0.036942597 0.6137034
        0.80178 0.0370737 0.6136824 0.80082464 0.037213903 0.61365914
        0.79976577 0.03736314 0.6136336 0.79859364 0.037521116 0.61360544
        0.7972982 0.037687235 0.6135746 0.7958688 0.03786054 0.61354077
        0.7942946 0.038039625 0.61350375 0.79256433 0.03822251 0.6134634
        0.7906669 0.038406525 0.6134194 0.78859127 0.038588148 0.6133718
        0.7863268 0.038762856 0.61332035 0.7838639 0.038924947 0.61326516
        0.7811939 0.03906738 0.61320615 0.77830976 0.0391816 0.61314374
        0.7752067 0.039257474 0.61307836 0.7718824 0.03928327 0.6130106
        0.76833797 0.03924576 0.61294156 0.76457804 0.039130576 0.6128724
        0.7606118 0.038922723 0.61280495 0.75645274 0.038607374 0.61274105
        0.752119 0.038170695 0.61268294 0.7476331 0.0376008 0.61263293
        0.7430216 0.036888685 0.6125933 0.73831433 0.03602908 0.6125662
        0.7335445 0.03502133 0.612553 0.72874546 0.033869386 0.6125549
        0.7239542 0.032583065 0.6125719 0.7194654 0.03125697 0.6126012
        0.7150415 0.02983877 0.6126421 0.71070534 0.028345078 0.61269295
        0.7064798 0.026794523 0.61275154 0.7023835 0.025204543 0.6128157
        0.69843304 0.023590803 0.61288315 0.6946419 0.021967381 0.61295193
        0.69102067 0.020346412 0.61302006 0.6875768 0.018737692 0.61308604
        0.68431485 0.017148472 0.6131486 0.68123764 0.015584036 0.6132069
        0.67834723 0.014048899 0.61326027 0.67564493 0.01254777 0.6133082
        0.673131 0.011086183 0.6133505 0.67080426 0.009670524 0.6133871
        0.6686613 0.008307522 0.61341816 0.6666965 0.0070034387 0.6134439
        0.6649018 0.005763333 0.61346483 0.6632676 0.004590579 0.6134813
        0.6617834 0.003486866 0.6134939 0.6604383 0.0024524194 0.6135033
        0.65922153 0.0014862657 0.6135098 0.65812266 0.0005864988 0.6135139
        0.65713185 -0.00024947347 0.61351615 0.6562396 -0.0010247198 0.61351687
        0.6554374 -0.0017426112 0.6135163 0.6547169 -0.002406682 0.6135148
        0.6540706 -0.003020525 0.6135126 0.6534916 -0.0035877116 0.61350983
        0.6529735 -0.0041117356 0.6135067 0.65251046 -0.0045959717 0.6135033
        0.6520971 -0.005043649 0.6134997 0.6517285 -0.005457831 0.613496
        0.6514003 -0.0058414023 0.61349237 0.65110844 -0.006197053 0.6134887
        0.6508492 -0.006527277 0.61348504 0.6506194 -0.006834364 0.61348146
        0.65041584 -0.007120393 0.613478 0.65023595 -0.0073872423 0.61347467
        0.65007734 -0.0076365895 0.61347145 0.64993787 -0.007869909 0.61346835
        0.6498155 -0.008088539 0.6134653 0.6497087 -0.008293515 0.61346245
        0.6496156 -0.008486138 0.6134597 0.64953524 -0.008666435 0.613457
        0.6494656 -0.008836768 0.6134545 0.64940006 -0.009014154 0.61345184
        0.64933914 -0.009200227 0.613449 0.6492849 -0.009393425 0.61344594
        0.6492389 -0.009593233 0.61344284 0.649203 -0.009798506 0.6134395
        0.6491789 -0.010007997 0.6134361 0.6491683 -0.010220102 0.6134326
        0.64917254 -0.010432946 0.613429 0.64919275 -0.010644438 0.61342543
        0.6492295 -0.010852469 0.6134218 0.64928323 -0.011055153 0.6134183
        0.6493538 -0.011251003 0.6134148 0.6494412 -0.011439057 0.6134115
        0.6495453 -0.011618632 0.61340827 0.6496655 -0.011787971 0.61340517
        0.6498003 -0.011945567 0.61340237 0.64994925 -0.012091122 0.6133997
        0.65011144 -0.01222417 0.6133972 0.6502856 -0.012344082 0.61339504
        0.65046984 -0.012450308 0.61339307 0.650662 -0.012542561 0.6133914
        0.6508597 -0.012620943 0.61338997 0.65106064 -0.012685956 0.6133887
        0.65126264 -0.012738425 0.61338776 0.6514639 -0.012779417 0.61338705
        0.6516626 -0.012810092 0.6133865 0.6518575 -0.012831732 0.61338615
        0.65204644 -0.012845485 0.6133859 0.65223056 -0.012852676 0.6133858
        0.6524282 -0.012854162 0.6133858 0.65264237 -0.012849131 0.6133859
        0.65287346 -0.012836666 0.61338615 0.6531234 -0.012815756 0.6133866
        0.6533937 -0.012785313 0.6133871 0.6536864 -0.012744135 0.6133878
        0.65400374 -0.012690902 0.6133888 0.6543482 -0.012624153 0.6133899
        0.6547225 -0.012542287 0.61339134 0.65512973 -0.012443529 0.61339295
        0.6555732 -0.012325937 0.6133948 0.6560566 -0.0121873785 0.6133969
        0.6565839 -0.012025529 0.61339927 0.65715945 -0.011837868 0.61340195
        0.65778774 -0.011621677 0.6134048 0.6584738 -0.011374048 0.61340797
        0.6592228 -0.011091901 0.61341125 0.66004026 -0.010772005 0.61341476
        0.660932 -0.010411023 0.6134183 0.6619042 -0.01000557 0.61342186
        0.6629632 -0.009552289 0.61342525 0.6641156 -0.009047949 0.6134284
        0.6653682 -0.008489563 0.61343116 0.66672796 -0.007874528 0.61343324
        0.668202 -0.0072007603 0.61343443 0.6697974 -0.0064668306 0.61343455
        0.6715215 -0.005672052 0.6134333 0.6733817 -0.004816464 0.6134304
        0.67538583 -0.003900632 0.6134256 0.67754227 -0.0029252453 0.61341876
        0.6798595 -0.0018907904 0.6134097 0.6823458 -0.0007973666 0.6133984
        0.6850075 0.00035522255 0.6133847 0.6878485 0.0015670293 0.61336905
        0.6908687 0.0028372738 0.61335164 0.6940639 0.00416354 0.613333
        0.697426 0.0055409907 0.61331373 0.7009438 0.006962109 0.6132948
        0.70460427 0.008416944 0.61327696 0.70839256 0.009893317 0.61326134
        0.71229213 0.011377137 0.61324906 0.7162852 0.01285326 0.6132411
        0.72035235 0.01430702 0.61323833 0.72447366 0.01572473 0.61324143
        0.7286269 0.017092993 0.6132509 0.73303914 0.018476238 0.613268
        0.73743874 0.01978026 0.61329216 0.7418019 0.02099726 0.61332273
        0.7461038 0.022121858 0.6133589 0.75032127 0.023151815 0.6133995
        0.75443226 0.024087438 0.6134433 0.7584168 0.02493134 0.6134891
        0.76225686 0.025687957 0.61353564 0.7659373 0.02636308 0.6135819
        0.7694455 0.026963366 0.61362696 0.7727717 0.027495869 0.6136701
        0.7759092 0.027967598 0.6137108 0.77885383 0.028385196 0.61374885
        0.7816045 0.028754765 0.61378396 0.78416276 0.029081779 0.61381614
        0.7865322 0.029371073 0.6138455 0.78871846 0.029626897 0.6138722
        0.7907287 0.029852968 0.61389625 0.79257125 0.030052546 0.61391795
        0.7942552 0.030228509 0.61393756 0.79579014 0.030383399 0.6139552
        0.79718596 0.030519495 0.61397105 0.79845256 0.030638833 0.61398536
        0.7995997 0.030743266 0.61399823 0.8006368 0.03083448 0.61400986
        0.8015732 0.030914027 0.61402035 0.8024176 0.03098334 0.6140297
        0.80317813 0.031043774 0.6140382 0.80386275 0.031096587 0.61404586
        0.80447865 0.031142976 0.6140527 0.8050327 0.031184077 0.6140589
        0.805531 0.031220958 0.6140644 0.80597925 0.0312546 0.6140693
        0.80638254 0.031285904 0.61407363 0.8067453 0.03131567 0.61407745
        0.8070716 0.031344555 0.6140807 0.8073651 0.031373106 0.6140835
        0.80762887 0.031401724 0.6140859 0.80786574 0.03143066 0.6140878
        0.8080783 0.031460043 0.6140894 0.8082687 0.03148986 0.6140906
        0.80843925 0.03152004 0.6140915 0.8085911 0.031550206 0.6140922
        0.8087291 0.031580884 0.6140926 0.808841 0.031608004 0.61409277
        0.8089721 0.03164429 0.6140928 0.80912954 0.031695575 0.6140924
        0.8092951 0.031758573 0.6140915 0.8094622 0.03183266 0.6140901
        0.8096303 0.031919565 0.614088 0.8097968 0.03201983 0.6140851
        0.80996 0.032133814 0.6140815 0.81011796 0.03226129 0.61407703
        0.81026936 0.032401547 0.6140718 0.8104132 0.03255341 0.6140658
        0.81054926 0.03271534 0.61405915 0.81067777 0.032885525 0.6140519
        0.8107996 0.033061985 0.61404413 0.81091595 0.033242717 0.61403596
        0.81102824 0.033425793 0.6140276 0.8102937 0.033489402 0.6140138
        0.81025153 0.03362887 0.61400557 0.81020546 0.03376764 0.6139973
        0.8101535 0.033904776 0.613989 0.81009394 0.03403905 0.6139807
        0.81002563 0.03416906 0.61397254 0.809948 0.034293342 0.6139645
        0.809861 0.034410484 0.6139567 0.80976504 0.03451925 0.61394924
        0.80966115 0.034618653 0.61394215 0.80955064 0.03470803 0.61393553
        0.809435 0.03478716 0.6139294 0.80931616 0.03485614 0.6139238
        0.8091954 0.034915797 0.61391866 0.80907565 0.034966417 0.6139141
        0.80896366 0.03500755 0.61391014 0.8088503 0.035044774 0.6139064
        0.8087176 0.03508497 0.61390215 0.8085696 0.035126325 0.6138977
        0.8084033 0.035169575 0.61389285 0.808217 0.035214998 0.6138875
        0.8080085 0.03526304 0.61388177 0.80777526 0.035314158 0.61387545
        0.8075147 0.035368863 0.61386853 0.8072238 0.035427704 0.6138609
        0.8068991 0.035491243 0.6138525 0.8065368 0.03556007 0.6138432
        0.8061328 0.035634782 0.61383295 0.80568224 0.03571597 0.61382157
        0.8051801 0.035804205 0.613809 0.8046205 0.035900027 0.6137951
        0.8039973 0.03600394 0.6137797 0.80330354 0.03611636 0.6137627
        0.802532 0.036237635 0.6137438 0.8016747 0.036367983 0.613723
        0.80072314 0.03650749 0.61370003 0.79966825 0.036656067 0.6136747
        0.7985004 0.036813393 0.61364686 0.79720956 0.036978874 0.6136163
        0.7957851 0.037151556 0.6135828 0.7942162 0.037330028 0.613546
        0.7924918 0.03751232 0.613506 0.79060066 0.037695765 0.6134624
        0.7885319 0.037876844 0.61341506 0.78627515 0.03805105 0.61336404
        0.7838206 0.0382127 0.61330914 0.7811599 0.03835476 0.6132505
        0.778286 0.038468715 0.61318845 0.7751942 0.038544472 0.61312336
        0.7718825 0.038570337 0.6130559 0.7683517 0.03853314 0.61298704
        0.7646067 0.038418572 0.6129181 0.76065654 0.038211707 0.6128506
        0.75651467 0.03789778 0.6127866 0.75219905 0.03746302 0.6127282
        0.7477319 0.036895577 0.61267763 0.7431396 0.03618645 0.6126373
        0.7384519 0.035330385 0.612609 0.7337013 0.034326617 0.61259454
        0.7289215 0.033179175 0.6125948 0.72414786 0.031897433 0.61260986
        0.7196759 0.030576117 0.6126372 0.715267 0.02916249 0.61267596
        0.710945 0.027673459 0.61272454 0.7067324 0.02612742 0.6127808
        0.70264816 0.024541954 0.61284256 0.698709 0.022932725 0.6129077
        0.69492865 0.021313865 0.61297417 0.6913179 0.019697579 0.6130401
        0.6878844 0.018093774 0.613104 0.68463296 0.016509855 0.61316454
        0.68156666 0.014951222 0.6132209 0.6786877 0.013422445 0.61327237
        0.67599714 0.011928215 0.61331856 0.6734953 0.010473956 0.6133592
        0.6711806 0.009065896 0.6133943 0.66904944 0.0077105877 0.613424
        0.66709584 0.0064141396 0.6134485 0.66531175 0.0051815175 0.6134682
        0.6636875 0.0040160576 0.6134837 0.66221255 0.002919463 0.6134954
        0.66087615 0.0018919974 0.6135039 0.65966755 0.0009327416 0.61350965
        0.6585765 3.9853032e-05 0.6135132 0.65759313 -0.0007891944 0.6135148
        0.6567081 -0.001557402 0.61351496 0.65591276 -0.0022680738 0.61351395
        0.655199 -0.0029246784 0.61351204 0.65455925 -0.0035307424 0.6135095
        0.6539867 -0.004089769 0.61350644 0.6534748 -0.0046051815 0.61350304
        0.6530178 -0.0050802813 0.6134994 0.65261036 -0.005518222 0.61349565
        0.65224755 -0.0059219897 0.61349183 0.65192485 -0.0062943953 0.6134881
        0.6516383 -0.0066380673 0.6134843 0.65138423 -0.0069554495 0.6134807
        0.6511592 -0.007248801 0.6134772 0.6509603 -0.007520197 0.6134738
        0.6507848 -0.007771533 0.6134705 0.65063024 -0.008004531 0.61346734
        0.65049446 -0.008220742 0.61346436 0.6503755 -0.008421577 0.6134615
        0.65027153 -0.008608241 0.6134588 0.65018106 -0.008781977 0.61345625
        0.65010273 -0.008943459 0.6134538 0.65003496 -0.009094197 0.61345154
        0.6499707 -0.009250025 0.6134491 0.6499109 -0.0094112195 0.6134466
        0.6498571 -0.009576533 0.613444 0.64981073 -0.009745063 0.6134412
        0.6497731 -0.009915659 0.6134385 0.6497457 -0.010087109 0.6134356
        0.6497296 -0.010258079 0.61343277 0.6497258 -0.010427166 0.6134299
        0.64973503 -0.010592969 0.6134271 0.64975774 -0.010754193 0.6134243
        0.6497941 -0.0109097585 0.6134216 0.6498441 -0.011058872 0.613419
        0.6499078 -0.011201034 0.61341655 0.6499852 -0.011335913 0.6134141
        0.65007573 -0.011462346 0.6134119 0.6501786 -0.011579345 0.6134098
        0.6502935 -0.011686805 0.6134079 0.65042 -0.011784508 0.6134062
        0.6505573 -0.011872143 0.61340463 0.65070444 -0.01194942 0.61340326
        0.65086 -0.012016189 0.61340207 0.6510224 -0.012072508 0.6134011
        0.65119 -0.012118683 0.61340034 0.65136105 -0.012155236 0.6133997
        0.6515339 -0.012182868 0.6133992 0.6517069 -0.012202398 0.6133989
        0.6518786 -0.012214735 0.61339873 0.6520473 -0.012220794 0.6133987
        0.65221274 -0.012221532 0.61339873 0.6523924 -0.012217058 0.6133988
        0.65258825 -0.012206569 0.613399 0.65280145 -0.012189199 0.6133993
        0.65303373 -0.012163966 0.61339986 0.65328693 -0.012129798 0.61340046
        0.65356314 -0.012085502 0.61340123 0.6538646 -0.012029753 0.6134022
        0.65419394 -0.011961088 0.6134033 0.6545539 -0.011877872 0.6134047
        0.65494746 -0.01177831 0.61340624 0.65537816 -0.011660418 0.613408
        0.6558495 -0.011522016 0.61341006 0.6563655 -0.011360729 0.61341226
        0.65693045 -0.011173975 0.61341476 0.65754884 -0.010958974 0.6134175
        0.6582256 -0.010712748 0.6134204 0.658966 -0.01043215 0.61342347
        0.65977556 -0.010113879 0.6134267 0.6606601 -0.009754531 0.6134299
        0.66162574 -0.009350654 0.6134331 0.66267896 -0.0088988235 0.61343616
        0.66382635 -0.008395745 0.61343884 0.6650748 -0.007838371 0.6134411
        0.6664314 -0.007224039 0.6134426 0.6679032 -0.006550613 0.6134432
        0.66949743 -0.005816623 0.6134426 0.67122144 -0.005021361 0.6134406
        0.6730827 -0.0041648755 0.6134368 0.6750889 -0.0032477903 0.6134311
        0.67724824 -0.0022709006 0.6134232 0.679569 -0.0012348269 0.61341304
        0.682059 -0.0001397992 0.6134004 0.6847245 0.0010142821 0.61338544
        0.687569 0.0022274307 0.6133683 0.6905924 0.003498892 0.6133493
        0.6937907 0.0048263324 0.613329 0.69715583 0.006205034 0.6133079
        0.70067704 0.0076275864 0.61328703 0.70434153 0.00908412 0.61326724
        0.70813465 0.010562513 0.61324954 0.71204007 0.012048714 0.6132352
        0.71603996 0.013527489 0.61322504 0.7201149 0.014984144 0.6132202
        0.7242445 0.016404845 0.61322135 0.7284073 0.017776381 0.61322886
        0.73282975 0.019162932 0.61324406 0.7372405 0.02047036 0.6132664
        0.74161494 0.021690564 0.61329544 0.7459282 0.0228182 0.6133302
        0.7501569 0.023850929 0.6133696 0.7542787 0.02478904 0.6134123
        0.75827354 0.02563513 0.61345726 0.76212335 0.026393639 0.613503
        0.7658127 0.027070358 0.6135486 0.76932895 0.027671974 0.61359304
        0.7726624 0.028205572 0.6136357 0.7758062 0.0286782 0.613676
        0.77875644 0.029096534 0.6137136 0.781512 0.029466718 0.61374843
        0.78407454 0.029794248 0.6137804 0.78644776 0.030083992 0.61380947
        0.7886374 0.030340208 0.6138359 0.7906507 0.030566644 0.6138598
        0.792496 0.030766563 0.61388135 0.7941826 0.030942852 0.6139008
        0.79572 0.03109807 0.61391824 0.7971182 0.031234486 0.61393404
        0.79838705 0.031354155 0.6139482 0.79953635 0.03145891 0.613961
        0.8005757 0.031550426 0.61397254 0.8015141 0.03163023 0.6139829
        0.80236024 0.031699717 0.6139923 0.80312234 0.03176016 0.61400074
        0.80380815 0.031812724 0.61400837 0.80442476 0.031858463 0.6140152
        0.80497885 0.03189835 0.6140214 0.80547655 0.031933267 0.61402696
        0.80592334 0.03196401 0.614032 0.8063244 0.031991314 0.61403644
        0.8066843 0.03201584 0.61404043 0.8070072 0.03203819 0.61404395
        0.8072967 0.0320589 0.6140471 0.8075562 0.03207846 0.61404985
        0.8077887 0.032097295 0.61405224 0.8079969 0.03211578 0.6140543
        0.8081832 0.03213423 0.614056 0.8083498 0.032152917 0.6140574
        0.8084983 0.032171976 0.61405855 0.808632 0.03219183 0.61405945
        0.8087459 0.032211173 0.61406004 0.80886066 0.032234658 0.6140605
        0.8089845 0.032266133 0.61406064 0.809111 0.03230603 0.61406034
        0.8092372 0.032355085 0.61405957 0.80936205 0.032414343 0.6140582
        0.80948395 0.032484233 0.6140562 0.80960137 0.032564856 0.61405367
        0.8097129 0.032655846 0.6140504 0.8098175 0.03275647 0.6140465
        0.80991435 0.032865655 0.6140421 0.8100033 0.03298205 0.6140371
        0.81008464 0.033104144 0.61403173 0.81015915 0.033230353 0.61402595
        0.8102282 0.0333592 0.61401993 0.8102937 0.033489402 0.6140138
        0.8097818 0.033533722 0.6140041 0.8097851 0.03363846 0.6139984
        0.80977666 0.03374302 0.6139926 0.80975664 0.033846214 0.6139866
        0.80972517 0.033946883 0.6139806 0.80968267 0.034043882 0.6139746
        0.80962974 0.034136128 0.61396873 0.809567 0.0342226 0.613963
        0.8094952 0.034302358 0.6139575 0.8094154 0.034374557 0.61395234
        0.8093285 0.034438472 0.6139476 0.8092357 0.03449349 0.6139431
        0.80913824 0.034539156 0.61393917 0.8090373 0.03457514 0.6139357
        0.8089343 0.034601305 0.6139327 0.8088314 0.034622345 0.6139301
        0.808716 0.034645814 0.61392707 0.8085866 0.034671977 0.6139237
        0.8084416 0.03470112 0.61392003 0.808279 0.034733545 0.61391586
        0.8080968 0.03476959 0.6139112 0.80789274 0.034809604 0.61390597
        0.80766416 0.034853972 0.6139001 0.8074082 0.034903094 0.6138936
        0.8071218 0.034957398 0.6138864 0.80680144 0.035017315 0.6138783
        0.80644315 0.03508331 0.6138693 0.80604273 0.035155836 0.61385924
        0.80559546 0.03523536 0.6138481 0.80509615 0.035322346 0.6138357
        0.8045392 0.035417218 0.6138219 0.8039184 0.03552039 0.61380666
        0.80322707 0.035632208 0.6137898 0.80245787 0.035752963 0.6137711
        0.80160296 0.035882838 0.61375046 0.80065393 0.0360219 0.6137276
        0.79960173 0.036170036 0.61370254 0.79843676 0.03632693 0.6136748
        0.797149 0.03649198 0.6136445 0.7957279 0.03666424 0.61361116
        0.7941627 0.036842298 0.6135746 0.7924422 0.037024185 0.6135348
        0.79055536 0.03720724 0.6134914 0.78849137 0.037387952 0.6134444
        0.7862398 0.03756182 0.61339355 0.78379107 0.03772316 0.6133389
        0.78113663 0.037864972 0.6132805 0.7782698 0.037978753 0.6132187
        0.7751858 0.038054433 0.6131538 0.77188265 0.038080346 0.6130865
        0.7683613 0.03804337 0.61301786 0.7646265 0.03792923 0.61294895
        0.7606874 0.037723046 0.6128815 0.75655735 0.0374101 0.6128174
        0.7522541 0.036976658 0.61275876 0.74779993 0.036410898 0.6127079
        0.74322087 0.03570383 0.61266696 0.73854655 0.03485019 0.61263806
        0.7338091 0.033849165 0.6126227 0.7290425 0.032704815 0.6126218
        0.724281 0.03142622 0.61263555 0.7198206 0.030108191 0.61266154
        0.71542203 0.028697709 0.6126988 0.7111098 0.027211882 0.6127458
        0.706906 0.025668949 0.6128005 0.7028301 0.024086582 0.6128607
        0.6988987 0.02248046 0.6129242 0.6951258 0.020864734 0.6129891
        0.69152224 0.019251667 0.6130535 0.68809587 0.017651249 0.6131159
        0.68485165 0.016070975 0.6131751 0.68179286 0.014516337 0.61323005
        0.67892164 0.012991939 0.6132803 0.67623925 0.011502454 0.6133253
        0.6737457 0.010053237 0.6133649 0.6714393 0.008650405 0.61339897
        0.6693162 0.007300388 0.61342764 0.6673703 0.0060091927 0.6134513
        0.6655935 0.0047817137 0.61347026 0.6639761 0.0036212679 0.61348504
        0.66250753 0.0025295648 0.61349607 0.6611771 0.0015068947 0.613504
        0.6599741 0.00055237545 0.61350924 0.6588884 -0.0003357936 0.6135123
        0.6579101 -0.001160094 0.6135135 0.65703 -0.0019234829 0.61351335
        0.6562394 -0.0026292205 0.61351204 0.6555302 -0.0032807337 0.6135099
        0.654895 -0.0038815062 0.6135071 0.65432674 -0.004435 0.6135038
        0.65381914 -0.0049445927 0.61350024 0.6533663 -0.005413539 0.6134965
        0.6529629 -0.0058449376 0.6134926 0.652604 -0.00624172 0.61348873
        0.65228516 -0.006606636 0.61348486 0.65200233 -0.006942255 0.6134811
        0.6517518 -0.0072509623 0.61347747 0.6515302 -0.0075349705 0.61347395
        0.6513346 -0.007796323 0.61347055 0.6511622 -0.0080369 0.61346734
        0.65101045 -0.008258432 0.6134643 0.6508773 -0.008462508 0.61346143
        0.6507606 -0.008650583 0.6134587 0.65065855 -0.008823992 0.61345613
        0.65056956 -0.008983952 0.61345375 0.6504922 -0.0091315815 0.6134515
        0.65042514 -0.009267899 0.6134494 0.650361 -0.009407856 0.6134471
        0.6503008 -0.009550914 0.61344486 0.6502458 -0.009696031 0.61344254
        0.6501971 -0.009842168 0.61344016 0.6501559 -0.009988305 0.6134377
        0.6501233 -0.010133458 0.6134353 0.6501003 -0.010276677 0.61343294
        0.6500876 -0.010417061 0.61343056 0.6500861 -0.010553763 0.61342824
        0.65009636 -0.010686007 0.6134259 0.65011895 -0.010813083 0.6134237
        0.65015405 -0.010934355 0.6134216 0.65020204 -0.011049274 0.6134196
        0.6502628 -0.0111573795 0.6134177 0.65033585 -0.011257611 0.61341596
        0.6504204 -0.011349013 0.61341435 0.6505161 -0.011431415 0.6134129
        0.6506223 -0.011504753 0.61341166 0.65073836 -0.011569065 0.6134106
        0.6508634 -0.011624495 0.61340964 0.65099645 -0.01167128 0.61340886
        0.65113646 -0.011709747 0.6134082 0.6512822 -0.011740311 0.61340773
        0.65143234 -0.01176346 0.6134074 0.6515857 -0.01177975 0.61340714
        0.65174073 -0.011789793 0.613407 0.65189606 -0.011794253 0.613407
        0.6520502 -0.011793826 0.613407 0.65220225 -0.01178921 0.61340714
        0.65236884 -0.0117798885 0.6134074 0.65255153 -0.011765089 0.6134077
        0.6527518 -0.011743946 0.6134081 0.6529715 -0.011715492 0.61340857
        0.6532126 -0.011678638 0.6134092 0.65347725 -0.0116321705 0.61341006
        0.6537677 -0.01157474 0.613411 0.6540866 -0.011504841 0.61341214
        0.6544367 -0.011420811 0.61341345 0.6548211 -0.011320809 0.613415
        0.6552431 -0.011202812 0.61341673 0.65570635 -0.011064605 0.61341864
        0.6562148 -0.010903771 0.61342084 0.65677255 -0.010717684 0.6134232
        0.6573843 -0.010503525 0.6134258 0.65805477 -0.010258275 0.6134286
        0.65878934 -0.009978741 0.6134315 0.6595935 -0.00966158 0.61343443
        0.6604731 -0.009303344 0.61343753 0.6614343 -0.008900535 0.61344045
        0.6624836 -0.008449689 0.6134432 0.6636276 -0.0079474645 0.6134456
        0.66487324 -0.0073907743 0.6134475 0.66622764 -0.006776914 0.6134486
        0.6676979 -0.0061037135 0.6134488 0.6692913 -0.005369674 0.6134477
        0.6710153 -0.004574072 0.61344516 0.67287725 -0.0037169636 0.6134408
        0.67488486 -0.0027990136 0.61343443 0.6770462 -0.0018210909 0.61342585
        0.6793694 -0.00078390725 0.6134149 0.681862 0.00031221777 0.6134014
        0.6845301 0.0014673183 0.6133855 0.687377 0.0026813827 0.6133674
        0.69040257 0.0039536753 0.6133473 0.6936029 0.0052819196 0.6133258
        0.6969702 0.0066614784 0.6133035 0.70049375 0.008085015 0.6132813
        0.704161 0.009542718 0.6132601 0.70795745 0.011022498 0.6132411
        0.71186686 0.012510335 0.61322516 0.71587145 0.013990933 0.6132136
        0.7199517 0.015449576 0.61320734 0.72408706 0.016872333 0.61320704
        0.72825646 0.018246122 0.61321324 0.73268586 0.019634938 0.6132271
        0.7371043 0.020944709 0.6132483 0.74148643 0.022167113 0.61327624
        0.7458076 0.023296831 0.61331004 0.7500439 0.024331465 0.61334854
        0.7541733 0.025271287 0.61339056 0.7581752 0.02611888 0.61343485
        0.7620316 0.026878683 0.6134801 0.7657271 0.027556501 0.6135252
        0.7692489 0.028159028 0.61356926 0.7725873 0.02869338 0.6136116
        0.7757355 0.029166622 0.61365163 0.77868956 0.029585464 0.613689
        0.78144854 0.029956067 0.6137236 0.784014 0.030283952 0.6137553
        0.7863898 0.030574003 0.6137842 0.78858185 0.030830495 0.6138105
        0.79059726 0.031057177 0.6138342 0.7924445 0.03125733 0.61385566
        0.7941329 0.03143385 0.613875 0.795672 0.03158929 0.6138924
        0.7970719 0.031725932 0.61390805 0.79834235 0.031845827 0.61392224
        0.7994932 0.03195081 0.61393493 0.800534 0.032042548 0.61394644
        0.8014738 0.032122556 0.61395675 0.80232126 0.03219221 0.61396605
        0.80308455 0.032252762 0.61397445 0.8037712 0.032305326 0.6139821
        0.8043883 0.032350913 0.61398894 0.8049424 0.032390416 0.61399513
        0.8054396 0.03242464 0.6140007 0.8058853 0.03245429 0.6140057
        0.80628467 0.03247997 0.6140102 0.80664223 0.03250223 0.61401427
        0.8069622 0.032521535 0.6140179 0.8072484 0.032538295 0.6140212
        0.8075043 0.032552853 0.6140241 0.80773294 0.032565515 0.6140268
        0.80793726 0.032576546 0.6140291 0.80811965 0.03258616 0.6140313
        0.80828255 0.03259456 0.6140332 0.80842793 0.0326019 0.6140349
        0.8085577 0.03260833 0.6140364 0.8086734 0.03261396 0.61403775
        0.8087766 0.032618903 0.614039 0.8088808 0.032628708 0.61403996
        0.8089846 0.032648362 0.6140404 0.8090866 0.03267793 0.6140403
        0.80918574 0.032717314 0.6140396 0.8092807 0.032766264 0.61403835
        0.80937034 0.03282439 0.61403656 0.80945355 0.032891165 0.6140342
        0.80952936 0.032965947 0.61403126 0.8095967 0.033047967 0.6140278
        0.80965483 0.03313637 0.61402386 0.80970293 0.033230204 0.61401945
        0.8097404 0.03332844 0.6140147 0.8097669 0.033429995 0.61400956
        0.8097818 0.033533722 0.6140041
        <InformationKey name="L2_NORM_RANGE" location="vtkDataArray" length="2">
          <Value index="0">
            0.89146898871
          </Value>
          <Value index="1">
            1.0194702681
          </Value>
        </InformationKey>
      </DataArray>
    </Points>
  </Piece>
  </StructuredGrid>
</VTKFile>
