<?xml version="1.0"?>
<VTKFile type="StructuredGrid" version="0.1" byte_order="LittleEndian" header_type="UInt32" compressor="vtkZLibDataCompressor">
  <StructuredGrid WholeExtent="0 30 0 40 0 0">
  <Piece Extent="0 30 0 40 0 0">
    <PointData>
      <DataArray type="Float32" Name="orthogonality" format="ascii" RangeMin="0" RangeMax="0.7659878730773926">
        0 0.063801154 0.12671193 0.18789864 0.24666037 0.30247015
        0.35499138 0.40407148 0.4497175 0.49205878 0.5313011 0.56767434
        0.6013764 0.6325177 0.6610738 0.6868609 0.7095511 0.72873855
        0.7440531 0.75528413 0.7624646 0.7658779 0.7659879 0.76332664
        0.7583843 0.7515361 0.74301547 0.7329226 0.72124195 0.7078492
        0.6925057 6.5355256e-05 0.06313198 0.12544799 0.18605793 0.24426627
        0.29954696 0.3515599 0.40014517 0.44529974 0.48714203 0.5258685
        0.5617049 0.5948551 0.62545 0.6535042 0.6788909 0.701349
        0.7205327 0.73610157 0.7478277 0.75567865 0.7598434 0.7606923
        0.7586923 0.7543109 0.7479398 0.73985577 0.73021567 0.7190689
        0.7063634 0.6919608 0.00013027707 0.062467076 0.12419181 0.18422788
        0.24188492 0.29663774 0.34814268 0.39623258 0.44089428 0.48223507
        0.5204418 0.5557354 0.5883244 0.61835873 0.64589053 0.67085004
        0.693045 0.71219456 0.72799534 0.74020815 0.74873817 0.75367814
        0.7553005 0.754002 0.7502223 0.74436647 0.7367523 0.72759235
        0.71700066 0.70499974 0.69153774 0.0001944482 0.06181044 0.122951254
        0.18242049 0.23953293 0.29376438 0.34476796 0.3923695 0.4365464
        0.47739518 0.51509327 0.5498569 0.58189815 0.611384 0.63840055
        0.6629301 0.6848453 0.7039288 0.7199189 0.73257565 0.74175406
        0.74746007 0.7498708 0.74930805 0.74617535 0.7408814 0.73377764
        0.7251268 0.7151022 0.70379424 0.69121426 0.0002575822 0.061162315
        0.12172653 0.18063594 0.23721048 0.29092705 0.34143585 0.38855615
        0.43225613 0.47262228 0.5098228 0.544069 0.5755757 0.6045249
        0.6310336 0.65513134 0.67675143 0.6957387 0.7118766 0.7249342
        0.7347285 0.7411886 0.7443991 0.7446029 0.7421588 0.73746985
        0.73091364 0.72279763 0.7133494 0.7027218 0.69097424 0.00031941725
        0.060522903 0.120517775 0.17887436 0.23491767 0.28812587 0.33814648
        0.38479254 0.42802358 0.46791625 0.50463 0.538371 0.56935626
        0.5977807 0.6237889 0.6474538 0.6687648 0.68762714 0.7038724
        0.7172874 0.72766334 0.7348624 0.7388807 0.7398787 0.73816186
        0.73411846 0.7281445 0.7205867 0.7117227 0.7017632 0.69080585
        0.00037971156 0.059892382 0.119325124 0.17713581 0.23265456 0.28536087
        0.3348998 0.38107863 0.42384857 0.46327692 0.4995146 0.53276247
        0.563239 0.59115046 0.6166659 0.6398975 0.6608869 0.6795969
        0.69591 0.7096385 0.72055954 0.7284793 0.73331004 0.735127
        0.73417395 0.73081493 0.7254563 0.71847856 0.71020573 0.70090324
        0.69069993 0.00043823972 0.05927091 0.11814868 0.17542034 0.23042114
        0.28263202 0.33169582 0.37741438 0.419731 0.45870402 0.4944761
        0.5272428 0.5572231 0.5846332 0.6096638 0.63246244 0.65311867
        0.67165077 0.687993 0.7019904 0.7134179 0.72203666 0.727681
        0.73033875 0.73018444 0.7275473 0.7228361 0.7164597 0.70878506
        0.70012957 0.69064933 0.00049478956 0.058658626 0.1169885 0.173728
        0.2282174 0.27993926 0.32853442 0.37379962 0.41567066 0.4541973
        0.48951405 0.5218112 0.55130774 0.57822794 0.60278183 0.62514853
        0.6454615 0.66379136 0.68012494 0.69434637 0.7062389 0.7155311
        0.72198635 0.7255043 0.726182 0.7243039 0.72027206 0.7145181
        0.7074489 0.699432 0.6906484 0.00054916006 0.058055654 0.11584466
        0.17205876 0.2260433 0.2772825 0.32541552 0.3702342 0.41166732
        0.44975632 0.484628 0.5164671 0.545492 0.57193387 0.5960193
        0.61795574 0.63791645 0.6560213 0.6723095 0.68670934 0.6990233
        0.7089593 0.7162185 0.7206128 0.7221547 0.7210729 0.7177529
        0.7126429 0.7061871 0.69880205 0.6906922 0.0006011591 0.057462115
        0.11471719 0.17041263 0.22389875 0.27466166 0.32233894 0.36671793
        0.40772069 0.4453808 0.4798174 0.5112098 0.5397751 0.56575
        0.58937556 0.610884 0.6304846 0.6483431 0.66455036 0.67908275
        0.6917717 0.7023175 0.7103691 0.7156528 0.7180898 0.7178418
        0.7152671 0.71082395 0.7049907 0.6982324 0.6907768 0.0006506019
        0.056878105 0.11360613 0.16878954 0.22178371 0.2720766 0.31930453
        0.3632506 0.4038305 0.4410703 0.47508168 0.5060385 0.5341561
        0.55967546 0.5828498 0.60393316 0.62316704 0.64075935 0.6568513
        0.6714701 0.6844852 0.69560224 0.70442957 0.71061176 0.7139734
        0.7145975 0.7128034 0.7090515 0.7038515 0.69771665 0.69089884
        0.0006973098 0.05630373 0.1125115 0.16718948 0.21969804 0.26952717
        0.31631204 0.35983193 0.39999643 0.43682435 0.4704203 0.5009525
        0.5286341 0.5537092 0.5764412 0.5971031 0.6159648 0.63327277
        0.64921623 0.66387546 0.67716545 0.6888102 0.69839066 0.70547605
        0.70979017 0.71132565 0.71034974 0.7073159 0.7027619 0.69724923
        0.69105524 0.00074110844 0.05573908 0.11143331 0.1656124 0.21764167
        0.26701322 0.31336138 0.3564617 0.39621812 0.43264255 0.46583265
        0.49595103 0.52320826 0.5478504 0.5701492 0.5903938 0.60887885
        0.62588584 0.6416493 0.6563031 0.6698145 0.6819387 0.69224334
        0.7002313 0.70552355 0.7080106 0.7078932 0.7056074 0.7017146
        0.69682497 0.69124347 0.0007818276 0.05518424 0.11037159 0.16405822
        0.21561445 0.2645346 0.31045222 0.35313958 0.39249521 0.42852443
        0.46131817 0.49103338 0.51787764 0.542098 0.56397295 0.5838049
        0.6019102 0.6186012 0.63415474 0.64875793 0.6624354 0.6749855
        0.68597853 0.69486225 0.7011553 0.704635 0.7054198 0.7039157
        0.70070237 0.69643915 0.69146115 0.0008192995 0.054639306 0.10932633
        0.1625269 0.2136163 0.2620911 0.30758438 0.34986532 0.38882732
        0.42446947 0.45687616 0.48619872 0.5126413 0.5364511 0.55791163
        0.5773363 0.5950597 0.61142147 0.62673694 0.6412452 0.6550319
        0.6679496 0.67958754 0.68935305 0.6966656 0.7011796 0.70291394
        0.70222986 0.6997182 0.6960873 0.6917062 0.000853358 0.054104354
        0.10829755 0.16101837 0.21164703 0.25968254 0.3047576 0.34663856
        0.38521406 0.4204772 0.45250604 0.4814463 0.5074984 0.5309088
        0.5519645 0.5709878 0.5883283 0.60434914 0.6194004 0.6337706
        0.6476087 0.6608309 0.67306244 0.68368715 0.6920328 0.6976227
        0.70035815 0.70053774 0.6987543 0.69576514 0.69197667 0.00088383816
        0.05357947 0.10728524 0.15953255 0.20970657 0.25730875 0.3019716
        0.343459 0.38165504 0.4165471 0.44820714 0.4767753 0.50244796
        0.5254701 0.54613084 0.5647591 0.5817168 0.5973867 0.6121497
        0.6263404 0.6401715 0.65363085 0.66639626 0.67784804 0.6872336
        0.69394016 0.6977324 0.6988257 0.6978029 0.6954684 0.692271
        0.00091057486 0.053064726 0.10628941 0.15806937 0.20779473 0.25496948
        0.2992262 0.3403263 0.3781498 0.4126786 0.44397876 0.47218487
        0.49748898 0.520134 0.54040974 0.55864984 0.57522583 0.59053665
        0.60498947 0.6189613 0.632727 0.6463523 0.6595835 0.6718193
        0.68224305 0.6901047 0.69501376 0.6970782 0.69685495 0.69519275
        0.6925877 0.0009334021 0.052560214 0.105310045 0.15662876 0.20591138
        0.25266457 0.296521 0.33724013 0.37469792 0.40887114 0.4398202
        0.46767417 0.49262053 0.5148994 0.5348003 0.55265975 0.5688562
        0.5838013 0.5979245 0.61164016 0.6252831 0.639 0.6526203
        0.66558504 0.67703474 0.68608606 0.69217587 0.69527715 0.6959006
        0.69493365 0.6929252 0.0009521522 0.05206601 0.104347154 0.15521063
        0.20405637 0.25039375 0.29385582 0.33420008 0.3712989 0.4051242
        0.43573076 0.46324232 0.4878416 0.50976527 0.5293016 0.5467883
        0.56260824 0.5771829 0.5909592 0.6043843 0.6178484 0.6315805
        0.6455053 0.6591305 0.67158085 0.68185025 0.68918794 0.6934012
        0.6949282 0.69468623 0.6932825 0.00096665416 0.051582195 0.10340073
        0.1538149 0.20222953 0.2481568 0.29123026 0.3312058 0.3679523
        0.40143707 0.43170968 0.45888844 0.48315114 0.5047306 0.5239127
        0.5410349 0.5564825 0.57068336 0.5840982 0.59720117 0.6104326
        0.62410235 0.6382395 0.652443 0.665853 0.67735964 0.6860142
        0.69142497 0.6939243 0.6944452 0.6936586 0.0009767327 0.051108852
        0.102470756 0.15244146 0.20043069 0.24595349 0.28864405 0.32825682
        0.36465755 0.39780918 0.4277562 0.45461154 0.47854805 0.4997942
        0.5186326 0.535399 0.55047923 0.5643047 0.57734585 0.5900984
        0.6030463 0.6165761 0.6308272 0.6455121 0.6598226 0.6725727
        0.6826128 0.6893176 0.69287235 0.69420445 0.6940527 0.0009822062
        0.050646067 0.10155723 0.1510902 0.19865966 0.24378352 0.2860968
        0.3253527 0.3614141 0.3942398 0.42386937 0.45041063 0.47403118
        0.4949548 0.51346004 0.5298798 0.5445985 0.55804855 0.57070625
        0.58308333 0.5957004 0.60901415 0.6232758 0.63833106 0.6534617
        0.66744417 0.67893517 0.68704176 0.691752 0.6939568 0.6944643
        0.0009828848 0.050193924 0.10066014 0.14976105 0.19691622 0.24164662
        0.28358814 0.322493 0.35822138 0.3907282 0.4200484 0.44628462
        0.4695993 0.49021107 0.5083939 0.5244764 0.5388402 0.5519162
        0.56418306 0.5761634 0.5884063 0.6014307 0.6155965 0.63089734
        0.6467445 0.6619255 0.6749245 0.68455154 0.69053787 0.6936936
        0.6948933 0.0009785662 0.04975251 0.09977944 0.14845383 0.19520015
        0.23954241 0.28111762 0.3196771 0.35507867 0.38727355 0.4162922
        0.4422323 0.46525103 0.48556155 0.5034325 0.5191876 0.5332038
        0.5459086 0.5577797 0.5693455 0.58117586 0.5938415 0.60780406
        0.62321365 0.6396484 0.65596545 0.6705152 0.68179035 0.68919724
        0.69340396 0.69534 0.0009690327 0.04932192 0.098915115 0.1471684
        0.19351114 0.23747052 0.2786847 0.3169044 0.35198516 0.38387483
        0.41259962 0.43825233 0.4609848 0.48100457 0.49857444 0.5140121
        0.5276886 0.5400263 0.55149907 0.56263596 0.5740203 0.5862631
        0.5999168 0.6152887 0.632156 0.64951146 0.6656316 0.67868805
        0.6876879 0.69307375 0.6958051 0.00095404364 0.048902236 0.09806709
        0.14590456 0.19184889 0.23543046 0.2762888 0.3141741 0.34893993
        0.38053098 0.40896937 0.43434316 0.45679885 0.47653815 0.4938175
        0.5089479 0.5222934 0.5342692 0.54534304 0.5560404 0.5669505
        0.578713 0.59195614 0.60713774 0.6242572 0.6425118 0.6601877
        0.6751576 0.68595386 0.6926837 0.69629 0.00093332736 0.048493553
        0.09723529 0.14466204 0.19021294 0.23342164 0.2739291 0.31148523
        0.34594184 0.37724063 0.40539983 0.4305029 0.45269105 0.47215998
        0.48915938 0.5039928 0.5170163 0.52863663 0.53931284 0.54956335
        0.5599762 0.57120824 0.58394605 0.5987828 0.615951 0.63491845
        0.6540876 0.6710908 0.68392056 0.6922072 0.69679695 0.0009065684
        0.04809597 0.096419595 0.1434405 0.18860275 0.23144329 0.27160466
        0.30883664 0.34298947 0.37400207 0.401889 0.42672926 0.4486588
        0.46786717 0.48459697 0.49914372 0.5118546 0.52312666 0.53340834
        0.5432077 0.5531057 0.56376487 0.57591176 0.59025234 0.6072478
        0.6266911 0.6472266 0.66635406 0.6814873 0.691606 0.6973285
        0.0008733901 0.047709588 0.09561982 0.14223951 0.1870176 0.22949445
        0.26931426 0.30622682 0.34008098 0.37081313 0.3984344 0.42301938
        0.44469884 0.46365607 0.48012635 0.49439666 0.5068045 0.5177361
        0.5276279 0.5369746 0.5463451 0.5563972 0.56787854 0.58158016
        0.5981708 0.6178023 0.63949496 0.6607833 0.67851686 0.69082373
        0.6978877 0.0008333294 0.047334507 0.09483573 0.14105846 0.18545656
        0.22757381 0.2670562 0.30365372 0.33721402 0.3676711 0.39503282
        0.41936958 0.44080698 0.4595221 0.47574252 0.48974633 0.5018607
        0.5124602 0.5219677 0.5308628 0.53969747 0.54911625 0.55987006
        0.5728037 0.58875644 0.6082433 0.6307849 0.6541806 0.67482144
        0.6897753 0.69847697 0.00078580383 0.04697085 0.09406697 0.13989656
        0.18391839 0.22567973 0.26482844 0.30111483 0.33438554 0.3645724
        0.39168015 0.41577518 0.43697798 0.4554593 0.47143897 0.48518577
        0.49701598 0.50729173 0.51642156 0.5248677 0.53316224 0.5419289
        0.5519062 0.56396097 0.57905376 0.5980301 0.62100136 0.6463131
        0.67014337 0.6883299 0.69909626 0.0007300669 0.046618786 0.093313135
        0.13875282 0.18240152 0.22381005 0.26262823 0.29860684 0.33159164
        0.3615125 0.3883712 0.41223025 0.4332051 0.45146018 0.46720743
        0.48070598 0.49226087 0.5022211 0.51098 0.51898134 0.5267345
        0.53483677 0.5440013 0.55508775 0.5691214 0.58720887 0.61007863
        0.6369194 0.6641301 0.6862821 0.6997391 0.0006651535 0.046278544
        0.09257375 0.13762607 0.18090408 0.2219622 0.2604523 0.29612577
        0.32882762 0.35848594 0.38509962 0.40872753 0.42948017 0.44751558
        0.46303773 0.4762959 0.4875834 0.4972358 0.5056304 0.51319164
        0.5204044 0.5278356 0.5361627 0.546214 0.5590233 0.57585895
        0.59800327 0.6257296 0.6563052 0.6833037 0.7003852 0.00058981933
        0.04595054 0.09184839 0.13651505 0.17942402 0.22013332 0.258297
        0.29366714 0.32608813 0.3554864 0.38185826 0.4052588 0.42579386
        0.44361508 0.4589183 0.47194275 0.48296982 0.4923211 0.50035757
        0.50748366 0.51415867 0.52091616 0.52839136 0.5373628 0.5488241
        0.56409204 0.5848418 0.6125123 0.6460422 0.6788597 0.7009865
        0.0005024927 0.045635536 0.09113703 0.13541895 0.17795973 0.21832104
        0.2561592 0.29122695 0.32336837 0.3525083 0.37864053 0.40181664
        0.42213768 0.43974906 0.45483842 0.4676348 0.47840732 0.48746344
        0.4951474 0.50184333 0.50798434 0.51406926 0.5206867 0.52855384
        0.53858805 0.5520495 0.57076967 0.5971624 0.632568 0.67205626
        0.70144063 0.0004012863 0.04533504 0.090440795 0.13433854 0.17651162
        0.2165254 0.25403848 0.28880456 0.3206673 0.34955016 0.3754445
        0.3983986 0.41850877 0.4359142 0.45079434 0.46336794 0.47389176
        0.4826587 0.4899963 0.49626824 0.5018813 0.507299 0.5130617
        0.51981884 0.5283908 0.53990424 0.55609566 0.57984895 0.61506855
        0.6613552 0.7015389 0.00028419675 0.04505212 0.08976384 0.13327903
        0.17508593 0.21475372 0.25194326 0.28640935 0.3179954 0.34662354
        0.372283 0.39501876 0.41492262 0.43212765 0.44680518 0.4591636
        0.4694473 0.47793466 0.48493633 0.4907957 0.49589372 0.50065887
        0.5055829 0.51124614 0.51836413 0.52789205 0.5412867 0.56121856
        0.5930923 0.6440091 0.7008591 0.00014985236 0.044793356 0.089117914
        0.13225727 0.17370464 0.21303295 0.2499056 0.2840785 0.31539503
        0.34377635 0.36920968 0.39173698 0.4114459 0.4284636 0.44295362
        0.4551143 0.4651777 0.47340792 0.48009914 0.48557505 0.4901914
        0.4943429 0.4984741 0.5030973 0.5088247 0.5164365 0.52704597
        0.54260045 0.56771755 0.61490315 0.698517 0 0.044555448
        0.08849794 0.1312662 0.17235842 0.21135134 0.24791092 0.28179437
        0.31284523 0.3409838 0.36619556 0.3885197 0.40804 0.42487794
        0.43918946 0.451163 0.4610184 0.46900553 0.47540194 0.4805116
        0.48466522 0.48822358 0.49158406 0.49519038 0.49955013 0.5052666
        0.5130981 0.52409697 0.54059756 0.57511985 0.6925057
      </DataArray>
      <DataArray type="Float32" Name="aspect_ratio" format="ascii" RangeMin="1.1968755722045898" RangeMax="11.185349464416504">
        11.185349 11.094626 10.932388 10.677098 10.339299 9.931878
        9.468821 8.964123 8.430963 7.8811946 7.325178 6.7718654
        6.229079 5.7038565 5.2027326 4.7318206 4.296601 3.9013839
        3.548573 3.2380292 2.9669297 2.730331 2.5222666 2.3369234
        2.1694603 2.016304 1.875024 1.7440231 1.6222373 1.50892
        1.3979809 11.137581 11.047609 10.887214 10.634788 10.300697
        9.897623 9.439352 8.93971 8.4117365 7.8671994 7.3164034
        6.7682705 6.2305975 5.710374 5.2140393 4.747552 4.3161807
        3.924014 3.5732992 3.2638824 2.9930933 2.756252 2.5476665
        2.3617249 2.1936877 2.0400062 1.8982381 1.7667706 1.6445416
        1.5308421 1.4196494 11.090261 11.001064 10.842516 10.592946
        10.262546 9.863797 9.410293 8.915688 8.392895 7.8535905
        7.308026 6.7650895 6.2325406 5.717306 5.225708 4.763524
        4.3357944 3.9463887 3.5974317 3.2888184 3.018097 2.780892
        2.5717804 2.3853092 2.2167838 2.062634 1.92038 1.788384
        1.6655868 1.5513222 1.4396648 11.043387 10.955005 10.798318
        10.551598 10.224865 9.830403 9.381617 8.891992 8.374311
        7.840164 7.2997413 6.761891 6.23433 5.723914 5.2368484
        4.778736 4.3544097 3.9675486 3.6201825 3.3122709 3.0415804
        2.8040278 2.594442 2.4075077 2.2385561 2.0839791 1.9412494
        1.8087023 1.6852864 1.5703889 1.4582026 10.996951 10.90942
        10.754605 10.510726 10.187633 9.797419 9.353298 8.868595
        8.355964 7.826898 7.2915306 6.758663 6.2359624 5.730209
        5.2474885 4.7932396 4.3721013 3.9875848 3.6416485 3.334328
        3.0636106 2.825699 2.6156654 2.4283195 2.2590013 2.1040475
        1.9608706 1.8277732 1.7037158 1.5881498 1.4754038 10.950948
        10.864301 10.711364 10.470313 10.150831 9.764824 9.32532
        8.845481 8.337832 7.813777 7.283381 6.7553973 6.2374372
        5.736202 5.2576575 4.807082 4.3889375 4.0065837 3.6619234
        3.355078 3.0842586 2.845953 2.6354733 2.44775 2.2781196
        2.1228454 1.979264 1.8456374 1.7209393 1.6046947 1.4913849
        10.905374 10.819638 10.668584 10.4303465 10.114447 9.732604
        9.297666 8.822633 8.319903 7.800786 7.2752814 6.752087
        6.238755 5.7419043 5.2673817 4.82031 4.4049835 4.0246267
        3.681097 3.3746095 3.1035998 2.864843 2.653896 2.4658115
        2.2959142 2.1403787 1.9964473 1.8623295 1.7370112 1.6200998
        1.5062425 10.860222 10.775423 10.626253 10.390814 10.0784645
        9.700745 9.270321 8.800036 8.302163 7.7879157 7.267224
        6.7487288 6.2399197 5.747329 5.2766867 4.8329654 4.4202995
        4.041789 3.6992555 3.3930092 3.1217115 2.8824284 2.670971
        2.4825213 2.3123915 2.1566536 2.0124352 1.8778788 1.7519786
        1.6344295 1.5200582 10.815488 10.731648 10.584364 10.351705
        10.042876 9.669236 9.243276 8.777683 8.284604 7.7751575
        7.2592025 6.74532 6.240934 5.752489 5.2855973 4.845087
        4.4349413 4.0581427 3.7164812 3.4103627 3.138673 2.8987734
        2.6867409 2.497902 2.327561 2.171676 2.02724 1.8923101
        1.7658811 1.6477385 1.5329012 10.771166 10.688308 10.542906
        10.31301 10.007669 9.638066 9.21652 8.755563 8.267216
        7.7625036 7.2512126 6.74186 6.241802 5.7573957 5.2941365
        4.8567123 4.448961 4.073754 3.7328522 3.426754 3.154565
        2.913946 2.7012546 2.5119815 2.3414345 2.1854517 2.0408719
        1.9056439 1.7787524 1.6600742 1.544831 10.727251 10.645392
        10.501873 10.274722 9.9728365 9.607229 9.190045 8.733667
        8.249993 7.74995 7.2432504 6.738348 6.242529 5.762061
        5.302326 4.8678746 4.4624057 4.088685 3.7484426 3.442264
        3.1694689 2.9280183 2.7145667 2.5247934 2.354028 2.197988
        2.0533383 1.917897 1.7906213 1.6714767 1.5558989 10.68374
        10.602898 10.461256 10.236831 9.93837 9.5767145 9.163845
        8.711992 8.23293 7.7374916 7.235314 6.734785 6.2431192
        5.766497 5.310186 4.878606 4.475321 4.1029935 3.7633228
        3.4569724 3.183466 2.9410653 2.7267365 2.536376 2.3653603
        2.209292 2.0646455 1.9290819 1.8015113 1.6819806 1.5661492
        10.640624 10.560816 10.421049 10.199331 9.904263 9.546517
        9.137913 8.69053 8.2160225 7.725126 7.227402 6.731172
        6.243579 5.7707143 5.317736 4.8889346 4.4877467 4.1167336
        3.7775588 3.4709547 3.1966379 2.953165 2.737829 2.5467732
        2.3754532 2.2193708 2.0747979 1.9392084 1.8114417 1.691615
        1.5756209 10.597901 10.519141 10.381247 10.162216 9.870507
        9.516632 9.112243 8.669277 8.199266 7.7128496 7.219514
        6.727511 6.243913 5.774724 5.3249936 4.898889 4.499722
        4.129955 3.7912126 3.4842849 3.209065 2.9643981 2.7479136
        2.5560346 2.3843336 2.2282343 2.0837972 1.9482822 1.8204272
        1.7004044 1.5843474 10.555567 10.477869 10.341841 10.125479
        9.837099 9.487053 9.086832 8.648231 8.182659 7.7006617
        7.2116485 6.723804 6.2441273 5.7785363 5.331976 4.9084935
        4.511281 4.1427035 3.804343 3.4970334 3.2208276 2.9748468
        2.7570653 2.5642157 2.392033 2.2358923 2.0916443 1.9563057
        1.8284786 1.7083688 1.5923579 10.513614 10.436993 10.302827
        10.089114 9.804033 9.457775 9.061675 8.627386 8.166198
        7.688561 7.2038074 6.7200537 6.2442274 5.782161 5.3386984
        4.9177713 4.5224557 4.155022 3.817004 3.5092669 3.232004
        2.9845958 2.765363 2.571379 2.3985877 2.242358 2.0983386
        1.9632777 1.835602 1.7155237 1.5996777 10.472038 10.396506
        10.264199 10.053118 9.771304 9.428795 9.036771 8.606742
        8.149882 7.676547 7.195991 6.7162633 6.244219 5.785609
        5.3451767 4.9267445 4.5332766 4.16695 3.8292468 3.5210495
        3.2426705 2.9937303 2.7728915 2.5775933 2.4040406 2.2476466
        2.1038783 1.9691927 1.8417991 1.7218808 1.6063286 10.430836
        10.356406 10.225952 10.017485 9.738909 9.400109 9.012115
        8.586296 8.133711 7.6646194 7.1882014 6.7124352 6.244108
        5.7888885 5.3514247 4.935433 4.543771 4.178524 3.841118
        3.5324416 3.2529025 3.0023367 2.7797391 2.5829349 2.4084415
        2.2517776 2.1082609 1.974042 1.8470669 1.7274467 1.6123288
        10.390001 10.316687 10.188082 9.982209 9.706842 9.371716
        8.987704 8.566047 8.117683 7.65278 7.18044 6.708575
        6.243901 5.7920094 5.357456 4.943856 4.553964 4.189777
        3.8526618 3.5434995 3.2627716 3.0105014 2.7859988 2.587488
        2.4118495 2.2547762 2.1114838 1.9778125 1.8513968 1.7322236
        1.6176931 10.34953 10.277343 10.150583 9.9472885 9.675102
        9.34361 8.96354 8.545995 8.1018 7.64103 7.17271
        6.704685 6.243604 5.794981 5.3632846 4.952031 4.56388
        4.2007403 3.8639183 3.5542762 3.272347 3.0183108 2.7917676
        2.5913444 2.4143324 2.2566738 2.1135454 1.980487 1.8547744
        1.7362088 1.6224334 10.309418 10.23837 10.113453 9.91272
        9.643686 9.315792 8.939621 8.52614 8.086063 7.629371
        7.1650147 6.700772 6.2432246 5.7978134 5.3689227 4.9599767
        4.5735407 4.2114425 3.8749247 3.5648215 3.281695 3.0258496
        2.7971451 2.594605 2.4159691 2.2575102 2.1144469 1.9820445
        1.8571787 1.7393934 1.626558 10.269659 10.199764 10.076686
        9.878499 9.612592 9.28826 8.915946 8.506483 8.070474
        7.6178074 7.157359 6.696841 6.24277 5.8005166 5.3743834
        4.967708 4.5829678 4.2219105 3.8857157 3.575181 3.2908776
        3.0332015 2.8022346 2.5973785 2.416851 2.257337 2.1141932
        1.9824604 1.8585815 1.7417619 1.6300718 10.230251 10.16152
        10.040279 9.844624 9.581818 9.261016 8.892517 8.487027
        8.055037 7.606343 7.149748 6.6928988 6.24225 5.8031015
        5.379681 4.9752426 4.5921817 4.2321696 3.8963234 3.5853972
        3.2999537 3.0404477 2.8071406 2.5997825 2.4170835 2.256219
        2.1127963 1.9817075 1.8589464 1.7432915 1.6329759 10.191188
        10.123636 10.004231 9.811093 9.551364 9.234059 8.869337
        8.467776 8.039755 7.594984 7.142189 6.688955 6.2416735
        5.80558 5.3848295 4.9825983 4.6012034 4.2422447 3.9067783
        3.5955105 3.3089793 3.0476663 2.8119686 2.6019416 2.416787
        2.254238 2.110278 1.9797568 1.8582278 1.7439494 1.6352676
        10.152466 10.086107 9.968539 9.777907 9.521233 9.207394
        8.846411 8.448735 8.024638 7.583739 7.134692 6.6850195
        6.2410536 5.8079667 5.3898454 4.989793 4.6100535 4.2521605
        3.9171102 3.6055584 3.3180058 3.054933 2.8168242 2.603989
        2.4160979 2.251496 2.1066744 1.976581 1.8563704 1.7436923
        1.6369387 10.11408 10.048931 9.933202 9.745067 9.4914255
        9.181024 8.823744 8.429913 8.009694 7.572619 7.12727
        6.681107 6.2404056 5.810278 5.394747 4.996847 4.618756
        4.261943 3.9273489 3.6155772 3.3270829 3.0623195 2.8218124
        2.6060634 2.4151702 2.2481203 2.1020422 1.9721569 1.8533087
        1.742463 1.637975 10.076027 10.012106 9.89822 9.712575
        9.46195 9.154958 8.801348 8.411323 7.9949393 7.5616407
        7.11994 6.677236 6.2397494 5.8125362 5.3995576 5.0037866
        4.6273365 4.2716203 3.9375255 3.6256044 3.3362586 3.0698953
        2.8270366 2.6083095 2.4141755 2.2442653 2.096465 1.9664718
        1.8489672 1.7401879 1.6383537 10.038302 9.975631 9.863597
        9.680437 9.432815 9.1292095 8.779239 8.3929825 7.9803925
        7.550826 7.1127257 6.673432 6.239112 5.814769 5.404307
        5.010641 4.635828 4.2812266 3.947676 3.6356792 3.3455815
        3.0777278 2.8325987 2.6108768 2.4133036 2.2401197 2.0900621
        1.9595313 1.8432628 1.7367729 1.6380401 10.000902 9.939507
        9.829337 9.648664 9.404035 9.103797 8.757438 8.374917
        7.966083 7.540206 7.1056604 6.669729 6.2385297 5.817013
        5.4090333 5.0174503 4.64427 4.2908025 3.9578424 3.6458466
        3.3551035 3.0858853 2.8386 2.6139174 2.4127617 2.2359083
        2.0829992 1.951371 1.8361082 1.7320995 1.6369805 9.963822
        9.903734 9.79545 9.617271 9.37563 9.078748 8.735979
        8.357165 7.952051 7.5298243 7.0987897 6.666176 6.238051
        5.8193197 5.413788 5.024267 4.6527157 4.300401 3.9680784
        3.6561613 3.3648834 3.09444 2.845142 2.617587 2.4127731
        2.2318969 2.0755 1.9420723 1.82742 1.7260197 1.6350924
        9.92706 9.868321 9.7619505 9.586283 9.347635 9.054101
        8.714908 8.339778 7.9383545 7.519741 7.0921774 6.6628385
        6.237745 5.8217587 5.4186416 5.0311623 4.661237 4.310094
        3.9784539 3.6666932 3.3749938 3.1034732 2.8523319 2.6220455
        2.4135773 2.2283945 2.0678596 1.9317844 1.817133 1.7183511
        1.632243 9.890611 9.833275 9.728859 9.555731 9.320095
        9.029914 8.69429 8.322829 7.925072 7.5100427 7.0859137
        6.659809 6.2377057 5.8244257 5.4236913 5.038233 4.669929
        4.3199763 3.9890637 3.677535 3.3855264 3.1130822 2.8602865
        2.6274586 2.4154274 2.2257533 2.0604582 1.9207516 1.8052225
        1.7088735 1.628217 9.854471 9.798611 9.696209 9.525666
        9.293073 9.006265 8.674217 8.306419 7.912315 7.500845
        7.08012 6.6572137 6.2380624 5.8274517 5.429069 5.045611
        4.6789246 4.330178 4.000035 3.6888113 3.3966036 3.1233895
        2.869141 2.6340027 2.4185894 2.2243676 2.0537713 1.909347
        1.7917422 1.6973295 1.6226547 9.81864 9.764348 9.664042
        9.496154 9.266656 8.983258 8.65481 8.290687 7.900231
        7.492306 7.0749617 6.655223 6.238989 5.8310122 5.4349513
        5.053473 4.6883984 4.3408723 4.0115376 3.7006874 3.4083858
        3.134553 2.8790584 2.6418707 2.4233403 2.2246666 2.0483766
        1.8981117 1.7768772 1.683435 1.6149479 9.783113 9.7305155
        9.632418 9.467279 9.240957 8.961033 8.6362295 8.275806
        7.889012 7.48463 7.0706515 6.6540565 6.2407093 5.8353353
        5.4415665 5.0620475 4.698578 4.3522835 4.023792 3.7133784
        3.421081 3.1467729 2.8902364 2.651278 2.4299657 2.2270992
        2.0449457 1.8877892 1.7610222 1.6669077 1.6040542 9.7478895
        9.697146 9.601404 9.439149 9.216115 8.939755 8.618667
        8.261993 7.87889 7.478064 7.0674477 6.6539807 6.2434964
        5.840696 5.449192 5.0716114 4.709738 4.364684 4.0370655
        3.7271454 3.4349415 3.160292 2.9029083 2.6624599 2.4387498
        2.232108 2.044215 1.8793467 1.7448823 1.6475375 1.5881728
        9.71297 9.664278 9.571077 9.411873 9.192273 8.9196005
        8.602323 8.249474 7.87011 7.4728665 7.0656214 6.6552753
        6.2476354 5.847384 5.45812 5.0824566 4.722169 4.378361
        4.0516405 3.7422628 3.4502332 3.1753633 2.9173126 2.6756454
        2.4499424 2.2400737 2.0469074 1.8739471 1.7295809 1.62533
        1.5641727 9.678351 9.631933 9.541483 9.385519 9.169521
        8.900678 8.587327 8.238389 7.862827 7.469204 7.065347
        6.6581216 6.2533126 5.855589 5.4685397 5.094774 4.7360606
        4.393501 4.0676994 3.7589087 3.4671252 3.1921444 2.9335916
        2.690957 2.4636607 2.2511935 2.0535645 1.8728132 1.7167234
        1.600785 1.5265896 9.644034 9.600076 9.512549 9.359983
        9.147725 8.882825 8.573493 8.228535 7.856822 7.466847
        7.066387 6.6622763 6.2602816 5.8650613 5.480203 5.108314
        4.7511644 4.409857 4.0849967 3.7768362 3.4853692 3.2103825
        2.9514823 2.7081156 2.4796033 2.2651858 2.0641778 1.8768313
        1.7082572 1.5753822 1.4658747 9.610017 9.568469 9.48381
        9.3345785 9.125994 8.864969 8.559589 8.218548 7.8506227
        7.464237 7.06712 6.666073 6.266845 5.8740892 5.49139
        5.121359 4.7657704 4.425731 4.101851 3.7943835 3.503324
        3.2284575 2.969383 2.7255304 2.4961753 2.2804399 2.0772643
        1.8854967 1.705647 1.5521895 1.3654187 9.57629 9.537032
        9.455113 9.309089 9.1040535 8.846791 8.54526 8.208043
        7.8438277 7.460966 7.0671363 6.669109 6.2726145 5.882298
        5.5017457 5.133574 4.779564 4.4408298 4.117987 3.8112953
        3.5207546 3.246157 2.987109 2.743049 2.5132592 2.2968676
        2.0928328 1.8998891 1.7153158 1.5209548 1.1968756
      </DataArray>
      <DataArray type="Float32" Name="jacobian" format="ascii" RangeMin="0.003108386881649494" RangeMax="0.02095652185380459">
        0.020956522 0.02087012 0.020731376 0.020489348 0.020148508 0.019715233
        0.019197617 0.018605169 0.017948415 0.017238438 0.016486388 0.015703008
        0.014898253 0.0140810665 0.013259408 0.012440526 0.01163134 0.0108387
        0.010069295 0.009329196 0.008623304 0.007954986 0.007326068 0.006737087
        0.0061876355 0.0056766868 0.0052028345 0.0047644572 0.004359824 0.0039871796
        0.0036306747 0.020867025 0.020780282 0.020641228 0.020399017 0.02005812
        0.019624887 0.019107355 0.018514946 0.017858082 0.017147746 0.016395036
        0.015610753 0.01480509 0.013987485 0.013166679 0.012350925 0.011548182
        0.010766014 0.010011098 0.0092885345 0.00860144 0.0079511525 0.0073378882
        0.006761412 0.0062213787 0.0057173367 0.0052486104 0.0048142294 0.0044129635
        0.0040433914 0.0036896209 0.02077837 0.020691268 0.020551896 0.02030952
        0.019968612 0.0195355 0.01901817 0.018425966 0.017769214 0.017058812
        0.01630581 0.0155210635 0.014714975 0.013897402 0.013077739 0.012265069
        0.011468208 0.010695348 0.009953266 0.009246427 0.008576605 0.007943424
        0.0073455498 0.0067817853 0.0062515554 0.005754746 0.0052912803 0.004860793
        0.004462547 0.0040954524 0.0037437407 0.020690545 0.020603027 0.020463293
        0.020220742 0.019879838 0.019446898 0.018929863 0.018338006 0.01768157
        0.016971372 0.016218424 0.01543362 0.014627541 0.013810398 0.012992117
        0.0121824555 0.011390932 0.010626292 0.009895511 0.009202699 0.008548674
        0.007931659 0.0073488485 0.0067979465 0.006277893 0.005788675 0.00533067
        0.0049040667 0.004508625 0.004143616 0.0037935718 0.020603543 0.020515561
        0.020375434 0.020132694 0.019791821 0.019359106 0.018842455 0.018251082
        0.017595153 0.016885411 0.01613283 0.01534834 0.014542668 0.013726311
        0.012909628 0.012102918 0.011316259 0.010558883 0.009838016 0.009157647
        0.00851797 0.00791611 0.0073479246 0.0068099312 0.006300367 0.0058190906
        0.005366784 0.004944125 0.0045513688 0.004188188 0.0038395405 0.020517355
        0.020428864 0.02028832 0.020045392 0.01970457 0.019272134 0.018755957
        0.0181652 0.017509954 0.0168009 0.016048979 0.015265142 0.014460234
        0.013644987 0.012830102 0.012026298 0.0112441 0.010493141 0.009780939
        0.009111536 0.008484792 0.007897027 0.0073429253 0.006817786 0.0063189617
        0.0058459677 0.0053996267 0.0049810307 0.004590924 0.004229415 0.0038819932
        0.020431966 0.020342937 0.020201953 0.019958839 0.019618092 0.01918599
        0.018670375 0.018080352 0.017425958 0.016717812 0.015966816 0.015183941
        0.014380125 0.013566281 0.012753376 0.011952449 0.01117436 0.010429079
        0.009724418 0.009064605 0.00844942 0.007874652 0.007334001 0.0068215653
        0.006333671 0.0058692843 0.005429201 0.0050148387 0.0046274145 0.004267506
        0.0039212154 0.020347372 0.020257771 0.020116333 0.019873038 0.019532397
        0.019100681 0.018585706 0.017996537 0.017343152 0.016636113 0.015886288
        0.015104659 0.01430223 0.013490055 0.012679298 0.0118812295 0.011106955
        0.0103667015 0.009668573 0.009017079 0.00841212 0.007849221 0.007321306
        0.0068213316 0.006344494 0.005889022 0.005455508 0.005045594 0.0046609454
        0.004302633 0.003957446 0.020263558 0.020173365 0.020031458 0.01978799
        0.019447481 0.019016203 0.018501947 0.017913742 0.01726151 0.016555766
        0.015807342 0.015027215 0.014226443 0.013416179 0.012607726 0.01181251
        0.011041798 0.010306007 0.009613509 0.008969159 0.008373144 0.007820967
        0.0073049986 0.0068171523 0.0063514337 0.00590516 0.0054785437 0.0050733346
        0.004691607 0.0043349457 0.0039908877 0.020180518 0.02008971 0.019947326
        0.019703692 0.019363344 0.018932551 0.018419093 0.017831953 0.017181013
        0.016476735 0.015729917 0.014951532 0.014152663 0.01334453 0.012538526
        0.011746165 0.010978805 0.010246988 0.00955932 0.008921033 0.008332734
        0.007790121 0.0072852406 0.0068091014 0.006354495 0.005917679 0.0054983
        0.0050980872 0.0047194744 0.0043645687 0.004021714 0.020098241 0.0200068
        0.01986393 0.019620141 0.019279981 0.018849723 0.01833713 0.017751155
        0.017101632 0.016398983 0.015653964 0.014877535 0.014080793 0.013274993
        0.012471572 0.011682078 0.010917897 0.010189635 0.009506089 0.008872878
        0.008291124 0.007756912 0.0072622 0.0067972587 0.006353686 0.005926554
        0.0055147614 0.005119871 0.00474461 0.00439161 0.0040500746 0.020016717
        0.019924628 0.019781267 0.019537332 0.019197388 0.01876771 0.01825605
        0.01767133 0.017023345 0.01632247 0.015579427 0.014805152 0.01401074
        0.013207456 0.012406743 0.011620138 0.010858995 0.0101339305 0.009453886
        0.008824854 0.00824854 0.0077215717 0.0072360514 0.006781711 0.006349016
        0.005931757 0.0055279047 0.005138694 0.004767064 0.0044161617 0.0040760995
        0.019935938 0.019843185 0.019699328 0.019455258 0.019115556 0.018686505
        0.01817584 0.01759246 0.016946122 0.016247157 0.015506253 0.014734314
        0.013942418 0.013141817 0.012343931 0.011560239 0.010802024 0.010079857
        0.009402774 0.008777116 0.008205198 0.0076843305 0.007206977 0.006762552
        0.0063404967 0.005933256 0.005537697 0.005154554 0.004786875 0.0044383006
        0.0040999027 0.019855894 0.019762464 0.019618109 0.019373912 0.019034479
        0.018606095 0.018096484 0.017514525 0.016869936 0.016173009 0.01543439
        0.014664952 0.0138757415 0.013077979 0.012283027 0.011502282 0.01074691
        0.010027393 0.009352809 0.008729803 0.008161309 0.007645422 0.0071751694
        0.0067398883 0.006328143 0.005931012 0.005544096 0.005167436 0.0048040687
        0.0044580926 0.004121583 0.019776575 0.01968246 0.0195376 0.01929329
        0.018954149 0.018526468 0.01801797 0.017437503 0.016794758 0.016099984
        0.015363787 0.014597001 0.013810631 0.013015846 0.012223933 0.011446171
        0.010693582 0.009976513 0.009304035 0.008683047 0.008117082 0.0076050838
        0.0071408325 0.0067138365 0.0063119754 0.0059249825 0.0055470476 0.005177313
        0.004818659 0.004475589 0.004141228 0.019697972 0.01960316 0.019457795
        0.01921338 0.018874554 0.018447615 0.01794028 0.017361375 0.01672056
        0.016028047 0.015294397 0.014530399 0.01374701 0.01295533 0.012166552
        0.011391817 0.010641968 0.009927188 0.009256491 0.008636968 0.008072712
        0.007563555 0.0071041817 0.0066845287 0.006292022 0.0059151202 0.0055464827
        0.0051841415 0.0048306445 0.0044908305 0.0041589136 0.019620078 0.019524558
        0.019378684 0.019134175 0.018795684 0.018369522 0.017863397 0.017286118
        0.016647315 0.015957158 0.0152261695 0.014465085 0.013684805 0.012896348
        0.012110795 0.011339129 0.010591999 0.009879388 0.0092102075 0.008591677
        0.008028395 0.007521078 0.007065448 0.0066521154 0.0062683197 0.005901375
        0.0055423216 0.0051878626 0.004840012 0.0045038452 0.004174706 0.01954288
        0.019446645 0.019300262 0.019055663 0.01871753 0.018292176 0.017787304
        0.017211711 0.016574992 0.015887283 0.0151590565 0.014401001 0.013623944
        0.012838818 0.012056575 0.011288027 0.010543607 0.009833079 0.009165205
        0.008547273 0.007984311 0.0074778977 0.007024876 0.006616767 0.006240921
        0.0058836937 0.005534468 0.0051883976 0.0048467293 0.004514649 0.0041886615
        0.019466374 0.019369412 0.019222515 0.018977838 0.018640077 0.01821556
        0.017711984 0.01713813 0.016503561 0.01581838 0.015093014 0.014338087
        0.01356436 0.012782662 0.012003808 0.011238428 0.010496725 0.009788223
        0.0091215 0.008503847 0.007940638 0.007434259 0.0069827256 0.006578679
        0.0062098973 0.005862027 0.0055228113 0.005185646 0.0048507457 0.0045232433
        0.004200828 0.019390548 0.01929285 0.019145437 0.018900685 0.018563313
        0.01813966 0.017637419 0.01706535 0.016432997 0.015750417 0.015027992
        0.01427629 0.013505987 0.012727806 0.011952417 0.011190254 0.010451287
        0.009744781 0.0090791 0.008461474 0.00789754 0.007390408 0.0069392724
        0.006538073 0.006175342 0.0058363294 0.0055072256 0.005179484 0.0048519894
        0.0045296145 0.0042112432 0.019315396 0.019216951 0.019069014 0.018824195
        0.018487228 0.018064462 0.017563587 0.01699335 0.016363265 0.015683353
        0.014963949 0.014215553 0.01344876 0.012674178 0.011902323 0.01114343
        0.010407226 0.009702709 0.009038001 0.0084202215 0.007855171 0.0073465854
        0.006894805 0.0064951996 0.0061373794 0.0058065667 0.0054875715 0.0051697604
        0.004850363 0.004533731 0.0042199376 0.019240905 0.019141706 0.018993242
        0.018748356 0.018411806 0.017989947 0.017490469 0.016922101 0.016294336
        0.015617154 0.014900837 0.014155823 0.013392617 0.012621707 0.01185345
        0.011097879 0.010364475 0.00966196 0.008998198 0.008380142 0.007813672
        0.007303029 0.0068496256 0.0064503425 0.006096169 0.005772722 0.005463698
        0.0051562926 0.0048457384 0.004535542 0.0042269295 0.019167071 0.019067103
        0.018918104 0.018673155 0.018337032 0.017916096 0.017418042 0.016851582
        0.016226176 0.015551777 0.01483861 0.014097045 0.013337494 0.012570323
        0.011805725 0.011053529 0.010322966 0.009622485 0.008959672 0.008341275
        0.0077731647 0.007259965 0.0068040453 0.006403816 0.006051913 0.005734803
        0.0054354444 0.0051388657 0.004837952 0.0045349705 0.0042322283 0.019093882
        0.018993134 0.018843595 0.01859858 0.018262887 0.017842893 0.017346282
        0.016781757 0.016158756 0.015487183 0.01477722 0.014039163 0.013283329
        0.0125199575 0.011759074 0.011010303 0.010282631 0.0095842285 0.008922398
        0.008303647 0.0077337595 0.007217609 0.0067583797 0.0063559683 0.0060048634
        0.0056928555 0.005402648 0.0051172273 0.0048267967 0.004531912 0.00423583
        0.019021334 0.018919788 0.018769694 0.018524611 0.018189354 0.01777031
        0.017275162 0.0167126 0.016092032 0.01542333 0.014716617 0.013982119
        0.0132300565 0.012470538 0.011713423 0.010968128 0.010243398 0.009547132
        0.008886342 0.0082672695 0.0076955436 0.007176159 0.006712945 0.0063071777
        0.0059553273 0.005646971 0.0053651514 0.005091085 0.0048120134 0.0045262245
        0.004237717 0.018949417 0.018847056 0.018696394 0.018451234 0.018116413
        0.017698323 0.017204653 0.016644074 0.016025968 0.015360168 0.014656746
        0.013925853 0.01317761 0.012421992 0.011668691 0.010926923 0.010205192
        0.009511128 0.008851457 0.008232137 0.007658583 0.0071357912 0.006668051
        0.006257849 0.0059036734 0.0055973064 0.005322815 0.0050601074 0.0047932793
        0.0045177187 0.0042378535 0.018878123 0.018774923 0.018623674 0.018378425
        0.018044032 0.017626902 0.017134717 0.016576134 0.015960513 0.015297645
        0.014597547 0.013870297 0.013125913 0.012374238 0.011624798 0.010886603
        0.0101679275 0.009476143 0.008817688 0.008198228 0.0076229204 0.0070966543
        0.00662399 0.006208404 0.005850333 0.0055440953 0.005275533 0.005023923
        0.004770196 0.004506146 0.004236177 0.018807443 0.018703377 0.018551515
        0.018306158 0.017972184 0.017556008 0.017065307 0.016508732 0.015895609
        0.015235695 0.014538949 0.013815373 0.013074883 0.01232719 0.01158165
        0.010847076 0.0101315165 0.00944209 0.008784962 0.008165499 0.0075885705
        0.007058865 0.0065810313 0.0061592753 0.005795799 0.005487667 0.0052232565
        0.004982126 0.0047422703 0.0044911793 0.004232594 0.01873737 0.018632399
        0.018479893 0.018234404 0.017900828 0.01748559 0.01699637 0.016441802
        0.015831187 0.015174242 0.014480867 0.01376099 0.013024424 0.012280744
        0.011539141 0.010808233 0.01009585 0.009408869 0.008753189 0.008133884
        0.007555515 0.0070224996 0.0065394063 0.0061108866 0.0057406235 0.005428461
        0.0051660244 0.0049342914 0.0047088987 0.0044723875 0.0042269565 0.018667901
        0.018561974 0.018408777 0.018163117 0.017829908 0.017415589 0.016927833
        0.016375264 0.015767157 0.015113185 0.014423195 0.013707035 0.012974415
        0.012234775 0.011497144 0.0107699465 0.010060801 0.009376355 0.008722254
        0.008103287 0.0075237 0.006987588 0.0064992956 0.0060636387 0.005685399
        0.0053670406 0.005103998 0.0048799952 0.0046693482 0.004449199 0.004219039
        0.018599022 0.018492078 0.018338129 0.018092243 0.017759355 0.017345915
        0.016859598 0.01630901 0.015703399 0.015052398 0.014365796 0.013653365
        0.012924707 0.01218913 0.011455501 0.010732058 0.010026214 0.009344395
        0.00869201 0.008073578 0.007493028 0.006954104 0.0064608175 0.006017882
        0.005630741 0.005304099 0.0050375066 0.004818854 0.0046227346 0.0044208514
        0.004208487 0.018530734 0.01842268 0.018267898 0.018021708 0.017689077
        0.017276462 0.016791537 0.016242893 0.015639756 0.014991712 0.0143084945
        0.013599793 0.012875108 0.012143614 0.011414016 0.010694368 0.009991888
        0.009312794 0.008662268 0.008044576 0.0074633467 0.0069219563 0.006424009
        0.005973893 0.0055772522 0.00524045 0.0049670986 0.0047505884 0.004568017
        0.0043863244 0.004194738 0.018463025 0.018353743 0.018198011 0.017951418
        0.017618949 0.017207077 0.016723478 0.016176729 0.015576022 0.014930907
        0.014251056 0.013546079 0.012825371 0.012097972 0.01137243 0.01065662
        0.009957569 0.009281298 0.008632782 0.008016048 0.0074344403 0.0068909773
        0.0063888133 0.005931846 0.005525483 0.005177008 0.004893591 0.0046751196
        0.0045040045 0.0043442403 0.004176874 0.018395891 0.018285222 0.018128388
        0.017881244 0.017548807 0.017137567 0.016655197 0.016110262 0.015511925
        0.014869695 0.01419318 0.01349191 0.0127751725 0.012051879 0.011330416
        0.010618487 0.009922933 0.009249589 0.008603237 0.0079876855 0.0074060177
        0.006860911 0.0063550635 0.005891781 0.0054758755 0.005114739 0.0048181107
        0.004592707 0.0044294074 0.0042927414 0.004153379 0.018329332 0.018217057
        0.018058911 0.017811025 0.017478447 0.017067682 0.01658641 0.016043179
        0.015447125 0.01480771 0.014134483 0.01343689 0.012724113 0.012004927
        0.011287566 0.010579561 0.009887574 0.009217266 0.008573236 0.007959101
        0.0073777037 0.006831408 0.006322477 0.005853588 0.0054287147 0.005054587
        0.0047421125 0.0045041423 0.0043429723 0.004229323 0.0041217045 0.01826334
        0.01814918 0.017989455 0.017740574 0.017407622 0.016997129 0.016516777
        0.0159751 0.015381212 0.014744521 0.014074515 0.013380554 0.012671712
        0.011956632 0.011243394 0.010539357 0.009851012 0.009183854 0.008542314
        0.0079298355 0.0073490464 0.006802034 0.0062906635 0.005817006 0.0053840866
        0.004997382 0.0046673506 0.004410997 0.0042437683 0.004150643 0.0040775198
        0.018197915 0.018081523 0.017919883 0.017669693 0.017336082 0.016925605
        0.016445952 0.015905647 0.015313769 0.014679682 0.014012808 0.0133224195
        0.012617479 0.011906497 0.011197398 0.010497375 0.009812753 0.009148863
        0.008509987 0.007899408 0.0073195724 0.006772323 0.0062591787 0.005781668
        0.00534189 0.004943753 0.0045957845 0.0043159123 0.0041317553 0.0040523363
        0.004013386 0.018133055 0.018014047 0.017850116 0.017598266 0.017263675
        0.016852926 0.016373724 0.015834577 0.015244539 0.0146129215 0.013949077
        0.013262187 0.012561107 0.011854209 0.011149264 0.0104533 0.009772479
        0.009111976 0.008475937 0.007867502 0.0072889593 0.0067419466 0.0062276903
        0.005747264 0.0053019617 0.0048941313 0.004529433 0.0042228675 0.0040088473
        0.003928941 0.0039164233 0.01806876 0.017946819 0.017780295 0.017526496
        0.01719066 0.016779406 0.016300445 0.015762283 0.015173936 0.0145446705
        0.013883765 0.013200311 0.012503048 0.011800217 0.0110994335 0.010407564
        0.00973061 0.009073602 0.008440553 0.007834483 0.007257543 0.0067112036
        0.006196454 0.005714004 0.0052645165 0.0048490483 0.00447032 0.004137349
        0.0038808603 0.003774257 0.0037641886 0.018005027 0.017880268 0.017711267
        0.01745563 0.01711865 0.016706975 0.01622833 0.015691208 0.0151045965
        0.014477708 0.013819754 0.013139738 0.012446289 0.011747517 0.011050889
        0.010363118 0.009690048 0.009036576 0.008406594 0.007803017 0.0072278865
        0.0066825366 0.0061677718 0.0056840265 0.005231507 0.004810371 0.0044211377
        0.004066452 0.0037611567 0.0035830354 0.0035175045 0.017941838 0.017814517
        0.01764328 0.017386038 0.017048122 0.016636215 0.016158042 0.01562209
        0.01503731 0.01441287 0.013757911 0.013081352 0.012391718 0.011696993
        0.011004507 0.010320818 0.009651633 0.009001714 0.00837485 0.0077738636
        0.0072007086 0.0066566127 0.0061422396 0.0056578247 0.005203265 0.004778169
        0.004381854 0.004013195 0.0036706359 0.0033579394 0.0031083869
      </DataArray>
    </PointData>
    <CellData>
    </CellData>
    <Points>
      <DataArray type="Float32" Name="Points" NumberOfComponents="3" format="ascii" RangeMin="0.7725564497878942" RangeMax="0.8957099382750421">
        0.47601324 -0.0014802018 0.6084839 0.4858008 -0.0014813414 0.6089524
        0.49554646 -0.0014824317 0.6094006 0.50520056 -0.0014834676 0.60982645
        0.5147155 -0.0014844453 0.61022836 0.5240462 -0.0014853613 0.6106049
        0.5331512 -0.0014862133 0.6109552 0.5419936 -0.001487 0.61127853
        0.5505409 -0.0014877209 0.6115749 0.5587658 -0.0014883762 0.6118443
        0.5666463 -0.0014889674 0.61208737 0.57416534 -0.0014894966 0.61230487
        0.5813112 -0.0014899663 0.6124979 0.5880769 -0.0014903797 0.6126679
        0.59445983 -0.0014907407 0.6128163 0.6004615 -0.0014910529 0.61294466
        0.6060868 -0.0014913208 0.61305475 0.61134374 -0.0014915483 0.6131483
        0.6162429 -0.0014917398 0.613227 0.62079686 -0.0014918991 0.6132925
        0.62501985 -0.0014920305 0.61334646 0.62892723 -0.0014921371 0.6133903
        0.63253516 -0.0014922225 0.61342543 0.6358603 -0.0014922898 0.61345315
        0.6389195 -0.001492342 0.61347455 0.6417294 -0.0014923812 0.6134907
        0.6443067 -0.0014924097 0.6135024 0.64666736 -0.0014924291 0.6135104
        0.6488269 -0.0014924412 0.6135153 0.6508003 -0.0014924475 0.6135179
        0.65260166 -0.0014924493 0.61351866 0.47601324 -0.0008217493 0.6084852
        0.48575887 -0.0008217343 0.6089517 0.49546254 -0.00082168035 0.60939807
        0.50507474 -0.000821596 0.6098223 0.5145477 -0.00082149374 0.6102227
        0.5238367 -0.00082138437 0.6105979 0.5329003 -0.00082127505 0.610947
        0.5417014 -0.00082116807 0.6112694 0.5502075 -0.00082106167 0.6115649
        0.5583913 -0.00082095235 0.61183363 0.5662304 -0.0008208402 0.61207616
        0.57370794 -0.0008207351 0.6122933 0.58081186 -0.00082066463 0.6124862
        0.5875352 -0.00082067796 0.61265606 0.59387577 -0.00082084327 0.6128045
        0.5998355 -0.00082123413 0.61293304 0.60542065 -0.0008219052 0.6130435
        0.61064076 -0.00082286686 0.6131376 0.6155084 -0.0008240719 0.613217
        0.6200378 -0.00082542415 0.6132834 0.62424445 -0.0008268041 0.61333835
        0.62814397 -0.0008280989 0.6133833 0.63175195 -0.00082922075 0.61341953
        0.63508373 -0.00083011284 0.6134483 0.6381547 -0.00083074457 0.61347085
        0.64098024 -0.00083110266 0.61348796 0.6435761 -0.00083118235 0.61350065
        0.64595747 -0.0008309798 0.61350954 0.6481396 -0.00083048764 0.61351526
        0.6501372 -0.0008296907 0.6135185 0.65196437 -0.00082854845 0.61351985
        0.47601324 -0.00016329587 0.6084857 0.48571736 -0.0001621414 0.60895026
        0.49537945 -0.00016096028 0.60939485 0.50495005 -0.00015977403 0.60981745
        0.5143817 -0.00015861056 0.6102163 0.5236295 -0.00015749446 0.6105902
        0.53265214 -0.00015644192 0.6109382 0.54141253 -0.00015545881 0.6112596
        0.5498782 -0.00015454214 0.61155427 0.55802166 -0.00015368506 0.61182237
        0.5658205 -0.00015288593 0.61206436 0.5732577 -0.00015216107 0.61228114
        0.5803211 -0.0001515584 0.6124738 0.5870037 -0.00015116617 0.6126436
        0.5933036 -0.00015110835 0.6127921 0.5992234 -0.00015151949 0.6129208
        0.60477006 -0.000152501 0.6130317 0.6099547 -0.00015407408 0.6131263
        0.6147914 -0.00015615419 0.6132063 0.619296 -0.0001585639 0.61327356
        0.6234853 -0.00016107864 0.6133294 0.62737536 -0.00016348028 0.6133754
        0.63098145 -0.00016559391 0.61341274 0.63431793 -0.00016730026 0.61344266
        0.637399 -0.00016852935 0.61346614 0.64023876 -0.00016924611 0.6134843
        0.6428517 -0.00016943447 0.6134979 0.6452525 -0.0001690844 0.6135077
        0.6474558 -0.0001681833 0.6135142 0.649476 -0.0001667153 0.6135181
        0.6513271 -0.0001646469 0.61352 0.47601324 0.0004951578 0.6084855
        0.48567623 0.0004974339 0.6089482 0.49529713 0.0004997226 0.609391
        0.50482666 0.00050199 0.6098119 0.5142174 0.0005041936 0.61020935
        0.52342445 0.00050629576 0.61058193 0.5324067 0.0005082719 0.6109288
        0.541127 0.0005101123 0.6112492 0.549553 0.00051182107 0.61154306
        0.55765694 0.00051340816 0.6118105 0.56541646 0.00051487715 0.612052
        0.5728144 0.0005162071 0.61226845 0.5798386 0.00051733316 0.61246085
        0.58648205 0.0005181343 0.6126306 0.592743 0.000518439 0.61277914
        0.5986245 0.00051805924 0.6129081 0.60413444 0.0005168509 0.6130193
        0.6092849 0.0005147785 0.61311436 0.6140912 0.00051195244 0.61319506
        0.618571 0.00050861476 0.613263 0.622742 0.0005050784 0.6133198
        0.62662107 0.00050165434 0.6133668 0.63022345 0.0004985993 0.61340517
        0.63356286 0.0004960957 0.6134361 0.6366523 0.00049425714 0.61346066
        0.6395047 0.00049314596 0.6134798 0.64213336 0.0004927937 0.61349434
        0.64455223 0.0004932183 0.61350495 0.64677525 0.0004944349 0.6135123
        0.6488165 0.0004964485 0.6135169 0.6506897 0.0004992541 0.6135194
        0.47601324 0.0011536109 0.6084847 0.4856355 0.0011569883 0.60894537
        0.49521562 0.0011603627 0.6093864 0.5047045 0.0011636887 0.6098057
        0.51405466 0.0011669095 0.6102017 0.52322155 0.0011699755 0.610573
        0.532164 0.001172854 0.6109187 0.54084486 0.0011755318 0.6112382
        0.5492317 0.0011780134 0.61153126 0.55729693 0.001180312 0.61179805
        0.5650181 0.0011824333 0.6120391 0.57237786 0.0011843531 0.61225516
        0.5793641 0.0011859928 0.6124474 0.58596987 0.0011872045 0.612617
        0.5921935 0.0011877761 0.6127656 0.5980384 0.0011874737 0.61289483
        0.60351306 0.0011861137 0.6130063 0.6086305 0.0011836444 0.61310184
        0.61340725 0.0011801927 0.61318314 0.6178621 0.0011760505 0.61325186
        0.62201405 0.0011716038 0.61330944 0.6258808 0.0011672442 0.61335737
        0.62947774 0.0011633034 0.61339676 0.6328182 0.0011600257 0.6134287
        0.6359142 0.0011575713 0.6134543 0.6387777 0.0011560345 0.61347437
        0.6414207 0.0011554664 0.6134898 0.64385635 0.0011558952 0.6135013
        0.6460978 0.0011573368 0.6135094 0.6481586 0.0011597774 0.6135147
        0.6500524 0.0011631531 0.6135179 0.47601324 0.0018120626 0.6084831
        0.48559514 0.001816519 0.60894185 0.49513492 0.0018209554 0.60938114
        0.5045835 0.0018253152 0.60979885 0.51389366 0.0018295286 0.61019343
        0.5230208 0.001833535 0.61056346 0.5319239 0.0018372935 0.61090803
        0.5405659 0.0018407874 0.6112265 0.5489144 0.0018440217 0.6115188
        0.5569417 0.0018470128 0.61178493 0.5646253 0.0018497683 0.6120255
        0.571948 0.0018522621 0.6122412 0.5788974 0.0018544053 0.61243325
        0.5854668 0.0018560272 0.6126029 0.59165454 0.0018568825 0.61275154
        0.5974644 0.0018566975 0.61288095 0.60290533 0.0018552537 0.6129927
        0.607991 0.001852481 0.61308867 0.6127389 0.0018485155 0.61317056
        0.6171689 0.0018436863 0.61323994 0.6213012 0.0018384383 0.6132984
        0.62515426 0.0018332319 0.6133472 0.6287441 0.0018284655 0.61338747
        0.63208383 0.0018244429 0.6134204 0.63518476 0.0018213724 0.613447
        0.63805765 0.0018193838 0.613468 0.64071363 0.0018185519 0.6134844
        0.6431646 0.0018189175 0.61349666 0.64542305 0.0018204972 0.6135056
        0.6475021 0.0018232533 0.6135116 0.64941514 0.0018270488 0.6135154
        0.47601324 0.002470512 0.60848075 0.48555517 0.0024760233 0.6089376
        0.49505496 0.0024814962 0.6093752 0.5044637 0.0024868636 0.60979134
        0.5137342 0.002492044 0.61018443 0.52282214 0.0024969655 0.6105532
        0.5316864 0.00250158 0.61089665 0.5402901 0.002505868 0.6112142
        0.54860085 0.0025098342 0.61150575 0.556591 0.002513498 0.6117712
        0.564238 0.0025168692 0.6120113 0.5715245 0.0025199207 0.6122267
        0.57843834 0.002522556 0.6124186 0.5849726 0.0025245866 0.61258817
        0.5911259 0.0025257396 0.6127369 0.59690213 0.0025257075 0.61286646
        0.60231066 0.0025242404 0.6129786 0.60736567 0.0025212497 0.61307496
        0.6120855 0.002516874 0.6131574 0.61649084 0.0025114692 0.6132274
        0.6206029 0.0025055266 0.6132866 0.6244412 0.0024995627 0.6133362
        0.6280224 0.002494035 0.61337745 0.6313596 0.0024893028 0.61341137
        0.63446367 0.0024856215 0.61343884 0.63734436 0.00248316 0.61346084
        0.6400118 0.0024820208 0.613478 0.6424768 0.0024822596 0.6134912
        0.644751 0.002483895 0.61350083 0.64684707 0.0024868615 0.6135076
        0.64877784 0.0024909396 0.613512 0.47601324 0.0031289586 0.6084777
        0.48551556 0.0031354984 0.6089328 0.49497578 0.0031419802 0.60936856
        0.50434506 0.0031483278 0.6097831 0.51357645 0.0031544475 0.61017483
        0.5226255 0.003160258 0.61054236 0.5314515 0.0031657044 0.6108847
        0.5400175 0.0031707636 0.61120135 0.5482911 0.0031754407 0.61149204
        0.55624473 0.0031797567 0.6117569 0.56385595 0.0031837244 0.61199653
        0.57110727 0.003187317 0.6122117 0.57798654 0.0031904324 0.6124033
        0.5844869 0.0031928685 0.6125728 0.5906071 0.0031943298 0.6127216
        0.5963511 0.0031944816 0.6128514 0.60172856 0.0031930455 0.6129638
        0.6067541 0.0031899146 0.61306065 0.61144656 0.003185225 0.61314356
        0.61582744 0.0031793497 0.61321425 0.6199188 0.0031728155 0.6132741
        0.6237414 0.0031661845 0.61332446 0.62731236 0.0031599635 0.6133666
        0.63064533 0.0031545616 0.6134014 0.6337508 0.0031502815 0.61342984
        0.63663775 0.0031473315 0.6134527 0.6393151 0.003145846 0.61347073
        0.6417928 0.0031458992 0.61348474 0.64408153 0.003147512 0.61349523
        0.6461932 0.00315059 0.6135027 0.64814055 0.0031548243 0.6135077
        0.47601324 0.003787402 0.60847396 0.48547634 0.0037949418 0.60892713
        0.49489737 0.0038024045 0.60936123 0.5042276 0.0038097033 0.6097743
        0.51342016 0.003816734 0.6101646 0.52243096 0.0038234065 0.6105308
        0.5312191 0.003829659 0.6108721 0.53974795 0.003835465 0.6111878
        0.547985 0.0038408302 0.61147773 0.5559029 0.0038457778 0.611742
        0.56347907 0.003850323 0.6119812 0.57069606 0.0038544398 0.61219597
        0.5775418 0.0038580226 0.6123875 0.5840095 0.003860859 0.61255693
        0.5900978 0.0038626376 0.6127058 0.5958109 0.0038629994 0.61283576
        0.60115856 0.0038616434 0.6129485 0.6061557 0.0038584422 0.6130457
        0.61082155 0.0038535274 0.61312914 0.6151782 0.0038472821 0.61320037
        0.61924875 0.0038402562 0.61326087 0.62305456 0.0038330478 0.613312
        0.626614 0.0038262047 0.613355 0.62994105 0.0038201783 0.6133906
        0.63304615 0.003815316 0.61341995 0.63593763 0.0038118681 0.6134437
        0.63862354 0.0038100015 0.6134626 0.64111245 0.0038098139 0.6134774
        0.64341444 0.0038113303 0.6134887 0.6455406 0.0038144267 0.61349684
        0.64750326 0.0038187015 0.61350244 0.47601324 0.0044458406 0.6084695
        0.48543748 0.004454352 0.6089209 0.49481967 0.004462765 0.60935324
        0.50411123 0.004470985 0.60976475 0.5132655 0.004478897 0.6101536
        0.52223843 0.004486403 0.61051863 0.5309893 0.0044934354 0.61085886
        0.5394814 0.004499964 0.6111736 0.5476826 0.0045059943 0.6114628
        0.55556536 0.0045115515 0.6117265 0.56310725 0.0045166546 0.61196524
        0.57029086 0.004521278 0.6121797 0.57710403 0.004525315 0.612371
        0.5835401 0.0045285462 0.6125404 0.58959764 0.004530648 0.6126894
        0.59528106 0.0045312424 0.61281955 0.6006001 0.004530009 0.61293256
        0.60556996 0.004526802 0.6130302 0.61021 0.004521744 0.61311406
        0.61454284 0.0045152213 0.6131858 0.61859214 0.004507801 0.613247
        0.6223805 0.004500105 0.61329883 0.62592703 0.0044927127 0.6133425
        0.62924653 0.004486112 0.61337906 0.63234955 0.0044806907 0.6134092
        0.63524395 0.00447674 0.61343384 0.6379368 0.0044744643 0.6134536
        0.6404357 0.004473985 0.6134692 0.64274967 0.004475336 0.61348116
        0.6448891 0.0044783633 0.61349005 0.64686596 0.0044825696 0.61349636
        0.47601324 0.0051042736 0.60846436 0.485399 0.0051137265 0.60891384
        0.49474272 0.005123059 0.6093446 0.5039961 0.0051321676 0.60975456
        0.51311237 0.005140932 0.61014205 0.5220478 0.005149242 0.6105058
        0.53076184 0.0051570255 0.61084497 0.5392179 0.0051642517 0.61115885
        0.5473837 0.005170924 0.6114473 0.55523205 0.00517707 0.61171037
        0.5627403 0.0051827095 0.6119486 0.56989133 0.0051878216 0.6121628
        0.5766729 0.0051922984 0.612354 0.5830783 0.0051959185 0.6125233
        0.5891063 0.0051983465 0.6126724 0.5947612 0.005199194 0.61280274
        0.6000529 0.0051981197 0.61291605 0.6049964 0.005194965 0.61301404
        0.6096114 0.0051898393 0.6130983 0.6139208 0.0051831277 0.6131707
        0.61794883 0.0051754047 0.61323243 0.621719 0.00516731 0.61328495
        0.6252515 0.0051594432 0.61332935 0.6285618 0.005152323 0.61336666
        0.631661 0.0051463707 0.61339766 0.6345566 0.00514192 0.6134231
        0.63725483 0.0051392103 0.6134437 0.6397624 0.005138394 0.61346
        0.6420871 0.005139515 0.61347276 0.64423877 0.0051423907 0.6134824
        0.6462287 0.0051464266 0.61348933 0.47601324 0.0057627014 0.60845846
        0.48536086 0.005773062 0.6089062 0.4946665 0.005783282 0.60933524
        0.50388193 0.0057932492 0.60974365 0.5129608 0.005802831 0.6101298
        0.5218592 0.0058119157 0.6104924 0.53053683 0.005820424 0.6108304
        0.53895724 0.005828321 0.6111434 0.5470883 0.0058356104 0.6114311
        0.5549028 0.0058423225 0.6116936 0.5623783 0.00584848 0.61193144
        0.56949747 0.0058540613 0.61214536 0.57624835 0.005858964 0.61233634
        0.58262414 0.0058629634 0.6125057 0.5886236 0.0058657206 0.6126548
        0.59425104 0.0058668354 0.61278534 0.59951633 0.005865955 0.61289895
        0.60443455 0.0058629042 0.61299723 0.6090253 0.0058577806 0.613082
        0.6133117 0.0058509624 0.6131548 0.6173185 0.005843025 0.6132171
        0.62106985 0.0058346177 0.6132703 0.6245871 0.0058263545 0.6133154
        0.6278868 0.005818772 0.61335343 0.63098043 0.0058123237 0.61338526
        0.63387555 0.0058073783 0.6134115 0.6365777 0.005804217 0.6134329
        0.63909245 0.005803023 0.61345 0.64142674 0.0058038533 0.61346346
        0.64358944 0.0058065006 0.6134738 0.64559144 0.005810273 0.61348134
        0.47601324 0.0064211222 0.6084519 0.4853231 0.0064323586 0.6088978
        0.494591 0.006443431 0.60932523 0.5037689 0.0064542224 0.6097321
        0.51281065 0.0064645917 0.6101169 0.5216725 0.00647442 0.6104783
        0.53031427 0.0064836233 0.6108153 0.5386995 0.0064921645 0.6111274
        0.5467964 0.006500048 0.6114143 0.55457765 0.0065073026 0.6116763
        0.5620209 0.006513955 0.6119137 0.5691091 0.006519989 0.61212724
        0.57583004 0.0065253014 0.6123181 0.5821771 0.0065296707 0.61248744
        0.5881491 0.0065327566 0.6126366 0.5937501 0.006534152 0.61276734
        0.59899014 0.006533494 0.6128812 0.60388404 0.006530595 0.6129799
        0.60845137 0.006525536 0.61306506 0.61271524 0.0065186876 0.6131383
        0.61670077 0.006510622 0.61320114 0.62043285 0.0065019866 0.6132549
        0.62393385 0.0064934036 0.6133007 0.62722147 0.006485421 0.6133394
        0.63030785 0.0064785155 0.61337197 0.6332008 0.00647309 0.613399
        0.63590527 0.0064694635 0.6134212 0.6384258 0.006467855 0.6134391
        0.64076847 0.0064683403 0.61345327 0.64294106 0.0064706863 0.61346424
        0.64495414 0.0064741056 0.6134725 0.47601324 0.007079535 0.6084446
        0.48528567 0.007091613 0.6088887 0.49451622 0.0071035046 0.6093145
        0.50365704 0.007115085 0.6097199 0.512662 0.0071262084 0.61010337
        0.5214877 0.007136748 0.6104635 0.53009397 0.007146617 0.6107995
        0.5384446 0.0071557756 0.6111107 0.5465078 0.007164227 0.6113969
        0.5542564 0.0071720015 0.61165833 0.56166816 0.0071791285 0.61189526
        0.568726 0.007185595 0.6121086 0.5754179 0.0071913023 0.61229926
        0.58173716 0.007196031 0.61246854 0.5876825 0.007199443 0.6126179
        0.5932582 0.0072011296 0.6127488 0.5984739 0.00720072 0.6128629
        0.6033444 0.0071980115 0.6129619 0.60788906 0.0071930764 0.6130475
        0.612131 0.007186269 0.6131212 0.6160954 0.0071781534 0.6131846
        0.6198079 0.007169374 0.6132389 0.62329173 0.0071605486 0.61328524
        0.6265658 0.0071522323 0.61332464 0.6296433 0.0071449145 0.6133579
        0.6325323 0.0071390267 0.6133857 0.63523746 0.0071349284 0.6134086
        0.6377625 0.007132875 0.6134273 0.6401122 0.0071329637 0.6134422
        0.6422937 0.00713494 0.6134538 0.64431685 0.0071379235 0.6134627
        0.47601324 0.00773794 0.6084365 0.48524857 0.007750824 0.60887897
        0.49444214 0.0077634994 0.60930306 0.5035462 0.0077758343 0.609707
        0.5125148 0.0077876765 0.61008906 0.5213047 0.0077988952 0.6104481
        0.529876 0.0078093996 0.61078304 0.53819245 0.007819147 0.6110934
        0.5462225 0.00782814 0.6113789 0.553939 0.007836412 0.6116397
        0.56131995 0.007843991 0.6118763 0.5683481 0.0078508705 0.61208934
        0.57501173 0.007856956 0.61227983 0.58130395 0.007862033 0.6124491
        0.58722365 0.007865769 0.6125985 0.5927749 0.0078677535 0.61272955
        0.59796727 0.007867612 0.612844 0.6028153 0.007865133 0.6129433
        0.6073381 0.007860373 0.61302924 0.6115586 0.007853673 0.61310345
        0.6155022 0.007845583 0.6131673 0.61919475 0.007836739 0.61322206
        0.62266064 0.00782775 0.61326903 0.6259199 0.007819167 0.6133091
        0.62898684 0.0078114863 0.61334306 0.63187015 0.0078051626 0.61337155
        0.63457435 0.0078005907 0.6133952 0.63710237 0.0077980664 0.6134145
        0.63945794 0.0077977115 0.61343014 0.6416473 0.007799256 0.6134425
        0.64367956 0.0078017255 0.613452 0.47601324 0.008396336 0.6084278
        0.48521182 0.00840999 0.6088685 0.4943687 0.008423411 0.609291
        0.5034364 0.008436464 0.60969347 0.51236904 0.008448991 0.6100742
        0.52112365 0.008460856 0.610432 0.5296603 0.008471964 0.61076593
        0.53794307 0.008482273 0.61107546 0.5459404 0.0084917825 0.61136025
        0.5536254 0.008500525 0.6116205 0.5609761 0.008508536 0.61185664
        0.56797534 0.008515809 0.6120694 0.5746113 0.008522255 0.6122598
        0.5808774 0.008527669 0.6124291 0.58677226 0.008531722 0.6125785
        0.5923 0.00853401 0.6127098 0.59746987 0.008534155 0.61282444
        0.6022963 0.008531937 0.6129241 0.60679805 0.008527399 0.61301047
        0.61099774 0.008520867 0.61308503 0.61492074 0.008512874 0.6131493
        0.6185933 0.008504042 0.6132046 0.6220405 0.008494967 0.6132521
        0.6252837 0.008486187 0.6132927 0.6283385 0.008478198 0.6133273
        0.63121444 0.00847147 0.61335653 0.63391596 0.00846643 0.6133809
        0.63644546 0.008463413 0.61340094 0.6388057 0.008462573 0.61341727
        0.64100176 0.008463629 0.61343026 0.6430423 0.00846551 0.61344045
        0.47601324 0.009054721 0.60841835 0.4851754 0.0090691075 0.6088573
        0.49429598 0.009083238 0.6092782 0.5033276 0.009096973 0.6096792
        0.51222473 0.009110147 0.61005867 0.52094436 0.009122625 0.61041534
        0.5294468 0.009134306 0.61074823 0.53769636 0.009145145 0.61105686
        0.54566157 0.009155144 0.611341 0.5533156 0.009164335 0.6116007
        0.5606365 0.009172753 0.61183643 0.56760746 0.0091804 0.6120489
        0.57421654 0.009187191 0.6122392 0.5804572 0.009192929 0.6124084
        0.5863281 0.009197292 0.61255795 0.5918331 0.009199885 0.61268944
        0.59698147 0.009200332 0.6128043 0.6017871 0.009198403 0.6129043
        0.6062685 0.00919413 0.612991 0.61044806 0.00918782 0.61306596
        0.61435086 0.009179991 0.6131307 0.6180033 0.009171244 0.6131865
        0.6214313 0.009162159 0.61323446 0.62465733 0.009153255 0.61327565
        0.6276984 0.009145018 0.6133108 0.6305651 0.009137922 0.6133407
        0.63326234 0.009132425 0.6133657 0.63579184 0.009128902 0.6133865
        0.6381554 0.0091275405 0.6134035 0.64035714 0.009128049 0.61341715
        0.64240503 0.009129276 0.61342794 0.47601324 0.009713097 0.6084082
        0.48513934 0.009728176 0.6088454 0.49422392 0.009742978 0.60926473
        0.50321984 0.009757355 0.6096643 0.5120818 0.009771143 0.61004245
        0.52076685 0.009784198 0.610398 0.52923554 0.009796419 0.6107299
        0.5374523 0.00980776 0.6110377 0.5453858 0.0098182205 0.6113211
        0.55300933 0.009827835 0.61158025 0.5603011 0.009836638 0.6118156
        0.5672444 0.0098446375 0.6120278 0.57382727 0.009851754 0.61221796
        0.58004326 0.009857802 0.6123872 0.5858909 0.009862469 0.61253685
        0.59137404 0.009865369 0.6126684 0.59650165 0.009866125 0.61278355
        0.60128736 0.009864511 0.61288387 0.6057493 0.009860542 0.61297095
        0.60990936 0.009854503 0.6130463 0.6137923 0.0098469 0.61311144
        0.6174247 0.009838307 0.61316764 0.620833 0.0098292865 0.61321604
        0.62404084 0.009820332 0.61325777 0.62706673 0.00981191 0.6132935
        0.62992245 0.009804492 0.613324 0.6326135 0.009798555 0.61334974
        0.63514143 0.009794517 0.61337113 0.637507 0.0097926 0.6133888
        0.63971347 0.009792515 0.61340314 0.6417678 0.009793021 0.6134145
        0.47601324 0.010371461 0.60839736 0.48510358 0.010387194 0.60883284
        0.49415255 0.010402627 0.6092506 0.50311315 0.0104176095 0.6096487
        0.5119402 0.010431971 0.6100256 0.5205911 0.010445569 0.61038
        0.52902645 0.010458297 0.6107109 0.5372108 0.010470109 0.6110178
        0.5451131 0.010481004 0.6113006 0.55270666 0.010491014 0.61155915
        0.5599699 0.010500182 0.6117941 0.566886 0.010508512 0.6120061
        0.57344335 0.010515938 0.6121961 0.5796353 0.010522278 0.6123653
        0.5854605 0.01052724 0.6125151 0.59092253 0.010530444 0.6126468
        0.5960302 0.010531522 0.6127623 0.60079676 0.010530242 0.6128628
        0.6052399 0.010526606 0.61295027 0.60938114 0.010520889 0.613026
        0.6132448 0.0105135655 0.6130915 0.61685735 0.010505195 0.6131481
        0.62024564 0.010496309 0.613197 0.62343436 0.010487379 0.61323917
        0.62644356 0.010478838 0.6132754 0.6292865 0.0104711475 0.61330646
        0.63196963 0.0104648 0.6133328 0.63449436 0.010460243 0.6133549
        0.63686067 0.010457746 0.6133732 0.63907063 0.010457018 0.6133882
        0.6411305 0.0104567455 0.6134002 0.47601324 0.0110298125 0.60838574
        0.48506814 0.011046159 0.6088196 0.4940818 0.011062184 0.60923576
        0.5030074 0.011077729 0.6096325 0.5118 0.011092629 0.61000806
        0.52041703 0.011106732 0.6103613 0.5288195 0.011119935 0.61069125
        0.5369719 0.011132188 0.6109974 0.5448434 0.011143488 0.6112794
        0.5524075 0.011153871 0.6115375 0.5596427 0.011163377 0.61177206
        0.56653225 0.011172016 0.6119838 0.5730646 0.011179731 0.6121737
        0.5792332 0.011186353 0.61234283 0.5850366 0.011191597 0.6124927
        0.59047824 0.011195102 0.61262465 0.59556675 0.011196505 0.6127403
        0.600315 0.011195577 0.6128412 0.60474014 0.011192304 0.612929
        0.6088632 0.011186947 0.61300504 0.6127081 0.011179958 0.6130709
        0.61630106 0.01117187 0.61312795 0.6196691 0.01116319 0.6131772
        0.62283796 0.011154355 0.6132198 0.6258291 0.011145768 0.6132566
        0.6286575 0.011137864 0.61328816 0.63133085 0.011131135 0.61331517
        0.63385063 0.011126066 0.6133379 0.6362163 0.011122964 0.61335677
        0.6384287 0.011121555 0.6133724 0.6404933 0.011120447 0.613385
        0.47601324 0.011688152 0.6083735 0.48503304 0.01170507 0.6088056
        0.49401173 0.011721644 0.60922027 0.5029027 0.011737715 0.60961556
        0.5116611 0.011753111 0.6099899 0.5202447 0.011767684 0.610342
        0.5286146 0.0117813265 0.610671 0.53673553 0.011793988 0.6109763
        0.54457664 0.011805666 0.6112577 0.55211174 0.0118163945 0.6115152
        0.5593194 0.011826214 0.6117494 0.566183 0.011835143 0.6119609
        0.57269096 0.011843127 0.6121506 0.5788368 0.0118500125 0.61231977
        0.58461905 0.011855529 0.61246973 0.59004104 0.0118593285 0.6126019
        0.5951111 0.011861062 0.61271775 0.59984165 0.011860496 0.61281896
        0.60424966 0.011857613 0.61290705 0.6083552 0.011852651 0.61298347
        0.61218196 0.011846041 0.61304975 0.6157556 0.011838294 0.6131071
        0.61910343 0.011829886 0.61315674 0.62225175 0.01182122 0.6131997
        0.62522364 0.01181266 0.61323696 0.6280358 0.011804606 0.6132691
        0.6306973 0.01179754 0.61329657 0.6332104 0.01179197 0.61331993
        0.6355739 0.011788249 0.6133395 0.63778764 0.011786117 0.61335564
        0.63985604 0.011784125 0.6133689 0.47601324 0.012346476 0.60836047
        0.48499826 0.012363925 0.60879093 0.4939423 0.012381006 0.60920405
        0.5027989 0.01239756 0.609598 0.51152354 0.012413415 0.60997105
        0.5200741 0.01242842 0.610322 0.5284118 0.012442465 0.61065006
        0.5365016 0.012455503 0.6109545 0.54431283 0.01246753 0.61123526
        0.5518194 0.012478576 0.6114923 0.5589999 0.0124886865 0.6117261
        0.56583804 0.012497881 0.61193734 0.5723222 0.012506116 0.612127
        0.578446 0.012513249 0.61229616 0.58420765 0.012519024 0.6124461
        0.5896107 0.012523113 0.61257845 0.5946629 0.012525175 0.61269456
        0.5993766 0.012524982 0.6127961 0.60376805 0.01252251 0.61288446
        0.6078569 0.012517975 0.6129613 0.61166614 0.012511787 0.6130279
        0.615221 0.0125044305 0.61308557 0.61854863 0.012496358 0.61313564
        0.6216759 0.012487932 0.61317897 0.62462735 0.012479475 0.6132166
        0.62742156 0.012471342 0.6132492 0.6300693 0.012463989 0.6132772
        0.63257384 0.012457939 0.6133011 0.63493365 0.012453589 0.61332124
        0.6371475 0.012450704 0.61333805 0.63921875 0.012447776 0.61335194
        0.47601324 0.013004787 0.60834676 0.48496377 0.013022722 0.6087756
        0.49387345 0.013040266 0.60918725 0.5026961 0.013057263 0.6095797
        0.5113873 0.013073533 0.60995156 0.51990515 0.013088931 0.61030143
        0.528211 0.013103347 0.6106285 0.5362701 0.0131167285 0.6109322
        0.5440518 0.013129072 0.6112122 0.5515303 0.013140409 0.61146873
        0.55868423 0.013150786 0.61170214 0.5654974 0.013160225 0.61191314
        0.57195824 0.01316869 0.6121027 0.57806045 0.013176052 0.6122719
        0.5838023 0.013182072 0.612422 0.5891869 0.01318644 0.6125545
        0.594222 0.0131888315 0.61267084 0.5989196 0.013189019 0.6127726
        0.6032952 0.013186973 0.61286134 0.60736805 0.013182892 0.61293846
        0.6111604 0.013177163 0.6130054 0.6146969 0.013170246 0.61306345
        0.61800456 0.013162564 0.61311376 0.6211106 0.013154449 0.61315745
        0.6240406 0.013146173 0.6131955 0.62681514 0.013138036 0.61322844
        0.62944716 0.013130457 0.613257 0.63194114 0.013123959 0.6132814
        0.6342955 0.013118977 0.6133022 0.6365083 0.013115308 0.6133196
        0.6385815 0.013111402 0.61333406 0.47601324 0.013663083 0.60833234
        0.4849296 0.013681457 0.6087596 0.49380523 0.0136994235 0.60916966
        0.50259423 0.013716816 0.6095608 0.51125234 0.013733464 0.60993135
        0.51973784 0.013749216 0.61028016 0.5280122 0.013763964 0.6106063
        0.53604096 0.013777655 0.61090916 0.5437936 0.013790286 0.61118853
        0.5512444 0.013801887 0.6114446 0.5583722 0.013812505 0.61167765
        0.5651609 0.013822165 0.6118884 0.571599 0.013830839 0.61207783
        0.5776802 0.013838411 0.612247 0.58340263 0.013844663 0.6123972
        0.5887695 0.013849299 0.6125298 0.5937882 0.013852013 0.61264646
        0.59847015 0.013852587 0.6127485 0.6028307 0.0138509795 0.61283755
        0.6068883 0.013847376 0.61291504 0.6106644 0.013842138 0.6129823
        0.6141833 0.013835703 0.6130406 0.61747134 0.013828467 0.6130913
        0.6205559 0.013820726 0.6131353 0.62346363 0.013812707 0.61317366
        0.62621695 0.01380465 0.613207 0.6288312 0.013796916 0.61323595
        0.63131243 0.01379001 0.6132609 0.63365966 0.013784402 0.61328226
        0.63587 0.013779927 0.61330026 0.6379443 0.013775 0.6133153
        0.47601324 0.014321363 0.6083172 0.4848957 0.014340132 0.6087428
        0.49373767 0.014358472 0.6091514 0.5024933 0.01437622 0.6095412
        0.51111865 0.014393201 0.60991055 0.5195721 0.014409266 0.6102583
        0.5278154 0.01442431 0.6105834 0.53581417 0.014438277 0.61088556
        0.54353815 0.014451164 0.6111643 0.5509617 0.014462999 0.6114198
        0.5580638 0.014473832 0.61165255 0.56482846 0.01448369 0.6118631
        0.5712443 0.014492553 0.6120524 0.57730496 0.014500317 0.6122215
        0.58300865 0.014506783 0.6123718 0.58835834 0.014511677 0.6125046
        0.59336114 0.01451471 0.6126215 0.5980282 0.014515666 0.6127238
        0.6023743 0.01451451 0.6128132 0.6064173 0.014511401 0.61289096
        0.61017805 0.014506684 0.6129585 0.61367995 0.014500765 0.6130172
        0.6169488 0.0144940205 0.61306816 0.6200119 0.014486717 0.61311245
        0.62289673 0.014479031 0.6131511 0.62562746 0.014471139 0.61318475
        0.6282218 0.014463331 0.61321414 0.63068813 0.014456074 0.6132395
        0.63302624 0.014449855 0.61326146 0.6352327 0.014444553 0.61328
        0.63730705 0.014438568 0.6132956 0.47601324 0.014979626 0.60830134
        0.48486215 0.014998742 0.60872537 0.4936707 0.015017412 0.60913247
        0.5023933 0.015035467 0.6095209 0.51098615 0.015052739 0.60988903
        0.5194079 0.015069076 0.6102357 0.52762055 0.0150843775 0.61055994
        0.53558975 0.015098586 0.6108613 0.5432854 0.015111695 0.61113936
        0.55068207 0.015123737 0.6113944 0.5577589 0.015134757 0.61162674
        0.5645 0.01514479 0.6118371 0.57089406 0.015153819 0.6120263
        0.5769347 0.015161756 0.6121954 0.58262014 0.015168421 0.6123458
        0.58795315 0.015173557 0.6124788 0.5929406 0.015176899 0.6125959
        0.5975934 0.015178241 0.6126985 0.6019258 0.015177536 0.61278814
        0.6059549 0.01517494 0.6128662 0.609701 0.015170763 0.6129341
        0.6131866 0.015165396 0.6129931 0.6164369 0.015159186 0.6130444
        0.6194789 0.015152374 0.6130889 0.6223403 0.015145096 0.6131278
        0.6250471 0.015137456 0.6131618 0.6276195 0.015129665 0.6131915
        0.63006854 0.015122127 0.6132174 0.63239545 0.015115327 0.61323977
        0.63459647 0.015109187 0.61325884 0.6366699 0.015102106 0.61327505
        0.47601324 0.01563787 0.6082848 0.48482886 0.015657287 0.6087072
        0.4936043 0.015676238 0.60911286 0.50229424 0.015694555 0.60949993
        0.51085496 0.015712071 0.6098669 0.5192454 0.015728641 0.6102125
        0.5274276 0.015744157 0.6105358 0.53536755 0.015758572 0.6108364
        0.5430353 0.015771871 0.61111385 0.5504055 0.01578409 0.6113684
        0.55745757 0.015795272 0.6116004 0.5641754 0.015805451 0.61181045
        0.5705481 0.015814627 0.6119995 0.57656926 0.015822716 0.6121687
        0.58223695 0.01582956 0.61231923 0.5875538 0.015834928 0.6124524
        0.59252656 0.015838565 0.6125697 0.59716564 0.015840286 0.61267257
        0.60148484 0.015840039 0.6127625 0.6055008 0.015837962 0.61284095
        0.6092329 0.015834346 0.61290914 0.6127031 0.015829558 0.6129684
        0.6159355 0.01582392 0.6130199 0.61895674 0.015817648 0.61306477
        0.6217947 0.015810845 0.61310387 0.62447643 0.01580355 0.6131381
        0.6270249 0.015795877 0.6131681 0.62945414 0.015788144 0.6131944
        0.6317675 0.015780805 0.6132172 0.6339613 0.015773822 0.6132369
        0.63603264 0.015765611 0.61325365 0.47601324 0.016296098 0.6082675
        0.48479587 0.016315764 0.60868835 0.4935385 0.016334943 0.60909253
        0.502196 0.016353477 0.60947835 0.5107249 0.016371192 0.6098441
        0.51908433 0.016387949 0.6101886 0.5272366 0.016403643 0.61051106
        0.5351476 0.016418224 0.6108108 0.54278785 0.016431682 0.6110877
        0.550132 0.016444046 0.6113418 0.5571595 0.01645536 0.6115734
        0.5638547 0.016465666 0.61178327 0.57020646 0.01647496 0.6119723
        0.5762085 0.016483182 0.6121414 0.5818589 0.016490187 0.612292
        0.58716005 0.016495768 0.6124253 0.5921186 0.016499693 0.61254287
        0.59674454 0.016501782 0.61264604 0.6010512 0.01650199 0.6127363
        0.60505474 0.016500441 0.612815 0.6087737 0.0164974 0.6128835
        0.61222917 0.016493209 0.6129431 0.6154446 0.016488172 0.61299485
        0.6184457 0.016482485 0.6130399 0.62126017 0.016476221 0.61307925
        0.6239161 0.01646936 0.61311364 0.6264387 0.016461914 0.6131439
        0.6288455 0.016454088 0.61317056 0.6311427 0.016446277 0.6131938
        0.6333274 0.016438456 0.61321396 0.6353954 0.016429083 0.6132313
        0.47601324 0.016954307 0.6082495 0.48476318 0.01697417 0.6086688
        0.49347332 0.01699353 0.6090716 0.50209874 0.017012225 0.60945606
        0.5105961 0.017030094 0.6098206 0.51892483 0.017046992 0.6101641
        0.5270474 0.017062824 0.6104857 0.53492993 0.017077534 0.61078465
        0.54254293 0.017091114 0.6110609 0.5498614 0.017103592 0.6113145
        0.5568648 0.01711501 0.6115458 0.56353766 0.017125413 0.61175543
        0.5698689 0.017134806 0.6119443 0.5758523 0.017143136 0.6121135
        0.5814858 0.017150283 0.61226416 0.58677185 0.017156057 0.6123977
        0.59171665 0.017160252 0.61251545 0.59633 0.017162703 0.6126189
        0.60062474 0.017163362 0.61270946 0.60461646 0.01716234 0.6127885
        0.60832304 0.017159883 0.6128573 0.6117647 0.017156307 0.6129171
        0.614964 0.017151894 0.61296916 0.61794573 0.01714683 0.61301446
        0.6207371 0.017141161 0.613054 0.6233666 0.017134817 0.61308855
        0.62586164 0.017127717 0.613119 0.6282433 0.017119922 0.61314595
        0.63052154 0.017111722 0.6131696 0.6326949 0.017103085 0.61319023
        0.63475823 0.017092522 0.6132081 0.47601324 0.017612495 0.6082308
        0.48473075 0.017632501 0.60864854 0.49340868 0.01765199 0.6090499
        0.50200224 0.017670799 0.60943305 0.5104685 0.01768877 0.6097965
        0.5187669 0.017705763 0.61013895 0.52686 0.017721687 0.6104596
        0.53471434 0.017736485 0.6107579 0.5423005 0.01775015 0.61103356
        0.5495936 0.017762708 0.61128664 0.5565734 0.017774204 0.6115176
        0.56322426 0.017784676 0.611727 0.56953543 0.017794142 0.61191577
        0.57550055 0.017802559 0.6120849 0.58111763 0.017809823 0.6122357
        0.58638895 0.017815774 0.6123694 0.5913205 0.01782022 0.6124874
        0.59592175 0.017823018 0.61259115 0.6002052 0.01782412 0.612682
        0.6041857 0.017823625 0.6127613 0.6078807 0.017821755 0.6128304
        0.61130947 0.017818805 0.61289054 0.61449355 0.017815035 0.6129428
        0.61745685 0.01781062 0.61298835 0.62022567 0.017805591 0.61302805
        0.6228286 0.017799847 0.6130628 0.6252946 0.017793208 0.61309344
        0.62764853 0.017785588 0.61312056 0.6299045 0.017777115 0.6131445
        0.6320639 0.017767703 0.6131656 0.634121 0.017755924 0.61318403
        0.47601324 0.018270662 0.6082114 0.48469862 0.018290756 0.6086276
        0.4933446 0.018310316 0.60902756 0.5019067 0.018329185 0.60940945
        0.51034206 0.018347206 0.6097717 0.51861036 0.018364247 0.61011314
        0.52667445 0.018380217 0.6104329 0.53450096 0.01839506 0.61073047
        0.5420606 0.018408773 0.6110055 0.54932874 0.018421376 0.61125815
        0.55628514 0.018432913 0.61148876 0.5629145 0.01844343 0.611698
        0.5692059 0.01845294 0.6118866 0.5751531 0.018461421 0.61205584
        0.5807542 0.018468782 0.6122067 0.58601123 0.018474886 0.61234057
        0.59093 0.018479567 0.61245877 0.59551966 0.018482694 0.6125628
        0.5997923 0.018484227 0.6126539 0.6037623 0.01848425 0.61273354
        0.60744643 0.018482968 0.612803 0.61086315 0.018480647 0.61286336
        0.6140331 0.018477535 0.6129159 0.61697906 0.018473787 0.6129616
        0.6197263 0.018469436 0.61300147 0.62230283 0.018464355 0.61303633
        0.62473875 0.018458296 0.6130671 0.62706214 0.018451009 0.6130944
        0.6292923 0.018442417 0.6131186 0.63143474 0.018432306 0.6131401
        0.6334838 0.018419288 0.613159 0.47601324 0.018928807 0.60819125
        0.48466676 0.01894893 0.608606 0.49328113 0.018968502 0.6090045
        0.501812 0.018987373 0.60938513 0.5102168 0.019005388 0.6097463
        0.5184553 0.019022426 0.61008674 0.5264907 0.019038394 0.6104056
        0.53428966 0.019053241 0.6107024 0.54182315 0.01906696 0.6109768
        0.54906666 0.019079572 0.611229 0.5560001 0.019091118 0.6114593
        0.5626082 0.019101646 0.61166835 0.56888026 0.019111173 0.6118569
        0.57481 0.01911969 0.6120261 0.58039546 0.019127123 0.6121771
        0.5856386 0.019133355 0.61231107 0.59054494 0.019138249 0.61242956
        0.5951235 0.019141685 0.6125338 0.5993859 0.019143632 0.61262524
        0.60334605 0.019144163 0.6127052 0.60701996 0.019143464 0.6127749
        0.6104256 0.01914177 0.6128356 0.6135825 0.019139318 0.61288834
        0.6165123 0.019136252 0.61293423 0.61923903 0.0191326 0.6129742
        0.6217899 0.019128239 0.6130093 0.624195 0.019122869 0.6130401
        0.6264854 0.019116092 0.61306745 0.628686 0.01910757 0.61309195
        0.63080776 0.019096876 0.61311376 0.63284665 0.019082615 0.61313313
        0.47601324 0.019586932 0.60817045 0.4846352 0.019607019 0.6085836
        0.49321818 0.01962654 0.60898083 0.5017181 0.019645348 0.60936016
        0.5100926 0.019663302 0.6097202 0.5183017 0.019680282 0.6100596
        0.5263087 0.019696193 0.61037767 0.53408045 0.019710997 0.6106737
        0.5415881 0.019724678 0.61094755 0.5488073 0.019737257 0.6111993
        0.5557181 0.019748777 0.6114293 0.5623054 0.019759282 0.61163807
        0.56855845 0.019768799 0.61182654 0.57447106 0.019777322 0.61199576
        0.5800412 0.019784797 0.6121468 0.5852708 0.019791134 0.612281
        0.5901653 0.01979621 0.6123997 0.59473324 0.019799935 0.61250424
        0.5989858 0.019802272 0.6125959 0.6029366 0.019803297 0.6126762
        0.6066012 0.019803166 0.6127462 0.6099965 0.019802097 0.61280715
        0.6131414 0.0198003 0.6128602 0.6160564 0.019797917 0.6129063
        0.6187641 0.01979498 0.61294645 0.6212902 0.019791376 0.61298156
        0.62366456 0.019786788 0.61301243 0.62591994 0.019780701 0.61303985
        0.6280868 0.01977249 0.6130644 0.6301835 0.019761384 0.6130866
        0.6322095 0.019745901 0.6131064 0.47601324 0.02024503 0.6081489
        0.48460388 0.020265011 0.6085606 0.49315578 0.020284414 0.6089564
        0.5016251 0.020303097 0.60933447 0.50996965 0.020320926 0.6096934
        0.5181496 0.020337781 0.61003184 0.5261285 0.020353585 0.61034906
        0.5338734 0.020368291 0.6106444 0.54135555 0.020381887 0.6109177
        0.5485507 0.020394392 0.611169 0.5554393 0.020405846 0.6113986
        0.562006 0.020416291 0.6116072 0.5682404 0.020425761 0.6117956
        0.57413626 0.020434257 0.6119648 0.5796915 0.020441748 0.6121159
        0.58490795 0.020448156 0.6122503 0.5897909 0.02045339 0.61236924
        0.59434855 0.020457372 0.612474 0.5985919 0.020460075 0.61256605
        0.60253406 0.020461565 0.61264664 0.60618985 0.020461986 0.6127169
        0.6095758 0.020461528 0.6127782 0.6127098 0.020460377 0.6128314
        0.6156113 0.020458672 0.6128777 0.6183015 0.020456448 0.6129181
        0.6208045 0.020453617 0.6129533 0.6231487 0.020449882 0.6129842
        0.62536746 0.020444652 0.6130116 0.6274965 0.020437034 0.6130362
        0.6295628 0.020425785 0.6130585 0.6315723 0.020409146 0.6130788
        0.47601324 0.020903109 0.60812664 0.48457283 0.020922907 0.60853684
        0.49309397 0.02094211 0.6089313 0.5015329 0.020960595 0.6093082
        0.50984776 0.020978227 0.609666 0.51799893 0.020994894 0.6100035
        0.52595 0.021010527 0.6103198 0.53366834 0.021025075 0.6106145
        0.54112536 0.021038532 0.61088717 0.5482969 0.021050913 0.61113805
        0.55516344 0.021062257 0.61136734 0.56171 0.021072602 0.6115758
        0.5679261 0.021081988 0.6117641 0.5738055 0.021090424 0.61193323
        0.57934624 0.02109789 0.6120845 0.5845499 0.021104336 0.6122191
        0.58942163 0.02110969 0.6123382 0.5939695 0.021113893 0.61244327
        0.5982041 0.021116931 0.6125356 0.60213804 0.02111886 0.6126164
        0.60578585 0.021119807 0.612687 0.6091632 0.021119934 0.61274856
        0.61228746 0.021119414 0.6128021 0.61517686 0.02111837 0.61284864
        0.61785126 0.021116847 0.6128892 0.6203331 0.021114785 0.61292446
        0.6226485 0.021111937 0.61295533 0.6248301 0.02110772 0.6129827
        0.62691724 0.021101011 0.61300725 0.62894684 0.021089988 0.61302966
        0.63093513 0.02107235 0.6130503 0.47601324 0.02156116 0.60810363
        0.48454207 0.021580687 0.60851246 0.4930327 0.021599615 0.60890555
        0.5014416 0.021617813 0.60928124 0.50972706 0.02163517 0.6096379
        0.5178497 0.021651573 0.60997444 0.5257733 0.021666963 0.61029
        0.5334654 0.021681288 0.61058396 0.54089755 0.021694545 0.61085606
        0.5480458 0.021706745 0.61110646 0.5548907 0.021717926 0.6113355
        0.5614174 0.021728126 0.6115437 0.5676155 0.021737382 0.61173195
        0.5734788 0.021745715 0.61190116 0.5790053 0.02175312 0.6120525
        0.58419657 0.02175956 0.6121872 0.5890575 0.021764994 0.6123066
        0.593596 0.02176938 0.6124119 0.59782225 0.02177271 0.6125045
        0.6017486 0.021775037 0.61258566 0.605389 0.021776475 0.6126566
        0.60875875 0.021777157 0.61271834 0.6118742 0.021777239 0.61277217
        0.6147529 0.02177683 0.61281896 0.6174134 0.021775985 0.6128596
        0.61987615 0.021774668 0.612895 0.622165 0.021772707 0.61292595
        0.6243102 0.021769593 0.61295325 0.626352 0.021764114 0.6129777
        0.62833744 0.021753829 0.61300004 0.630298 0.02173551 0.6130209
        0.47601324 0.022219189 0.60807997 0.48451158 0.022238344 0.6084873
        0.49297196 0.022256894 0.6088791 0.5013511 0.022274716 0.6092536
        0.50960743 0.0222917 0.6096092 0.51770186 0.022307755 0.6099448
        0.52559835 0.022322819 0.6102595 0.53326446 0.022336848 0.6105528
        0.5406721 0.022349836 0.61082435 0.54779744 0.022361794 0.6110743
        0.55462104 0.022372752 0.61130303 0.5611282 0.022382751 0.61151105
        0.5673086 0.022391826 0.6116992 0.5731562 0.022400007 0.61186844
        0.5786688 0.022407297 0.6120199 0.58384794 0.022413688 0.6121548
        0.58869845 0.022419153 0.61227435 0.5932279 0.02242367 0.61237997
        0.5974463 0.02242724 0.61247283 0.6013656 0.022429923 0.6125543
        0.6049993 0.022431798 0.61262554 0.6083622 0.022432994 0.61268765
        0.61147004 0.022433639 0.6127417 0.6143394 0.022433829 0.6127887
        0.6169878 0.02243362 0.61282957 0.619434 0.022433009 0.6128651
        0.62169915 0.022431891 0.6128961 0.62381 0.022429908 0.61292326
        0.62580466 0.02242593 0.61294746 0.62773746 0.02241704 0.61296964
        0.62966084 0.022398625 0.6129906 0.47601324 0.022877192 0.60805553
        0.48448136 0.022895861 0.6084615 0.49291176 0.02291392 0.608852
        0.5012614 0.022931255 0.6092253 0.509489 0.022947768 0.60957986
        0.51755553 0.022963377 0.6099145 0.52542514 0.022978019 0.6102284
        0.5330657 0.022991665 0.610521 0.54044914 0.0230043 0.61079204
        0.5475518 0.023015939 0.6110416 0.5543544 0.023026604 0.61127
        0.56084245 0.023036335 0.61147785 0.5670055 0.023045171 0.6116659
        0.57283765 0.023053138 0.6118352 0.5783367 0.023060262 0.61198676
        0.5835041 0.023066545 0.6121218 0.5883445 0.023071978 0.6122416
        0.5928654 0.023076566 0.6123475 0.59707636 0.023080321 0.61244065
        0.6009891 0.023083288 0.6125224 0.60461676 0.023085551 0.61259395
        0.6079736 0.023087205 0.61265635 0.61107475 0.02308836 0.61271065
        0.6139362 0.023089098 0.6127579 0.61657435 0.023089474 0.612799
        0.6190065 0.023089508 0.6128347 0.6212514 0.023089152 0.6128657
        0.62333155 0.023088224 0.6128928 0.6252796 0.023085898 0.61291677
        0.6271514 0.023079164 0.61293864 0.62902373 0.023061695 0.61295944
        0.47601324 0.023535168 0.60803044 0.4844514 0.023553224 0.608435
        0.49285215 0.023570662 0.60882425 0.50117266 0.023587385 0.6091963
        0.5093717 0.023603305 0.6095498 0.51741064 0.023618354 0.6098836
        0.5252538 0.02363247 0.6101967 0.53286904 0.02364563 0.61048865
        0.5402286 0.023657825 0.61075914 0.5473089 0.023669055 0.6110083
        0.554091 0.023679351 0.61123645 0.5605601 0.023688741 0.61144406
        0.5667062 0.023697264 0.61163205 0.5725232 0.023704955 0.6118014
        0.578009 0.02371184 0.611953 0.58316505 0.023717945 0.61208826
        0.5879957 0.023723286 0.6122083 0.5925084 0.023727871 0.6123144
        0.59671235 0.023731735 0.6124079 0.6006191 0.02373492 0.61248994
        0.60424125 0.023737492 0.61256176 0.60759276 0.023739537 0.6126245
        0.6106883 0.023741134 0.6126791 0.61354315 0.023742354 0.6127266
        0.61617285 0.023743251 0.61276793 0.6185935 0.023743851 0.61280376
        0.62082183 0.023744155 0.6128349 0.6228763 0.02374412 0.612862
        0.6247819 0.023743358 0.61288565 0.6265864 0.023739466 0.612907
        0.62838656 0.023724716 0.61292744 0.47601324 0.024193114 0.6080046
        0.48442173 0.024210418 0.6084078 0.49279305 0.0242271 0.60879576
        0.5010847 0.024243081 0.60916674 0.5092555 0.024258278 0.60951924
        0.5172672 0.024272641 0.609852 0.52508414 0.02428612 0.61016434
        0.53267443 0.024298685 0.61045563 0.5400105 0.024310336 0.61072564
        0.54706883 0.024321066 0.6109744 0.55383056 0.024330903 0.61120224
        0.56028116 0.024339871 0.6114097 0.56641054 0.024348006 0.61159766
        0.5722128 0.024355344 0.61176693 0.5776857 0.024361921 0.61191875
        0.58283067 0.024367776 0.61205417 0.58765197 0.024372943 0.61217445
        0.59215677 0.024377448 0.61228085 0.5963542 0.02438134 0.6123746
        0.60025537 0.024384659 0.612457 0.60387266 0.024387462 0.61252916
        0.6072197 0.024389816 0.61259216 0.61031055 0.024391778 0.6126471
        0.61315995 0.024393406 0.61269486 0.6157829 0.024394745 0.61273634
        0.61819446 0.024395827 0.6127724 0.6204097 0.024396673 0.61280364
        0.62244433 0.024397312 0.61283076 0.6243158 0.024397714 0.6128543
        0.6260536 0.024396833 0.61287504 0.62774944 0.024387687 0.61289454
        0.47601324 0.024851032 0.60797805 0.4843923 0.024867456 0.6083799
        0.49273452 0.024883265 0.6087666 0.5009975 0.02489838 0.60913646
        0.5091405 0.024912747 0.6094879 0.5171252 0.024926316 0.6098199
        0.5249162 0.02493905 0.61013144 0.5324819 0.02495093 0.6104221
        0.53979474 0.024961947 0.61069155 0.5468314 0.024972098 0.6109399
        0.55357313 0.0249814 0.6111675 0.5600055 0.024989873 0.6113748
        0.5661185 0.024997553 0.61156267 0.5719062 0.025004474 0.611732
        0.57736653 0.025010683 0.61188394 0.58250064 0.025016226 0.6120195
        0.5873129 0.02502115 0.61214 0.59181017 0.025025511 0.6122467
        0.5960014 0.025029358 0.61234075 0.59989744 0.025032736 0.6124235
        0.60351044 0.0250357 0.61249596 0.60685354 0.025038287 0.61255926
        0.6099405 0.025040545 0.61261445 0.6127857 0.02504251 0.61266255
        0.61540335 0.025044216 0.6127043 0.61780787 0.025045697 0.6127405
        0.62001336 0.02504698 0.6127719 0.62203354 0.025048092 0.6127991
        0.6238817 0.025049055 0.61282265 0.6255706 0.02504989 0.6128431
        0.6271123 0.02505061 0.61286074
        <InformationKey name="L2_NORM_RANGE" location="vtkDataArray" length="2">
          <Value index="0">
            0.77255644979
          </Value>
          <Value index="1">
            0.89570993828
          </Value>
        </InformationKey>
      </DataArray>
    </Points>
  </Piece>
  </StructuredGrid>
</VTKFile>
