<?xml version="1.0"?>
<VTKFile type="StructuredGrid" version="0.1" byte_order="LittleEndian" header_type="UInt32" compressor="vtkZLibDataCompressor">
  <StructuredGrid WholeExtent="0 68 0 40 0 0">
  <Piece Extent="0 68 0 40 0 0">
    <PointData>
      <DataArray type="Float32" Name="orthogonality" format="ascii" RangeMin="3.7158299619477475e-06" RangeMax="0.11881808936595917">
        0.0008921141 0.005582914 0.009839401 0.013248351 0.015889954 0.017840758
        0.019175114 0.019966433 0.020288158 0.020213615 0.019813247 0.019146295
        0.018252132 0.017150966 0.015850263 0.014361914 0.012720189 0.010987611
        0.0092479335 0.0075880024 0.006068735 0.0047209137 0.0035573205 0.0025620072
        0.001739745 0.0010853017 0.00055978616 0.00021387555 0.00070854643 0.00044679278
        0.0008283445 0.0011118242 0.0013696832 0.0016073042 0.0018509903 0.0021155588
        0.0024182324 0.0027741494 0.003194631 0.0036850462 0.004243381 0.004858184
        0.005510462 0.0061764442 0.006830005 0.007444945 0.0079969345 0.008464999
        0.0088324575 0.009087272 0.009222062 0.009234149 0.009125112 0.008900717
        0.008570508 0.008146746 0.0076434156 0.0070753624 0.0064575616 0.005804513
        0.0051297713 0.0044455985 0.0037627455 0.0030903288 0.0024358523 0.0018051347
        0.0012029009 0.00063126907 0.00021915777 0.028478 0.025658224 0.02331614
        0.022751803 0.022795308 0.022938967 0.022955116 0.022744486 0.022272818
        0.021541454 0.020570775 0.019387208 0.018018046 0.016493648 0.014846462
        0.013118073 0.011365797 0.00965816 0.008063862 0.0066348403 0.005384346
        0.0043028155 0.0033823752 0.0026014978 0.0019712471 0.0014662094 0.0010185702
        0.0006872836 0.0011526663 6.7962515e-05 0.00053578155 0.00091841427 0.0012826683
        0.0016299039 0.0019834607 0.0023556326 0.0027611747 0.003212154 0.0037157296
        0.004274176 0.004885944 0.0055428017 0.0062302295 0.006929471 0.0076195397
        0.008279252 0.008889047 0.009432465 0.0098972 0.010275706 0.010565738
        0.010770622 0.010897725 0.010957461 0.010963277 0.010931073 0.010878513
        0.010824436 0.010788373 0.010790192 0.010849834 0.010987078 0.011221222
        0.011570613 0.0120520005 0.012679508 0.013464088 0.014410904 0.015343744
        0.04797518 0.041374113 0.035632152 0.032064516 0.0297804 0.028166058
        0.02684561 0.025599068 0.024302796 0.022892764 0.021341756 0.019644042
        0.017812764 0.015883386 0.013907443 0.011950961 0.010090807 0.00840073
        0.0069360845 0.005717701 0.0047164937 0.0038859423 0.0031975312 0.0026226644
        0.0021748699 0.0018111824 0.0014400042 0.0011261316 0.0015662853 0.0002874402
        0.00025987247 0.0007349473 0.001198883 0.0016490126 0.0021056714 0.0025786073
        0.0030800933 0.0036192534 0.0041996436 0.0048211217 0.005482859 0.006179847
        0.006902052 0.007635778 0.008365254 0.009074414 0.009748587 0.010375958
        0.010948702 0.011463783 0.011923702 0.012336644 0.0127142165 0.013069916
        0.013419197 0.013779007 0.014167055 0.0146010015 0.015097575 0.015671605
        0.016334947 0.017095348 0.017955307 0.018911155 0.019952603 0.021062752
        0.02221947 0.023395313 0.024489677 0.062252473 0.053920906 0.04631425
        0.040650144 0.036463708 0.033265535 0.030668467 0.02839906 0.026275514
        0.024182756 0.02205259 0.01984991 0.01757326 0.015259935 0.012976078
        0.010807827 0.008848493 0.0071760197 0.005833481 0.0048135347 0.0040490064
        0.0034593376 0.0029957022 0.0026213417 0.0023495979 0.0021220287 0.0018271012
        0.0015337251 0.0019522512 0.0006232643 3.71583e-06 0.00055675907 0.0011133652
        0.0016593493 0.0022119451 0.00277829 0.0033681327 0.0039877594 0.004637563
        0.0053155217 0.0060217674 0.006754574 0.007508454 0.008274852 0.009043311
        0.009802969 0.010544103 0.011259525 0.0119457645 0.012603911 0.01324037
        0.013866747 0.014497002 0.015145506 0.015826998 0.01655602 0.017345991
        0.018208126 0.019150322 0.020176088 0.021283677 0.022465603 0.023708707
        0.024994837 0.026302228 0.02760714 0.028886333 0.030117221 0.0312341
        0.0733448 0.06412511 0.05542792 0.048320826 0.04264609 0.038088858
        0.034325093 0.031082213 0.028152684 0.025388228 0.022689125 0.01999547
        0.017292175 0.014616444 0.012045584 0.009682198 0.0076332903 0.0059799626
        0.0047538513 0.0039220033 0.003382844 0.0030244656 0.0027783057 0.002598657
        0.0024967834 0.0024004718 0.0021812767 0.0019109707 0.0023114139 0.0009397002
        0.0002549693 0.0003839793 0.0010263211 0.0016611739 0.002302594 0.0029550605
        0.0036257817 0.004318326 0.0050303047 0.0057582627 0.006503504 0.007267639
        0.008049762 0.008846504 0.009652758 0.01046288 0.011272029 0.012077476
        0.012879725 0.013683313 0.014497434 0.015335488 0.016211782 0.017139234
        0.018129217 0.01919093 0.020330459 0.021549845 0.022846306 0.024211833
        0.02563329 0.027093085 0.028570367 0.030042594 0.031487264 0.032883354
        0.03421309 0.035460975 0.03657713 0.082267694 0.07253891 0.06316003
        0.05504673 0.048226178 0.04253517 0.037737466 0.03359435 0.029898793
        0.026486676 0.023237213 0.020071367 0.01696243 0.013946658 0.011109996
        0.008568501 0.00644046 0.004809135 0.0036954 0.0030429298 0.0027189762
        0.002582773 0.0025467717 0.0025558178 0.0026177906 0.0026481345 0.002503883
        0.0022587779 0.002644554 0.0012369618 0.00049387803 0.00021674731 0.00093798
        0.0016547827 0.0023779818 0.0031093673 0.0038536107 0.004611689 0.0053787674
        0.006150323 0.0069290106 0.0077198194 0.008526438 0.00935069 0.010192804
        0.0110522825 0.011929013 0.012824407 0.013742407 0.014690148 0.015678372
        0.016720677 0.017829856 0.019015398 0.020283341 0.021635806 0.023070376
        0.024579711 0.02615151 0.027769005 0.02941195 0.031058004 0.0326843
        0.034268945 0.035792317 0.037237793 0.03859276 0.039846938 0.04095785
        0.08959275 0.07953849 0.06970315 0.060869854 0.053167455 0.04654424
        0.040848985 0.035891492 0.03148283 0.027457466 0.02368348 0.020068713
        0.016577482 0.013245068 0.010164249 0.0074621052 0.005266125 0.0036608046
        0.0026568025 0.0021763877 0.0020584834 0.0021357753 0.0023026166 0.0024941626
        0.0027140595 0.0028666232 0.0027962835 0.0025781165 0.0029524628 0.0015153427
        0.0007205006 5.5144636e-05 0.00084852235 0.0016404348 0.0024384467 0.0032416438
        0.004052182 0.0048685777 0.005683833 0.006492663 0.00729922 0.008111896
        0.008938957 0.009787388 0.010662686 0.011569371 0.012511816 0.013495166
        0.014526169 0.015613642 0.016768675 0.018003646 0.019328337 0.020747418
        0.022260511 0.02386213 0.025541648 0.027283628 0.029068563 0.030874081
        0.032676406 0.034451902 0.036178473 0.03783663 0.039410207 0.04088653
        0.042256933 0.04351471 0.044620775 0.095674545 0.08538796 0.07522444
        0.06585885 0.057471603 0.05008604 0.043621927 0.037939973 0.03287896
        0.02828239 0.024015699 0.01997928 0.016131407 0.012506864 0.009204082
        0.0063592074 0.004107163 0.0025328407 0.00163714 0.0013226573 0.0014025203
        0.0016850202 0.0020473984 0.0024151024 0.002787055 0.0030575013 0.0030598151
        0.0028699718 0.0032359161 0.001775177 0.00093493215 0.00010077617 0.00075810705
        0.0016183762 0.002484322 0.0033523275 0.004222068 0.0050897254 0.0059463866
        0.0067862514 0.007615079 0.008444671 0.009287829 0.010156626 0.011061721
        0.012012465 0.013017416 0.0140849985 0.0152241 0.016444342 0.017756103
        0.019169403 0.020689974 0.022316903 0.024043111 0.025855854 0.027737385
        0.029665958 0.03161718 0.033565577 0.035486147 0.03735576 0.039154142
        0.0408645 0.042473778 0.043972414 0.045354657 0.046616275 0.047719482
        0.100749955 0.09027866 0.07986148 0.070087634 0.061160624 0.053151235
        0.0460338 0.03971558 0.03406661 0.028946003 0.024223063 0.019795686
        0.015618948 0.0117279375 0.008225982 0.005256758 0.0029611331 0.001423654
        0.00063585385 0.00048220134 0.00075229956 0.001232063 0.0017826828 0.0023200752
        0.0028382319 0.0032222646 0.0032957643 0.003135309 0.003495654 0.0020168077
        0.0011372776 0.00025096774 0.0006668935 0.0015888598 0.0025159563 0.0034418781
        0.0043638665 0.005275892 0.0061673364 0.007032079 0.007877571 0.008718996
        0.009573629 0.010458526 0.011389354 0.0123800775 0.0134431105 0.014589681
        0.015830183 0.017174266 0.018630741 0.020206468 0.021902535 0.023712227
        0.025622036 0.027612798 0.029660996 0.031740304 0.033823274 0.03588301
        0.037894584 0.039836112 0.04168937 0.043440018 0.04507753 0.046594743
        0.04798804 0.049254928 0.050357796 0.1049861 0.09435312 0.08372558
        0.07362621 0.0642659 0.05574372 0.048073623 0.041202214 0.035030223
        0.029435731 0.02429639 0.019511547 0.015035613 0.010904894 0.007227164
        0.004152421 0.0018262303 0.0003321576 0.00034727773 0.000344346 0.0001090879
        0.0007784607 0.00151003 0.0022105225 0.0028690135 0.0033623336 0.0035053499
        0.0033750546 0.0037323695 0.0022405693 0.0013276368 0.0003953747 0.00057505316
        0.0015521565 0.0025337215 0.0035107844 0.0044782087 0.00542787 0.006347621
        0.0072311773 0.008087726 0.008935796 0.00979703 0.010693335 0.011645209
        0.012670984 0.013786589 0.015005605 0.016339373 0.01779693 0.019384906
        0.021106515 0.022957997 0.024927001 0.026994193 0.029135004 0.031321444
        0.03352401 0.035713494 0.037862577 0.039947014 0.04194638 0.043844353
        0.045628645 0.047290735 0.04882527 0.050230205 0.05150429 0.052609492
        0.10850579 0.09772 0.086906575 0.07653723 0.0668219 0.057875246
        0.049738713 0.042390365 0.035758782 0.029741846 0.024228234 0.019121595
        0.014377753 0.010035092 0.0062055667 0.0030445445 0.00070125575 0.0007422549
        0.0013121505 0.0011561775 0.00052578846 0.00032577274 0.0012309873 0.0020878734
        0.0028807817 0.00347905 0.0036897191 0.003590084 0.003946704 0.0024467763
        0.0015060955 0.00053392665 0.00048277568 0.0015085598 0.002538017 0.003559568
        0.0045657614 0.0055464874 0.0064882184 0.00738462 0.008246637 0.009096069
        0.009958806 0.010861446 0.0118291145 0.012884252 0.014045979 0.015329823
        0.016747607 0.018307293 0.020012934 0.021863904 0.023851668 0.025958663
        0.028160473 0.030428115 0.03273022 0.03503514 0.03731273 0.039535794
        0.041680984 0.043729253 0.045665905 0.0474803 0.04916547 0.05071743
        0.052135296 0.053418722 0.054528896 0.11140196 0.10046376 0.08947717
        0.0788752 0.06886275 0.0595618 0.051032078 0.04327573 0.036245193
        0.029857311 0.024012914 0.018621769 0.013642632 0.009116673 0.0051598554
        0.0019321518 0.00041440182 0.0017997249 0.0022583415 0.0019523102 0.0011509364
        0.00012443394 0.00094708806 0.0019535369 0.0028748706 0.0035736768 0.0038499453
        0.0037812167 0.004139246 0.0026357165 0.0016727208 0.0006665345 0.0003902713
        0.0014583872 0.002529271 0.0035887826 0.0046272264 0.005632608 0.006590144
        0.007493531 0.008355457 0.0092009045 0.010059859 0.010963422 0.011941133
        0.013019282 0.014219883 0.015560069 0.017051797 0.01870165 0.020510925
        0.022475181 0.024581393 0.026807325 0.029124245 0.031499617 0.033899546
        0.036290936 0.038643207 0.040929496 0.04312734 0.045218896 0.047190778
        0.049033634 0.050741673 0.05231193 0.05374439 0.055039354 0.05615708
        0.11374655 0.10265105 0.09149642 0.08068689 0.07042042 0.060821217
        0.05196042 0.043857925 0.03648568 0.029777568 0.023646504 0.01800926
        0.012828476 0.008148595 0.0040894304 0.00081492955 0.0015207808 0.0028399406
        0.0031851123 0.0027315812 0.0017648874 0.00057057914 0.0006598526 0.0018088965
        0.0028525628 0.0036474 0.003987026 0.003949213 0.004310531 0.002807648
        0.0018275572 0.00079308863 0.0002977719 0.0014019803 0.002507938 0.0035990127
        0.0046633375 0.005687132 0.0066544525 0.0075590797 0.00841541 0.009251485
        0.010101215 0.0110000055 0.011981577 0.013075826 0.01430739 0.015694749
        0.017249765 0.018977491 0.020876471 0.022938633 0.025146874 0.02747487
        0.029890273 0.032357696 0.034841336 0.03730711 0.039724223 0.042066198
        0.044311345 0.046442766 0.048448097 0.050318953 0.052050434 0.053640317
        0.055089235 0.05639794 0.0575257 0.11559612 0.104334995 0.09301252
        0.08201202 0.07152398 0.061671667 0.05253271 0.04413948 0.036479205
        0.029500274 0.023126764 0.017282525 0.011934508 0.0071306536 0.002994432
        0.00030677908 0.0026173587 0.003862147 0.004091413 0.003492644 0.0023660914
        0.0010110638 0.0003707888 0.0016553078 0.0028150892 0.00370133 0.0041018855
        0.004094771 0.0044610407 0.0029627956 0.001970626 0.0009134578 0.00020553128
        0.0013397044 0.0024745003 0.003590871 0.0046748603 0.00571099 0.0066822376
        0.0075824894 0.0084277885 0.009249091 0.010084046 0.010972135 0.011951027
        0.013053995 0.01430808 0.015732925 0.017340178 0.019133355 0.021108387
        0.023253886 0.025549127 0.027964283 0.030463979 0.033010542 0.03556668
        0.038097564 0.04057229 0.042964686 0.04525364 0.04742298 0.04946107
        0.051360246 0.053116225 0.05472734 0.056194674 0.057519298 0.058659494
        0.11699562 0.10555826 0.09406484 0.082884155 0.072199315 0.06213078
        0.05275914 0.044125 0.036226947 0.029025069 0.022453055 0.016441291
        0.01096097 0.006063501 0.0018757446 0.00143198 0.0037030627 0.004865154
        0.0049758865 0.0042339666 0.0029529105 0.0014442656 8.139372e-05 0.0014940955
        0.002763626 0.0037365032 0.0041953735 0.004218528 0.0045912047 0.0031013503
        0.0021019224 0.0010274887 0.00011382478 0.0012719475 0.002429463 0.0035649976
        0.0046625887 0.005705146 0.0066746287 0.00756503 0.008393954 0.00919511
        0.010009666 0.010880949 0.011850342 0.012954275 0.014222024 0.015674284
        0.017322475 0.01916869 0.021206493 0.023421565 0.025790052 0.028279146
        0.03085096 0.033465933 0.036085553 0.03867438 0.04120136 0.0436405
        0.045971073 0.048177376 0.050248273 0.052176576 0.053958427 0.05559253
        0.057080295 0.058422986 0.059577942 0.11798095 0.10635521 0.09468555
        0.08333149 0.072469145 0.06221511 0.052650448 0.04382055 0.03573188
        0.028353317 0.021626242 0.015486525 0.009909129 0.0049486523 0.0007349979
        0.002559035 0.0047762794 0.005847347 0.0058368705 0.004953829 0.0035236152
        0.0018685346 0.00020684558 0.0013265525 0.0026992953 0.0037538835 0.0042682667
        0.0043210583 0.0047013997 0.0032234672 0.002221416 0.0011350057 2.294879e-05
        0.001199119 0.0023733545 0.0035220552 0.004627342 0.0056705917 0.006632791
        0.0075080227 0.0083153425 0.009091032 0.009879543 0.0107277995 0.011680664
        0.012777526 0.014049768 0.015519101 0.017196795 0.019083722 0.021171408
        0.02344304 0.025872115 0.028423324 0.03105667 0.033731002 0.03640675
        0.039047882 0.041623097 0.044106435 0.04647732 0.048720315 0.050824553
        0.052783117 0.054592416 0.056251366 0.05776159 0.05912446 0.060296427
        0.11858083 0.106753506 0.09490087 0.08337754 0.07235317 0.061939903
        0.05221743 0.0432332 0.034998424 0.02748792 0.020648599 0.01442041
        0.0087812785 0.003788492 0.00042543357 0.0036856693 0.0058348654 0.0068066916
        0.0066724042 0.0056503243 0.004076381 0.0022821918 0.00049245136 0.0011539374
        0.0026231636 0.0037543634 0.004321271 0.0044028736 0.004791952 0.0033292654
        0.0023290494 0.0012358113 6.677995e-05 0.0011216484 0.002306724 0.0034627288
        0.004569962 0.005608343 0.0065579223 0.007412834 0.008193461 0.008938451
        0.009695297 0.010514252 0.011443423 0.012524984 0.013792331 0.015268216
        0.01696391 0.018879345 0.0210044 0.023320219 0.025798121 0.028400723
        0.031086242 0.033812143 0.03653787 0.039226755 0.04184714 0.044372894
        0.046783414 0.049063276 0.05120171 0.053191885 0.055030324 0.056716036
        0.05825076 0.059635885 0.060827073 0.11881809 0.10677522 0.09473198
        0.08304178 0.07186833 0.06131898 0.051470697 0.0423707 0.034032173
        0.026433142 0.019523725 0.013246311 0.007580728 0.0025862723 0.0016024353
        0.0048089786 0.0068761553 0.0077407467 0.00748023 0.0063213594 0.0046092886
        0.002683526 0.0007739552 0.0009774745 0.0025362407 0.0037387642 0.004355019
        0.0044644233 0.0048631364 0.0034188277 0.002424739 0.0013296859 0.00015502518
        0.0010399836 0.0022301388 0.0033877224 0.004491311 0.0055194404 0.006451252
        0.0072808773 0.0080298865 0.008739074 0.009458703 0.010242089 0.011140343
        0.012198258 0.013451189 0.014922998 0.016625172 0.018557038 0.020707259
        0.0230554 0.025571061 0.028215148 0.03094437 0.033714943 0.036485344
        0.03921819 0.04188132 0.044448234 0.04689809 0.049215302 0.051388986
        0.05341226 0.055281606 0.056996033 0.058557287 0.059966736 0.0611793
        0.11871062 0.10643771 0.09419577 0.08234012 0.07102902 0.06036476
        0.050420497 0.04124127 0.032839734 0.025194464 0.018256465 0.011968745
        0.0063117924 0.0013461058 0.002792159 0.00592544 0.007896975 0.008646669
        0.0082578035 0.0069646556 0.005120321 0.003070795 0.0010498984 0.0007983514
        0.0024394793 0.0037078357 0.0043700724 0.0045060944 0.0049151783 0.0034922003
        0.0025083737 0.0014163883 0.00024143196 0.0009545903 0.0021441828 0.003297756
        0.004392267 0.0054049436 0.0063140346 0.0071136085 0.007826263 0.008494707
        0.009171692 0.00991331 0.010773437 0.011799327 0.013028259 0.014485321
        0.016182467 0.018118797 0.020282213 0.022651179 0.025193999 0.027870227
        0.030635271 0.033444203 0.036254518 0.039028015 0.04173185 0.04433899
        0.046828132 0.049183346 0.051393464 0.053451393 0.05535346 0.057098556
        0.05868838 0.060124185 0.061360266 0.11827206 0.105754316 0.09330539
        0.08128537 0.069847345 0.05908834 0.049076684 0.0398535 0.03142857
        0.023778515 0.016852856 0.010593345 0.0049797785 7.295849e-05 0.003990033
        0.007030922 0.008893648 0.009521224 0.009002295 0.0075777546 0.0056073666
        0.0034422253 0.0013188333 0.0006177175 0.002333774 0.0036622572 0.0043669213
        0.0045282114 0.0049482523 0.0035493928 0.0025798157 0.0014956567 0.00032562768
        0.00086594943 0.0020494552 0.003193564 0.0042737243 0.005265929 0.0061475504
        0.006912521 0.0075843013 0.0082072625 0.0088363495 0.009530135 0.01034501
        0.011330538 0.012525904 0.01395755 0.015638186 0.017567089 0.01973187
        0.022110373 0.024670033 0.02736936 0.030162675 0.033003967 0.03584972
        0.03866079 0.041403506 0.04405008 0.04657858 0.048972525 0.05122031
        0.053314477 0.05525109 0.057028823 0.058649246 0.060113437 0.061375152
        0.117512286 0.10473472 0.09207068 0.079887524 0.06833336 0.057499588
        0.04744873 0.03821628 0.02980697 0.02219299 0.015320089 0.009126844
        0.0035909691 0.0012273643 0.0051907725 0.008120695 0.009862012 0.010360795
        0.0097106 0.00815802 0.0060682213 0.0037960133 0.0015793248 0.00043668208
        0.0022199587 0.0036026356 0.004345984 0.0045310375 0.004962485 0.0035903791
        0.0026389004 0.0015672083 0.00040722298 0.0007745568 0.0019465671 0.0030758919
        0.0041365856 0.005103485 0.005953099 0.0066791456 0.0073057706 0.007878749
        0.008454909 0.009094996 0.009857655 0.010794604 0.011946914 0.013342529
        0.01499521 0.016904833 0.019059196 0.021436011 0.024002258 0.02671573
        0.029529838 0.03239756 0.035274327 0.03811994 0.040899724 0.043584958
        0.046152882 0.04858629 0.050872967 0.053004958 0.054977935 0.05679026
        0.0584433 0.059937906 0.061227366 0.11643778 0.103385344 0.09049846
        0.078154095 0.06649529 0.055607323 0.045545787 0.036338866 0.027984016
        0.020446649 0.013666478 0.007577045 0.0021526054 0.0025482313 0.006388394
        0.009189446 0.010797425 0.011161393 0.0103793405 0.008702641 0.0065005915
        0.0041303295 0.0018299527 0.00025631223 0.0020988064 0.003529505 0.0043076063
        0.004514772 0.0049579535 0.0036150967 0.0026854372 0.0016307408 0.0004858128
        0.00068092067 0.0018361409 0.0029454937 0.0039817635 0.0049187113 0.0057319957
        0.006415041 0.0069924975 0.0075112698 0.0080297515 0.008610535 0.009314249
        0.010194598 0.011294511 0.0126435775 0.014256906 0.016135389 0.01826751
        0.020631326 0.023193795 0.025912313 0.02873958 0.031627644 0.034530837
        0.03740781 0.040222716 0.042945724 0.045553043 0.04802656 0.050353292
        0.052524645 0.05453577 0.05638463 0.058072306 0.05959935 0.06091868
        0.115051776 0.10170956 0.088592835 0.07609033 0.06433975 0.053419467
        0.043376844 0.034230903 0.025969628 0.018549308 0.0119014615 0.0059528165
        0.00067287247 0.0038822026 0.007576233 0.010231294 0.0116947815 0.011918665
        0.011004882 0.009208643 0.006902098 0.0044433195 0.002069315 7.763015e-05
        0.001971026 0.0034433254 0.004252061 0.004479553 0.0049346895 0.0036234478
        0.0027192098 0.0016859326 0.0005609774 0.0005855611 0.0017188075 0.0028031308
        0.003810174 0.004712711 0.005485567 0.0061217933 0.0066463565 0.0071070157
        0.0075633964 0.0080796005 0.00871795 0.009533949 0.010572348 0.0118644945
        0.013427134 0.015262591 0.01736051 0.019699795 0.022247827 0.024961937
        0.027794354 0.030696277 0.033620946 0.036525756 0.039373543 0.042133182
        0.044779662 0.047293786 0.04966162 0.05187379 0.053924803 0.055812113
        0.057536434 0.059097953 0.060449276 0.11335439 0.0997078 0.08635523
        0.07369936 0.06187192 0.050943248 0.040950872 0.0319026 0.023774646
        0.016511887 0.010035602 0.004264077 0.0008391207 0.0052210493 0.008746958
        0.011239801 0.01254852 0.012627904 0.011583329 0.0096728895 0.0072702817
        0.0047331112 0.002296031 9.838969e-05 0.0018372602 0.0033444802 0.0041795447
        0.004425455 0.004892675 0.0036153 0.002739976 0.0017324435 0.00063228334
        0.0004890079 0.0015952046 0.0026495678 0.0036227356 0.0044865897 0.005215145
        0.005801005 0.006269265 0.006668256 0.0070584924 0.0075052325 0.008072188
        0.008816448 0.009784507 0.01100957 0.012510272 0.014290756 0.016342314
        0.018645192 0.021167655 0.023867358 0.026696306 0.029605001 0.032545608
        0.0354742 0.038352158 0.041146893 0.04383199 0.046386972 0.048796784
        0.051051103 0.053143665 0.0550713 0.056834266 0.058432307 0.059817776
        0.111342594 0.09737754 0.08378459 0.07098243 0.05909579 0.048185445
        0.03827705 0.029364863 0.021410933 0.014346465 0.008080614 0.0025217913
        0.0023733582 0.006555776 0.009892597 0.012207991 0.013352643 0.01328406
        0.0121105425 0.010092088 0.0076026097 0.004997818 0.0025087462 0.00027082383
        0.0016980835 0.0032332737 0.00409018 0.00435249 0.004831848 0.0035904862
        0.002747469 0.0017699155 0.0006992848 0.0003917996 0.0014659751 0.0024855705
        0.0034203646 0.0042414493 0.0049220636 0.005454291 0.0058631743 0.006197329
        0.0065178084 0.006890662 0.0073806597 0.008046232 0.00893551 0.010083602
        0.011511242 0.0132247545 0.015217532 0.017471671 0.019956809 0.022631347
        0.025447384 0.028354913 0.031305104 0.034252673 0.037157446 0.039985195
        0.04270792 0.045303673 0.047756083 0.050053712 0.052189376 0.054159157
        0.05596274 0.057599362 0.059021156 0.10901002 0.0947133 0.0808773
        0.06793893 0.05601435 0.04515263 0.035365008 0.026629532 0.01889152
        0.012066355 0.0060493806 0.0007379616 0.0039189393 0.007876643 0.011004549
        0.013128369 0.014100718 0.013881745 0.012582145 0.010462802 0.007896483
        0.005235546 0.0027061366 0.00043880346 0.001553998 0.0031099299 0.00398401
        0.004260605 0.004752101 0.0035488058 0.0027413978 0.001797974 0.0007615241
        0.00029448193 0.0013317651 0.0023119044 0.003203972 0.0039783847 0.0046076495
        0.0050832722 0.005430061 0.0056966324 0.005944222 0.0062392913 0.006647315
        0.007227788 0.00803032 0.009091912 0.010435555 0.012070063 0.013991355
        0.016183881 0.018619167 0.021256834 0.024049452 0.026946781 0.02989913
        0.03285988 0.035787232 0.03864518 0.04140395 0.044039913 0.046535198
        0.048877057 0.051057223 0.053070884 0.054917045 0.056594316 0.058054645
        0.1063467 0.09170637 0.0776272 0.06456659 0.052629862 0.041851502
        0.03222517 0.023709623 0.016230803 0.009686212 0.0039559957 0.001074376
        0.005464103 0.0091732 0.012073622 0.013992934 0.014785903 0.014415247
        0.012993524 0.010781457 0.008149243 0.0054444005 0.0028869146 0.00060151826
        0.001405431 0.0029745863 0.003860997 0.004149684 0.0046532806 0.003490025
        0.0027214473 0.0018162278 0.0008185332 0.0001976066 0.001193222 0.0021293315
        0.0029744615 0.0036984796 0.0042732195 0.004689563 0.0049719154 0.00516861
        0.005340705 0.005554684 0.0058763474 0.0063659432 0.0070743435 0.008040371
        0.009289358 0.010832842 0.012669663 0.014787102 0.017159112 0.01974706
        0.022504456 0.025381178 0.028326895 0.03129376 0.034238316 0.03712267
        0.0399151 0.042590093 0.045128066 0.04751475 0.049740605 0.05179976
        0.053690404 0.05541041 0.056911528 0.1033386 0.088344574 0.07402543
        0.06086152 0.04894411 0.038289264 0.028869122 0.020619657 0.0134447245
        0.0072221262 0.001815789 0.0029011657 0.006996259 0.010434308 0.013090045
        0.014793195 0.015400944 0.0148785375 0.013339848 0.011044347 0.008358183
        0.005622497 0.0030498358 0.0007582209 0.00125273 0.0028272928 0.0037210193
        0.0040195445 0.0045351926 0.0034138768 0.0026872791 0.0018242699 0.00086983416
        0.000101730206 0.0010509937 0.0019386085 0.0027327249 0.0034028 0.0039200713
        0.004274768 0.0044907317 0.004615738 0.004710308 0.004840544 0.005072178
        0.005465853 0.006073437 0.006935424 0.00807948 0.009520033 0.0112591535
        0.013287411 0.015581732 0.018105801 0.020814622 0.023658648 0.026587253
        0.029551545 0.032506455 0.03541215 0.038234808 0.040946823 0.04352666
        0.045958318 0.048230752 0.05033685 0.05227381 0.054038636 0.055582836
        0.099966906 0.08461175 0.07006027 0.05681839 0.044958815 0.034474105
        0.025310073 0.017376008 0.010551015 0.0046917424 0.00035464298 0.004727351
        0.008502025 0.011648191 0.014043504 0.0155202 0.015938198 0.015265276
        0.013616068 0.01124765 0.00852056 0.0057679676 0.0031937056 0.00090823194
        0.0010961598 0.0026680038 0.0035638676 0.0038699366 0.0043975995 0.0033200625
        0.0026385316 0.0018216784 0.00091493985 7.4133122e-06 0.0009057264 0.0017404847
        0.00247964 0.0030923926 0.0035494799 0.003840469 0.0039884974 0.004040512
        0.004056141 0.0041007 0.0042394334 0.004532989 0.005033902 0.005784103
        0.006813495 0.008139449 0.009767494 0.011691888 0.013893056 0.016337626
        0.018982725 0.021779964 0.02467889 0.02762988 0.03058642 0.033506736
        0.03635478 0.039100688 0.04172072 0.04419687 0.046516363 0.048670594
        0.0506556 0.052467316 0.054056942 0.096207 0.080487095 0.06571683
        0.05243056 0.040676095 0.030415813 0.021563409 0.013997302 0.0075694327
        0.0021143602 0.0025374237 0.0065369057 0.009967271 0.012802463 0.01492317
        0.016164541 0.016389636 0.015568818 0.01381693 0.011387431 0.0086336015
        0.005878974 0.0033173875 0.0010509448 0.00093589566 0.0024965748 0.0033892407
        0.0037005413 0.0042402237 0.0032082507 0.0025748198 0.0018080159 0.0009533545
        8.4780084e-05 0.00075806474 0.0015357014 0.0022160688 0.0027682781 0.0031626876
        0.003388219 0.0034671784 0.0034454293 0.0033813561 0.00333908 0.003382925
        0.0035731199 0.003962477 0.004594049 0.0054997643 0.0066998755 0.008203485
        0.010008839 0.012100356 0.014448234 0.017012436 0.019746438 0.022600582
        0.025524996 0.028472023 0.03139806 0.03426481 0.037039958 0.039697327
        0.042216636 0.04458307 0.046786282 0.04882087 0.05068152 0.05231894
        0.09202698 0.07594421 0.06097676 0.047690395 0.036099143 0.026126543
        0.017647363 0.010504891 0.0045220098 0.0004889696 0.0047133993 0.008312883
        0.011377181 0.013884185 0.01571773 0.016716378 0.016746854 0.015782224
        0.013936979 0.011459662 0.008694525 0.0059537212 0.0034198137 0.0011858322
        0.00077201886 0.0023127538 0.0031967382 0.0035109683 0.004062749 0.0030780765
        0.0024957352 0.00178283 0.0009845733 0.00017428263 0.0006086507 0.0013249898
        0.0019428537 0.0024314492 0.0027609018 0.002919531 0.0029287082 0.0028329727
        0.002689125 0.002559686 0.0025076205 0.0025922833 0.0028663233 0.0033735146
        0.0041474886 0.0052111796 0.006577234 0.008248066 0.010212487 0.012444873
        0.0149087785 0.017560374 0.020351592 0.023232996 0.026156275 0.029076286
        0.031952552 0.03475021 0.037440423 0.040000327 0.04241274 0.044665225
        0.04675067 0.048662208 0.05034983 0.08738542 0.07094974 0.05581777
        0.042589713 0.031233195 0.021621816 0.013583784 0.006923329 0.0014332936
        0.0030953821 0.0068621677 0.010037482 0.012716316 0.014879916 0.01641542
        0.017165458 0.01700108 0.015898265 0.013970568 0.011460228 0.008700552
        0.00599047 0.0034999943 0.0013124521 0.00060450914 0.0021161726 0.0029858549
        0.0033007518 0.003864822 0.0029291415 0.0024008441 0.0017456516 0.0010080815
        0.00026052282 0.00045812424 0.0011090722 0.0016608184 0.002082867 0.002345286
        0.0024358693 0.0023749748 0.0022055942 0.0019826167 0.0017665686 0.0016186113
        0.0015967546 0.0017529983 0.0021313594 0.0027667359 0.0036843973 0.004900336
        0.0064211464 0.008240294 0.010336855 0.012678731 0.015225699 0.017932253
        0.020750303 0.023631642 0.026530107 0.029403307 0.032213856 0.034930088
        0.037526246 0.03998241 0.042283658 0.04442078 0.046385016 0.04812525
        0.08222802 0.06546148 0.050213266 0.03712059 0.026086845 0.016921794
        0.009399061 0.0032808944 0.0016694424 0.0056801727 0.008962149 0.011692146
        0.013968708 0.015775774 0.017004067 0.017501125 0.01714318 0.015909422
        0.01391187 0.011384948 0.00864893 0.0059875576 0.003557032 0.0014304569
        0.0004332361 0.0019063359 0.0027559707 0.0030693447 0.0036460513 0.002761009
        0.002289685 0.0016959931 0.0010233528 0.0003429232 0.0003071255 0.00088866235
        0.0013707671 0.0017234591 0.0019169576 0.0019386434 0.0018078092 0.0015656966
        0.001264975 0.00096379424 0.00072107697 0.0005930077 0.0006304192 0.00087702763
        0.0013684557 0.0021318109 0.0031860468 0.0045417403 0.0061970702 0.008136178
        0.010331983 0.012748804 0.015344809 0.018074412 0.020890577 0.023746975
        0.026599867 0.029409597 0.03214163 0.03476707 0.037262842 0.03961108
        0.041799985 0.043818463 0.04561364 0.07648229 0.059425592 0.044131957
        0.031276807 0.020673996 0.012052895 0.0051251426 0.0003899127 0.004756049
        0.008216835 0.010990695 0.013257683 0.015117959 0.01655751 0.017471122
        0.017712347 0.017163668 0.015807897 0.013754891 0.011229595 0.008536953
        0.0059434203 0.0035901389 0.0015396025 0.00025794844 0.0016826055 0.0025063378
        0.0028161115 0.0034060106 0.0025732005 0.002161764 0.0016333447 0.0010298447
        0.00042089607 0.00015629827 0.00066446967 0.0010734878 0.0013541209 0.0014769841
        0.0014292004 0.0012289755 0.0009156199 0.00053929613 0.00015541633 0.00017975456
        0.00041233323 0.0004931876 0.0003794918 3.5532266e-05 0.0005669972 0.0014494292
        0.002625884 0.004099053 0.005858257 0.007881907 0.010139713 0.0125946775
        0.015205081 0.017926473 0.020713652 0.023522539 0.026311852 0.029044438
        0.031688143 0.034216385 0.03660781 0.038847413 0.040921155 0.042773455
        0.070048936 0.052772682 0.03753795 0.025056254 0.0150166275 0.0070498036
        0.0008006401 0.0040519307 0.007793443 0.010677178 0.012924269 0.014714436
        0.016147366 0.017210582 0.017803704 0.017787727 0.017052712 0.015585615
        0.013493477 0.010989918 0.008361996 0.0058566206 0.0035986567 0.0016397624
        7.825868e-05 0.001444181 0.002236064 0.0025403157 0.0031442356 0.0023651856
        0.0020165483 0.001557166 0.001026992 0.0004938367 6.297214e-06 0.000437206
        0.00076975755 0.00097571884 0.0010263851 0.00090882345 0.0006401635 0.00025762778
        0.00019139166 0.0006545543 0.0010786474 0.0014125457 0.0016093468 0.0016277282
        0.0014325824 0.0009951664 0.00029254155 0.0006922595 0.0019659267 0.0035227323
        0.005346733 0.0074136127 0.00969225 0.012146235 0.014735415 0.01741749
        0.020149687 0.022890372 0.025600564 0.028245136 0.030793795 0.033221155
        0.03550829 0.037637386 0.03954858 0.06278711 0.045412004 0.03039192
        0.018465195 0.009148648 0.001957858 0.0035280834 0.0076630437 0.010745699
        0.013031559 0.014738683 0.01604248 0.017040074 0.017720262 0.01798866
        0.017715532 0.016800145 0.015234248 0.013121346 0.010661681 0.008121558
        0.0057258876 0.003582088 0.0017309468 0.000106378146 0.0011900711 0.0019440888
        0.0022411023 0.0028602197 0.0021363676 0.0018534512 0.001466875 0.0010141933
        0.0005611105 0.00014219935 0.00020759825 0.00046035546 0.000589101 0.0005661385
        0.0003787348 4.2988973e-05 0.00040609826 0.0009241414 0.0014621743 0.0019703964
        0.0024008632 0.0027094062 0.0028568113 0.0028093026 0.002538548 0.0020209388
        0.0012376079 0.00017871596 0.0011543238 0.0027508994 0.004592793 0.0066554123
        0.008908898 0.011319179 0.013849071 0.016459456 0.019110568 0.021763368
        0.024380857 0.026929412 0.029379323 0.031706944 0.0338896 0.035860535
        0.05448774 0.037223086 0.022654973 0.011525401 0.0031211753 0.003164294
        0.007806002 0.011176136 0.013574334 0.015249239 0.016409434 0.0172219
        0.017779257 0.018071743 0.01801262 0.017483724 0.016395483 0.014745222
        0.012632118 0.010240713 0.007813317 0.0055501685 0.0035401375 0.0018133312
        0.00029669586 0.00091905385 0.0016291481 0.0019174671 0.0025534036 0.0018860591
        0.0016718124 0.0013618263 0.0009907917 0.0006220324 0.0002884684 2.3590277e-05
        0.00014608307 0.00019511615 9.719703e-05 0.00015989075 0.0005609975 0.0010734545
        0.0016560913 0.0022635828 0.002849857 0.003370527 0.0037846118 0.0040555717
        0.004151671 0.004045869 0.003714936 0.0031392642 0.0023070294 0.0012163972
        0.00012648474 0.0017089515 0.0035128784 0.0055155423 0.0076903338 0.010007375
        0.012434114 0.014935969 0.017477129 0.020021483 0.022533916 0.024981095
        0.027334264 0.029564649 0.031593937 0.044823147 0.028043864 0.0142987985
        0.0042860066 0.0029907052 0.008242091 0.011968948 0.014539426 0.016238846
        0.017298901 0.017912129 0.018233089 0.018348344 0.018250275 0.017862087
        0.017080015 0.015827972 0.014109773 0.012019367 0.009722978 0.007435211
        0.0053286995 0.0034727696 0.0018872973 0.00049366255 0.0006296193 0.0012897254
        0.0015682162 0.0022231564 0.0016134429 0.0014708642 0.00124128 0.0009560409
        0.00067583355 0.00043170838 0.0002555251 0.00017220037 0.00020535287 0.00037948103
        0.0007058979 0.0011702847 0.0017423945 0.0023844512 0.0030549983 0.0037119605
        0.004314822 0.004826177 0.0052126483 0.0054451833 0.005498877 0.0053519667
        0.0049854033 0.0043867854 0.00355246 0.002485519 0.0011943819 0.00030822674
        0.0020061156 0.0038802812 0.0059093623 0.008069883 0.010336303 0.012680978
        0.015074122 0.01748418 0.019878002 0.0222236 0.02448579 0.026565837
        0.03324597 0.017655004 0.0053301686 0.0031577388 0.0090801325 0.013183151
        0.015943881 0.017697288 0.018697526 0.019149313 0.019222988 0.01905714
        0.018731251 0.018241327 0.017523522 0.01649191 0.01508662 0.01331898
        0.01127669 0.009104665 0.0069855344 0.005061097 0.0033802825 0.0019534845
        0.00069853646 0.00031989877 0.00092399074 0.0011919095 0.001868752 0.0013175232
        0.0012496889 0.0011043578 0.0009090622 0.0007216168 0.00057099335 0.0004872534
        0.0004935294 0.00061134144 0.00086288684 0.0012581071 0.0017833589 0.0024108896
        0.0031064695 0.0038326974 0.0045517064 0.0052270987 0.0058253407 0.0063166004
        0.0066750264 0.006878582 0.0069080065 0.0067461506 0.0063815624 0.005810399
        0.0050344598 0.004059857 0.0028960067 0.0015546968 4.9249134e-05 0.001606196
        0.0033971816 0.005309111 0.007327025 0.009434882 0.011614643 0.013844578
        0.016099969 0.018346498 0.02044746 0.018776365 0.005763358 0.004152102
        0.010637165 0.015001291 0.01787697 0.01965013 0.020591483 0.02090839
        0.020769978 0.020319298 0.019676114 0.018912558 0.018030643 0.016983358
        0.015706705 0.014160182 0.012363769 0.010397722 0.008382233 0.006462997
        0.0047474005 0.0032633375 0.002012794 0.00091288105 1.237269e-05 0.00052977493
        0.0007868365 0.0014893833 0.0009970992 0.0010072038 0.0009500268 0.00084882556
        0.00075833633 0.00070525036 0.00071767886 0.0008168056 0.0010217767 0.0013519366
        0.0018152912 0.0023986814 0.0030769103 0.0038194195 0.0045930096 0.0053641773
        0.0061008134 0.006773452 0.007356056 0.00782632 0.008165609 0.008358034
        0.008389634 0.008251409 0.007940898 0.00746037 0.006815745 0.006015735
        0.005070965 0.0039930497 0.0027936187 0.0014832901 7.065464e-05 0.0014386975
        0.0030429284 0.0047445972 0.0065501803 0.008471421 0.010517632 0.0124855
        0.00046826122 0.008079899 0.01393999 0.018006532 0.020699633 0.022327984
        0.023126455 0.023279713 0.022938574 0.022231478 0.021271186 0.02015694
        0.018954167 0.017674213 0.016291372 0.014768069 0.013086648 0.011277074
        0.009411064 0.0075805346 0.005888751 0.004404858 0.0031353359 0.0020750724
        0.001144084 0.00037278264 0.00010347559 0.0003509125 0.0010832715 0.0006524255
        0.0007448325 0.0007804162 0.00077800854 0.00078916416 0.00083818944 0.00095116824
        0.001147254 0.0014430216 0.0018544085 0.00238686 0.0030274813 0.0037536644
        0.004538587 0.0053533125 0.00616876 0.0069571617 0.007693177 0.008354631
        0.008922868 0.009382851 0.009722591 0.009932396 0.010007014 0.009946516
        0.0097548505 0.009439241 0.009009668 0.008478306 0.00785894 0.0071663605
        0.0064157657 0.0056222086 0.0048000873 0.0039627845 0.003122201 0.0022891487
        0.0014711424 0.0006800748 0.00021224841
      </DataArray>
      <DataArray type="Float32" Name="aspect_ratio" format="ascii" RangeMin="1.0003269910812378" RangeMax="10.180831909179688">
        1.6233448 1.8373411 2.0522237 2.2806263 2.5256276 2.7890582
        3.0719805 3.374801 3.697195 4.037906 4.394424 4.7625265
        5.1360474 5.5078354 5.871433 6.222584 6.5602746 6.8865304
        7.2050014 7.519119 7.829567 8.13272 8.422496 8.692346
        8.936014 9.149696 9.322209 9.4489155 9.79835 10.085862
        10.022612 9.884231 9.679288 9.410979 9.087726 8.717643
        8.310027 7.8742356 7.419685 6.955518 6.4899654 6.029905
        5.580853 5.1470904 4.7318053 4.3372507 3.9648964 3.6155646
        3.2895505 2.9867294 2.706639 2.4485316 2.2114391 1.9942721
        1.7958825 1.6150925 1.4507177 1.3015848 1.1665465 1.0444921
        1.0702542 1.1974173 1.340739 1.5023085 1.6844893 1.8899497
        2.1217208 2.3831291 2.6954832 1.639349 1.8420632 2.0523863
        2.2791305 2.5236855 2.7871933 3.0704155 3.3736129 3.6963832
        4.037424 4.394203 4.7624893 5.1361313 5.5079966 5.8716383
        6.222794 6.560426 6.8865333 7.204759 7.5185547 7.82863
        8.13141 8.420845 8.690387 8.93384 9.147254 9.319524
        9.446028 9.795561 10.08314 10.019857 9.881528 9.67671
        9.408583 9.085556 8.715737 8.308415 7.8729362 7.4187064
        6.954849 6.48958 6.0297637 5.58091 5.147295 4.7321053
        4.337598 3.9652467 3.6158812 3.2898061 2.986905 2.706726
        2.4485302 2.2113574 1.9941242 1.795688 1.6148753 1.4505045
        1.3014047 1.1664298 1.0444704 1.0701332 1.1970366 1.3399168
        1.5007739 1.6818498 1.8856517 2.1150072 2.3729744 2.6804326
        1.6560664 1.8497931 2.0554683 2.279946 2.5234938 2.7866554
        3.0698745 3.373237 3.6962388 4.0375147 4.3944945 4.7629275
        5.1366568 5.5085535 5.872171 6.223241 6.560709 6.886566
        7.2044687 7.517901 7.827605 8.130042 8.419183 8.688467
        8.931754 9.144987 9.317107 9.443488 9.793197 10.080913
        10.017637 9.879391 9.674718 9.406782 9.083986 8.714428
        8.307387 7.8722014 7.418266 6.9546885 6.4896736 6.030075
        5.5813966 5.14791 4.732802 4.3383317 3.9659784 3.6165788
        3.290446 2.9874735 2.707219 2.4489522 2.2117207 1.994446
        1.7959899 1.6151822 1.4508437 1.3018041 1.1669174 1.0450734
        1.0692831 1.1957425 1.3379769 1.4979168 1.6777195 1.8797903
        2.1068442 2.3617969 2.6652503 1.6730293 1.86156 2.062999
        2.284598 2.526374 2.7885299 3.0712361 3.3743887 3.6973555
        4.0386853 4.3957486 4.7642508 5.137999 5.509839 5.87331
        6.2241354 6.5612636 6.886705 7.204159 7.517168 7.826515
        8.1286745 8.417607 8.686725 8.929931 9.143126 9.31525
        9.441633 9.791638 10.079592 10.016384 9.878261 9.673758
        9.406027 9.083462 8.714152 8.307371 7.872445 7.41876
        6.9554133 6.490603 6.0311775 5.5826354 5.149246 4.7341967
        4.339749 3.9673874 3.6179554 3.291775 2.988749 2.7084455
        2.450143 2.2128935 1.9956216 1.7971913 1.6164335 1.4521687
        1.3032247 1.1684514 1.0467334 1.0672385 1.1930022 1.3343363
        1.4931346 1.6715212 1.8718727 2.0968866 2.3494563 2.6500514
        1.6901448 1.8754077 2.073513 2.2923236 2.5320356 2.7927868
        3.0746026 3.3772337 3.6999273 4.0411396 4.39817 4.766661
        5.140358 5.5120583 5.8752704 6.225708 6.5623364 6.887211
        7.2041 7.5166297 7.825629 8.127563 8.416366 8.685396
        8.928599 9.141882 9.314146 9.4406395 9.791047 10.079325
        10.016224 9.878244 9.673918 9.406384 9.084032 8.714942
        8.308381 7.873667 7.4201746 6.9569983 6.492335 6.03303
        5.5845804 5.1512537 4.7362385 4.3417974 3.9694211 3.6199594
        3.2937417 2.990681 2.7103543 2.452047 2.2148132 1.9975779
        1.799204 1.6185206 1.4543442 1.3054972 1.1708227 1.0491973
        1.0643507 1.1893146 1.3296735 1.4873036 1.6643138 1.8630674
        2.086253 2.3367388 2.6348464 1.7074085 1.8904843 2.0860424
        2.3023999 2.5400386 2.7991939 3.0798671 3.3817313 3.7039437
        4.044876 4.401754 4.770144 5.143712 5.515185 5.8780265
        6.22794 6.563918 6.888083 7.204298 7.5162897 7.824942
        8.126696 8.415432 8.684448 8.927724 9.141205 9.313726
        9.440429 9.791332 10.0800085 10.017049 9.87923 9.67508
        9.407733 9.085571 8.716671 8.310291 7.87574 7.4223866
        6.9593244 6.4947543 6.0355234 5.587128 5.153836 4.738835
        4.344392 3.9720004 3.6225166 3.2962775 2.9932034 2.71288
        2.454596 2.2174058 2.0002303 1.8019294 1.6213262 1.4572313
        1.3084593 1.173846 1.0522603 1.0608778 1.1850058 1.3243786
        1.4808608 1.6565502 1.853797 2.0752788 2.3238354 2.6196337
        1.7248403 1.9063832 2.0999877 2.3142655 2.5499609 2.8074703
        3.0868545 3.3877718 3.709329 4.049832 4.4064374 4.774631
        5.1479845 5.5191374 5.8814983 6.230756 6.5659404 6.889261
        7.204696 7.516093 7.8243933 8.126001 8.414729 8.683798
        8.927216 9.140994 9.313882 9.440884 9.792365 10.081504
        10.018719 9.881073 9.677102 9.40993 9.087939 8.7192
        8.312965 7.878535 7.4252715 6.962273 6.49775 6.038553
        5.590181 5.156901 4.7419024 4.3474545 3.9750535 3.6255612
        3.2993193 2.9962554 2.7159598 2.457724 2.2205977 2.0034962
        1.8052716 1.6247408 1.460706 1.3119745 1.1773756 1.0557735
        1.056994 1.1802771 1.3186717 1.474032 1.6484444 1.8442456
        2.0641003 2.310818 2.6044087 1.7424661 1.9228956 2.1149783
        2.3275118 2.5614455 2.8173451 3.0953722 3.3952203 3.7159824
        4.055924 4.4121413 4.7800407 5.1530895 5.5238276 5.885597
        6.2340717 6.5683284 6.8906775 7.2052336 7.515979 7.823919
        8.125411 8.414182 8.68336 8.926988 9.141154 9.314507
        9.441894 9.794024 10.083682 10.021102 9.883644 9.679853
        9.412848 9.091011 8.722406 8.316285 7.881936 7.428719
        6.9657407 6.501224 6.042029 5.5936546 5.1603713 4.7453694
        4.350919 3.9785192 3.6290348 3.3028114 2.999781 2.7195365
        2.4613688 2.2243202 2.0072973 1.8091438 1.6286678 1.4646641
        1.315934 1.1813023 1.059632 1.0528148 1.1752542 1.3126823
        1.4669428 1.6401101 1.8345066 2.0527837 2.2977192 2.5891657
        1.7603137 1.939909 2.1307817 2.341848 2.574207 2.828576
        3.105232 3.4039342 3.7237942 4.0630593 4.4187813 4.786289
        5.1589417 5.5291686 5.8902397 6.2378106 6.571012 6.892271
        7.205855 7.5158944 7.823463 8.124864 8.413722 8.683066
        8.926965 9.141604 9.315511 9.44336 9.7962055 10.086432
        10.024086 9.88683 9.683222 9.416376 9.094677 8.726186
        8.3201475 7.885845 7.4326363 6.96964 6.505096 6.0458736
        5.597478 5.164181 4.749174 4.354728 3.9823437 3.632886
        3.306703 3.0037284 2.7235558 2.4654715 2.2285087 2.0115628
        1.8134685 1.6330249 1.4690207 1.3202531 1.1855456 1.0637621
        1.0484182 1.170018 1.3064902 1.4596676 1.6316128 1.8246326
        2.0413651 2.284556 2.5738995 1.7784115 1.9573618 2.1472487
        2.357067 2.5880215 2.840955 3.1162586 3.413773 3.732651
        4.0711436 4.426272 4.7932944 5.165459 5.53508 5.895348
        6.2419004 6.573927 6.8939857 7.2065105 7.5157933 7.8229795
        8.124309 8.413296 8.6828575 8.927085 9.142274 9.316818
        9.445205 9.7988205 10.08966 10.027576 9.890537 9.687113
        9.420421 9.098845 8.730447 8.324466 7.8901796 7.4369445
        6.973896 6.5092945 6.050022 5.60159 5.168273 4.7532635
        4.358832 3.9864786 3.637068 3.310948 3.0080502 2.7279668
        2.4699774 2.2331038 2.0162294 1.8181785 1.6377435 1.4737079
        1.3248674 1.1900461 1.0681119 1.0438572 1.164622 1.3001468
        1.4522538 1.6229926 1.8146552 2.0298655 2.2713368 2.5586045
        1.7967873 1.9752209 2.1642823 2.373021 2.602715 2.854308
        3.1282942 3.4246018 3.7424395 4.080079 4.434525 4.8009734
        5.1725616 5.541485 5.90085 6.2462745 6.5770164 6.895773
        7.2071595 7.515638 7.82243 8.123706 8.412859 8.682684
        8.927298 9.143106 9.318365 9.447356 9.801792 10.093281
        10.031488 9.894679 9.691443 9.424899 9.1034355 8.735111
        8.329165 7.8948665 7.4415746 6.978444 6.513759 6.054417
        5.605937 5.172597 4.7575903 4.3631854 3.9908805 3.641538
        3.315502 3.0127008 2.7327218 2.4748356 2.2380514 2.0212405
        1.8232168 1.642767 1.4786717 1.3297268 1.1947601 1.0726442
        1.0391697 1.1591029 1.2936869 1.4447323 1.614276 1.8045944
        2.0182977 2.2580664 2.543276 1.8154687 1.9934703 2.181818
        2.3896017 2.6181514 2.8684883 3.1411982 3.4362938 3.7530487
        4.089768 4.4434533 4.8092446 5.1801724 5.5483093 5.906676
        6.2508726 6.580227 6.8975887 7.207764 7.5153956 7.821783
        8.123022 8.412375 8.682508 8.927559 9.144053 9.320096
        9.449757 9.805055 10.097227 10.035751 9.899185 9.69614
        9.429741 9.108378 8.740112 8.334179 7.8998423 7.4464664
        6.9832273 6.518436 6.059008 5.6104712 5.177108 4.7621107
        4.367746 3.9955084 3.6462548 3.3203237 3.017637 2.7377753
        2.479999 2.2433033 2.0265465 1.8285344 1.6480485 1.4838687
        1.3347931 1.1996543 1.0773318 1.0343823 1.153487 1.2871345
        1.4371243 1.6054803 1.7944633 2.0066693 2.2447467 2.5279093
        1.8344834 2.0121047 2.199813 2.406731 2.6342242 2.8833745
        3.154846 3.4487312 3.7643714 4.100115 4.452969 4.8180275
        5.188215 5.555482 5.9127617 6.255636 6.58351 6.899393
        7.208292 7.5150385 7.821012 8.12223 8.411816 8.682298
        8.927834 9.145072 9.321964 9.452353 9.808552 10.101435
        10.0403 9.903991 9.701141 9.434881 9.113611 8.745389
        8.339449 7.905051 7.4515667 6.988195 6.5232778 6.06375
        5.61515 5.181764 4.766785 4.3724756 4.000324 3.6511796
        3.3253732 3.022818 2.7430856 2.4854245 2.2488155 2.0321047
        1.8340899 1.6535496 1.4892644 1.3400363 1.2047039 1.0821544
        1.0295154 1.147793 1.280507 1.4294448 1.5966178 1.7842706
        1.9949857 2.231378 2.5125 1.8538587 2.0311255 2.2182386
        2.424349 2.650848 2.8988643 3.169128 3.461805 3.776305
        4.111025 4.4629855 4.827241 5.1966143 5.5629344 5.9190445
        6.260512 6.5868206 6.9011493 7.2087145 7.5145426 7.820096
        8.121306 8.411155 8.682023 8.92809 9.146129 9.323931
        9.4551 9.812232 10.105847 10.045079 9.909038 9.706387
        9.440265 9.119078 8.750886 8.344921 7.9104424 7.456826
        6.993301 6.52824 6.068601 5.619933 5.1865277 4.7715764
        4.377337 4.0052896 3.656275 3.3306127 3.0282052 2.7486129
        2.491072 2.2545488 2.0378768 1.8398478 1.659238 1.4948305
        1.3454323 1.2098893 1.0870967 1.0245837 1.1420352 1.2738168
        1.4217048 1.587697 1.7740226 1.9832497 2.2179606 2.4970443
        1.8736221 2.0505393 2.2370765 2.4424117 2.6679537 2.9148703
        3.1839461 3.4754145 3.7887511 4.122404 4.473416 4.8368053
        5.2052975 5.5705986 5.9254646 6.265447 6.590116 6.902824
        7.2090054 7.5138874 7.8190155 8.1202345 8.410374 8.6816635
        8.928303 9.147193 9.325957 9.457959 9.81605 10.110416
        10.0500345 9.914274 9.711825 9.445839 9.124727 8.756553
        8.350549 7.9159694 7.4622016 6.9985037 6.5332837 6.073523
        5.624784 5.1913624 4.7764487 4.3822947 4.0103703 3.661505
        3.3360052 3.0337603 2.7543194 2.4969044 2.260467 2.0438294
        1.8457774 1.6650867 1.500544 1.350962 1.2151951 1.0921468
        1.0195992 1.1362242 1.2670738 1.4139122 1.5787244 1.7637234
        1.9714633 2.2044933 2.4815385 1.8938013 2.0703554 2.2563145
        2.4608831 2.685485 2.931317 3.199213 3.489466 3.8016152
        4.134163 4.484175 4.8466415 5.214191 5.578409 5.931964
        6.270393 6.593355 6.9043856 7.2091417 7.513055 7.8177557
        8.1189995 8.409455 8.6812 8.92845 9.148237 9.328014
        9.460893 9.819963 10.115095 10.05512 9.919652 9.717409
        9.451555 9.130512 8.762345 8.356286 7.9215894 7.4676523
        7.003764 6.5383716 6.0784807 5.629668 5.1962347 4.7813683
        4.3873143 4.0155315 3.6668346 3.341515 3.0394485 2.76017
        2.5028875 2.2665381 2.0499325 1.8518519 1.6710726 1.5063851
        1.3566097 1.2206088 1.0972952 1.0145708 1.1303685 1.2602851
        1.4060732 1.5697044 1.7533758 1.9596275 2.1909754 2.4659789
        1.9144243 2.0905852 2.2759452 2.4797359 2.7033925 2.9481385
        3.2148488 3.5038717 3.8148077 4.1462116 4.4951787 4.856671
        5.223223 5.586302 5.938486 6.2753015 6.5965014 6.9058056
        7.2091017 7.5120296 7.8163047 8.117588 8.408386 8.680617
        8.928513 9.149239 9.330073 9.46387 9.823936 10.119843
        10.060294 9.925126 9.723093 9.457371 9.13639 8.76822
        8.362093 7.9272637 7.4731402 7.0090466 6.543469 6.083441
        5.634553 5.201112 4.786303 4.3923635 4.020739 3.672229
        3.3471081 3.0452352 2.766131 2.5089893 2.2727318 2.056159
        1.8580476 1.6771753 1.5123373 1.3623619 1.22612 1.1025343
        1.0095063 1.1244749 1.2534568 1.3981926 1.5606407 1.7429821
        1.9477428 2.177405 2.450362 1.9355196 2.111242 2.2959642
        2.4989462 2.7216341 2.9652743 3.2307794 3.518549 3.8282413
        4.158465 4.506344 4.866816 5.232324 5.5942135 5.9449763
        6.280128 6.599518 6.9070573 7.2088666 7.510798 7.8146515
        8.115991 8.407156 8.679902 8.928474 9.150176 9.332109
        9.46686 9.827933 10.1246195 10.065514 9.930656 9.728836
        9.463243 9.142319 8.7741375 8.367931 7.932955 7.4786305
        7.0143175 6.548544 6.0883718 5.6394076 5.2059627 4.791221
        4.39741 4.025961 3.6776555 3.3527503 3.0510867 2.77217
        2.5151792 2.2790205 2.062484 1.8643429 1.6833766 1.5183859
        1.3682069 1.2317201 1.1078576 1.004412 1.1185491 1.2465937
        1.3902744 1.5515361 1.732544 1.9358095 2.1637814 2.4346848
        1.9571159 2.13234 2.3163688 2.5184934 2.740171 2.982669
        3.2469358 3.5334187 3.841832 4.1708374 4.5175886 4.877001
        5.241423 5.602082 5.951382 6.2848287 6.6023707 6.908115
        7.2084193 7.509349 7.812789 8.114202 8.405758 8.679044
        8.928322 9.151033 9.3341 9.469837 9.8319235 10.12939
        10.070742 9.936204 9.734599 9.469133 9.148262 8.78006
        8.373764 7.9386287 7.48409 7.0195456 6.553566 6.0932436
        5.6442018 5.210758 4.7960925 4.4024224 4.0311646 3.6830812
        3.358409 3.056971 2.7782564 2.521428 2.2853775 2.0688841
        1.8707178 1.6896597 1.524517 1.3741341 1.2374009 1.1132594
        1.0007071 1.1125959 1.2396998 1.3823217 1.5423928 1.7220622
        1.9238273 2.1501026 2.418944 1.9792429 2.1538937 2.3371572
        2.5383587 2.7589662 3.00027 3.2632508 3.5484037 3.8554976
        4.1832457 4.5288324 4.887149 5.2504525 5.609848 5.957652
        6.289362 6.6050286 6.908957 7.207745 7.5076733 7.81071
        8.112215 8.404184 8.678036 8.928044 9.1517935 9.336024
        9.472775 9.835876 10.13412 10.075942 9.941731 9.740344
        9.475005 9.1541815 8.7859535 8.379558 7.9442525 7.4894876
        7.0247 6.558506 6.0980287 5.648908 5.215469 4.8008876
        4.4073706 4.0363183 3.6884735 3.364052 3.0628567 2.7843597
        2.5277078 2.2917771 2.075337 1.877153 1.6960093 1.5307186
        1.380134 1.2431554 1.1187347 1.0058793 1.1066196 1.232779
        1.3743374 1.533213 1.7115381 1.9117962 2.136367 2.403137
        2.0019307 2.1759183 2.358328 2.5585225 2.777984 3.0180242
        3.2796593 3.5634294 3.8691573 4.195608 4.539996 4.897187
        5.2593455 5.6174526 5.9637375 6.293689 6.6074615 6.909562
        7.2068305 7.505764 7.8084116 8.110028 8.402432 8.676869
        8.927631 9.152443 9.337863 9.475653 9.839765 10.138779
        10.081082 9.947205 9.746037 9.4808235 9.160044 8.791782
        8.385281 7.9497952 7.4947934 7.0297537 6.563337 6.1026993
        5.6534996 5.2200675 4.8055773 4.4122243 4.0413914 3.6938014
        3.3696473 3.068712 2.7904496 2.5339909 2.298195 2.0818205
        1.8836302 1.7024096 1.536978 1.386197 1.2489763 1.1242784
        1.0111204 1.1006243 1.2258345 1.3663243 1.5239981 1.7009723
        1.8997159 2.1225739 2.3872607 2.0252101 2.1984289 2.379879
        2.5789657 2.797187 3.03588 3.2960954 3.5784202 3.8827312
        4.207844 4.551001 4.9070435 5.268037 5.62484 5.96959
        6.2977705 6.6096406 6.909911 7.205665 7.503615 7.8058906
        8.107639 8.400499 8.675541 8.927074 9.152968 9.3396
        9.478447 9.843561 10.143334 10.08613 9.95259 9.751643
        9.486555 9.165815 8.797517 8.390901 7.955227 7.49998
        7.0346785 6.5680323 6.10723 5.6579494 5.2245274 4.8101344
        4.4169545 4.0463543 3.6990335 3.3751638 3.0745063 2.796497
        2.540249 2.3046055 2.088313 1.8901308 1.7088456 1.5432832
        1.3923137 1.254857 1.1298858 1.0164274 1.0946139 1.2188696
        1.3582847 1.5147502 1.6903658 1.887586 2.1087213 2.3713124
        2.049113 2.2214396 2.401806 2.599666 2.816537 3.053783
        3.3124928 3.5933013 3.8961396 4.219873 4.561771 4.9166455
        5.2764635 5.6319547 5.9751663 6.3015723 6.6115413 6.9099874
        7.204239 7.5012226 7.8031473 8.105049 8.398385 8.674048
        8.926368 9.15336 9.341218 9.481138 9.847242 10.147759
        10.091053 9.957855 9.757131 9.492166 9.171464 8.803123
        8.396387 7.9605193 7.505019 7.039449 6.5725675 6.111597
        5.662234 5.2288227 4.814532 4.4215336 4.051176 3.704139
        3.38057 3.0802085 2.802472 2.5464554 2.310984 2.0947926
        1.8966355 1.7153015 1.5496215 1.3984742 1.2607898 1.1355513
        1.0217966 1.0885924 1.2118875 1.3502214 1.505471 1.6797192
        1.8754066 2.094808 2.3552897 2.0736718 2.2449644 2.424104
        2.6205995 2.8359914 3.0716758 3.3287823 3.607996 3.9093025
        4.2316155 4.57223 4.925925 5.2845635 5.6387444 5.980421
        6.3050604 6.6131387 6.909776 7.202545 7.498585 7.800183
        8.10226 8.39609 8.672389 8.925505 9.153606 9.342704
        9.483706 9.850783 10.152023 10.095821 9.962969 9.762467
        9.497625 9.176959 8.808573 8.401712 7.9656444 7.5098853
        7.044041 6.5769186 6.1157756 5.6663284 5.232929 4.8187437
        4.4259334 4.055829 3.7090878 3.385835 3.085788 2.8083446
        2.5525808 2.3173041 2.1012359 1.9031247 1.7217605 1.5559793
        1.404668 1.2667667 1.1412694 1.0272243 1.0825638 1.204892
        1.3421372 1.4961623 1.6690338 1.8631777 2.080833 2.33919
        2.0989194 2.2690153 2.4467635 2.6417365 2.8555038 3.0894973
        3.344892 3.6224256 3.922139 4.242993 4.5823035 4.934814
        5.292278 5.6451592 5.985315 6.308204 6.614412 6.909265
        7.2005777 7.4957027 7.797 8.099275 8.393615 8.670563
        8.924482 9.1537 9.344043 9.486133 9.85416 10.156101
        10.100408 9.967901 9.767623 9.502902 9.18227 8.813835
        8.406848 7.970576 7.514553 7.0484295 6.581062 6.1197433
        5.6702104 5.236823 4.822745 4.430127 4.0602837 3.7138498
        3.390928 3.0912135 2.814084 2.5585964 2.3235388 2.107618
        1.909577 1.7282046 1.5623417 1.4108832 1.2727789 1.1470335
        1.0327059 1.0765328 1.1978871 1.3340353 1.4868267 1.6583109
        1.8508993 2.066795 2.3230107 2.1248896 2.2936032 2.4697716
        2.6630433 2.8750212 3.10718 3.3607452 3.636509 3.9345677
        4.2539268 4.5919194 4.943248 5.29955 5.6511507 5.989809
        6.310974 6.615341 6.9084425 7.1983347 7.4925776 7.793603
        8.096098 8.390966 8.66857 8.923297 9.153631 9.345221
        9.4883995 9.857351 10.1599655 10.10478 9.972622 9.772566
        9.507966 9.1873665 8.818882 8.411766 7.975287 7.5189977
        7.052592 6.5849757 6.123479 5.6738577 5.2404814 4.826512
        4.4340897 4.0645127 3.7183955 3.395818 3.0964532 2.8196588
        2.5644717 2.3296595 2.1139138 1.9159694 1.7346141 1.5686926
        1.4171067 1.2788161 1.152836 1.038236 1.0705047 1.190877
        1.3259193 1.4774668 1.6475521 1.8385723 2.0526936 2.3067496
        2.151617 2.3187354 2.4931104 2.6844778 2.8944833 3.124651
        3.3762603 3.6501617 3.9465058 4.2643394 4.6010075 4.9511633
        5.306326 5.6566744 5.993867 6.313344 6.615909 6.9073005
        7.195813 7.489213 7.789999 8.092737 8.388146 8.666411
        8.921946 9.153394 9.346225 9.49049 9.860333 10.16359
        10.108912 9.9771 9.7772665 9.512787 9.192219 8.823684
        8.416438 7.979752 7.5231953 7.0565047 6.5886383 6.1269608
        5.6772494 5.2438827 4.8300204 4.4377956 4.068489 3.722696
        3.4004743 3.1014755 2.8250368 2.570175 2.3356357 2.1200945
        1.9222764 1.7409668 1.5750129 1.4233233 1.2848662 1.1586676
        1.0438081 1.0644853 1.1838672 1.3177937 1.4680861 1.6367599
        1.8261974 2.038528 2.2904043 2.1791365 2.3444164 2.5167537
        2.7059896 2.9138203 3.141827 3.3913496 3.6632965 3.9578702
        4.274154 4.6094985 4.9585013 5.3125544 5.661687 5.997455
        6.3152895 6.6161013 6.905833 7.193015 7.485615 7.7861953
        8.0892 8.385161 8.664091 8.920427 9.15298 9.347043
        9.492384 9.863084 10.166947 10.112776 9.981309 9.781694
        9.517334 9.196797 8.828213 8.420838 7.9839454 7.527121
        7.0601463 6.5920286 6.1301694 5.6803656 5.2470055 4.8332496
        4.441221 4.0721865 3.726723 3.4048665 3.106248 2.830185
        2.5756726 2.3414352 2.1261294 1.9284698 1.7472376 1.5812813
        1.4295148 1.2909148 1.1645173 1.049414 1.058482 1.1768641
        1.3096641 1.4586889 1.6259371 1.8137761 2.0242982 2.273973
        2.2074826 2.3706453 2.5406675 2.7275164 2.932951 3.1586173
        3.4059186 3.6758218 3.968577 4.2832966 4.617327 4.965205
        5.3181868 5.6661496 6.0005436 6.3167887 6.6159043 6.904035
        7.1899433 7.481791 7.7822013 8.085495 8.382019 8.661611
        8.91874 9.152383 9.347662 9.494065 9.86558 10.170012
        10.116342 9.985215 9.785819 9.521577 9.201072 8.832439
        8.424937 7.9878407 7.5307517 7.063494 6.595126 6.133084
        5.6831865 5.2498307 4.8361773 4.444343 4.07558 3.7304485
        3.4089644 3.1107383 2.8350687 2.5809298 2.3470225 2.1319847
        1.9345179 1.7533978 1.5874726 1.43566 1.2969445 1.1703714
        1.0550433 1.0525036 1.1698757 1.3015372 1.4492807 1.6150879
        1.8013108 2.0100045 2.2574537 2.2366905 2.3974142 2.5648046
        2.7489817 2.95178 3.1749182 3.4198656 3.6876435 3.9785419
        4.2916927 4.624431 4.971221 5.3231797 5.6700253 6.0031033
        6.317822 6.615309 6.901906 7.1866026 7.4777503 7.7780285
        8.081633 8.378726 8.658976 8.916883 9.151596 9.348069
        9.495515 9.867799 10.172757 10.119579 9.988791 9.789609
        9.525486 9.205013 8.836334 8.428709 7.9914126 7.534063
        7.0665264 6.59791 6.135686 5.6856933 5.252339 4.8387847
        4.44714 4.078646 3.7338462 3.412738 3.114914 2.8396533
        2.5859098 2.3523607 2.137623 1.9403852 1.7594146 1.5935571
        1.4417335 1.3029339 1.1762129 1.060683 1.0465609 1.1629119
        1.2934216 1.4398688 1.6042174 1.7888048 1.9956478 2.2408445
        2.2667942 2.424706 2.5891023 2.7702909 2.9701955 3.1906147
        3.4330816 3.6986644 3.9876816 4.2992735 4.6307526 4.9765015
        5.3274913 5.6732817 6.0051093 6.3183727 6.6143055 6.899445
        7.1829996 7.473505 7.7736897 8.077623 8.375289 8.656188
        8.914856 9.150612 9.34825 9.496713 9.869717 10.175153
        10.12246 9.992003 9.793034 9.529027 9.208589 8.839868
        8.432124 7.9946337 7.5370297 7.06922 6.6003604 6.1379557
        5.687867 5.2545114 4.8410516 4.4495916 4.0813613 3.7368898
        3.4161587 3.1187422 2.8439028 2.5905738 2.357409 2.143004
        1.9460315 1.7652495 1.5995001 1.4477042 1.3088568 1.18202
        1.0663158 1.0406677 1.1559854 1.2853289 1.4304625 1.5933329
        1.7762626 1.9812299 2.2241442 2.2978268 2.4524903 2.6134765
        2.791325 2.9880652 3.2055776 3.4454508 3.708786 3.9959154
        4.3059735 4.6362367 4.981001 5.331085 5.675887 6.006538
        6.3184257 6.612889 6.896655 7.179145 7.4690676 7.769198
        8.073479 8.371718 8.653252 8.912657 9.149424 9.348191
        9.49764 9.871307 10.177172 10.124953 9.994821 9.796059
        9.532168 9.211766 8.843007 8.435152 7.997476 7.539627
        7.0715523 6.602455 6.1398745 5.689691 5.256331 4.8429604
        4.451678 4.083704 3.7395554 3.419198 3.1221912 2.8477812
        2.5948822 2.3621247 2.1480823 1.9514111 1.7708584 1.6052597
        1.4535345 1.3146802 1.187765 1.0719196 1.0348418 1.1491129
        1.2772737 1.4210745 1.5824444 1.7636912 1.9667537 2.2073514
        2.3298197 2.4807177 2.6378138 2.8119366 3.0052345 3.2196634
        3.4568505 3.7179096 4.003166 4.311732 4.640837 4.984681
        5.333929 5.677816 6.007369 6.317968 6.611055 6.8935404
        7.1750484 7.464453 7.764569 8.069213 8.368021 8.650172
        8.910286 9.148022 9.347876 9.498273 9.872545 10.178783
        10.127024 9.997208 9.798649 9.534875 9.214512 8.845719
        8.43776 7.9999104 7.5418277 7.073499 6.6041737 6.1414227
        5.691146 5.25778 4.844493 4.45338 4.0856543 3.7418196
        3.4218297 3.1252296 2.8512526 2.598794 2.3664622 2.1528091
        1.9564736 1.7761903 1.6107864 1.459178 1.3203627 1.1934123
        1.0774648 1.0291069 1.1423168 1.2692765 1.4117223 1.5715659
        1.7511 1.9522243 2.1904652 2.362801 2.5093105 2.6619608
        2.8319402 3.021521 3.2327142 3.467155 3.7259393 4.009362
        4.3164964 4.6445127 4.987509 5.335994 5.6790433 6.007584
        6.31699 6.608802 6.890109 7.1707253 7.4596796 7.7598195
        8.064837 8.364206 8.646953 8.907741 9.146399 9.347286
        9.498589 9.8734 10.179954 10.128638 9.999127 9.800768
        9.537108 9.216788 8.847969 8.439918 8.0019045 7.5436025
        7.075034 6.605492 6.142579 5.692213 5.258841 4.845633
        4.454682 4.0871925 3.7436607 3.424028 3.1278276 2.854281
        2.6022677 2.3703744 2.157132 1.961162 1.781186 1.6160213
        1.4645779 1.3258516 1.1989152 1.0829118 1.0234945 1.1356277
        1.2613657 1.4024305 1.5607171 1.7385031 1.9376488 2.1734855
        2.3967957 2.538148 2.6857069 2.8511026 3.0367143 3.244561
        3.476238 3.7327855 4.0144424 4.3202233 4.647231 4.9894576
        5.3372564 5.67955 6.0071692 6.3154836 6.6061316 6.88637
        7.1661916 7.454767 7.754969 8.0603695 8.360283 8.643596
        8.90502 9.144545 9.346403 9.49856 9.873842 10.180649
        10.12976 10.000543 9.802376 9.538831 9.218556 8.849719
        8.441586 8.003426 7.544921 7.0761294 6.6063857 6.1433215
        5.692873 5.2594957 4.846363 4.455565 4.0883017 3.7450588
        3.4257696 3.1299572 2.856833 2.6052623 2.3738127 2.160995
        1.9654144 1.7857786 1.6208947 1.4696648 1.3310801 1.2042127
        1.088207 1.0180484 1.1290889 1.2535816 1.3932353 1.5499276
        1.7259219 1.9230387 2.1564126 2.4318228 2.5670402 2.7087612
        2.869134 3.0505753 3.255027 3.483979 3.7383711 4.018358
        4.322882 4.648971 4.990509 5.337701 5.6793213 6.0061135
        6.313445 6.6030498 6.8823385 7.16147 7.4497395 7.750039
        8.055823 8.356262 8.640107 8.9021225 9.142448 9.345209
        9.498161 9.873839 10.180832 10.130347 10.001411 9.803431
        9.539999 9.219774 8.850927 8.442725 8.004435 7.545748
        7.0767546 6.6068273 6.1436267 5.6931043 5.259725 4.8466654
        4.4560137 4.0889635 3.7459953 3.427033 3.1315923 2.858876
        2.6077385 2.376729 2.164341 1.9691644 1.7898937 1.6253258
        1.4743541 1.3359638 1.2092233 1.0932759 1.0128305 1.1227638
        1.245986 1.3841922 1.5392436 1.7133901 1.9084128 2.139248
        2.4678965 2.5956812 2.7307198 2.885678 3.062842 3.2639403
        3.490274 3.742638 4.021081 4.32446 4.649726 4.9906583
        5.337321 5.6783514 6.004414 6.310879 6.5995693 6.8780384
        7.15659 7.4446297 7.74506 8.051225 8.35216 8.636496
        8.899055 9.140105 9.343686 9.497366 9.873361 10.1804695
        10.130364 10.001695 9.80389 9.54057 9.220399 8.851553
        8.4432955 8.004894 7.546048 7.076876 6.606788 6.1434684
        5.6928844 5.259509 4.8465223 4.45601 4.0891623 3.7464528
        3.4277987 3.1327095 2.8603816 2.6096594 2.3790774 2.167113
        1.972343 1.7934506 1.6292229 1.4785457 1.340397 1.2138402
        1.0980155 1.0079308 1.1167481 1.238675 1.3753916 1.5287424
        1.7009655 1.8938036 2.1219938 2.505028 2.6235564 2.7510204
        2.9003143 3.0732481 3.2711515 3.4950514 3.7455626 4.0226126
        4.324972 4.649514 4.989922 5.336129 5.676652 6.0020866
        6.307809 6.5957236 6.873512 7.1516023 7.4394913 7.74008
        8.046613 8.34801 8.632789 8.895835 9.137524 9.341829
        9.496161 9.872388 10.179537 10.129783 10.001358 9.80372
        9.540508 9.220393 8.851555 8.443257 8.0047655 7.5457854
        7.0764623 6.606238 6.14282 5.692189 5.2588267 4.8459144
        4.4555373 4.088882 3.7464156 3.4280498 3.1332889 2.861324
        2.6109924 2.3808155 2.169257 1.9748821 1.7963656 1.6324865
        1.482124 1.3442507 1.2179252 1.1022835 1.003481 1.1111925
        1.2318096 1.3669926 1.5185668 1.6887579 1.8792737 2.104655
        2.5432355 2.6497564 2.7689025 2.912587 3.0815644 3.2765706
        3.4983013 3.7471793 4.023011 4.324484 4.6484017 4.9883614
        5.3341827 5.6742783 5.999189 6.3043003 6.5915904 6.8688483
        7.1466045 7.434422 7.735193 8.042073 8.343885 8.629051
        8.892527 9.134752 9.339673 9.494569 9.870938 10.178044
        10.128605 10.000401 9.802912 9.539799 9.219738 8.850913
        8.442587 8.004023 7.5449333 7.075487 6.6051526 6.1416593
        5.6909986 5.25766 4.8448257 4.454581 4.088108 3.7458694
        3.4277716 3.1333134 2.8616831 2.6117105 2.3819067 2.170724
        1.9767187 1.798558 1.635015 1.484965 1.347377 1.2213069
        1.1058892 1.000327 1.1063364 1.2256712 1.3593016 1.509017
        1.6770182 1.8649738 2.0872386 2.5825834 2.6725814 2.783418
        2.9220989 3.087682 3.2802339 3.5001357 3.7476375 4.022443
        4.3231683 4.6465607 4.986143 5.331645 5.6713953 5.995892
        6.3005357 6.587366 6.864259 7.1418176 7.4296474 7.7306175
        8.037816 8.339988 8.625476 8.8893175 9.131963 9.337372
        9.492728 9.869146 10.176124 10.126947 9.998925 9.801558
        9.538522 9.218502 8.849684 8.44133 8.002704 7.5435233
        7.0739756 6.6035533 6.1400023 5.689326 5.256018 4.8432636
        4.4531465 4.0868454 3.7448182 3.426966 3.1327827 2.8614533
        2.611802 2.382331 2.1714828 1.9778063 1.7999628 1.6367211
        1.4869533 1.3496273 1.2237989 1.1086036 1.0032467 1.102542
        1.2207489 1.3529403 1.5008186 1.6664834 1.8514549 2.0697544
        2.6233144 2.693505 2.7962115 2.9302895 3.0927994 3.2831376
        3.5013907 3.7476535 4.021535 4.321589 4.6445084 4.9837523
        5.3289676 5.6684117 5.9925485 6.296792 6.583242 6.859848
        7.1372743 7.4251547 7.72633 8.033829 8.336331 8.622112
        8.886292 9.129303 9.335141 9.4909115 9.867343 10.174156
        10.125221 9.99736 9.800094 9.53712 9.217125 8.848301
        8.439909 8.001211 7.541937 7.0722876 6.6017776 6.138169
        5.6874747 5.2541943 4.841514 4.451517 4.0853777 3.743549
        3.4259274 3.132002 2.8609536 2.6116016 2.3824394 2.1719015
        1.9785296 1.8009795 1.6380162 1.4885092 1.3514255 1.225822
        1.1108365 1.005679 1.0993572 1.2165519 1.3474058 1.4934977
        1.6567647 1.8384811 2.0521805
      </DataArray>
      <DataArray type="Float32" Name="jacobian" format="ascii" RangeMin="0.0013355675619095564" RangeMax="0.04336057975888252">
        0.005844039 0.0062470403 0.006710017 0.0072426083 0.00783916 0.008498131
        0.0092195105 0.01000365 0.0108506335 0.011759787 0.012729152 0.013754622
        0.014829281 0.015944324 0.017090619 0.018259479 0.019442808 0.020632053
        0.021816326 0.022981074 0.024106022 0.025165316 0.026131913 0.026981665
        0.027693652 0.028253492 0.028644085 0.02887552 0.02978333 0.030502517
        0.030187802 0.029685047 0.029022848 0.028209582 0.027266163 0.026210371
        0.025062231 0.023841456 0.022568 0.021261595 0.019941064 0.018623557
        0.017324317 0.016056484 0.01483096 0.0136564 0.012539271 0.0114840185
        0.010493292 0.009568199 0.008708561 0.007913106 0.0071796835 0.0065055583
        0.005887633 0.005322592 0.004807011 0.004337453 0.0039105336 0.0035229751
        0.0031716395 0.0028535493 0.002565901 0.0023060679 0.0020715978 0.0018602143
        0.0016697901 0.0014984226 0.0013355676 0.0058992626 0.006346965 0.0068288893
        0.00737136 0.007974747 0.008639876 0.009367748 0.010159179 0.011014419
        0.011932742 0.012911885 0.013947092 0.015030388 0.016151763 0.017301105
        0.018469293 0.019648632 0.020831816 0.022009797 0.023170017 0.02429362
        0.025354974 0.02632664 0.027183888 0.02790567 0.028478429 0.028883103
        0.02912756 0.030054916 0.030791232 0.030481305 0.029979354 0.029314227
        0.02849449 0.027541492 0.026473492 0.025311077 0.024074519 0.022784382
        0.02146107 0.02012401 0.018790787 0.017476901 0.016195621 0.014957893
        0.013772336 0.012645346 0.011581277 0.01058267 0.009650527 0.008784567
        0.007983404 0.007244765 0.0065658065 0.005943349 0.005374016 0.004854338
        0.0043808455 0.0039501325 0.0035589037 0.003204007 0.0028824548 0.002591435
        0.0023283171 0.0020906485 0.0018761604 0.0016827364 0.0015085043 0.0013429087
        0.0059549743 0.0064390497 0.0069408305 0.0074953646 0.008107425 0.008780047
        0.009515362 0.010314762 0.011178753 0.0121066095 0.013095798 0.014140935
        0.015233017 0.016360847 0.017513338 0.018680947 0.019856365 0.021033527
        0.02220521 0.02336084 0.024482979 0.025546258 0.026522867 0.027387526
        0.028119063 0.028704654 0.029123338 0.029380789 0.030327743 0.031081248
        0.030776106 0.030274931 0.029606821 0.028780522 0.027817827 0.026737487
        0.025560647 0.024308156 0.023001194 0.021660846 0.020307142 0.018958095
        0.017629463 0.01633465 0.015084633 0.013888001 0.012751077 0.011678115
        0.010671551 0.009732279 0.008859908 0.008052938 0.0073089735 0.0066250665
        0.005997957 0.005424207 0.004900306 0.004422756 0.0039881323 0.0035931298
        0.0032345937 0.0029095386 0.0026151603 0.002348839 0.0021081388 0.001890808
        0.0016947461 0.0015181068 0.0013503123 0.0060112234 0.006518784 0.007039882
        0.007609064 0.0082325805 0.008914967 0.009659435 0.010468059 0.011341711
        0.012279752 0.0132794455 0.014334837 0.01543596 0.016570488 0.017726392
        0.018893698 0.020065475 0.02123685 0.022402374 0.023553416 0.024673946
        0.02573892 0.026720231 0.027592087 0.028333241 0.028931398 0.029363837
        0.029634118 0.030600578 0.031371213 0.031070804 0.03057035 0.029899186
        0.029066231 0.028093725 0.02700092 0.02580953 0.024540992 0.023217114
        0.021859653 0.020489242 0.019124314 0.017780883 0.016472483 0.01521012
        0.014002351 0.012855421 0.011773483 0.010758864 0.009812344 0.008933426
        0.00812049 0.0073710284 0.0066819894 0.006050038 0.0054716836 0.0049433815
        0.0044616153 0.0040229545 0.0036241 0.0032619103 0.0029334195 0.002635847
        0.0023665961 0.0021232504 0.0019035727 0.0017054641 0.001527083 0.0013578014
        0.0060681333 0.006592623 0.007130439 0.007714432 0.008350703 0.009044369
        0.009799352 0.01061831 0.011502483 0.012451355 0.013462027 0.014528016
        0.015638446 0.016779905 0.017939448 0.019106695 0.020275062 0.02144084
        0.022600321 0.023746777 0.024865577 0.02593205 0.02691786 0.02779674
        0.028547386 0.02915791 0.029603917 0.029886922 0.030872824 0.031660568
        0.031364903 0.030865174 0.03019094 0.029351292 0.028368922 0.027263582
        0.026057566 0.02477291 0.02343206 0.022057446 0.020670293 0.019289447
        0.017931186 0.016609157 0.015334404 0.014115442 0.012958436 0.011867442
        0.010844671 0.009890793 0.009005198 0.008186159 0.0074310517 0.006736736
        0.006099809 0.005516737 0.0049839527 0.004497933 0.004055254 0.00365263
        0.0032869389 0.0029552346 0.0026547508 0.0023828996 0.0021372626 0.0019155927
        0.0017157681 0.0015359314 0.0013653893 0.0061258352 0.006663515 0.0072155786
        0.007813561 0.008462901 0.009168695 0.009935181 0.010765398 0.0116608795
        0.012621217 0.013643358 0.014720323 0.015840355 0.016988995 0.018152412
        0.019319821 0.02048499 0.021645347 0.022798896 0.023940785 0.025057767
        0.026125591 0.027115734 0.028001497 0.028761532 0.029384267 0.029843701
        0.030139359 0.031144666 0.031949513 0.031658623 0.031159643 0.030482339
        0.029635977 0.028643692 0.027525749 0.026305035 0.025004191 0.023646306
        0.022254487 0.020850541 0.019453734 0.018080588 0.01674488 0.015457674
        0.014227447 0.013060286 0.011960141 0.010929114 0.009967762 0.009075368
        0.008250098 0.007489228 0.006789532 0.006147551 0.0055597182 0.005022453
        0.0045322324 0.0040856414 0.0036794078 0.0033104222 0.0029757451 0.0026726096
        0.0023984185 0.0021507354 0.0019272905 0.0017259312 0.0015447816 0.0013730847
        0.006184454 0.0067329784 0.007297312 0.007908185 0.008570358 0.0092886295
        0.010067257 0.010909456 0.011816933 0.012789335 0.013823443 0.014911781
        0.016041737 0.017197827 0.018365353 0.01953314 0.020695306 0.021850407
        0.022998136 0.024135487 0.025250597 0.02631966 0.02731401 0.028206542
        0.02897588 0.029610706 0.030083466 0.03039173 0.031416427 0.032238387
        0.031952318 0.031454112 0.030773737 0.029920632 0.028918382 0.027787764
        0.026552266 0.02523515 0.023860153 0.022451054 0.021030247 0.019617409
        0.01822931 0.016879847 0.015580108 0.014338531 0.013161119 0.01205172
        0.011012326 0.010043385 0.00914408 0.008312476 0.0075457552 0.006840617
        0.0061935545 0.005600975 0.0050592874 0.0045649703 0.0041146143 0.0037049518
        0.0033328733 0.0029954333 0.0026898505 0.0024135073 0.002163942 0.0019388578
        0.0017360708 0.0015536889 0.0013808948 0.006244102 0.006801885 0.007376961
        0.007999639 0.008674146 0.009404908 0.010196031 0.011050735 0.01197078
        0.012955792 0.01400235 0.015102469 0.016242689 0.017406506 0.018578378
        0.019746752 0.020906098 0.022056093 0.023198102 0.024330959 0.025444169
        0.026514394 0.027512852 0.028412065 0.02919064 0.02983747 0.030323483
        0.030644333 0.031688422 0.03252752 0.032246318 0.03174891 0.031065468
        0.030205587 0.02919331 0.028049935 0.026799556 0.025466068 0.02407386
        0.022647388 0.021209631 0.019780673 0.018377535 0.017014226 0.01570186
        0.014448831 0.013261062 0.012142301 0.0110944295 0.010117793 0.009211479
        0.008373461 0.007600833 0.0068902294 0.0062380987 0.005640826 0.0050948104
        0.0045965253 0.004142559 0.0037296386 0.0033546425 0.0030146083 0.0027067321
        0.0024283705 0.0021770336 0.0019503977 0.0017462495 0.0015626834 0.0013888252
        0.006304885 0.0068707885 0.007455424 0.008088931 0.008775173 0.009518233
        0.010321989 0.011189549 0.012122617 0.01312072 0.014180183 0.01529249
        0.016443312 0.017615145 0.018791597 0.019960754 0.021117445 0.022262469
        0.023398856 0.024527267 0.025638565 0.026709901 0.0277124 0.028618228
        0.02940599 0.030064767 0.030563992 0.030897422 0.031960923 0.032817204
        0.032540914 0.032044336 0.03135782 0.030491127 0.029468752 0.028312529
        0.027047161 0.025697183 0.024287652 0.022843698 0.02138888 0.0199437
        0.018525412 0.017148154 0.015823053 0.014558462 0.0133602265 0.012231993
        0.011175539 0.010191113 0.009277709 0.00843322 0.0076546595 0.006938597
        0.0062814425 0.0056795557 0.005129321 0.004627201 0.0041697705 0.0037537415
        0.0033759722 0.0030334753 0.0027234205 0.0024431355 0.0021901026 0.001961973
        0.0017565056 0.0015717846 0.0013968814 0.0063669 0.0069400715 0.0075333356
        0.00817683 0.008874195 0.009629247 0.01044562 0.011326244 0.012272682
        0.013284286 0.014357072 0.015481954 0.016643722 0.017823849 0.019005109
        0.020175232 0.021329414 0.022469586 0.02360044 0.024724454 0.02583385
        0.026906269 0.02791276 0.02882516 0.029622078 0.030292768 0.030805191
        0.031151222 0.03223417 0.033107676 0.032836363 0.032340642 0.03165105
        0.030777501 0.029744955 0.028575776 0.027295303 0.025928708 0.02450172
        0.023040155 0.021568155 0.020106627 0.018673075 0.017281748 0.015943795
        0.01466753 0.013458714 0.0123209 0.011255767 0.010263466 0.0093429135
        0.008491918 0.0077074226 0.0069859326 0.0063238167 0.005717407 0.005163066
        0.0046572364 0.004196472 0.0037774607 0.003397034 0.003052176 0.002740027
        0.0024578865 0.0022032103 0.001973625 0.001766865 0.0015810066 0.0014050684
        0.006430243 0.007010016 0.0076111644 0.008263925 0.0089718355 0.009738519
        0.010567392 0.011461177 0.012421235 0.01344668 0.014533166 0.01567099
        0.016844032 0.018032728 0.019219013 0.020390265 0.021542067 0.022677487
        0.023802888 0.024922553 0.026030067 0.027103556 0.02811402 0.029032966
        0.029839026 0.03052162 0.031047251 0.031405922 0.03250837 0.03339916
        0.03313289 0.032638058 0.031945378 0.03106493 0.03002213 0.028839888
        0.027544174 0.02616082 0.024716234 0.023236914 0.021747591 0.02026958
        0.018820634 0.017415112 0.016064186 0.014776125 0.013556617 0.012409122
        0.011335221 0.010334979 0.009407232 0.008549717 0.0077593015 0.0070324293
        0.006365426 0.0057545872 0.005196248 0.004686822 0.004222836 0.0038009463
        0.0034179536 0.0030708115 0.0027566308 0.0024726836 0.0022163992 0.0019853837
        0.0017773468 0.0015903603 0.0014133912 0.0064950055 0.007080847 0.007689271
        0.008350686 0.00906861 0.009846552 0.010687747 0.011594704 0.012568553
        0.013608116 0.01470863 0.015859738 0.017044365 0.01824189 0.019433402
        0.02060593 0.021755459 0.02288621 0.024006218 0.025121585 0.026227245
        0.027301813 0.028316244 0.02924173 0.030056931 0.030751446 0.031290323
        0.031661693 0.032783702 0.033691853 0.033430684 0.032936778 0.03224101
        0.03135361 0.030300468 0.029105043 0.02779395 0.026393684 0.024931341
        0.023434108 0.021927308 0.02043267 0.01896819 0.017548338 0.01618431
        0.014884336 0.013654029 0.012496756 0.01141401 0.0104057705 0.009470801
        0.008606767 0.007810461 0.007078263 0.006406448 0.0057912725 0.005229034
        0.004716112 0.0042489967 0.0038243125 0.0034388257 0.0030894582 0.0027732912
        0.0024875707 0.0022297022 0.0019972713 0.0017879662 0.0015998548 0.0014218544
        0.006561278 0.0071527483 0.0077679446 0.008437492 0.009164953 0.009953786
        0.0108070895 0.011727175 0.012714919 0.013768817 0.014883647 0.016048348
        0.01724485 0.018451449 0.019648368 0.0208223 0.02196964 0.023095783
        0.024210451 0.025321562 0.0264254 0.027501069 0.028519478 0.029451514
        0.030275878 0.030982353 0.03153453 0.031918675 0.033060335 0.033985928
        0.03372994 0.033236995 0.032538123 0.031643722 0.030580146 0.02937141
        0.028044788 0.026627446 0.025147175 0.023631861 0.02210742 0.020595998
        0.019115832 0.017681511 0.016304255 0.01499225 0.013751038 0.0125839
        0.011492241 0.0104759615 0.009533754 0.008663213 0.007861054 0.0071235895
        0.006447039 0.005827612 0.005261562 0.0047452278 0.0042750617 0.0038476496
        0.0034597234 0.003108174 0.0027900534 0.0025025825 0.0022431442 0.002009306
        0.0017987353 0.0016094983 0.001430463 0.0066291513 0.007225881 0.007847425
        0.008524656 0.009261232 0.010060609 0.010925795 0.011858925 0.012860619
        0.0139290225 0.015058411 0.016236981 0.017445626 0.018661521 0.01986401
        0.02103945 0.022184663 0.023306236 0.024415597 0.025522493 0.026624545
        0.027701346 0.028723761 0.029662373 0.030495936 0.031214429 0.03177999
        0.03217701 0.033338416 0.034281544 0.034030817 0.033538874 0.0328369
        0.03193544 0.030861327 0.02963915 0.028296838 0.026862245 0.025363863
        0.023830283 0.022288028 0.020759653 0.01926365 0.017814718 0.0164241
        0.015099949 0.013847734 0.012670652 0.011570023 0.010545671 0.009596219
        0.00871919 0.007911221 0.00716855 0.0064873355 0.0058637327 0.005293947
        0.004774272 0.0043011173 0.0038710295 0.0034807061 0.0031270059 0.0028069536
        0.0025177465 0.0022567462 0.0020215032 0.0018096652 0.0016192981 0.0014392219
        0.0066987174 0.0073003885 0.007927918 0.008612449 0.009357764 0.010167366
        0.011044209 0.011990277 0.01300594 0.014088973 0.015233128 0.016425809
        0.017646836 0.018872228 0.020080429 0.021257455 0.022400575 0.023517597
        0.024621673 0.025724377 0.026824685 0.027902657 0.02892912 0.02987435
        0.030717168 0.031447757 0.03202681 0.032436814 0.03361808 0.034578852
        0.03433348 0.033842582 0.03313749 0.032228917 0.031144168 0.029908406
        0.028550237 0.027098207 0.025581522 0.024029488 0.02246923 0.020923728
        0.019411724 0.017948037 0.01654393 0.01520752 0.013944207 0.012757109
        0.011647461 0.010615014 0.009658319 0.008774827 0.007961091 0.0072132703
        0.0065274565 0.005899745 0.0053262883 0.0048033297 0.0043272353 0.0038945118
        0.0035018215 0.003145992 0.0028240222 0.0025330859 0.0022705256 0.0020338758
        0.0018207653 0.0016292614 0.0014481359 0.0067700692 0.007376404 0.008009606
        0.008701103 0.00945483 0.010274367 0.011162651 0.01212154 0.013151162
        0.01424892 0.01540801 0.016615016 0.017848637 0.019083697 0.020297723
        0.021476388 0.02261743 0.023729894 0.024828684 0.025927221 0.02702582
        0.028105015 0.029135577 0.030087484 0.030939624 0.03168241 0.032275077
        0.032698207 0.03389946 0.034877993 0.03463807 0.034148265 0.033440057
        0.032524306 0.031428814 0.030179322 0.02880512 0.027335458 0.025800265
        0.024229571 0.022651117 0.021088311 0.019560141 0.01808155 0.016663823
        0.015315045 0.014040547 0.012843368 0.011724661 0.010684101 0.00972017
        0.008830242 0.008010781 0.007257864 0.006567508 0.0059357453 0.0053586694
        0.0048324736 0.0043534776 0.003918147 0.0035231106 0.0031651652 0.0028412845
        0.002548621 0.002284498 0.0020464356 0.0018320449 0.0016393949 0.0014572104
        0.006843301 0.007454053 0.008092654 0.008790827 0.00955268 0.010381894
        0.011281417 0.012253007 0.013296563 0.014409112 0.015583278 0.016804792
        0.01805119 0.019296067 0.020516004 0.021696337 0.02283528 0.023943158
        0.025036646 0.026131025 0.027227953 0.028308423 0.029343149 0.030301802
        0.03116335 0.031918455 0.032524884 0.032961294 0.03418268 0.035179105
        0.03494474 0.034456078 0.033744745 0.03282176 0.03171541 0.030452034
        0.029061615 0.027574118 0.026020205 0.024430636 0.022833783 0.021253483
        0.01970898 0.018215336 0.016783863 0.0154226115 0.014136847 0.012929528
        0.011801728 0.010753044 0.009781887 0.008885548 0.008060402 0.0073024346
        0.006607585 0.0059718173 0.0053911647 0.0048617665 0.0043798964 0.0039419793
        0.003544609 0.0031845542 0.0028587638 0.0025643697 0.0022986778 0.0020591943
        0.0018435125 0.0016497052 0.0014664503 0.0069185104 0.007533458 0.008177216
        0.008881814 0.009651543 0.010490207 0.011400787 0.012384962 0.013442418
        0.014569801 0.015759157 0.016995333 0.018254666 0.019509478 0.020735385
        0.02191738 0.023054183 0.024157422 0.025245568 0.026335787 0.02743108
        0.028512884 0.029551849 0.030517329 0.03138839 0.032155953 0.03277631
        0.033226173 0.034467854 0.035482317 0.03525362 0.034766167 0.0340517
        0.03312142 0.032004096 0.030726679 0.02931985 0.027814303 0.026241444
        0.024632784 0.02301732 0.021419333 0.019858323 0.018349478 0.016904132
        0.015530306 0.014233199 0.0130156875 0.011878765 0.010821949 0.009843576
        0.008940853 0.008110057 0.007347078 0.0066477745 0.0060080383 0.0054238406
        0.004891265 0.004406539 0.003966047 0.0035663485 0.0032041844 0.0028764803
        0.0025803486 0.002313078 0.0020721618 0.0018551764 0.0016601993 0.0014758612
        0.006995797 0.0076147374 0.008263439 0.008974242 0.009751632 0.010599551
        0.011521027 0.01251768 0.013588994 0.014731243 0.015935881 0.017186845
        0.018459238 0.019724077 0.020955984 0.02213961 0.0232742 0.024372717
        0.025455467 0.02654151 0.027635198 0.028718397 0.029761683 0.03073409
        0.031614784 0.03239496 0.033029437 0.03349295 0.0347551 0.03578776
        0.03556486 0.035078667 0.034361072 0.033423424 0.032295015 0.031003386
        0.02957995 0.028056132 0.026464095 0.024836108 0.023201818 0.021585945
        0.020008255 0.018484056 0.017024716 0.015638217 0.014329696 0.013101945
        0.011955875 0.010890922 0.009905343 0.0089962585 0.0081598405 0.007391882
        0.0066881557 0.0060444786 0.0054567573 0.004921021 0.0044334484 0.003990385
        0.003588358 0.0032240797 0.0028944535 0.0025965732 0.002327711 0.0020853484
        0.0018670451 0.0016708835 0.0014854484 0.0070752637 0.00769801 0.008351463
        0.009068282 0.009853151 0.010710156 0.011642392 0.012651429 0.013736559
        0.014893694 0.016113682 0.01737954 0.018665094 0.019940019 0.021177927
        0.022363123 0.023495395 0.024589084 0.02566636 0.0267482 0.027840307
        0.028924966 0.029972665 0.030952107 0.031842563 0.032635536 0.033284344
        0.033761714 0.035044532 0.03609556 0.035878588 0.035393726 0.034673
        0.033727925 0.0325883 0.03128229 0.02984204 0.028299717 0.026688263
        0.02504071 0.023387367 0.021753404 0.020158855 0.018619156 0.017145699
        0.015746437 0.014426433 0.0131884 0.012033161 0.010960065 0.009967291
        0.009051862 0.008209845 0.0074369316 0.0067288037 0.0060812035 0.0054899715
        0.0049510817 0.004460665 0.004015028 0.003610665 0.0032442627 0.002912702
        0.0026130588 0.00234259 0.0020987645 0.0018791268 0.0016817651 0.0014952178
        0.0071570165 0.0077833957 0.008441428 0.0091641 0.009956295 0.010822249
        0.01176513 0.0127864685 0.01388538 0.015057408 0.016292803 0.017573632
        0.018872421 0.020157466 0.021401344 0.022588015 0.023717837 0.024806561
        0.025878264 0.02695586 0.028046401 0.029132588 0.030184798 0.031171395
        0.032071766 0.032877732 0.0335411 0.034032565 0.035336256 0.036405843
        0.036194935 0.035711486 0.03498763 0.03403506 0.03288409 0.031563528
        0.030106245 0.028545182 0.026914055 0.025246691 0.023574062 0.021921802
        0.020310214 0.018754862 0.017267171 0.015855055 0.014523506 0.013275152
        0.012110723 0.011029482 0.010029518 0.009107759 0.008260161 0.007482307
        0.006769791 0.006118276 0.0055235378 0.004981493 0.0044882265 0.004040007
        0.0036332961 0.003264755 0.0029312435 0.00262982 0.0023577262 0.0021124203
        0.0018914298 0.0016928507 0.0015051754 0.007241165 0.007871015 0.008533474
        0.0092618605 0.010061257 0.010936053 0.0118894875 0.012923064 0.014035721
        0.015222649 0.016473489 0.017769346 0.019081417 0.020376585 0.021626372
        0.022814391 0.023941597 0.025025196 0.026091201 0.027164495 0.028253485
        0.029341262 0.03039809 0.031391975 0.032302424 0.033121597 0.03379978
        0.03430559 0.03563039 0.036718734 0.03651405 0.036032084 0.0353051
        0.03434497 0.03318253 0.031847227 0.030372694 0.02879264 0.027141584
        0.025454152 0.023761999 0.022091227 0.020462418 0.018891266 0.017389225
        0.015964165 0.014621014 0.0133623015 0.012188666 0.011099273 0.010092124
        0.009164044 0.008310873 0.0075280876 0.006811187 0.0061557577 0.0055575077
        0.0050122994 0.0045161713 0.004065354 0.0036562777 0.0032855787 0.0029500963
        0.0026468718 0.0023731326 0.0021263256 0.0019039628 0.0017041479 0.001515327
        0.0073278216 0.007960992 0.0086277425 0.009361731 0.010168234 0.011051789
        0.0120157115 0.013061475 0.014187852 0.015389677 0.016655987 0.017966913
        0.01929229 0.020597555 0.021853155 0.02304236 0.024166755 0.025245035
        0.026305197 0.027374111 0.028461551 0.02955099 0.030612545 0.03161386
        0.032534573 0.033367187 0.034060456 0.034580894 0.035927046 0.037034363
        0.036836065 0.036355667 0.035625566 0.034657806 0.033483762 0.03213353
        0.030641517 0.029042216 0.027370961 0.025663197 0.023951273 0.022261774
        0.02061556 0.019028459 0.017511949 0.016073866 0.014719053 0.01344995
        0.012267089 0.011169542 0.0101552075 0.00922081 0.00836207 0.007574352
        0.006853063 0.00619371 0.0055919355 0.0050435467 0.0045445375 0.0040911003
        0.003679636 0.0033067558 0.0029692785 0.0026642296 0.0023888217 0.0021404915
        0.0019167346 0.0017156638 0.0015256793 0.0074171023 0.008053453 0.00872438
        0.009463881 0.010277425 0.011169687 0.012144054 0.01320197 0.014342044
        0.015558762 0.016840553 0.018166564 0.019505242 0.020820552 0.022081839
        0.023272041 0.02439339 0.02546613 0.026520275 0.027584722 0.028670607
        0.02976177 0.030828174 0.031837072 0.03276824 0.033614554 0.034323208
        0.034858562 0.036226332 0.037352856 0.03716112 0.036682382 0.035949174
        0.034973715 0.03378793 0.03242258 0.030912844 0.029294034 0.027602304
        0.025873935 0.02414199 0.02243354 0.020769732 0.019166531 0.01763544
        0.016184252 0.014817727 0.0135381995 0.012346099 0.011240389 0.010218869
        0.009278152 0.008413838 0.0076211807 0.0068954895 0.006232195 0.005626874
        0.005075281 0.004573364 0.0041172793 0.0037033986 0.003328309 0.0029888095
        0.0026819091 0.002404807 0.0021549286 0.0019297544 0.0017274064 0.0015362385
        0.0075091263 0.008148531 0.008823538 0.009568493 0.01038904 0.011289986
        0.012274777 0.013344823 0.0144985765 0.015730176 0.017027449 0.018368542
        0.019720495 0.021045765 0.022312583 0.023503553 0.024621595 0.025688535
        0.026736468 0.027796336 0.028880654 0.029973608 0.03104498 0.03206163
        0.03300346 0.03386375 0.034588106 0.0351387 0.03652837 0.037674353
        0.03748936 0.037012383 0.036276076 0.03529285 0.034095183 0.032714512
        0.03118682 0.029548222 0.02783573 0.026086476 0.02433425 0.022606622
        0.020925034 0.019305581 0.017759798 0.016295424 0.014917134 0.013627156
        0.012425799 0.011311919 0.010283209 0.009336167 0.00846627 0.007668656
        0.0069385413 0.006271279 0.0056623816 0.005107551 0.004602692 0.004143926
        0.003727595 0.0033502628 0.003008709 0.0026999272 0.0024211016 0.0021696487
        0.0019430317 0.0017393834 0.0015470115 0.0076040165 0.008246365 0.008925378
        0.009675757 0.010503303 0.011412936 0.012408151 0.013490321 0.014657736
        0.0159042 0.017216938 0.018573096 0.019938271 0.021273391 0.02254555
        0.023737023 0.024851454 0.025912313 0.026953807 0.02800897 0.029091693
        0.030186502 0.03126298 0.032287553 0.033240277 0.034114834 0.03485523
        0.0354214 0.036833283 0.037998985 0.03782093 0.03734582 0.036606427
        0.035615366 0.034405675 0.033009484 0.03146358 0.029804915 0.028071366
        0.026300939 0.024528164 0.022781126 0.021081563 0.01944571 0.01788512
        0.016407486 0.015017383 0.013716923 0.012506297 0.011384239 0.010348332
        0.009394954 0.008519458 0.0077168643 0.006982297 0.006311031 0.005698519
        0.00514041 0.004632567 0.004171078 0.0037522565 0.0033726431 0.003028999
        0.0027183015 0.002437721 0.0021846637 0.0019565765 0.0017516034 0.0015580055
        0.007701896 0.008347099 0.009030077 0.009785882 0.010620458 0.01153881
        0.012544468 0.01363876 0.0148198195 0.016081123 0.017409295 0.018780475
        0.020158801 0.021503631 0.022780908 0.023972588 0.02508307 0.026137523
        0.027172329 0.028222637 0.029303735 0.03040046 0.031482175 0.032514863
        0.03347872 0.03436786 0.035124663 0.035706773 0.03714119 0.038326897
        0.038155995 0.03768286 0.0369404 0.035941433 0.034719568 0.033307645
        0.03174327 0.030064251 0.028309342 0.026517443 0.024723848 0.022957163
        0.021239428 0.019587021 0.018011512 0.01652054 0.015118577 0.013807611
        0.012587702 0.011457459 0.010414345 0.009454619 0.008573502 0.0077658994
        0.0070268414 0.0063515287 0.0057353526 0.005173915 0.0046630385 0.004198777
        0.003777418 0.0033954794 0.003049703 0.0027370513 0.0024546806 0.0021999867
        0.0019703996 0.0017640749 0.0015692274 0.0078028915 0.008450888 0.009137822
        0.009899102 0.010740774 0.011667905 0.01268404 0.013790457 0.014985138
        0.016261239 0.017604802 0.018990945 0.02038232 0.021736694 0.023018835
        0.024210386 0.025316548 0.026364237 0.027392073 0.02843736 0.029516786
        0.030615492 0.03170258 0.03274358 0.033718824 0.03462289 0.03539649
        0.03599492 0.037452217 0.03865824 0.038494706 0.038023666 0.03727816
        0.036271214 0.035037033 0.033609163 0.032026052 0.030326378 0.028549794
        0.026736116 0.02492142 0.02313484 0.021398736 0.01972962 0.018139081
        0.016634695 0.0152208265 0.013899329 0.012670126 0.01153169 0.010481361
        0.0095152715 0.008628509 0.007815862 0.0070722676 0.006392855 0.0057729585
        0.0052081323 0.0046941624 0.004227071 0.0038031193 0.003418804 0.0030708483
        0.0027561989 0.0024719983 0.0022156318 0.0019845122 0.0017768071 0.0015806849
        0.007907129 0.0085579 0.009248832 0.010015681 0.010864554 0.011800549
        0.012827205 0.013945745 0.0151540125 0.016444856 0.017803743 0.01920477
        0.020609077 0.021972802 0.023259519 0.024450568 0.025551993 0.026592528
        0.02761308 0.028653156 0.029730856 0.030831603 0.03192422 0.03297374
        0.033960644 0.034879986 0.0356708 0.036285967 0.037766512 0.038993165
        0.03883724 0.038368415 0.037619885 0.036604896 0.03535824 0.033914205
        0.032312084 0.030591447 0.028792866 0.026957093 0.025121003 0.023314284
        0.021559604 0.019873617 0.018267935 0.01675006 0.015324242 0.013992193
        0.012753685 0.011607051 0.010549499 0.009577028 0.008684592 0.00786686
        0.007118679 0.0064351065 0.005811422 0.0052431375 0.004726004 0.0042560142
        0.0038294059 0.0034426542 0.0030924648 0.0027757683 0.0024896932 0.0022316144
        0.0019989263 0.0017898096 0.0015923855 0.008014735 0.008668317 0.009363353
        0.0101359235 0.010992148 0.011937113 0.012974332 0.014104984 0.015326781
        0.016632292 0.018006418 0.019422228 0.020839324 0.02221218 0.02350315
        0.024693292 0.025789523 0.026822472 0.027835395 0.02887005 0.029945958
        0.031048806 0.032147106 0.033205368 0.03420422 0.03513922 0.035947688
        0.036580026 0.038084216 0.039331846 0.03918377 0.038717296 0.037965767
        0.03694266 0.03568338 0.03422295 0.03260154 0.030859623 0.02903871
        0.027180517 0.025322735 0.023495615 0.021722147 0.020019133 0.01839819
        0.016866753 0.015428941 0.014086318 0.012838498 0.011683662 0.010618881
        0.009640015 0.008741878 0.007919018 0.0071661924 0.00647839 0.0058508418
        0.005279018 0.0047586393 0.0042856727 0.0038563325 0.0034670748 0.0031145883
        0.0027957885 0.0025077884 0.0022479522 0.0020136556 0.0018030925 0.0016043369
        0.00812583 0.008782346 0.009481675 0.010260194 0.01112396 0.0120780105
        0.0131258285 0.014268553 0.015503798 0.016823873 0.018213129 0.0196436
        0.021073325 0.022455065 0.02374994 0.024938721 0.026029265 0.027054152
        0.028059069 0.029088067 0.03016211 0.03126712 0.032371264 0.033438496
        0.034449603 0.035400674 0.036227256 0.03687723 0.03840548 0.03967445
        0.039534483 0.039070502 0.038316004 0.03728471 0.036012642 0.034535587
        0.032894604 0.03113108 0.029287491 0.027406538 0.025526756 0.02367897
        0.021886498 0.020166287 0.018529966 0.016984887 0.01553504 0.014181824
        0.012924689 0.011761652 0.0106896395 0.009704365 0.0088005 0.00797247
        0.0072149388 0.006522833 0.005891334 0.0053158794 0.004792161 0.0043161246
        0.0038839646 0.0034921202 0.0031372628 0.002816293 0.0025263096 0.0022646647
        0.0020287149 0.0018166668 0.0016165471 0.008240532 0.008900223 0.009604153
        0.010388929 0.0112604685 0.01222372 0.01328214 0.014436859 0.015685428
        0.017019931 0.018424187 0.01986918 0.02131135 0.022701707 0.024000103
        0.025187032 0.026271347 0.027287656 0.028284153 0.029307239 0.030379329
        0.031486563 0.032596722 0.033673175 0.034696855 0.035664424 0.036509622
        0.03717772 0.038730476 0.040021174 0.039889585 0.039428245 0.03867081
        0.03763126 0.03634624 0.034852326 0.03319147 0.031406 0.029539382
        0.027635321 0.02573322 0.023864487 0.02205279 0.02031521 0.018663388
        0.01710459 0.015642663 0.0142788375 0.013012384 0.011841154 0.010761912
        0.009770224 0.008860609 0.008027365 0.007265069 0.00656858 0.005933037
        0.0053538475 0.0048266817 0.004347468 0.003912385 0.003517857 0.0031605414
        0.0028373243 0.0025452888 0.002281776 0.002044121 0.0018305442 0.0016290242
        0.008358948 0.00902224 0.00973123 0.010522671 0.011402239 0.01237478
        0.013443755 0.014610334 0.015872056 0.017220814 0.018639907 0.02009927
        0.021553686 0.022952367 0.024253866 0.025438415 0.026515909 0.02752308
        0.028510705 0.029527593 0.030597636 0.03170716 0.032823514 0.033909447
        0.03494604 0.03593056 0.03679491 0.037481647 0.039059382 0.04037222
        0.0402493 0.03979075 0.039030414 0.03798253 0.0366844 0.035173383
        0.03349235 0.03168459 0.029794572 0.02786704 0.025942286 0.024052326
        0.022221165 0.020466039 0.018798588 0.017225988 0.015751937 0.014377486
        0.013101717 0.011922303 0.010835843 0.009837744 0.0089223655 0.008083876
        0.007316755 0.0066158026 0.0059761163 0.0053930776 0.004862342 0.0043798257
        0.0039416985 0.0035443725 0.0031844939 0.0028589354 0.0025647662 0.0022993146
        0.002059894 0.0018447379 0.0016417758 0.008481169 0.009148757 0.009863485
        0.010662097 0.011549951 0.012531809 0.013611205 0.0147894295 0.01606407
        0.017426869 0.018860618 0.020334173 0.021800624 0.023207316 0.02451147
        0.025693065 0.0267631 0.027760522 0.028738784 0.029749168 0.03081706
        0.03192894 0.033051684 0.034147367 0.035197224 0.03619919 0.03708325
        0.037789177 0.03939239 0.04072781 0.040613852 0.04015826 0.039395064
        0.03833878 0.03702737 0.035498995 0.033797476 0.031967066 0.030053265
        0.02810189 0.026154138 0.024242649 0.022391781 0.02061892 0.018935706
        0.017349219 0.015862998 0.014477904 0.013192827 0.012005245 0.010911589
        0.009907091 0.008985947 0.008142187 0.007370194 0.006664702 0.006020771
        0.0054337624 0.0048993207 0.004413359 0.003972043 0.0035717813 0.003209212
        0.002881198 0.0025847945 0.002317318 0.0020760584 0.0018592626 0.0016548098
        0.008607269 0.009280268 0.010001687 0.0108080655 0.011704409 0.012695495
        0.013785058 0.014974613 0.016261864 0.017638445 0.019086642 0.020574206
        0.022052469 0.02346684 0.02477317 0.02595119 0.027013076 0.028000087
        0.02896845 0.029971996 0.031037623 0.032151937 0.033281278 0.034387
        0.035450496 0.03647042 0.03737479 0.038100492 0.039729714 0.041088186
        0.040983506 0.040531036 0.039765023 0.038700268 0.03737541 0.035829425
        0.034107096 0.032253668 0.030315692 0.028340079 0.026368972 0.024435641
        0.022564812 0.020774016 0.019074896 0.017474428 0.015975984 0.014580234
        0.013285855 0.012090132 0.010989307 0.009978438 0.009051544 0.008202506
        0.0074256067 0.006715512 0.006067241 0.005476139 0.0049378457 0.0044482774
        0.0040036053 0.003600242 0.0032348249 0.0029042116 0.0026054473 0.002335837
        0.002092647 0.0018741363 0.0016681332 0.008737288 0.0094174845 0.010146903
        0.010961675 0.011866567 0.012866601 0.013965907 0.01516635 0.016465826
        0.01785588 0.019318301 0.020819684 0.022309527 0.023731234 0.025039224
        0.026213003 0.027265994 0.028241873 0.029199755 0.030196102 0.03125935
        0.03237618 0.033512335 0.034628406 0.035705928 0.036744367 0.037669692
        0.038415775 0.04007158 0.041453607 0.041358527 0.040909365 0.040140584
        0.039067287 0.037728805 0.036164954 0.034421485 0.032544658 0.030582096
        0.028581839 0.026586998 0.024631502 0.02274044 0.020931501 0.019216323
        0.017601773 0.016091052 0.014684623 0.013380953 0.012177117 0.0110691665
        0.010051969 0.009119358 0.00826506 0.0074832435 0.006768502 0.0061158133
        0.0055205026 0.0049782107 0.004484862 0.004036643 0.0036299797 0.0032615196
        0.0029281243 0.0026268342 0.0023549474 0.0021097057 0.0018893821 0.001681752
        0.008871229 0.009561508 0.010300631 0.01112431 0.012037517 0.013045932
        0.014154336 0.015365081 0.016676309 0.018079493 0.019555893 0.021070903
        0.022572096 0.024000775 0.025309883 0.026478708 0.027521992 0.02848596
        0.029432733 0.03042149 0.031482235 0.03260168 0.033744894 0.034871634
        0.035963587 0.037021138 0.037968103 0.038735222 0.04041822 0.041824333
        0.041739203 0.04129354 0.040522043 0.03944014 0.03808786 0.03650588
        0.034740936 0.032840315 0.030852746 0.028827423 0.026808457 0.024830451
        0.022918874 0.02109157 0.019360168 0.017731424 0.016208362 0.0147912325
        0.013478281 0.012266366 0.011151341 0.010127875 0.009189604 0.00833009
        0.007543377 0.0068239784 0.0061668237 0.005567215 0.0050207907 0.0045234887
        0.004071516 0.003661324 0.0032895822 0.0029531687 0.002649132 0.0023747708
        0.0021273086 0.0019050348 0.0016956708 0.009009037 0.009714185 0.010465005
        0.011297674 0.012218443 0.0132342735 0.014350872 0.015571174 0.016893597
        0.018309526 0.019799657 0.021328108 0.022840425 0.024275703 0.025585352
        0.026748449 0.027781151 0.028732361 0.029667342 0.03064809 0.031706214
        0.032828387 0.03397892 0.03511668 0.03622349 0.03730079 0.03827014
        0.039058983 0.040769815 0.042200603 0.042125784 0.041683823 0.040909685
        0.03981912 0.03845288 0.036852505 0.035065744 0.03314093 0.03112792
        0.029077096 0.027033597 0.025032723 0.023100333 0.021254426 0.019506626
        0.017863568 0.016328093 0.014900233 0.013578006 0.012358051 0.011236012
        0.010206354 0.009262504 0.008397847 0.0076062987 0.0068822773 0.006220655
        0.005616705 0.0050660563 0.0045646564 0.004108734 0.0036947704 0.003319468
        0.002979738 0.0026726532 0.002395532 0.0021455942 0.0019211557 0.0017098904
        0.009150587 0.009878833 0.010643015 0.01148372 0.012410489 0.013432262
        0.0145558575 0.015784819 0.017117798 0.018546058 0.020049663 0.02159138
        0.023114596 0.024556087 0.025865661 0.0270222 0.028043374 0.028980907
        0.029903356 0.03087565 0.031931035 0.03305607 0.034214213 0.03536337
        0.036485467 0.03758322 0.038575746 0.03938705 0.04112642 0.042582512
        0.0425184 0.04208038 0.041303694 0.04020443 0.038824074 0.037205063
        0.03539616 0.033446763 0.03140787 0.029331097 0.027262654 0.025238547
        0.023285035 0.021420281 0.019655896 0.017998395 0.016450427 0.015011804
        0.013680306 0.012452349 0.011323366 0.010287607 0.009338284 0.008468594
        0.00767231 0.006943752 0.006277725 0.005669461 0.005114571 0.004609002
        0.0041489955 0.003731056 0.003351919 0.0030085328 0.0026980103 0.0024177118
        0.00216488 0.0019378928 0.0017244063 0.009295661 0.010061839 0.010838561
        0.011684319 0.012614428 0.0136401085 0.014769213 0.016005777 0.0173486
        0.018788736 0.020305555 0.021860357 0.023394246 0.024841534 0.026150366
        0.027299445 0.028308056 0.029230915 0.030140026 0.031103386 0.032155924
        0.03328398 0.034450058 0.035611 0.036748838 0.037867803 0.038884386
        0.039718937 0.041487582 0.04296967 0.042916704 0.042482916 0.041703828
        0.040595885 0.03920132 0.037563466 0.03573213 0.0337578 0.031692617
        0.02958948 0.027495693 0.025448004 0.023473078 0.02158924 0.019808095
        0.018136028 0.016575493 0.015126073 0.013785314 0.0125494 0.011413554
        0.010371804 0.009417139 0.008542558 0.0077416855 0.0070087346 0.006338436
        0.0057259756 0.005166937 0.0046572555 0.004193173 0.003771201 0.0033880894
        0.003040804 0.0027264787 0.0024425013 0.0021861312 0.001955813 0.0017392013
        0.00944393 0.010257825 0.011045594 0.011894057 0.012825705 0.013854028
        0.014987771 0.016231354 0.017583655 0.01903546 0.020565394 0.022133227
        0.023677675 0.025130514 0.026438177 0.027579207 0.028574584 0.029482119
        0.030377375 0.031331487 0.0323811 0.03351227 0.03468647 0.03585945
        0.037013326 0.038154002 0.039195217 0.040053554 0.041852005 0.04336058
        0.04331908 0.04288973 0.04210835 0.04099173 0.039582863 0.03792601
        0.03607202 0.03407247 0.03198069 0.02985087 0.027731445 0.02565991
        0.023663344 0.021760244 0.019962195 0.018275457 0.016702283 0.015242024
        0.013891987 0.012648125 0.011505444 0.010457754 0.009497813 0.008618416
        0.007813036 0.007075776 0.0064012893 0.0057847113 0.0052215974 0.004707866
        0.004239753 0.0038137683 0.0034266606 0.0030753962 0.0027571062 0.0024691815
        0.002208873 0.0019746742 0.0017542316
      </DataArray>
    </PointData>
    <CellData>
    </CellData>
    <Points>
      <DataArray type="Float32" Name="Points" NumberOfComponents="3" format="ascii" RangeMin="0.8772090354978528" RangeMax="1.0217349150992803">
        0.65260166 -0.0014924493 0.61351866 0.653272 -0.00085845724 0.6135198
        0.6540162 -0.00017473486 0.61352 0.654842 0.00056245184 0.61351913
        0.65575784 0.0013567922 0.61351687 0.6567726 0.0022118206 0.6135129
        0.657896 0.003130773 0.6135067 0.65913814 0.0041164057 0.6134979
        0.6605099 0.005170772 0.6134861 0.66202223 0.006294959 0.61347073
        0.6636863 0.007488795 0.6134511 0.6655128 0.008750547 0.6134268
        0.6675114 0.010076631 0.6133973 0.6696897 0.011461613 0.61336213
        0.67205274 0.012898733 0.613321 0.67460316 0.014380768 0.61327386
        0.67734116 0.015900942 0.6132208 0.680266 0.017453548 0.613162
        0.683376 0.019033942 0.61309797 0.6866695 0.0206379 0.6130293
        0.6901443 0.022260552 0.612957 0.6937966 0.023895029 0.6128823
        0.6976196 0.025531823 0.61280674 0.70160353 0.027158987 0.61273235
        0.7057352 0.028762547 0.6126612 0.70999855 0.030326946 0.6125956
        0.71437645 0.031835027 0.612538 0.7188443 0.033267356 0.61249053
        0.7233825 0.034608096 0.6124552 0.72822607 0.035908524 0.6124325
        0.73308194 0.037074193 0.61242574 0.7379085 0.03809404 0.6124348
        0.7426734 0.038964294 0.61245877 0.7473419 0.03968534 0.612496
        0.75188345 0.040262442 0.6125445 0.75627065 0.040704645 0.61260164
        0.7604805 0.041023985 0.61266524 0.7644944 0.041234452 0.61273277
        0.7682985 0.04135109 0.61280227 0.7718836 0.04138912 0.61287206
        0.77524483 0.041363116 0.61294067 0.7783815 0.041286502 0.613007
        0.781296 0.04117117 0.6130705 0.78399354 0.041027375 0.61313045
        0.7864814 0.04086375 0.6131868 0.7887685 0.04068742 0.6132392
        0.7908648 0.040504124 0.6132879 0.79278123 0.04031843 0.61333287
        0.79452896 0.04013388 0.61337423 0.79611933 0.03995315 0.61341214
        0.79756373 0.039778244 0.6134469 0.79887325 0.039610572 0.6134786
        0.8000585 0.039451085 0.61350745 0.80112976 0.039300404 0.6135338
        0.80209666 0.039158843 0.6135577 0.8029683 0.039026532 0.6135794
        0.8037532 0.03890342 0.61359906 0.8044592 0.03878931 0.6136169
        0.8050937 0.038683947 0.613633 0.8056634 0.038586978 0.6136475
        0.80617446 0.038498007 0.61366063 0.8066327 0.03841659 0.61367244
        0.8070432 0.038342293 0.6136831 0.8074107 0.038274646 0.61369264
        0.8077396 0.03821318 0.6137013 0.8080338 0.038157444 0.613709
        0.8082968 0.038107 0.61371595 0.8085318 0.03806141 0.61372215
        0.80874175 0.038020276 0.61372775 0.65196437 -0.00082854845 0.61351985
        0.6526567 -0.00020521949 0.61352044 0.6534187 0.00047260584 0.61352015
        0.65426 0.0012069166 0.6135187 0.65518993 0.0020005216 0.6135158
        0.656218 0.002856478 0.6135111 0.65735424 0.0037777498 0.6135042
        0.65860915 0.004766937 0.6134946 0.65999365 0.0058260085 0.6134818
        0.66151893 0.0069560143 0.6134653 0.66319615 0.00815678 0.6134445
        0.6650362 0.00942658 0.6134189 0.6670485 0.010761837 0.6133878
        0.6692406 0.01215705 0.613351 0.67161745 0.013605306 0.6133081
        0.6741813 0.015099101 0.61325896 0.67693245 0.016631274 0.61320376
        0.6798699 0.01819568 0.6131426 0.6829922 0.019787248 0.6130761
        0.6862979 0.021401428 0.6130049 0.68978494 0.023033176 0.61292994
        0.69345 0.024675626 0.61285245 0.6972864 0.02631935 0.6127741
        0.7012846 0.027952503 0.61269677 0.7054316 0.029561214 0.6126228
        0.7097115 0.031129997 0.61255443 0.7141072 0.032641977 0.61249405
        0.7185941 0.03407798 0.6124441 0.72315234 0.035422277 0.61240643
        0.7280183 0.036726505 0.6123815 0.73289716 0.037895925 0.6123729
        0.737747 0.03891945 0.6123803 0.7425351 0.039793275 0.6124031
        0.7472264 0.04051774 0.6124394 0.7517903 0.0410981 0.6124872
        0.75619894 0.041543372 0.61254394 0.76042926 0.04186559 0.61260724
        0.7644625 0.04207875 0.6126747 0.7682846 0.042197887 0.61274433
        0.7718864 0.0422382 0.6128142 0.77526313 0.042214267 0.612883
        0.77841395 0.0421395 0.6129496 0.78134143 0.042025812 0.6130133
        0.7840509 0.04188347 0.61307365 0.7865496 0.041721154 0.6131303
        0.7888467 0.041546013 0.6131831 0.79095215 0.041363835 0.613232
        0.7928769 0.041179206 0.61327726 0.79463226 0.040995717 0.6133189
        0.7962297 0.040816076 0.6133571 0.7976807 0.040642306 0.61339206
        0.79899615 0.04047584 0.613424 0.800187 0.040317666 0.61345315
        0.80126345 0.040168412 0.6134796 0.8022352 0.040028412 0.6135037
        0.8031113 0.03989779 0.6135255 0.80390036 0.039776497 0.6135453
        0.8046102 0.039664354 0.6135632 0.80524826 0.03956108 0.61357933
        0.8058213 0.039466325 0.61359394 0.8063355 0.03937968 0.61360705
        0.8067966 0.0393007 0.6136189 0.8072098 0.039228924 0.6136295
        0.8075798 0.039163876 0.61363906 0.80791104 0.039105095 0.6136476
        0.8082074 0.039052106 0.6136552 0.8084724 0.039004456 0.61366206
        0.80870926 0.038961705 0.6136682 0.808921 0.03892344 0.6136737
        0.6513271 -0.0001646469 0.61352 0.65203714 0.00045248124 0.6135202
        0.6528159 0.0011256912 0.61351943 0.6536726 0.0018573322 0.6135174
        0.6546169 0.0026500574 0.6135139 0.6556586 0.0035067042 0.61350846
        0.656808 0.004430058 0.6135008 0.658076 0.0054225954 0.61349034
        0.6594735 0.0064862114 0.6134766 0.6610119 0.007621916 0.61345905
        0.66270256 0.008829518 0.61343706 0.6645562 0.010107289 0.61341006
        0.66658247 0.011451624 0.6133776 0.6687886 0.012856944 0.613339
        0.6711795 0.014316165 0.61329424 0.6737571 0.0158215 0.6132431
        0.67652154 0.017365418 0.6131857 0.6794719 0.018941361 0.6131223
        0.68260676 0.020543868 0.6130533 0.6859247 0.022168085 0.61297953
        0.6894242 0.023808815 0.61290187 0.69310206 0.025459183 0.6128216
        0.696952 0.027109833 0.6127403 0.7009645 0.028749026 0.6126601
        0.70512676 0.030362973 0.6125832 0.7094232 0.031936284 0.612512
        0.7138368 0.03345234 0.61244893 0.7183427 0.034892183 0.6123964
        0.72292113 0.0362402 0.61235636 0.72780955 0.037548378 0.61232924
        0.7327115 0.038721673 0.61231863 0.73758465 0.039748963 0.61232454
        0.74239606 0.04062642 0.612346 0.74711037 0.041354347 0.61238134
        0.7516966 0.04193797 0.6124284 0.7561269 0.0423863 0.61248475
        0.76037776 0.04271136 0.6125478 0.76443034 0.042927146 0.6126152
        0.7682706 0.0430487 0.61268485 0.7718892 0.0430912 0.6127548
        0.7752814 0.04306925 0.61282384 0.7784465 0.042996243 0.6128907
        0.7813871 0.042884115 0.61295474 0.78410846 0.042743165 0.61301535
        0.7866181 0.042582106 0.6130723 0.7889252 0.042408127 0.61312544
        0.79103976 0.04222705 0.61317474 0.7929729 0.042043503 0.6132203
        0.794736 0.041861102 0.6132622 0.7963406 0.041682597 0.6133006
        0.79779804 0.041510038 0.6133359 0.79911965 0.04134487 0.61336803
        0.8003161 0.041188113 0.61339736 0.80139774 0.04104039 0.613424
        0.8023743 0.040902056 0.6134482 0.8032549 0.04077323 0.61347014
        0.8040482 0.04065386 0.61349 0.80476195 0.040543757 0.613508
        0.8054036 0.040442627 0.6135242 0.80597997 0.040350094 0.6135388
        0.8064973 0.04026573 0.6135519 0.80696124 0.040189072 0.6135637
        0.8073771 0.040119622 0.6135743 0.80774957 0.040056888 0.61358386
        0.80808306 0.040000357 0.6135923 0.8083815 0.039949533 0.61359996
        0.80864835 0.039903928 0.6136068 0.808887 0.039863072 0.61361283
        0.8091002 0.039826524 0.6136183 0.6506897 0.0004992541 0.6135194
        0.6514152 0.0011128325 0.61351913 0.65220934 0.0017829703 0.6135178
        0.6530809 0.0025126426 0.61351526 0.65403944 0.0033047257 0.61351115
        0.65509486 0.0041620787 0.61350507 0.6562577 0.0050874404 0.61349654
        0.65753883 0.006083229 0.6134852 0.6589495 0.007151293 0.61347055
        0.6605013 0.0082926145 0.6134519 0.6622055 0.009506986 0.6134287
        0.66407305 0.01079266 0.6134004 0.66611344 0.012145993 0.61336637
        0.6683338 0.013561309 0.61332613 0.6707389 0.015031333 0.6132795
        0.6733305 0.016548002 0.61322635 0.6761086 0.018103428 0.6131667
        0.6790721 0.019690659 0.61310095 0.6822196 0.021303868 0.6130295
        0.68555003 0.022937931 0.61295307 0.68906206 0.024587516 0.61287266
        0.6927528 0.026245741 0.6127895 0.6966163 0.02790331 0.6127054
        0.7006432 0.029548576 0.6126223 0.7048208 0.031167835 0.6125425
        0.70913374 0.0327458 0.6124684 0.7135652 0.0342661 0.61240256
        0.71809024 0.035709936 0.6123475 0.7226888 0.037061833 0.61230505
        0.7275998 0.038374096 0.6122756 0.7325249 0.03955138 0.612263
        0.73742145 0.04058253 0.6122673 0.74225634 0.04146368 0.61228746
        0.7469937 0.0421951 0.61232185 0.7516025 0.04278199 0.6123682
        0.75605446 0.043233354 0.6124241 0.76032597 0.043561205 0.6124869
        0.76439804 0.043779552 0.6125542 0.76825655 0.043903437 0.6126239
        0.771892 0.043948047 0.6126941 0.77529985 0.04392797 0.6127633
        0.7784792 0.043856632 0.6128304 0.78143287 0.043745983 0.6128947
        0.7841662 0.043606356 0.61295563 0.7866869 0.043446504 0.61301285
        0.7890039 0.04327364 0.6130663 0.79112774 0.04309364 0.61311597
        0.7930693 0.04291117 0.6131618 0.79484016 0.04272987 0.613204
        0.7964518 0.042552534 0.61324275 0.7979159 0.042381216 0.61327815
        0.7992435 0.042217407 0.6133105 0.8004456 0.042062115 0.6133401
        0.8015325 0.041915983 0.61336684 0.80251396 0.041779354 0.6133912
        0.8033991 0.041652355 0.6134133 0.80419654 0.041534908 0.61343324
        0.8049142 0.041426815 0.61345124 0.80555946 0.041327745 0.61346745
        0.80613923 0.04123731 0.6134822 0.80665964 0.041155048 0.6134953
        0.8071264 0.041080464 0.6135071 0.8075449 0.041013032 0.6135177
        0.8079198 0.040952217 0.61352724 0.80825543 0.0408975 0.6135357
        0.80855584 0.04084836 0.61354333 0.80882454 0.040804297 0.6135501
        0.80906475 0.04076484 0.61355615 0.80927944 0.040729526 0.61356163
        0.6500524 0.0011631531 0.6135179 0.6507917 0.0017749566 0.61351717
        0.65160006 0.002443393 0.6135154 0.6524858 0.0031719576 0.6135123
        0.65345824 0.003963861 0.6135075 0.65452737 0.0048221312 0.6135008
        0.6557036 0.0057495693 0.6134915 0.65699804 0.006748609 0.6134793
        0.65842205 0.007821092 0.61346364 0.65998733 0.008967995 0.6134439
        0.66170526 0.010189095 0.6134195 0.6635868 0.011482624 0.6133898
        0.6656415 0.012844891 0.6133542 0.66787636 0.014270099 0.6133123
        0.67029583 0.015750779 0.6132638 0.6729017 0.017278591 0.6132086
        0.6756936 0.018845297 0.6131467 0.6786704 0.02044357 0.6130786
        0.6818308 0.022067256 0.6130046 0.68517387 0.023710975 0.6129255
        0.68869853 0.025369287 0.6128423 0.6924023 0.027035294 0.61275643
        0.69627935 0.028699763 0.6126694 0.70032066 0.03035113 0.6125833
        0.7045136 0.03197577 0.61250055 0.7088431 0.033558514 0.6124236
        0.7132925 0.03508319 0.612355 0.7178367 0.036531184 0.61229724
        0.72245544 0.037887104 0.61225235 0.72738904 0.03920359 0.61222064
        0.73233736 0.040384978 0.61220604 0.73725754 0.041420072 0.61220866
        0.74211586 0.04230497 0.6122275 0.74687654 0.043039903 0.6122609
        0.7515079 0.043630067 0.61230654 0.7559816 0.044084437 0.61236197
        0.76027393 0.044415034 0.6124245 0.76436555 0.044635873 0.6124918
        0.76824236 0.044762004 0.61256146 0.7718948 0.044808626 0.61263174
        0.77531826 0.04479033 0.6127012 0.778512 0.044720568 0.6127686
        0.7814788 0.04461131 0.61283314 0.7842242 0.04447293 0.6128944
        0.7867558 0.044314213 0.612952 0.7890829 0.04414242 0.61300576
        0.7912159 0.04396347 0.6130557 0.7931659 0.04378205 0.61310184
        0.7949445 0.04360186 0.61314434 0.7965634 0.043425694 0.6131833
        0.798034 0.043255642 0.613219 0.7993677 0.043093193 0.61325157
        0.8005755 0.04293938 0.61328125 0.80166763 0.042794835 0.61330825
        0.80265397 0.04265991 0.6133327 0.8035436 0.04253469 0.61335486
        0.8043453 0.042419102 0.61337495 0.8050668 0.042312913 0.613393
        0.80571574 0.04221576 0.61340934 0.8062988 0.042127233 0.613424
        0.8068223 0.042046834 0.6134372 0.8072919 0.04197404 0.61344904
        0.807713 0.041908313 0.61345965 0.8080902 0.041849088 0.6134692
        0.808428 0.041795842 0.61347765 0.8087303 0.04174804 0.6134853
        0.80900073 0.04170518 0.6134921 0.80924255 0.041666802 0.6134981
        0.8094587 0.04163245 0.6135035 0.64941514 0.0018270488 0.6135154
        0.65016717 0.0024383788 0.61351424 0.65098876 0.0031062672 0.613512
        0.651888 0.0038345896 0.61350834 0.65287405 0.0046268865 0.61350304
        0.6539566 0.0054864152 0.6134955 0.6551462 0.0064161154 0.6134856
        0.65645397 0.0074184965 0.61347246 0.6578914 0.008495438 0.61345583
        0.6594702 0.009647927 0.61343503 0.661202 0.010875746 0.6134094
        0.66309774 0.012177106 0.6133783 0.66516685 0.01354825 0.6133411
        0.66741633 0.014983261 0.61329746 0.66985047 0.016474465 0.6132471
        0.6724707 0.01801324 0.6131898 0.67527664 0.019591007 0.61312574
        0.678267 0.021200094 0.61305517 0.68144053 0.022834035 0.6129787
        0.6847963 0.024487223 0.612897 0.6883337 0.026154123 0.61281097
        0.69205046 0.027827835 0.6127222 0.6959412 0.02949917 0.6126322
        0.6999969 0.031156655 0.61254317 0.70420533 0.032786738 0.61245745
        0.70855135 0.034374364 0.6123776 0.7130186 0.03590357 0.6123061
        0.717582 0.037355863 0.6122457 0.7222211 0.038715947 0.61219835
        0.7271773 0.04003679 0.61216426 0.732149 0.041222386 0.6121477
        0.73709273 0.042261507 0.6121486 0.7419748 0.043150205 0.6121661
        0.7467587 0.04388869 0.6121985 0.7514128 0.04448212 0.6122434
        0.7559084 0.04493947 0.61229837 0.7602216 0.04527276 0.61236066
        0.76433295 0.045496024 0.6124278 0.76822805 0.045624316 0.61249757
        0.77189755 0.04567285 0.612568 0.7753367 0.045656238 0.61263764
        0.77854484 0.04558795 0.61270535 0.78152484 0.04548 0.6127702
        0.78428227 0.045342788 0.6128318 0.7868249 0.04518514 0.61288965
        0.78916204 0.04501437 0.61294377 0.7913043 0.044836417 0.612994
        0.7932628 0.04465603 0.61304045 0.79504913 0.04447691 0.61308324
        0.79667515 0.044301897 0.61312246 0.7981524 0.044133093 0.6131584
        0.79949224 0.043971997 0.6131912 0.8007057 0.04381964 0.61322105
        0.80180305 0.043676645 0.61324817 0.8027943 0.043543357 0.6132728
        0.80368847 0.043419845 0.6132951 0.8044943 0.043305997 0.61331517
        0.80521977 0.04320155 0.61333334 0.8058723 0.04310614 0.61334974
        0.80645865 0.043019302 0.61336446 0.8069852 0.042940523 0.61337763
        0.8074576 0.04286927 0.6133895 0.8078812 0.042804964 0.61340016
        0.80826074 0.04274706 0.6134097 0.80860066 0.042695016 0.6134182
        0.8089049 0.04264829 0.61342585 0.80917704 0.042606402 0.61343265
        0.8094204 0.042568877 0.6134387 0.8096379 0.042535294 0.6134442
        0.64877784 0.0024909396 0.613512 0.6495418 0.0031028169 0.61351043
        0.6503759 0.0037711286 0.61350775 0.6512881 0.0045000245 0.6135036
        0.65228724 0.005293328 0.6134976 0.65338296 0.0061545367 0.6134895
        0.65458584 0.007086772 0.6134787 0.6559069 0.0080926595 0.6134648
        0.65735775 0.009174154 0.6134472 0.6589502 0.010332285 0.61342525
        0.66069597 0.011566843 0.6133983 0.66260594 0.012876025 0.6133658
        0.6646896 0.014256013 0.61332715 0.6669539 0.015700752 0.6132818
        0.66940284 0.017202357 0.61322945 0.6720377 0.018751927 0.61317
        0.67485785 0.020340554 0.6131037 0.6778619 0.021960232 0.61303073
        0.68104863 0.023604209 0.61295164 0.6844173 0.025266683 0.61286724
        0.68796754 0.026942024 0.6127785 0.6916975 0.028623354 0.6126868
        0.6956018 0.030301524 0.6125939 0.69967204 0.03196514 0.61250186
        0.70389587 0.033600718 0.6124131 0.70825845 0.035193328 0.61233026
        0.7127437 0.036727186 0.61225605 0.7173262 0.03818392 0.61219287
        0.72198564 0.039548304 0.612143 0.7269646 0.040873636 0.61210656
        0.7319597 0.042063545 0.6120879 0.7369272 0.043106772 0.6120871
        0.7418329 0.04399933 0.6121032 0.7466403 0.04474139 0.6121346
        0.75131726 0.04533808 0.6121788 0.7558349 0.045798376 0.6122332
        0.76016897 0.046134315 0.61229527 0.7643001 0.04635993 0.6123623
        0.7682137 0.046490297 0.6124321 0.7719003 0.04654064 0.61250275
        0.77535516 0.046525616 0.6125726 0.7785777 0.046458714 0.6126405
        0.7815709 0.046351973 0.6127057 0.78434044 0.046215847 0.61276764
        0.7868941 0.046059202 0.6128258 0.7892413 0.045889385 0.61288023
        0.7913928 0.045712378 0.61293083 0.79335976 0.04553297 0.61297756
        0.7951539 0.045354895 0.6130206 0.796787 0.045181002 0.6130601
        0.7982709 0.04501341 0.61309624 0.7996169 0.044853617 0.61312926
        0.800836 0.044702657 0.6131593 0.80193865 0.04456114 0.6131866
        0.80293477 0.044429388 0.61321133 0.80383354 0.044307463 0.61323375
        0.8046436 0.04419521 0.613254 0.8053729 0.044092346 0.6132722
        0.806029 0.04399847 0.6132887 0.8066187 0.043913115 0.6133034
        0.8071482 0.043835733 0.6133167 0.8076234 0.043765776 0.61332864
        0.8080495 0.043702666 0.6133393 0.8084314 0.04364585 0.61334884
        0.80877334 0.043594785 0.6133574 0.80907947 0.043548945 0.61336505
        0.80935335 0.043507844 0.6133719 0.8095982 0.043471023 0.613378
        0.80981714 0.04343805 0.6133835 0.64814055 0.0031548243 0.6135077
        0.6489158 0.0037680904 0.6135057 0.64976186 0.00443766 0.6135025
        0.65068644 0.0051678782 0.61349785 0.6516983 0.005962803 0.6134913
        0.65280694 0.00682616 0.61348253 0.6540229 0.007761261 0.6134709
        0.6553571 0.008770881 0.61345613 0.6568214 0.009857079 0.61343753
        0.65842754 0.011020942 0.6134145 0.66018724 0.012262292 0.61338633
        0.6621116 0.0135793155 0.6133524 0.66420996 0.014968123 0.6133121
        0.6664892 0.016422527 0.61326504 0.66895306 0.017934429 0.61321074
        0.6716027 0.01949464 0.6131492 0.67443734 0.021093931 0.61308056
        0.67745525 0.022723988 0.61300516 0.6806553 0.024377786 0.61292356
        0.68403697 0.026049357 0.6128365 0.68760014 0.027733 0.6127449
        0.6913432 0.02942185 0.61265033 0.6952613 0.031106813 0.61255443
        0.699346 0.03277656 0.61245936 0.70358527 0.034417685 0.6123676
        0.7079645 0.036015373 0.6122818 0.7124676 0.037554003 0.6122046
        0.71706945 0.03901532 0.61213875 0.7217492 0.040384136 0.61208636
        0.72675097 0.041714072 0.61204743 0.73176956 0.042908404 0.6120267
        0.73676085 0.043955814 0.6120242 0.7416904 0.04485228 0.6120389
        0.74652135 0.045597933 0.6120692 0.75122124 0.04619788 0.61211264
        0.75576097 0.04666111 0.6121666 0.7601161 0.046999637 0.6122284
        0.764267 0.047227528 0.6122954 0.76819915 0.04735988 0.61236525
        0.7719029 0.04741195 0.61243594 0.7753735 0.047398407 0.61250603
        0.7786106 0.04733279 0.6125742 0.78161705 0.047227163 0.6126397
        0.7843986 0.047092035 0.61270195 0.78696334 0.04693631 0.61276054
        0.7893207 0.046767376 0.6128153 0.7914814 0.046591267 0.61286616
        0.7934568 0.04641278 0.6129132 0.79525876 0.046235684 0.6129565
        0.7968991 0.04606285 0.6129963 0.79838955 0.04589641 0.6130327
        0.7997417 0.045737855 0.6130659 0.80096644 0.04558821 0.6130961
        0.80207443 0.045448076 0.6131236 0.8030754 0.04531775 0.6131485
        0.8039787 0.045197252 0.613171 0.8047929 0.045086436 0.61319137
        0.80552614 0.044984974 0.61320966 0.8061858 0.04489245 0.6132262
        0.8067787 0.04480836 0.613241 0.8073113 0.044732172 0.61325437
        0.80778927 0.044663306 0.61326635 0.8082179 0.044601202 0.613277
        0.80860204 0.04454529 0.6132867 0.8089461 0.04449503 0.61329526
        0.8092541 0.044449914 0.61330295 0.80952966 0.04440945 0.6133098
        0.80977607 0.044373196 0.61331594 0.8099964 0.044340722 0.6133214
        0.64750326 0.0038187015 0.61350244 0.6482894 0.004434078 0.61350006
        0.6491469 0.0051056356 0.6134964 0.6500834 0.0058378642 0.6134912
        0.65110755 0.0066350093 0.6134841 0.6522288 0.007501 0.6134746
        0.6534576 0.008439341 0.61346227 0.65480494 0.009452968 0.6134466
        0.6562826 0.01054406 0.613427 0.65790236 0.011713786 0.61340284
        0.65967613 0.01296201 0.6133734 0.6616149 0.014286912 0.61333805
        0.66372806 0.015684538 0.61329615 0.6660223 0.017148558 0.6132473
        0.6685013 0.018670656 0.613191 0.67116594 0.020241361 0.6131274
        0.6740151 0.021851137 0.6130565 0.677047 0.023491364 0.6129786
        0.6802606 0.025154777 0.61289436 0.6836553 0.026835259 0.6128046
        0.6872315 0.028527057 0.6127102 0.69098777 0.030223327 0.61261266
        0.69491965 0.03191503 0.6125138 0.6990189 0.033590913 0.6124157
        0.7032736 0.035237625 0.61232084 0.7076694 0.036840472 0.612232
        0.7121905 0.038383998 0.6121519 0.7168116 0.03985001 0.61208326
        0.7215118 0.041223392 0.6120283 0.7265364 0.04255806 0.61198694
        0.7315785 0.04375691 0.61196405 0.7365937 0.044808585 0.61195976
        0.7415472 0.04570901 0.6119731 0.7464018 0.046458278 0.6120023
        0.7511247 0.047061484 0.612045 0.75568664 0.0475276 0.61209846
        0.76006293 0.047868665 0.61215997 0.76423377 0.048098765 0.61222684
        0.7681845 0.048233017 0.61229676 0.7719054 0.048286714 0.61236763
        0.77539194 0.048274558 0.61243796 0.7786435 0.048210114 0.61250645
        0.7816632 0.048105516 0.61257225 0.78445685 0.047971297 0.6126348
        0.7870326 0.047816407 0.6126937 0.7894001 0.04764828 0.6127488
        0.79157 0.047472984 0.6128 0.79355395 0.04729535 0.6128473
        0.79536366 0.047119174 0.61289096 0.79701114 0.046947327 0.612931
        0.7985082 0.046781957 0.6129676 0.7998665 0.046624552 0.61300105
        0.801097 0.046476115 0.6130315 0.80221015 0.04633724 0.6130591
        0.80321604 0.046208195 0.61308414 0.8041239 0.046088986 0.6131068
        0.80494225 0.045979425 0.61312723 0.8056794 0.045879185 0.61314565
        0.8063426 0.04578782 0.6131623 0.8069388 0.04570482 0.6131772
        0.80747443 0.04562963 0.6131906 0.8079551 0.045561686 0.61320263
        0.80838627 0.045500405 0.6132134 0.8087727 0.045445237 0.6132231
        0.8091188 0.045395643 0.6132317 0.8094287 0.045351114 0.61323947
        0.809706 0.045311164 0.6132463 0.8099539 0.04527537 0.6132525
        0.81017566 0.045243304 0.61325806 0.64686596 0.0044825696 0.61349636
        0.64766264 0.0051006945 0.6134935 0.64853114 0.0057748933 0.6134894
        0.6494792 0.0065097646 0.61348367 0.65051526 0.0073097055 0.6134759
        0.6516489 0.008178824 0.6134657 0.6528903 0.009120803 0.6134527
        0.6542506 0.010138745 0.6134361 0.6557415 0.011234959 0.61341554
        0.6573749 0.012410713 0.6133902 0.6591627 0.013665917 0.61335945
        0.66111594 0.014998755 0.6133227 0.66324395 0.016405214 0.6132792
        0.6655534 0.017878816 0.6132285 0.66804767 0.019411022 0.61317027
        0.6707274 0.020992089 0.61310446 0.6735912 0.022612173 0.6130312
        0.6766373 0.02426237 0.6129509 0.67986447 0.0259352 0.6128641
        0.68327236 0.027624404 0.6127715 0.6868616 0.029324207 0.6126743
        0.6906312 0.031027798 0.61257386 0.69457686 0.032726187 0.61247194
        0.69869065 0.034408193 0.6123707 0.7029608 0.03606053 0.6122728
        0.7073732 0.03766862 0.61218095 0.7119123 0.039217148 0.6120979
        0.7165527 0.04068799 0.61202645 0.7212733 0.04206605 0.6119688
        0.72632086 0.043405563 0.61192507 0.7313866 0.04460904 0.6119
        0.7364258 0.04566505 0.6118939 0.74140334 0.046569485 0.6119058
        0.7462816 0.04732239 0.6119339 0.7510277 0.047928844 0.6119758
        0.7556119 0.048397824 0.6120288 0.7600094 0.04874137 0.61209005
        0.76420027 0.0489736 0.6121568 0.76816964 0.049109664 0.6122268
        0.77190787 0.049164884 0.61229783 0.77541023 0.049154013 0.61236835
        0.77867633 0.049090646 0.6124371 0.78170925 0.04898697 0.6125033
        0.7845151 0.04885357 0.6125662 0.7871019 0.048699427 0.6126254
        0.7894795 0.048532024 0.61268085 0.79165864 0.048357457 0.61273235
        0.79365104 0.048180602 0.61278003 0.7954685 0.048005253 0.61282396
        0.7971232 0.04783431 0.6128642 0.7986269 0.047669914 0.6129011
        0.7999913 0.047513545 0.6129347 0.80122745 0.047366206 0.61296535
        0.80234593 0.04722845 0.6129932 0.80335665 0.04710054 0.6130184
        0.804269 0.046982456 0.61304116 0.8050916 0.04687399 0.6130617
        0.8058326 0.046774797 0.61308026 0.8064994 0.046684418 0.613097
        0.8070989 0.046602324 0.613112 0.8076375 0.046527967 0.6131255
        0.80812097 0.046460774 0.6131376 0.8085546 0.04640018 0.61314845
        0.80894333 0.046345618 0.6131581 0.80929154 0.04629656 0.6131668
        0.80960333 0.046252497 0.6131746 0.8098823 0.046212967 0.6131816
        0.8101318 0.04617754 0.6131878 0.8103549 0.046145793 0.6131934
        0.6462287 0.0051464266 0.61348933 0.64703554 0.005767878 0.61348605
        0.64791477 0.0064453143 0.61348146 0.64887404 0.007183417 0.61347514
        0.6499218 0.007986705 0.6134668 0.65106744 0.00885944 0.61345595
        0.6523213 0.0098054735 0.61344206 0.6536944 0.010828064 0.61342466
        0.65519845 0.011929658 0.613403 0.6568454 0.013111629 0.61337656
        0.6586472 0.014373946 0.61334455 0.6606149 0.015714802 0.6133063
        0.6627579 0.017130118 0.6132612 0.6650825 0.018613279 0.61320865
        0.66759217 0.020155521 0.61314845 0.6702871 0.021746824 0.6130805
        0.67316574 0.023377048 0.6130049 0.67622614 0.025037022 0.6129221
        0.67946696 0.026719062 0.61283267 0.68288815 0.028416809 0.61273736
        0.68649054 0.030124469 0.6126373 0.69027346 0.031835265 0.6125338
        0.69423294 0.033540286 0.61242884 0.6983613 0.0352284 0.6123246
        0.7026469 0.036886394 0.6122236 0.70707595 0.038499802 0.6121287
        0.711633 0.040053427 0.6120426 0.71629274 0.04152922 0.61196834
        0.7210339 0.04291209 0.6119081 0.7261044 0.044256564 0.6118617
        0.73119384 0.045464754 0.61183447 0.73625714 0.04652518 0.61182654
        0.7412588 0.04743367 0.6118369 0.7461609 0.048190232 0.611864
        0.75093025 0.048799932 0.6119051 0.75553685 0.04927173 0.61195755
        0.75995564 0.04961771 0.6120185 0.7641666 0.049851995 0.6120852
        0.7681547 0.049989782 0.6121552 0.7719102 0.050046433 0.6122265
        0.7754284 0.050036736 0.61229724 0.7787091 0.04997435 0.6123663
        0.7817553 0.0498715 0.6124328 0.78457326 0.049738813 0.61249596
        0.7871712 0.049585324 0.61255556 0.7895588 0.04941855 0.61261135
        0.7917472 0.049244627 0.6126632 0.7937481 0.049068447 0.6127112
        0.79557335 0.04889384 0.6127554 0.7972352 0.0487237 0.61279595
        0.7987455 0.048560165 0.6128331 0.800116 0.048404716 0.61286694
        0.80135787 0.048258327 0.61289775 0.8024816 0.048121553 0.61292577
        0.80349725 0.047994625 0.6129511 0.8044141 0.047877505 0.61297405
        0.8052409 0.047769967 0.6129948 0.80598575 0.047671642 0.61301345
        0.8066561 0.04758208 0.61303025 0.80725896 0.047500733 0.61304533
        0.80780053 0.047427066 0.6130589 0.8082867 0.047360484 0.61307114
        0.8087229 0.04730043 0.61308205 0.8091139 0.047246344 0.6130918
        0.8094642 0.04719771 0.6131006 0.80977786 0.04715403 0.6131084
        0.8100586 0.04711483 0.61311543 0.8103096 0.047079682 0.61312175
        0.8105341 0.04704819 0.61312735 0.64559144 0.005810273 0.61348134
        0.64640826 0.0064355847 0.61347765 0.647298 0.007116811 0.6134726
        0.6482681 0.007858695 0.6134657 0.6493272 0.00866586 0.6134567
        0.6504847 0.009542694 0.61344516 0.6517507 0.010493202 0.61343056
        0.65313643 0.011520794 0.61341226 0.6546535 0.012628051 0.6133896
        0.65631396 0.013816453 0.61336195 0.6581297 0.015086035 0.61332864
        0.6601119 0.016435005 0.61328894 0.66226983 0.017859226 0.61324215
        0.6646098 0.019351931 0.6131878 0.6671349 0.020904142 0.61312556
        0.66984516 0.022505563 0.6130554 0.67273873 0.024145769 0.61297745
        0.6758135 0.025815332 0.61289215 0.67906815 0.02750639 0.61280006
        0.6825027 0.029212495 0.612702 0.68611825 0.030927854 0.6125991
        0.6899146 0.032645755 0.6124927 0.6938879 0.034357335 0.6123846
        0.6980308 0.036051545 0.6122772 0.7023319 0.037715223 0.6121731
        0.7067776 0.039334007 0.6120751 0.7113527 0.040892832 0.611986
        0.71603173 0.04237369 0.6119088 0.7207935 0.04376148 0.61184585
        0.725887 0.04511103 0.6117969 0.7310002 0.046324037 0.6117675
        0.7360876 0.04738895 0.6117577 0.74111354 0.048301537 0.61176664
        0.74603957 0.04906178 0.6117925 0.75083226 0.04967471 0.6118328
        0.75546134 0.050149303 0.6118848 0.7599016 0.050497655 0.61194545
        0.7641326 0.05073392 0.6120121 0.7681395 0.050873343 0.6120821
        0.7719124 0.050931323 0.6121535 0.7754466 0.0509227 0.6122245
        0.7787418 0.050861195 0.6122939 0.78180134 0.050759055 0.6123607
        0.78463143 0.050626982 0.61242425 0.7872403 0.050474048 0.6124842
        0.7896381 0.05030781 0.61254036 0.7918357 0.05013443 0.6125926
        0.79384506 0.049958833 0.61264086 0.7956781 0.049784847 0.6126854
        0.79734707 0.049615394 0.6127262 0.798864 0.049452595 0.6127636
        0.80024064 0.049297933 0.6127977 0.8014881 0.049152363 0.61282873
        0.80261713 0.049016424 0.6128569 0.8036377 0.048890308 0.61288244
        0.80455905 0.048773985 0.61290556 0.8053901 0.048667215 0.6129264
        0.8061388 0.048569605 0.6129452 0.80681276 0.048480693 0.6129621
        0.8074189 0.04839996 0.6129774 0.8079635 0.048326824 0.61299103
        0.8084525 0.048260722 0.6130033 0.8088912 0.04820109 0.61301434
        0.8092845 0.048147384 0.6130242 0.8096369 0.04809908 0.613033
        0.80995244 0.048055682 0.6130409 0.81023484 0.04801673 0.613048
        0.81048745 0.047981806 0.61305434 0.81071335 0.047950495 0.61305994
        0.64495414 0.0064741056 0.6134725 0.64578074 0.0071037808 0.61346835
        0.6466807 0.0077893166 0.61346275 0.64766157 0.008535506 0.61345536
        0.64873177 0.009347054 0.61344576 0.64990073 0.010228463 0.6134335
        0.6511788 0.011183874 0.61341804 0.65257686 0.01221683 0.6133988
        0.65410686 0.013330048 0.6133752 0.6557807 0.014525115 0.61334634
        0.65761036 0.015802136 0.6133117 0.65960705 0.017159332 0.6132705
        0.66178 0.01859251 0.61322206 0.66413534 0.020094762 0.61316586
        0.666676 0.021656886 0.6131016 0.66940165 0.023268316 0.61302924
        0.6723103 0.024918346 0.6129489 0.67539954 0.026597317 0.6128611
        0.6786681 0.0282972 0.6127663 0.68211603 0.030011477 0.6126655
        0.6857448 0.031734385 0.6125597 0.6895546 0.03345927 0.61245024
        0.69354177 0.03517734 0.61233914 0.6976993 0.03687762 0.61222863
        0.7020159 0.038547006 0.61212134 0.7064782 0.040171232 0.61202013
        0.7110713 0.04173536 0.61192805 0.71576977 0.043221384 0.6118479
        0.7205521 0.044614214 0.61178225 0.7256686 0.045968954 0.6117307
        0.7308057 0.047186866 0.611699 0.7359174 0.04825633 0.6116873
        0.7409676 0.049173072 0.6116947 0.7459177 0.049937006 0.6117194
        0.7507338 0.050553165 0.61175895 0.75538546 0.051030517 0.6118104
        0.75984716 0.05138118 0.6118708 0.7640984 0.051619355 0.61193734
        0.76812416 0.05176032 0.61200744 0.7719144 0.051819533 0.612079
        0.7754646 0.051811885 0.6121503 0.7787744 0.051751133 0.61222
        0.78184724 0.051649615 0.6122871 0.7846895 0.05151805 0.61235106
        0.7873094 0.05136557 0.6124114 0.78971726 0.05119975 0.6124678
        0.7919241 0.051026814 0.6125204 0.79394186 0.050851677 0.61256903
        0.7957827 0.05067821 0.61261386 0.7974588 0.050509315 0.6126549
        0.7989824 0.05034713 0.6126926 0.8003651 0.050193112 0.612727
        0.8016183 0.050048206 0.6127582 0.80275255 0.049912933 0.6127866
        0.80377793 0.049787488 0.61281234 0.8047039 0.049671803 0.6128356
        0.80553913 0.04956563 0.6128566 0.80629176 0.049468588 0.6128756
        0.8069693 0.049380187 0.6128926 0.8075787 0.049299907 0.61290795
        0.80812633 0.049227178 0.6129218 0.80861807 0.049161434 0.6129341
        0.8090593 0.04910212 0.6129452 0.809455 0.049048692 0.61295515
        0.8098095 0.049000625 0.61296403 0.81012696 0.04895743 0.612972
        0.8104111 0.048918657 0.6129792 0.81066525 0.048883874 0.61298555
        0.8108926 0.0488527 0.6129913 0.64431685 0.0071379235 0.6134627
        0.64515316 0.0077724443 0.61345816 0.64606315 0.008462784 0.613452
        0.64705443 0.009213781 0.61344403 0.64813554 0.0100302035 0.6134338
        0.64931583 0.010916655 0.6134208 0.6506056 0.011877389 0.6134046
        0.652016 0.0129160825 0.6133844 0.6535587 0.014035576 0.6133597
        0.65524584 0.015237558 0.61332977 0.65708935 0.016522205 0.61329377
        0.6591005 0.017887754 0.61325103 0.66128844 0.01932996 0.6132009
        0.6636592 0.020841768 0.61314285 0.6662155 0.022413755 0.6130765
        0.66895664 0.024035092 0.61300194 0.6718804 0.025694799 0.6129192
        0.6749843 0.027382994 0.61282885 0.67826676 0.02909151 0.6127314
        0.6817282 0.030813782 0.6126278 0.68537027 0.032544073 0.612519
        0.6891934 0.03427583 0.6124066 0.69319457 0.036000323 0.6122924
        0.6973667 0.03770665 0.61217874 0.7016988 0.039381754 0.61206824
        0.70617765 0.041011482 0.6119639 0.71078885 0.042580996 0.61186874
        0.71550673 0.0440723 0.6117856 0.7203097 0.045470286 0.6117172
        0.7254494 0.046830315 0.61166304 0.7306104 0.048053235 0.611629
        0.7357464 0.049127325 0.6116154 0.74082094 0.05004826 0.61162126
        0.7457952 0.05081591 0.6116448 0.75063485 0.05143528 0.61168355
        0.75530916 0.051915355 0.61173445 0.7597924 0.052268278 0.61179453
        0.764064 0.05250828 0.611861 0.7681086 0.052650698 0.61193115
        0.7719163 0.052711036 0.6120029 0.7754825 0.052704252 0.61207443
        0.77880687 0.05264417 0.6121444 0.7818931 0.052543152 0.61221194
        0.78474736 0.05241199 0.61227626 0.7873784 0.052259844 0.61233693
        0.7897963 0.052094344 0.6123938 0.79201233 0.051921725 0.61244667
        0.79403853 0.051746942 0.61249566 0.7958871 0.05157386 0.6125408
        0.79757035 0.051405396 0.61258227 0.7991005 0.05124368 0.6126202
        0.80048937 0.051090162 0.61265475 0.8017482 0.050945766 0.6126863
        0.80288774 0.050811008 0.6127148 0.80391806 0.05068607 0.6127408
        0.80484855 0.05057086 0.61276424 0.80568796 0.050465137 0.6127854
        0.80644447 0.0503685 0.6128045 0.8071256 0.05028047 0.6128217
        0.80773836 0.050200514 0.6128372 0.80828905 0.050128076 0.6128511
        0.8087836 0.050062586 0.61286354 0.8092274 0.050003484 0.61287475
        0.8096254 0.049950235 0.6128848 0.809982 0.04990232 0.61289376
        0.8103014 0.049859256 0.6129018 0.8105873 0.049820594 0.612909
        0.81084305 0.049785912 0.61291546 0.8110718 0.049754806 0.61292124
        0.64367956 0.0078017255 0.613452 0.6445254 0.008441556 0.613447
        0.64544535 0.009137181 0.61344033 0.6464469 0.009893468 0.61343175
        0.64753866 0.0107152425 0.61342084 0.6487301 0.011607193 0.61340714
        0.65003145 0.012573677 0.61339 0.65145385 0.013618486 0.613369
        0.6530091 0.014744577 0.61334324 0.65470946 0.015953738 0.61331207
        0.65656674 0.017246213 0.61327475 0.65859234 0.018620254 0.61323047
        0.6607953 0.020071566 0.6131787 0.6631815 0.021592943 0.6131187
        0.6657534 0.023174753 0.6130503 0.6685102 0.024805894 0.61297345
        0.6714492 0.026475139 0.61288834 0.6745677 0.028172383 0.6127954
        0.6778642 0.029889343 0.6126953 0.6813392 0.031619422 0.6125889
        0.6849946 0.03335695 0.6124772 0.6888312 0.03509545 0.6123618
        0.69284624 0.03682629 0.6122444 0.697033 0.038538635 0.6121276
        0.70138055 0.040219475 0.61201394 0.7058761 0.041854754 0.6119064
        0.71050537 0.043429743 0.61180806 0.7152426 0.04492644 0.611722
        0.7200663 0.04632968 0.61165076 0.72522914 0.047695108 0.6115939
        0.73041415 0.048923124 0.6115575 0.73557454 0.05000191 0.6115419
        0.74067366 0.05092708 0.6115463 0.7456721 0.051698465 0.6115686
        0.75053537 0.052321043 0.6116065 0.75523245 0.052803807 0.61165684
        0.7597374 0.05315892 0.6117167 0.76402926 0.053400677 0.611783
        0.7680928 0.053544458 0.6118533 0.771918 0.053605825 0.61192524
        0.77550024 0.0535998 0.611997 0.7788393 0.053540267 0.61206734
        0.78193873 0.053439647 0.61213523 0.7848052 0.053308766 0.61219984
        0.7874472 0.05315685 0.61226094 0.78987515 0.05299155 0.61231816
        0.7921004 0.052819133 0.61237144 0.79413503 0.052644573 0.61242074
        0.7959913 0.052471753 0.6124662 0.7976817 0.05230358 0.612508
        0.7992184 0.05214218 0.6125462 0.8006134 0.051989004 0.6125811
        0.80187786 0.05184497 0.61261284 0.8030227 0.05171057 0.61264163
        0.80405796 0.051585972 0.6126678 0.804993 0.051471084 0.6126914
        0.8058366 0.05136566 0.6127128 0.80659705 0.05126929 0.61273205
        0.8072818 0.051181495 0.6127494 0.80789787 0.051101744 0.612765
        0.80845165 0.051029474 0.612779 0.808949 0.050964125 0.6127916
        0.8093954 0.050905146 0.6128029 0.80979574 0.05085199 0.61281306
        0.8101545 0.050804153 0.6128222 0.8104758 0.050761152 0.6128303
        0.8107635 0.05072254 0.61283755 0.81102085 0.05068789 0.61284405
        0.81125104 0.050656818 0.61284983 0.6430423 0.00846551 0.61344045
        0.64389765 0.009111107 0.6134349 0.6448273 0.009812483 0.6134277
        0.645839 0.010574531 0.6134186 0.64694124 0.011402126 0.61340696
        0.6481436 0.012300028 0.6133925 0.6494563 0.013272683 0.6133746
        0.6508906 0.01432399 0.61335254 0.6524583 0.015457009 0.6133257
        0.65417165 0.01667362 0.61329335 0.6560427 0.017974135 0.6132546
        0.6580826 0.019356823 0.61320883 0.66030055 0.02081732 0.61315525
        0.66270226 0.022348296 0.61309344 0.6652899 0.02393989 0.6130229
        0.6680623 0.025580745 0.6129438 0.67101663 0.02725938 0.61285627
        0.6741499 0.028965503 0.6127608 0.67746043 0.030690718 0.61265796
        0.68094903 0.032428425 0.61254877 0.68461776 0.034173027 0.61243415
        0.6884679 0.035918154 0.6123157 0.6924969 0.037655257 0.61219525
        0.69669825 0.03937358 0.6120752 0.7010613 0.041060176 0.61195827
        0.7055735 0.042701066 0.6118475 0.7102208 0.044281602 0.61174595
        0.71497756 0.045783777 0.6116569 0.719822 0.0471924 0.6115828
        0.725008 0.048563335 0.6115233 0.73021704 0.049796537 0.61148447
        0.735402 0.05088009 0.61146694 0.74052566 0.051809542 0.6114697
        0.7455484 0.05258467 0.61149085 0.7504354 0.053210445 0.6115278
        0.7551553 0.05369586 0.6115777 0.75968194 0.054053113 0.6116372
        0.76399434 0.054296542 0.61170346 0.76807684 0.054441594 0.6117738
        0.77191955 0.05450389 0.6118459 0.7755178 0.054498516 0.61191803
        0.7788715 0.054439414 0.61198866 0.78198427 0.054339074 0.61205685
        0.7848628 0.05420837 0.6121219 0.7875159 0.05405656 0.6121834
        0.7899539 0.053891346 0.612241 0.7921883 0.05371901 0.6122946
        0.7942313 0.053544544 0.6123443 0.7960953 0.053371836 0.6123901
        0.7977928 0.05320381 0.61243224 0.7993361 0.05304258 0.61247075
        0.80073714 0.052889593 0.6125059 0.8020073 0.052745756 0.6125379
        0.80315745 0.052611556 0.61256695 0.80419755 0.052487135 0.6125933
        0.80513716 0.05237243 0.6126172 0.80598503 0.05226715 0.6126387
        0.8067494 0.052170906 0.61265814 0.80743784 0.052083217 0.61267567
        0.8080572 0.052003544 0.61269146 0.8086141 0.05193134 0.6127056
        0.8091143 0.051866032 0.61271834 0.8095633 0.051807076 0.6127297
        0.80996597 0.05175394 0.61274 0.81032693 0.05170611 0.61274916
        0.8106502 0.0516631 0.6127574 0.81093967 0.051624473 0.6127647
        0.81119865 0.05158981 0.61277133 0.8114303 0.05155872 0.6127772
        0.64240503 0.009129276 0.61342794 0.6432698 0.0097810915 0.6134219
        0.64420915 0.010488677 0.61341417 0.6452308 0.011256948 0.6134044
        0.6463434 0.0120908255 0.6133921 0.6475565 0.012995125 0.61337686
        0.64888036 0.013974371 0.613358 0.6503264 0.01503256 0.6133351
        0.6519064 0.016172843 0.6133072 0.6536326 0.017397188 0.61327356
        0.6555172 0.01870596 0.61323345 0.65757143 0.02009745 0.61318606
        0.65980434 0.021567233 0.61313075 0.66222155 0.023107836 0.613067
        0.66482496 0.024709178 0.61299443 0.6676131 0.026359657 0.612913
        0.6705828 0.028047545 0.612823 0.6737308 0.029762372 0.61272496
        0.67705554 0.031495653 0.61261946 0.6805577 0.033240806 0.6125074
        0.68423986 0.034992326 0.61238986 0.6881035 0.03674395 0.6122683
        0.6921464 0.038487237 0.6121447 0.6963624 0.04021151 0.61202145
        0.70074093 0.04190386 0.6119013 0.7052698 0.043550402 0.61178726
        0.7099352 0.04513658 0.61168253 0.7147114 0.046644345 0.6115904
        0.71957666 0.048058443 0.61151344 0.724786 0.049434986 0.6114511
        0.7300191 0.050673462 0.6114099 0.7352286 0.051761854 0.61139035
        0.74037695 0.052695632 0.6113915 0.74542415 0.053474523 0.6114114
        0.7503349 0.05410348 0.6114475 0.7550778 0.05459151 0.6114968
        0.7596262 0.05495084 0.61155605 0.76395905 0.055195868 0.6116223
        0.7680606 0.055342097 0.61169267 0.7719209 0.055405222 0.61176497
        0.7755352 0.055400386 0.6118373 0.77890354 0.055341613 0.6119084
        0.7820297 0.055241436 0.6119769 0.7849203 0.05511079 0.6120424
        0.78758436 0.05495897 0.61210424 0.7900323 0.054793708 0.6121623
        0.7922759 0.05462132 0.6122163 0.79432726 0.054446813 0.61226636
        0.796199 0.054274082 0.6123125 0.7979036 0.054106057 0.61235493
        0.7994535 0.05394484 0.61239374 0.8008606 0.053791884 0.6124292
        0.8021365 0.05364808 0.6124615 0.80329186 0.05351391 0.61249083
        0.8043369 0.053389527 0.6125174 0.80528104 0.053274833 0.6125415
        0.8061332 0.053169567 0.61256325 0.8069015 0.053073313 0.61258286
        0.8075936 0.0529856 0.61260056 0.8082164 0.052905895 0.6126165
        0.8087763 0.052833643 0.6126308 0.8092794 0.05276829 0.61264366
        0.809731 0.052709278 0.61265516 0.8101361 0.05265607 0.61266553
        0.81049925 0.052608173 0.6126748 0.8108245 0.0525651 0.6126831
        0.8111158 0.052526403 0.61269057 0.8113764 0.052491676 0.6126972
        0.81160957 0.05246052 0.61270314 0.6417678 0.009793021 0.6134145
        0.6426419 0.010451507 0.61340797 0.64359087 0.011165758 0.6133996
        0.6446224 0.011940715 0.6133892 0.64574516 0.012781327 0.61337626
        0.6469688 0.013692464 0.61336017 0.6483037 0.014678725 0.6133405
        0.6497612 0.015744178 0.61331654 0.6513533 0.016892066 0.6132875
        0.6530923 0.018124428 0.6132527 0.65499043 0.019441688 0.61321115
        0.6570589 0.020842139 0.6131622 0.65930676 0.022321308 0.6131051
        0.66173947 0.023871569 0.6130394 0.6643586 0.025482634 0.6129647
        0.66716254 0.02714265 0.61288095 0.67014766 0.028839653 0.61278856
        0.67331046 0.030563014 0.6126879 0.6766494 0.032304175 0.61257964
        0.6801653 0.03405659 0.6124647 0.68386084 0.03581486 0.61234426
        0.687738 0.03757286 0.6122197 0.6917949 0.039322253 0.6120929
        0.6960255 0.04105243 0.6119664 0.70041955 0.04275054 0.61184293
        0.70496505 0.044402793 0.6117256 0.70964855 0.045994677 0.6116177
        0.7144443 0.04750813 0.61152244 0.7193303 0.04892781 0.61144257
        0.72456294 0.050310068 0.6113774 0.72982025 0.05155391 0.6113338
        0.73505443 0.05264721 0.61131215 0.7402275 0.05358535 0.6113117
        0.7452992 0.054368027 0.61133033 0.75023395 0.05500015 0.6113656
        0.7549998 0.055490762 0.6114143 0.7595701 0.05585211 0.61147326
        0.7639235 0.05609866 0.61153936 0.76804423 0.056245964 0.6116099
        0.7719221 0.056309815 0.6116824 0.77555245 0.056305416 0.6117551
        0.77893543 0.056246847 0.6118264 0.78207487 0.05614672 0.6118954
        0.78497756 0.05601601 0.61196125 0.7876526 0.055864062 0.61202353
        0.7901106 0.055698633 0.61208194 0.7923633 0.05552605 0.61213636
        0.79442304 0.055351365 0.61218685 0.79630244 0.05517846 0.61223334
        0.7980141 0.055010278 0.61227614 0.79957056 0.05484892 0.6123153
        0.8009838 0.05469583 0.61235106 0.8022653 0.054551903 0.61238366
        0.80342597 0.05441761 0.6124132 0.8044759 0.0542931 0.6124401
        0.8054247 0.05417828 0.61246437 0.80628115 0.05407288 0.61248636
        0.8070534 0.053976484 0.61250615 0.80774915 0.05388863 0.61252403
        0.80837536 0.053808775 0.6125401 0.80893844 0.053736378 0.6125546
        0.80944437 0.053670876 0.6125676 0.8098986 0.053611714 0.6125793
        0.81030613 0.05355837 0.6125898 0.8106715 0.053510338 0.61259913
        0.8109988 0.053467136 0.61260754 0.8112919 0.05342832 0.61261505
        0.81155413 0.05339348 0.6126218 0.8117888 0.053362213 0.6126278
        0.6411305 0.0104567455 0.6134002 0.64201397 0.011122353 0.6133931
        0.64297247 0.01184373 0.6133842 0.64401376 0.012625827 0.6133731
        0.6451466 0.013473628 0.6133594 0.6463806 0.014392046 0.6133425
        0.64772636 0.015385736 0.61332196 0.6491952 0.016458841 0.6132969
        0.6507993 0.017614674 0.6132668 0.6525509 0.018855346 0.61323065
        0.6544624 0.020181322 0.61318773 0.656545 0.021590905 0.6131372
        0.65880775 0.023079563 0.61307836 0.661256 0.024639519 0.61301064
        0.663891 0.026260275 0.61293375 0.66671073 0.027929738 0.61284775
        0.6697113 0.029635724 0.6127528 0.672889 0.031367447 0.61264956
        0.6762422 0.033116303 0.6125386 0.6797717 0.034875795 0.61242086
        0.68348074 0.036640655 0.6122974 0.68737143 0.0384049 0.6121698
        0.69144225 0.040160313 0.6120398 0.69568753 0.041896358 0.61191005
        0.7000971 0.04360024 0.61178327 0.7046592 0.045258228 0.6116626
        0.70936084 0.046855904 0.61155146 0.7141761 0.04837514 0.611453
        0.719083 0.04980051 0.6113702 0.724339 0.051188592 0.6113022
        0.7296206 0.052437883 0.6112561 0.73487943 0.053536154 0.6112324
        0.74007744 0.054478712 0.61123025 0.74517375 0.055265173 0.61124766
        0.75013244 0.055900466 0.611282 0.75492144 0.056393612 0.61133015
        0.7595137 0.056756925 0.6113888 0.7638877 0.05700491 0.61145484
        0.7680276 0.05715321 0.6115254 0.77192307 0.05721767 0.6115982
        0.77556956 0.05721359 0.61167115 0.77896714 0.057155125 0.61174285
        0.78211987 0.05705493 0.61181223 0.78503466 0.056924034 0.6118785
        0.7877206 0.056771822 0.6119412 0.7901886 0.056606095 0.61200005
        0.7924504 0.056433197 0.6120549 0.7945185 0.05625818 0.6121058
        0.79640555 0.056084957 0.6121527 0.7981243 0.055916462 0.61219585
        0.79968727 0.0557548 0.6122353 0.8011066 0.055601418 0.6122714
        0.8023938 0.0554572 0.6123043 0.8035597 0.05532262 0.61233413
        0.80461466 0.05519783 0.61236125 0.80556804 0.05508274 0.6123858
        0.80642873 0.054977056 0.61240804 0.807205 0.054880396 0.61242807
        0.8079044 0.054792274 0.6124461 0.8085341 0.054712165 0.6124624
        0.80910033 0.05463952 0.612477 0.8096092 0.054573774 0.6124902
        0.8100661 0.05451439 0.612502 0.81047606 0.05446083 0.6125126
        0.81084365 0.054412596 0.61252207 0.81117296 0.054369207 0.6125306
        0.81146795 0.05433022 0.6125382 0.8117319 0.054295216 0.612545
        0.811968 0.0542638 0.61255115 0.6404933 0.011120447 0.613385
        0.6413861 0.011793637 0.61337733 0.642354 0.0125226 0.6133678
        0.64340496 0.013312299 0.613356 0.6445477 0.01416774 0.6133415
        0.645792 0.015093879 0.6133238 0.6471484 0.016095418 0.6133023
        0.6486284 0.01717656 0.6132763 0.65024424 0.01834068 0.61324495
        0.65200835 0.019589953 0.6132075 0.6539331 0.02092488 0.6131632
        0.6560299 0.022343768 0.613111 0.6583075 0.023842016 0.61305034
        0.6607712 0.025411705 0.6129806 0.66342205 0.02704213 0.6129016
        0.6662576 0.028720954 0.61281323 0.6692737 0.030435782 0.61271584
        0.67246634 0.032175694 0.61261 0.67583376 0.03393206 0.61249626
        0.679377 0.03569844 0.6123757 0.6830995 0.037469726 0.6122493
        0.6870038 0.03924009 0.61211854 0.6910886 0.041001424 0.6119854
        0.6953485 0.0427433 0.61185235 0.69977355 0.04445295 0.61172223
        0.7043523 0.046116736 0.61159825 0.70907205 0.047720276 0.61148375
        0.71390694 0.04924539 0.6113821 0.71883476 0.050676562 0.6112963
        0.7241141 0.05207055 0.6112255 0.72942 0.053325396 0.61117685
        0.7347037 0.05442871 0.611151 0.73992664 0.055375718 0.6111471
        0.7450476 0.05616599 0.61116326 0.75003046 0.05680443 0.6111967
        0.75484264 0.057300072 0.61124426 0.75945693 0.05766529 0.6113027
        0.76385164 0.05791463 0.6113686 0.7680107 0.05806382 0.6114393
        0.7719238 0.058128797 0.61151224 0.7755864 0.05812493 0.61158556
        0.7789987 0.058066443 0.6116576 0.7821647 0.057966057 0.6117274
        0.7850915 0.057834856 0.6117941 0.78778845 0.05768226 0.6118573
        0.7902664 0.057516098 0.61191654 0.7925373 0.05734274 0.61197186
        0.7946136 0.057167254 0.6120231 0.7965083 0.056993555 0.61207044
        0.79823416 0.05682459 0.61211395 0.7998037 0.05666247 0.6121538
        0.80122906 0.056508627 0.61219025 0.80252194 0.056363963 0.61222345
        0.8036932 0.05622894 0.6122536 0.804753 0.056103714 0.612281
        0.80571103 0.055988196 0.6123058 0.8065761 0.0558821 0.61232823
        0.80735636 0.05578504 0.6123485 0.8080595 0.055696536 0.6123668
        0.8086926 0.05561606 0.61238325 0.80926204 0.055543065 0.6123981
        0.80977386 0.055476993 0.6124114 0.8102335 0.055417296 0.61242336
        0.8106459 0.05536345 0.6124341 0.8110157 0.05531495 0.6124437
        0.8113471 0.055271313 0.6124523 0.81164396 0.055232093 0.61246
        0.81190956 0.05519688 0.61246693 0.81214726 0.055165276 0.61247313
        0.63985604 0.011784125 0.6133689 0.64075816 0.012465366 0.61336064
        0.64173555 0.013202382 0.61335045 0.6427961 0.014000145 0.61333793
        0.6439486 0.014863685 0.6133227 0.645203 0.015797986 0.61330414
        0.64656985 0.01680779 0.6132816 0.6480609 0.017897354 0.61325455
        0.64968836 0.019070111 0.613222 0.6514648 0.020328276 0.6131833
        0.65340275 0.021672389 0.6131374 0.65551347 0.023100747 0.6130836
        0.6578059 0.02460869 0.61302114 0.6602851 0.026188154 0.61294943
        0.66295177 0.027828218 0.6128682 0.66580325 0.029516313 0.61277753
        0.66883487 0.031239845 0.61267763 0.6720425 0.032987777 0.6125691
        0.6754242 0.034751456 0.6124527 0.67898124 0.036524545 0.6123292
        0.68271726 0.038302094 0.61219984 0.6866351 0.040078446 0.612066
        0.69073385 0.04184562 0.61192966 0.6950084 0.04359328 0.6117932
        0.69944894 0.045308705 0.61165977 0.7040444 0.046978313 0.61153245
        0.7087822 0.048587795 0.6114146 0.7136367 0.05011889 0.61130977
        0.71858543 0.051555954 0.61122096 0.7238883 0.05295597 0.6111471
        0.72921854 0.054216452 0.6110959 0.7345271 0.05532488 0.61106795
        0.7397751 0.05627638 0.61106235 0.7449209 0.057070475 0.6110772
        0.74992794 0.05771205 0.6111097 0.75476336 0.058210157 0.6111567
        0.7593998 0.058577206 0.61121476 0.7638152 0.058827825 0.6112807
        0.7679935 0.058977816 0.6113515 0.7719244 0.059043206 0.6114247
        0.7756031 0.05903944 0.6114983 0.77903 0.05898081 0.6115707
        0.78220934 0.058880117 0.61164093 0.7851482 0.058748484 0.6117081
        0.78785604 0.058595374 0.6117717 0.7903439 0.05842865 0.6118314
        0.79262376 0.058254693 0.61188716 0.79470843 0.058078587 0.61193883
        0.7966108 0.057904262 0.61198664 0.79834366 0.057734665 0.6120305
        0.79991966 0.057571918 0.61207074 0.80135113 0.057417456 0.6121075
        0.8026497 0.057272177 0.6121411 0.8038263 0.05713655 0.6121716
        0.80489105 0.057010744 0.61219925 0.8058537 0.05689465 0.61222434
        0.80672306 0.056788005 0.6122471 0.8075074 0.056690414 0.61226755
        0.8082143 0.05660141 0.6122861 0.8088509 0.056520455 0.6123027
        0.8094235 0.056447007 0.61231774 0.8099383 0.056380514 0.6123312
        0.81040066 0.056320433 0.6123433 0.8108156 0.05626623 0.61235416
        0.8111877 0.05621739 0.61236393 0.8115212 0.056173448 0.6123727
        0.8118199 0.056133945 0.6123805 0.81208724 0.056098476 0.6123875
        0.8123265 0.056066636 0.6123938 0.63921875 0.012447776 0.61335194
        0.6401303 0.013137552 0.61334306 0.64111704 0.013883098 0.6133322
        0.64218706 0.014689397 0.6133189 0.6433493 0.015561495 0.6133028
        0.64461356 0.0165044 0.61328334 0.64599085 0.017522892 0.61325985
        0.6474927 0.018621266 0.61323166 0.6491316 0.019802997 0.613198
        0.6509203 0.021070346 0.61315787 0.6528712 0.022423876 0.61311054
        0.65499586 0.023861881 0.61305505 0.6573031 0.025379622 0.61299074
        0.6597977 0.026968895 0.61291695 0.66248024 0.028618567 0.61283356
        0.66534764 0.030315846 0.6127405 0.6683948 0.032047942 0.61263806
        0.67161745 0.033803713 0.61252695 0.67501354 0.03557452 0.61240774
        0.6785844 0.03735413 0.61228144 0.6823339 0.039137777 0.61214906
        0.6862653 0.04091998 0.6120121 0.69037807 0.042692907 0.6118725
        0.6946672 0.0444463 0.6117328 0.69912326 0.0461675 0.611596
        0.70373535 0.047842983 0.6114653 0.70849127 0.04945848 0.61134404
        0.71336544 0.050995648 0.6112359 0.71833515 0.05243872 0.611144
        0.72366154 0.05384486 0.61106724 0.7290162 0.05511106 0.6110134
        0.7343498 0.05622467 0.61098325 0.7396229 0.057180714 0.6109759
        0.74479353 0.057978656 0.61098945 0.7498249 0.058623347 0.611021
        0.7546837 0.059123877 0.6110674 0.75934225 0.0594927 0.6111252
        0.76377857 0.05974452 0.61119103 0.76797616 0.059895217 0.6112619
        0.7719247 0.0599609 0.61133534 0.77561957 0.05995712 0.6114093
        0.7790612 0.05989824 0.61148214 0.78225374 0.059797116 0.61155283
        0.7852046 0.05966493 0.6116204 0.78792334 0.05951118 0.6116845
        0.79042107 0.059343748 0.6117447 0.79271 0.05916905 0.6118009
        0.79480296 0.058992185 0.611853 0.7967129 0.058817077 0.6119012
        0.7984528 0.058646694 0.6119455 0.80003536 0.058483157 0.6119862
        0.80147284 0.05832791 0.61202335 0.8027771 0.058181856 0.61205727
        0.80395895 0.05804547 0.6120881 0.80502874 0.057918917 0.6121161
        0.80599606 0.0578021 0.61214143 0.80686975 0.05769477 0.61216444
        0.80765814 0.057596523 0.6121852 0.80836886 0.05750689 0.6122039
        0.8090089 0.057425357 0.61222076 0.8095848 0.057351362 0.61223596
        0.8101026 0.05728436 0.6122496 0.8105677 0.057223804 0.6122619
        0.81098515 0.057169158 0.6122729 0.8113596 0.05711992 0.6122829
        0.81169516 0.05707561 0.6122917 0.8119958 0.057035778 0.6122996
        0.8122649 0.057000004 0.6123068 0.8125058 0.056967884 0.6123131
        0.6385815 0.013111402 0.61333406 0.6395024 0.013810209 0.6133245
        0.6404985 0.014564774 0.6133129 0.64157796 0.01538009 0.6132989
        0.6427497 0.016261213 0.61328197 0.64402384 0.017213171 0.6132615
        0.64541125 0.018240772 0.613237 0.64692384 0.01934834 0.6132077
        0.648574 0.020539388 0.61317277 0.6503747 0.02181621 0.61313134
        0.65233856 0.023179391 0.61308247 0.654477 0.024627207 0.61302525
        0.65679896 0.026154853 0.612959 0.659309 0.027753962 0.6128832
        0.66200745 0.029413212 0.61279756 0.66489077 0.03111958 0.61270213
        0.6679536 0.032860097 0.6125972 0.6711913 0.034623533 0.6124834
        0.67460173 0.03640127 0.6123615 0.67818636 0.03818721 0.61223227
        0.6819494 0.03997678 0.61209697 0.6858944 0.04176471 0.6119569
        0.69002116 0.04354329 0.611814 0.694325 0.04530239 0.61167103
        0.69879645 0.04702936 0.6115308 0.7034252 0.048710756 0.6113966
        0.7081993 0.050332345 0.611272 0.7130931 0.051875684 0.6111606
        0.7180839 0.053324867 0.6110655 0.7234338 0.054737236 0.6109857
        0.728813 0.05600925 0.61092925 0.73417157 0.05712811 0.6108969
        0.73946995 0.058088742 0.6108877 0.74466556 0.058890533 0.6108999
        0.7497213 0.05953834 0.61093056 0.75460356 0.060041253 0.6109764
        0.75928444 0.060411785 0.6110338 0.76374155 0.06066472 0.6110996
        0.7679585 0.060816023 0.61117065 0.7719248 0.06088191 0.6112443
        0.77563584 0.060877994 0.6113186 0.77909213 0.060818743 0.6113919
        0.78229797 0.06071707 0.611463 0.7852608 0.0605842 0.6115311
        0.7879904 0.060429677 0.61159563 0.790498 0.060261413 0.6116563
        0.79279596 0.060085833 0.611713 0.79489714 0.05990805 0.6117656
        0.7968146 0.05973201 0.61181426 0.7985615 0.059560683 0.611859
        0.8001506 0.0593962 0.61190003 0.8015942 0.059240002 0.6119376
        0.80290407 0.059093006 0.61197186 0.8040913 0.058955703 0.6120031
        0.80516607 0.05882825 0.6120314 0.80613804 0.05871057 0.6120571
        0.80701613 0.05860241 0.6120804 0.8078086 0.058503374 0.6121014
        0.80852306 0.058413 0.61212033 0.80916667 0.058330763 0.61213744
        0.8097459 0.058256123 0.6121529 0.8102667 0.058188517 0.6121667
        0.81073457 0.058127407 0.61217916 0.81115454 0.058072247 0.61219037
        0.81153136 0.058022548 0.6122004 0.8118691 0.057977807 0.6122094
        0.8121717 0.05793758 0.6122174 0.81244254 0.057901457 0.6122247
        0.812685 0.05786902 0.61223114 0.6379443 0.013775 0.6133153
        0.63887453 0.014483353 0.6133051 0.63988 0.015247445 0.61329275
        0.6409688 0.01607227 0.6132779 0.64215 0.016962893 0.6132601
        0.64343375 0.017924357 0.6132387 0.6448312 0.01896149 0.6132131
        0.64635426 0.020078639 0.6131826 0.64801556 0.021279342 0.61314636
        0.6498282 0.022565927 0.61310357 0.6518048 0.023938982 0.61305314
        0.653957 0.025396772 0.6129942 0.6562936 0.026934413 0.61292607
        0.6588191 0.028543396 0.6128482 0.6615334 0.030212183 0.6127603
        0.66443264 0.03192754 0.6126625 0.66751117 0.03367633 0.612555
        0.67076397 0.03544725 0.61243856 0.6741888 0.037231725 0.61231387
        0.6777873 0.0390238 0.61218184 0.68156385 0.040819127 0.6120435
        0.6855225 0.042612642 0.61190027 0.6896632 0.044396807 0.6117542
        0.69398165 0.04616155 0.6116078 0.6984686 0.0478943 0.61146414
        0.70311403 0.04958165 0.6113265 0.70790625 0.05120941 0.6111984
        0.7128197 0.05275901 0.6110836 0.7178316 0.054214414 0.61098546
        0.7232051 0.05563312 0.61090255 0.72860885 0.056911044 0.6108434
        0.7339926 0.05803522 0.6108088 0.7393162 0.05900048 0.6107979
        0.744537 0.059806142 0.6108086 0.74961716 0.06045704 0.61083835
        0.754523 0.0609623 0.6108836 0.7592262 0.06133448 0.6109407
        0.7637043 0.061588448 0.61100644 0.76794064 0.061740264 0.61107755
        0.7719247 0.06180623 0.6111516 0.77565193 0.06180208 0.6112262
        0.7791228 0.061742343 0.6112999 0.78234196 0.061639987 0.61137146
        0.78531677 0.06150632 0.61144006 0.7880572 0.061350893 0.6115051
        0.79057467 0.06118166 0.6115663 0.79288155 0.06100506 0.6116234
        0.79499096 0.06082622 0.6116766 0.796916 0.060649097 0.6117256
        0.7986699 0.060476664 0.61177087 0.80026543 0.060311064 0.61181235
        0.80171514 0.060153753 0.6118503 0.80303067 0.06000566 0.611885
        0.8042232 0.05986727 0.61191654 0.805303 0.059738766 0.6119452
        0.80627966 0.05962008 0.61197126 0.8071621 0.059510943 0.6119948
        0.8079587 0.05941099 0.61201614 0.8086771 0.059319746 0.61203533
        0.8093242 0.059236705 0.61205274 0.8099067 0.0591613 0.61206836
        0.8104306 0.059093006 0.6120824 0.8109013 0.059031248 0.61209506
        0.8113239 0.058975507 0.6121064 0.811703 0.05892526 0.6121166
        0.81204295 0.058880035 0.6121257 0.8123475 0.058839362 0.61213386
        0.81262016 0.05880284 0.6121412 0.81286424 0.058770034 0.6121478
        0.63730705 0.014438568 0.6132956 0.6382467 0.015157006 0.6132847
        0.6392615 0.015931146 0.6132716 0.6403595 0.016765988 0.6132559
        0.64155 0.017666599 0.61323714 0.6428433 0.01863803 0.61321473
        0.6442506 0.019685118 0.6131881 0.64578396 0.020812236 0.6131564
        0.6474562 0.022022933 0.6131188 0.6492806 0.023319557 0.61307454
        0.65126985 0.024702711 0.61302257 0.65343577 0.026170632 0.6129619
        0.65578693 0.027718358 0.61289185 0.6583278 0.029337235 0.6128119
        0.66105807 0.031015519 0.61272174 0.6639733 0.032739762 0.6126215
        0.6670675 0.034496672 0.6125115 0.6703354 0.03627489 0.6123924
        0.6737747 0.0380659 0.6122649 0.67738706 0.03986392 0.61213
        0.6811772 0.041664835 0.6119886 0.68514943 0.043463804 0.6118423
        0.6893041 0.04525344 0.61169297 0.6936372 0.047023807 0.6115432
        0.69813967 0.048762325 0.6113961 0.7028017 0.050455682 0.61125493
        0.7076121 0.05208968 0.6111233 0.7125453 0.053645656 0.6110052
        0.71757835 0.055107385 0.61090374 0.72297543 0.05653253 0.6108178
        0.7284038 0.057816446 0.610756 0.7338128 0.058946017 0.610719
        0.73916185 0.05991595 0.6107062 0.7444077 0.0607255 0.6107156
        0.7495125 0.061379485 0.61074436 0.7544419 0.06188705 0.61078894
        0.7591676 0.062260818 0.6108458 0.7636667 0.062515736 0.6109115
        0.76792246 0.062667966 0.6109828 0.7719244 0.06273391 0.61105704
        0.7756678 0.0627294 0.611132 0.7791534 0.062669046 0.6112062
        0.7823857 0.06256591 0.61127824 0.7853725 0.062431306 0.6113473
        0.7881238 0.062274855 0.6114129 0.790651 0.062104516 0.6114746
        0.79296684 0.061926756 0.6115323 0.7950844 0.061746716 0.61158586
        0.79701704 0.061568357 0.61163545 0.7987779 0.061394665 0.61168116
        0.80037993 0.06122779 0.61172307 0.8018356 0.06106921 0.6117615
        0.80315685 0.060919847 0.61179656 0.8043547 0.060780216 0.6118285
        0.80543953 0.060650505 0.6118576 0.80642086 0.060530644 0.61188394
        0.8073078 0.060420398 0.61190784 0.8081085 0.060319386 0.6119294
        0.80883074 0.060227156 0.61194897 0.80948144 0.06014318 0.61196655
        0.8100673 0.060066927 0.6119824 0.81059426 0.05999783 0.6119967
        0.8110678 0.059935343 0.6120095 0.81149304 0.059878934 0.6120211
        0.81187457 0.05982808 0.6120314 0.8122167 0.059782296 0.6120407
        0.81252325 0.059741125 0.612049 0.8127977 0.05970414 0.61205643
        0.8130435 0.059670925 0.61206317 0.6366699 0.015102106 0.61327505
        0.6376189 0.015831193 0.6132634 0.6386429 0.016615927 0.61324954
        0.6397501 0.017461307 0.613233 0.64094985 0.018372405 0.6132132
        0.64225245 0.01935427 0.61318976 0.6436694 0.020411745 0.613162
        0.64521295 0.02154921 0.613129 0.646896 0.022770235 0.6130901
        0.648732 0.024077177 0.6130443 0.6507338 0.025470639 0.61299074
        0.6529132 0.02694884 0.61292833 0.655279 0.02850674 0.6128563
        0.6578353 0.030135525 0.6127742 0.6605814 0.03182325 0.6126818
        0.66351265 0.033556275 0.61257917 0.66662264 0.03532115 0.6124666
        0.6699057 0.03710647 0.6123448 0.6733595 0.038903814 0.61221457
        0.6769857 0.040707584 0.61207676 0.6807894 0.04251391 0.61193234
        0.6847753 0.0443182 0.6117829 0.688944 0.04611323 0.61163026
        0.69329166 0.047889158 0.61147714 0.69780964 0.049633462 0.6113265
        0.7024883 0.051332865 0.61118186 0.7073169 0.052973185 0.6110468
        0.7122698 0.054535627 0.6109252 0.717324 0.056003805 0.61082053
        0.72274476 0.057435486 0.6107314 0.7281979 0.0587255 0.61066675
        0.73363215 0.059860535 0.6106275 0.7390067 0.060835183 0.6106128
        0.7442779 0.061648637 0.61062086 0.7494073 0.062305693 0.6106486
        0.75436044 0.062815525 0.61069256 0.7591086 0.06319082 0.6107491
        0.7636288 0.063446596 0.61081475 0.7679041 0.06359914 0.61088616
        0.7719238 0.063664965 0.6109607 0.77568346 0.06365998 0.6110361
        0.77918375 0.0635989 0.6111107 0.7824293 0.06349484 0.6111833
        0.78542805 0.063359186 0.61125284 0.78819007 0.063201584 0.61131895
        0.7907271 0.06303001 0.6113812 0.79305184 0.06285096 0.6114394
        0.7951776 0.06266957 0.6114935 0.79711765 0.062489826 0.6115436
        0.79888546 0.06231472 0.6115898 0.80049396 0.062146418 0.6116322
        0.8019557 0.0619864 0.6116711 0.8032826 0.061835606 0.6117066
        0.80448586 0.061694577 0.611739 0.80557567 0.061563496 0.6117684
        0.80656177 0.061442323 0.6117951 0.8074531 0.06133081 0.6118194
        0.808258 0.06122861 0.6118413 0.8089841 0.06113526 0.6118611
        0.80963844 0.061050236 0.611879 0.8102277 0.06097301 0.6118951
        0.81075776 0.06090302 0.6119096 0.8112342 0.060839713 0.6119226
        0.8116621 0.060782548 0.61193436 0.81204605 0.060731012 0.61194485
        0.8123904 0.060684603 0.61195433 0.81269896 0.060642872 0.6119628
        0.8129753 0.060605377 0.61197037 0.81322277 0.0605717 0.61197716
        0.63603264 0.015765611 0.61325365 0.63699114 0.01650594 0.6132412
        0.63802433 0.017301839 0.6132265 0.6391406 0.018158305 0.61320895
        0.6403493 0.0190804 0.6131882 0.64166117 0.020073177 0.61316365
        0.6430876 0.021141473 0.6131347 0.64464116 0.022289667 0.6131004
        0.6463349 0.023521345 0.6130601 0.6481823 0.024838867 0.61301285
        0.65019655 0.026242845 0.6129576 0.6523894 0.027731469 0.6128934
        0.6547697 0.029299611 0.61281943 0.65734136 0.030938312 0.6127352
        0.6601034 0.032635428 0.6126405 0.6630508 0.034377113 0.61253536
        0.6661765 0.036149785 0.6124203 0.6694748 0.03794201 0.6122958
        0.6729431 0.039745484 0.6121628 0.67658323 0.0415548 0.6120221
        0.6804005 0.043366373 0.6118747 0.6844 0.045175847 0.6117221
        0.6885827 0.04697617 0.6115662 0.69294506 0.04875763 0.61140966
        0.6974785 0.050507724 0.6112555 0.7021738 0.052213218 0.6111073
        0.7070206 0.05385994 0.61096865 0.7119932 0.055428956 0.6108436
        0.71706873 0.056903686 0.6107356 0.7225132 0.05834203 0.6106433
        0.72799104 0.059638225 0.61057585 0.7334507 0.0607788 0.6105342
        0.73885083 0.061758213 0.6105177 0.74414736 0.06257559 0.6105242
        0.74930155 0.0632357 0.61055094 0.75427854 0.063747756 0.61059433
        0.7590493 0.06412451 0.6106506 0.76359063 0.06438107 0.61071616
        0.76788545 0.06453383 0.61078775 0.77192307 0.06459942 0.61086255
        0.77569896 0.064593844 0.61093843 0.7792139 0.06453192 0.6110135
        0.78247267 0.064426824 0.61108655 0.7854833 0.064289995 0.6111567
        0.7882561 0.06413111 0.61122334 0.7908029 0.063958175 0.6112861
        0.79313654 0.0637777 0.6113449 0.7952704 0.06359482 0.61139953
        0.79721797 0.06341355 0.61145014 0.7989927 0.063236885 0.6114968
        0.8006076 0.063067 0.6115397 0.80207545 0.06290538 0.6115791
        0.803408 0.06275301 0.61161506 0.8046166 0.06261041 0.6116479
        0.8057114 0.0624778 0.6116777 0.80670226 0.062355146 0.6117048
        0.80759805 0.06224223 0.61172944 0.8084071 0.062138695 0.61175174
        0.8091371 0.062044084 0.6117718 0.8097952 0.0619579 0.61179
        0.8103878 0.061879583 0.61180633 0.810921 0.06180859 0.6118211
        0.81140035 0.061744366 0.6118344 0.81183094 0.061686363 0.61184627
        0.8122174 0.06163406 0.611857 0.812564 0.06158696 0.6118666
        0.8128746 0.061544597 0.61187524 0.81315285 0.061506532 0.6118829
        0.813402 0.061472345 0.61188984 0.6353954 0.016429083 0.6132313
        0.6363634 0.01718128 0.6132181 0.6374057 0.017988943 0.61320245
        0.6385309 0.018857062 0.613184 0.6397486 0.019790687 0.61316216
        0.6410694 0.02079486 0.6131365 0.64250517 0.02187441 0.61310625
        0.6440685 0.023033712 0.61307067 0.6457727 0.024276359 0.61302894
        0.6476314 0.02560472 0.6129801 0.64965796 0.027019406 0.6129232
        0.6518643 0.028518582 0.61285716 0.654259 0.030097038 0.6127812
        0.6568461 0.031745654 0.6126948 0.65962404 0.03345209 0.6125978
        0.6625875 0.03520231 0.61249024 0.6657291 0.036982603 0.6123726
        0.66904265 0.038781542 0.61224544 0.67252547 0.040590923 0.61210966
        0.6761795 0.042405583 0.611966 0.6800105 0.044222225 0.61181563
        0.6840237 0.046036743 0.6116599 0.6882204 0.04784229 0.6115007
        0.6925973 0.049629226 0.6113407 0.69714624 0.051385116 0.61118305
        0.70185816 0.053096753 0.61103123 0.70672315 0.054749973 0.610889
        0.7117156 0.056325667 0.6107604 0.7168123 0.057807066 0.61064905
        0.72228056 0.059252176 0.6105535 0.72778326 0.06055466 0.61048317
        0.73326844 0.061700847 0.6104392 0.73869425 0.06268507 0.61042064
        0.74401623 0.06350638 0.6104258 0.7491953 0.06416954 0.61045146
        0.75419617 0.06468378 0.61049426 0.7589896 0.06506192 0.6105502
        0.7635521 0.06531919 0.6106158 0.76786655 0.06547207 0.6106875
        0.77192205 0.0655373 0.61076266 0.7757142 0.06553104 0.6108389
        0.7792438 0.06546815 0.61091447 0.7825158 0.065361895 0.610988
        0.78553843 0.06522377 0.6110587 0.788322 0.06506348 0.61112595
        0.7908785 0.06488906 0.6111893 0.79322094 0.06470702 0.6112486
        0.7953629 0.06452253 0.61130387 0.7973179 0.06433959 0.611355
        0.79909956 0.06416121 0.6114022 0.80072093 0.06398958 0.61144567
        0.8021948 0.06382622 0.6114855 0.803533 0.063672096 0.61152196
        0.80474687 0.06352777 0.6115552 0.80584675 0.06339347 0.6115855
        0.8068424 0.06326919 0.61161304 0.80774266 0.06315471 0.611638
        0.8085559 0.0630497 0.61166066 0.8092899 0.06295369 0.6116811
        0.8099516 0.062866196 0.6116996 0.81054765 0.062786676 0.6117162
        0.8110841 0.06271458 0.61173123 0.81156635 0.062649325 0.6117447
        0.8119997 0.06259039 0.61175686 0.8123886 0.062537245 0.61176777
        0.8127375 0.062489375 0.6117775 0.81305027 0.062446315 0.6117863
        0.81333035 0.06240762 0.6117941 0.8135812 0.062372863 0.6118012
        0.63475823 0.017092522 0.6132081 0.6357356 0.017857248 0.61319405
        0.63678694 0.01867731 0.6131774 0.637921 0.019557677 0.613158
        0.6391474 0.020503381 0.61313504 0.64047706 0.021519441 0.61310816
        0.641922 0.02261068 0.6130767 0.6434949 0.023781465 0.61303973
        0.64520943 0.025035394 0.6129965 0.64707935 0.026374837 0.6129461
        0.6491181 0.027800413 0.61288744 0.65133774 0.029310256 0.61281955
        0.65374696 0.030899074 0.6127416 0.65634936 0.032557596 0.612653
        0.65914327 0.034273278 0.61255366 0.6621229 0.036031898 0.6124436
        0.66528034 0.03781964 0.6123234 0.6686092 0.039625075 0.61219364
        0.6721067 0.04144014 0.61205506 0.6757747 0.04325995 0.61190856
        0.6796193 0.04508148 0.61175513 0.68364614 0.04690091 0.6115962
        0.68785685 0.048711583 0.61143374 0.6922485 0.050503973 0.61127025
        0.69681287 0.052265666 0.6111091 0.7015414 0.053983506 0.6109536
        0.7064246 0.05564331 0.6108078 0.7114368 0.05722579 0.6106756
        0.71655494 0.058713976 0.6105609 0.722047 0.060165968 0.610462
        0.7275746 0.061474837 0.6103888 0.7330853 0.06262671 0.6103423
        0.73853683 0.06361579 0.6103218 0.74388444 0.06444106 0.61032546
        0.7490884 0.06510725 0.6103502 0.7541134 0.06562364 0.61039233
        0.7589295 0.06600311 0.610448 0.7635133 0.066260986 0.61051345
        0.7678474 0.06641389 0.61058545 0.7719209 0.06647866 0.61066085
        0.77572936 0.066471584 0.61073756 0.7792736 0.066407606 0.6108136
        0.78255886 0.06630008 0.61088777 0.7855933 0.06616053 0.61095905
        0.78838754 0.06599872 0.6110268 0.79095376 0.06582269 0.6110908
        0.7933051 0.065638974 0.6111506 0.7954551 0.06545274 0.6112065
        0.7974176 0.065267995 0.6112582 0.7992061 0.06508777 0.61130595
        0.8008339 0.06491426 0.61134994 0.8023137 0.06474899 0.6113903
        0.8036576 0.064592965 0.61142725 0.8048768 0.06444675 0.611461
        0.80598176 0.064310595 0.61149174 0.8069821 0.06418453 0.6115197
        0.8078869 0.064068325 0.6115451 0.80870444 0.06396167 0.6115681
        0.80944234 0.063864134 0.6115889 0.81010777 0.063775204 0.6116077
        0.81070733 0.06369434 0.6116246 0.81124693 0.063621014 0.6116399
        0.81173223 0.06355464 0.6116536 0.81216824 0.06349467 0.611666
        0.8125597 0.06344058 0.61167717 0.812911 0.063391864 0.6116871
        0.8132258 0.063348025 0.61169606 0.81350785 0.06330864 0.61170405
        0.8137605 0.06327326 0.6117112 0.634121 0.017755924 0.61318403
        0.63510776 0.018533895 0.613169 0.63616806 0.019367024 0.6131515
        0.63731074 0.020260261 0.6131309 0.6385457 0.02121861 0.6131069
        0.63988405 0.022247067 0.6130788 0.6413379 0.02335043 0.61304593
        0.64292026 0.024533065 0.61300755 0.6446449 0.02579857 0.61296284
        0.6465259 0.02714933 0.61291075 0.6485768 0.02858596 0.61285037
        0.6508097 0.030106574 0.6127806 0.6532333 0.031705797 0.6127006
        0.65585107 0.033374198 0.6126098 0.65866107 0.035099037 0.6125081
        0.66165686 0.036865916 0.61239564 0.66483027 0.03866091 0.6122728
        0.6681745 0.04047262 0.61214036 0.67168665 0.04229316 0.611999
        0.67536867 0.044117898 0.6118496 0.67922693 0.045944143 0.6116932
        0.68326753 0.047768354 0.6115311 0.68749225 0.049584065 0.61136526
        0.6918985 0.051381875 0.61119837 0.6964783 0.05314939 0.61103356
        0.70122355 0.05487348 0.6108745 0.7061249 0.056539956 0.6107249
        0.71115696 0.058129348 0.61058915 0.7162965 0.059624445 0.610471
        0.72181237 0.06108343 0.6103688 0.72736496 0.06239879 0.6102926
        0.7329013 0.063556425 0.6102436 0.73837876 0.06455042 0.61022115
        0.743752 0.065379664 0.6102233 0.74898106 0.06604888 0.61024696
        0.75403005 0.06656737 0.61028844 0.7588691 0.0669481 0.6103438
        0.7634742 0.06720652 0.6104093 0.76782805 0.06735933 0.61048144
        0.7719195 0.067423545 0.61055726 0.77574426 0.06741553 0.6106344
        0.77930325 0.06735035 0.6107109 0.78260165 0.06724142 0.6107856
        0.785648 0.06710035 0.6108575 0.788453 0.066936895 0.6109259
        0.79102886 0.06675914 0.61099046 0.79338896 0.06657362 0.61105096
        0.795547 0.06638552 0.61110735 0.7975169 0.06619884 0.6111597
        0.7993123 0.06601663 0.611208 0.8009465 0.06584109 0.6112526
        0.8024323 0.065673776 0.6112935 0.80378187 0.06551569 0.6113309
        0.8050064 0.06536742 0.6113652 0.8061164 0.065229274 0.61139643
        0.8071215 0.065101236 0.61142486 0.80803084 0.06498316 0.6114506
        0.80885255 0.06487471 0.61147404 0.8095945 0.064775474 0.61149526
        0.8102637 0.064684965 0.61151433 0.8108667 0.064602636 0.6115316
        0.8114096 0.064527944 0.6115472 0.8118979 0.064460315 0.61156124
        0.8123367 0.06439921 0.6115738 0.8127307 0.064344086 0.61158514
        0.8130843 0.06429443 0.6115953 0.8134013 0.06424975 0.61160445
        0.8136853 0.064209595 0.6116126 0.81393975 0.06417352 0.61161995
        0.6334838 0.018419288 0.613159 0.6344799 0.019211264 0.61314315
        0.635549 0.02005818 0.61312455 0.63670015 0.020964945 0.61310285
        0.63794345 0.021936532 0.61307764 0.6392902 0.022977894 0.6130482
        0.6407528 0.024093814 0.613014 0.6423445 0.025288654 0.61297417
        0.64407915 0.026566016 0.61292785 0.645971 0.027928308 0.6128741
        0.6480339 0.029376145 0.61281186 0.65028006 0.030907618 0.61274016
        0.65271807 0.032517273 0.61265814 0.6553513 0.034195516 0.61256516
        0.65817726 0.035929415 0.6124611 0.6611894 0.037704397 0.6123461
        0.6643788 0.039506443 0.6122207 0.66773844 0.041324206 0.6120856
        0.6712653 0.04314999 0.61194146 0.67496145 0.044979442 0.61178917
        0.6788334 0.046810217 0.6116297 0.6828877 0.04863908 0.6114645
        0.68712646 0.050459757 0.61129534 0.6915474 0.05226295 0.61112493
        0.6961427 0.0540363 0.61095655 0.70090455 0.05576671 0.61079377
        0.70582414 0.057439957 0.6106405 0.71087605 0.059036378 0.6105011
        0.716037 0.060538504 0.6103794 0.7215768 0.06200461 0.61027384
        0.7271544 0.06332656 0.6101946 0.73271644 0.06449004 0.61014307
        0.73821986 0.065489 0.6101186 0.7436189 0.06632224 0.6101192
        0.7488731 0.066994466 0.6101418 0.75394636 0.067515016 0.61018264
        0.75880826 0.067896955 0.6102378 0.7634349 0.06815581 0.6103033
        0.76780844 0.06830844 0.6103756 0.77191794 0.068371974 0.61045176
        0.775759 0.06836291 0.61052936 0.7793327 0.06829642 0.61060643
        0.78264433 0.06818598 0.6106817 0.7857025 0.068043254 0.6107542
        0.7885182 0.067878045 0.6108232 0.7911037 0.06769846 0.6108884
        0.79347265 0.06751102 0.6109495 0.7956387 0.06732093 0.61100656
        0.79761595 0.067132205 0.6110595 0.79941815 0.066947885 0.6111084
        0.8010587 0.06677019 0.61115354 0.80255055 0.06660067 0.61119497
        0.8039057 0.06644037 0.61123306 0.8051356 0.06628991 0.61126775
        0.80625063 0.066149585 0.6112995 0.8072606 0.06601943 0.6113284
        0.80817443 0.065899305 0.61135465 0.80900043 0.065788895 0.6113785
        0.8097464 0.06568781 0.61140007 0.8104193 0.06559556 0.61141956
        0.81102586 0.065511614 0.61143714 0.811572 0.065435424 0.61145306
        0.81206334 0.06536643 0.61146736 0.812505 0.06530406 0.61148024
        0.8129016 0.0652478 0.6114918 0.8132576 0.0651971 0.6115022
        0.81357676 0.06515148 0.61151147 0.81386274 0.06511049 0.6115198
        0.814119 0.065073654 0.6115273 0.63284665 0.019082615 0.61313313
        0.6338519 0.019889424 0.61311626 0.63492966 0.02075089 0.6130966
        0.636089 0.021671884 0.61307377 0.6373405 0.022657314 0.61304724
        0.6386955 0.0237121 0.6130165 0.6401666 0.024841009 0.61298084
        0.6417673 0.026048394 0.6129394 0.64351183 0.02733788 0.6128915
        0.6454146 0.028711896 0.61283606 0.6474894 0.030171068 0.61277205
        0.64974874 0.03171348 0.6126984 0.6522011 0.033333577 0.6126142
        0.65484977 0.035021614 0.612519 0.6576919 0.036764465 0.6124126
        0.6607203 0.03854738 0.6122951 0.6639259 0.040356267 0.6121671
        0.66730106 0.04217985 0.6120293 0.67084265 0.04401063 0.6118824
        0.6745529 0.04584459 0.6117273 0.67843866 0.04767972 0.6115648
        0.6825067 0.049513094 0.6113964 0.68675953 0.05133865 0.61122394
        0.69119513 0.0531472 0.61105 0.69580585 0.054926414 0.610878
        0.70058435 0.05666321 0.61071146 0.7055222 0.058343332 0.61055446
        0.710594 0.059946902 0.6104113 0.7157764 0.0614562 0.6102861
        0.7213402 0.06292955 0.61017704 0.7269429 0.064258195 0.6100948
        0.7325307 0.06542761 0.6100407 0.73806024 0.06643158 0.6100142
        0.74348515 0.06726883 0.61001325 0.74876463 0.06794406 0.61003476
        0.75386214 0.06846664 0.610075 0.7587471 0.068849705 0.6101298
        0.7633952 0.06910892 0.6101952 0.7677886 0.06926127 0.61026776
        0.7719162 0.06932401 0.61034435 0.77577364 0.06931378 0.6104224
        0.779362 0.06924585 0.61050004 0.7826869 0.06913379 0.610576
        0.78575695 0.0689893 0.61064905 0.7885832 0.068822235 0.6107187
        0.79117846 0.068640694 0.61078453 0.7935561 0.06845124 0.6108463
        0.7957302 0.06825905 0.6109039 0.79771477 0.06806817 0.6109575
        0.7995238 0.067881614 0.61100703 0.8011707 0.06770164 0.6110528
        0.80266845 0.067529805 0.61109483 0.8040293 0.06736715 0.61113346
        0.80526453 0.06721433 0.61116874 0.8063846 0.06707167 0.611201
        0.80739933 0.06693923 0.6112304 0.80831766 0.06681688 0.61125714
        0.809148 0.06670434 0.6112814 0.80989796 0.06660123 0.6113034
        0.8105747 0.06650708 0.6113233 0.8111848 0.06642137 0.6113413
        0.81173426 0.06634352 0.6113575 0.8122287 0.06627302 0.6113721
        0.81267315 0.06620927 0.6113852 0.8130724 0.06615174 0.611397
        0.8134307 0.066099904 0.61140764 0.8137522 0.06605326 0.6114172
        0.8140402 0.066011325 0.6114257 0.8142983 0.065973654 0.6114334
        0.6322095 0.019745901 0.6131064 0.6332238 0.020568443 0.6130884
        0.6343099 0.021445295 0.6130676 0.6354773 0.022381248 0.61304355
        0.6367366 0.023381155 0.6130158 0.63809955 0.024449889 0.6129836
        0.63957906 0.025592199 0.6129464 0.6411887 0.026812453 0.6129035
        0.64294297 0.028114304 0.6128539 0.6448564 0.02950022 0.6127966
        0.6469431 0.030970845 0.6127307 0.6492156 0.032524243 0.6126551
        0.6516824 0.034154784 0.61256886 0.65434647 0.035852555 0.6124714
        0.6572048 0.037604235 0.61236256 0.66024965 0.0393949 0.6122426
        0.6634714 0.04121041 0.612112 0.6668622 0.043039564 0.6119715
        0.6704187 0.044875104 0.6118219 0.67414314 0.046713334 0.6116638
        0.67804265 0.048552636 0.6114984 0.6821245 0.050390404 0.6113268
        0.6863914 0.05222076 0.611151 0.6908417 0.054034647 0.61097354
        0.6954678 0.05581975 0.6107979 0.700263 0.05756301 0.6106276
        0.70521903 0.05925012 0.6104668 0.7103108 0.060860965 0.61031985
        0.7155147 0.062377565 0.61019105 0.7211025 0.063858286 0.61007845
        0.7267304 0.06519375 0.60999316 0.73234415 0.066369176 0.6099365
        0.73789984 0.0673782 0.6099078 0.74335074 0.0682195 0.6099053
        0.7486556 0.06889772 0.60992575 0.7537775 0.06942228 0.60996526
        0.7586856 0.06980642 0.6100198 0.76335526 0.0700659 0.6100853
        0.76776856 0.070217855 0.610158 0.77191424 0.0702797 0.610235
        0.77578807 0.07026819 0.61031353 0.7793912 0.07019871 0.6103918
        0.78272927 0.070084915 0.61046827 0.7858112 0.069938555 0.61054206
        0.7886482 0.06976952 0.6106124 0.791253 0.06958593 0.61067885
        0.79363936 0.06939435 0.6107413 0.79582137 0.06919997 0.61079955
        0.79781336 0.06900682 0.6108538 0.79962915 0.068817936 0.610904
        0.8012824 0.06863556 0.6109503 0.8027861 0.06846127 0.61099297
        0.8041526 0.06829614 0.6110322 0.80539316 0.06814082 0.61106807
        0.8065183 0.06799567 0.61110085 0.8075378 0.06786077 0.6111308
        0.8084607 0.06773603 0.611158 0.8092953 0.067621194 0.6111828
        0.8100493 0.06751588 0.6112052 0.81072986 0.06741965 0.61122555
        0.8113435 0.06733198 0.61124384 0.8118963 0.06725234 0.6112605
        0.8123938 0.06718016 0.6112754 0.8128412 0.06711489 0.61128885
        0.8132431 0.06705596 0.61130095 0.8136039 0.06700286 0.61131173
        0.8139275 0.066955075 0.6113215 0.8142175 0.066912115 0.6113303
        0.8144775 0.06687351 0.6113381 0.6315723 0.020409146 0.6130788
        0.6325954 0.021248415 0.6130597 0.63368964 0.022141552 0.6130377
        0.6348647 0.023093253 0.6130123 0.6361316 0.024108285 0.6129831
        0.6375023 0.025191484 0.6129495 0.6389899 0.026347594 0.61291075
        0.6406084 0.027581017 0.61286616 0.6423722 0.028895456 0.61281484
        0.6442963 0.030293416 0.6127558 0.64639485 0.031775586 0.61268795
        0.64868045 0.033340007 0.6126103 0.6511617 0.03498097 0.61252195
        0.6538413 0.0366884 0.61242217 0.6567159 0.038448766 0.61231095
        0.6597773 0.040247 0.6121885 0.66301537 0.0420689 0.61205536
        0.6664219 0.04390336 0.6119122 0.66999334 0.045743406 0.6117598
        0.67373204 0.047585685 0.6115989 0.67764544 0.049428985 0.61143047
        0.68174106 0.051271006 0.61125565 0.6860221 0.053106096 0.6110765
        0.690487 0.054925304 0.6108955 0.6951287 0.056716323 0.61071616
        0.69994044 0.058466133 0.6105421 0.70491475 0.060160343 0.6103774
        0.71002644 0.06177861 0.6102267 0.7152519 0.06330264 0.61009425
        0.72086376 0.06479088 0.6099781 0.72651696 0.06613326 0.6098896
        0.7321567 0.06731479 0.60983026 0.73773867 0.06832894 0.6097995
        0.7432156 0.06917429 0.6097954 0.748546 0.0698555 0.6098147
        0.75369245 0.070382014 0.6098536 0.7586237 0.07076716 0.60990787
        0.763315 0.071026824 0.6099734 0.76774824 0.07117829 0.6100464
        0.77191216 0.071239114 0.6101237 0.77580243 0.0712262 0.6102027
        0.7794203 0.07115505 0.6102816 0.7827716 0.0710394 0.6103588
        0.78586537 0.07089106 0.61043316 0.788713 0.07071996 0.61050415
        0.7913274 0.07053423 0.6105713 0.7937225 0.07034044 0.61063445
        0.7959125 0.070143774 0.6106934 0.79791176 0.06994827 0.6107483
        0.7997343 0.069756955 0.61079913 0.8013939 0.06957208 0.6108461
        0.8029036 0.06939523 0.6108894 0.80427563 0.069227494 0.6109292
        0.8055215 0.06906954 0.61096567 0.8066517 0.068921745 0.61099905
        0.807676 0.06878424 0.61102957 0.80860347 0.06865693 0.61105734
        0.80944234 0.068539605 0.61108255 0.81020045 0.0684319 0.6111055
        0.81088483 0.0683334 0.61112624 0.81150204 0.0682436 0.611145
        0.8120582 0.068161964 0.61116195 0.8125588 0.06808795 0.61117727
        0.8130091 0.068020985 0.61119103 0.8134136 0.06796053 0.6112034
        0.8137769 0.06790603 0.6112145 0.81410277 0.06785696 0.6112245
        0.8143949 0.06781287 0.6112335 0.81465673 0.06777324 0.61124146
        0.63093513 0.02107235 0.6130503 0.6319667 0.02192945 0.61302996
        0.6330687 0.022839863 0.61300665 0.63425106 0.023808146 0.61297995
        0.63552517 0.02483897 0.61294925 0.6369034 0.025937136 0.61291414
        0.63839895 0.027107423 0.6128738 0.64002603 0.028354282 0.61282754
        0.6417994 0.029681487 0.61277443 0.64373404 0.03109162 0.6127135
        0.64584446 0.032585397 0.6126437 0.6481432 0.034160864 0.61256397
        0.6506389 0.03581222 0.6124734 0.65333414 0.03752922 0.61237144
        0.65622514 0.039298125 0.61225784 0.6593032 0.04110371 0.61213285
        0.6625577 0.04293174 0.6119971 0.66598004 0.044771258 0.61185133
        0.6695665 0.04661554 0.6116962 0.6733196 0.048461646 0.61153245
        0.67724687 0.050308757 0.61136097 0.6813564 0.052154906 0.611183
        0.68565154 0.053994667 0.6110005 0.6901311 0.05581918 0.61081594
        0.6947883 0.057616163 0.6106329 0.69961673 0.059372596 0.610455
        0.7046093 0.06107404 0.61028636 0.70974094 0.06269987 0.6101318
        0.71498805 0.0642315 0.60999566 0.72062397 0.06572737 0.60987586
        0.7263025 0.067076795 0.6097842 0.73196834 0.06826451 0.60972214
        0.73757666 0.06928384 0.6096892 0.7430799 0.07013328 0.60968345
        0.74843585 0.07081746 0.6097017 0.75360686 0.07134588 0.6097399
        0.75856143 0.07173196 0.60979384 0.76327455 0.07199173 0.6098594
        0.7677278 0.0721426 0.60993266 0.77190995 0.0722023 0.6100104
        0.7758167 0.07218787 0.61009 0.77944934 0.07211493 0.6101695
        0.78281385 0.07199732 0.61024725 0.7859195 0.0718469 0.6103224
        0.78877777 0.07167363 0.61039406 0.79140174 0.07148567 0.61046195
        0.79380554 0.07128958 0.6105257 0.79600346 0.07109056 0.6105854
        0.79801 0.07089262 0.61064094 0.7998394 0.07069879 0.61069244
        0.80150527 0.07051133 0.6107401 0.80302083 0.070331834 0.61078405
        0.80439854 0.07016137 0.61082447 0.8056497 0.07000067 0.6108616
        0.8067849 0.0698501 0.6108956 0.807814 0.069709815 0.6109267
        0.808746 0.06957977 0.610955 0.8095892 0.06945977 0.6109808
        0.8103514 0.06934949 0.6110042 0.81103957 0.06924852 0.6110254
        0.8116604 0.069156386 0.61104465 0.8122199 0.06907256 0.611062
        0.8127237 0.06899652 0.61107767 0.8131769 0.068927675 0.6110918
        0.81358415 0.0688655 0.6111044 0.8139498 0.06880944 0.6111159
        0.814278 0.06875897 0.6111261 0.8145722 0.0687136 0.6111353
        0.814836 0.06867282 0.6111436 0.630298 0.02173551 0.6130209
        0.6313376 0.022611696 0.6129993 0.6324467 0.023540486 0.61297464
        0.633636 0.024526227 0.61294645 0.6349171 0.025573501 0.61291426
        0.6363026 0.026687127 0.61287755 0.63780594 0.02787192 0.6128355
        0.6394415 0.029132444 0.61278754 0.6412243 0.030472573 0.6127326
        0.6431695 0.031894967 0.61266977 0.6452917 0.033400405 0.612598
        0.64760363 0.034986917 0.61251616 0.6501139 0.036648612 0.6124234
        0.6528249 0.038375072 0.6123191 0.65573233 0.040152356 0.61220306
        0.6588272 0.04196508 0.6120756 0.6620983 0.043798983 0.61193734
        0.6655366 0.045643263 0.61178887 0.66913825 0.047491517 0.611631
        0.67290574 0.04934121 0.6114644 0.67684704 0.051191945 0.61129
        0.68097043 0.05304211 0.6111088 0.6852797 0.054886475 0.6109229
        0.68977404 0.05671629 0.61073476 0.6944467 0.058519274 0.61054796
        0.69929177 0.06028244 0.61036617 0.7043026 0.061991252 0.6101936
        0.7094543 0.06362479 0.6100352 0.71472305 0.06516416 0.6098952
        0.72038317 0.066667825 0.6097718 0.7260871 0.068024404 0.60967684
        0.7317791 0.069218405 0.609612 0.73741394 0.07024298 0.6095769
        0.74294347 0.07109653 0.6095695 0.7483251 0.071783684 0.6095866
        0.75352085 0.07231397 0.60962415 0.75849885 0.072700925 0.60967785
        0.7632338 0.0729607 0.60974336 0.76770717 0.07311087 0.6098169
        0.77190757 0.073169336 0.6098951 0.7758308 0.073153265 0.60997534
        0.77947825 0.07307843 0.6100554 0.78285605 0.072958745 0.6101339
        0.78597355 0.07280614 0.6102097 0.78884244 0.072630614 0.61028206
        0.7914761 0.07244033 0.61035067 0.7938885 0.07224187 0.6104152
        0.7960944 0.07204042 0.61047554 0.7981082 0.07183997 0.6105318
        0.7999443 0.071643576 0.610584 0.8016165 0.07145347 0.6106323
        0.803138 0.07127124 0.61067694 0.80452126 0.07109798 0.610718
        0.8057777 0.07093441 0.61075574 0.806918 0.07078094 0.6107904
        0.8079519 0.07063775 0.6108221 0.80888844 0.07050481 0.610851
        0.80973595 0.07038195 0.61087734 0.8105022 0.07026888 0.6109013
        0.81119424 0.07016523 0.610923 0.81181866 0.07007054 0.6109427
        0.81238157 0.06998431 0.6109605 0.81288844 0.069906004 0.61097664
        0.81334454 0.06983509 0.61099106 0.81375456 0.069771 0.6110041
        0.81412274 0.06971318 0.61101586 0.81445324 0.06966113 0.61102635
        0.81474954 0.06961433 0.6110358 0.81501526 0.06957226 0.6110443
        0.62966084 0.022398625 0.6129906 0.63070774 0.02329536 0.6129676
        0.6318235 0.02424374 0.6129415 0.6330192 0.025247859 0.6129118
        0.6343069 0.026312241 0.612878 0.63569945 0.027441753 0.61283964
        0.6372104 0.028641349 0.61279595 0.6388545 0.029915722 0.61274606
        0.6406467 0.03126888 0.61268926 0.64260244 0.032703597 0.6126245
        0.64473647 0.034220714 0.6125507 0.6470616 0.035818253 0.61246675
        0.6495865 0.03749023 0.6123718 0.65231323 0.039226037 0.6122652
        0.6552374 0.041011516 0.61214674 0.6583492 0.042831134 0.61201674
        0.661637 0.044670634 0.6118759 0.66509145 0.046519384 0.6117248
        0.6687084 0.048371334 0.61156416 0.6724905 0.05022437 0.61139476
        0.6764458 0.052078556 0.6112173 0.6805832 0.053932615 0.611033
        0.68490666 0.055781525 0.6108437 0.68941575 0.057616636 0.610652
        0.6941039 0.05942569 0.6104614 0.6989656 0.061195694 0.6102757
        0.7039947 0.06291201 0.61009914 0.7091664 0.06455342 0.6099367
        0.7144569 0.066100694 0.60979295 0.72014123 0.0676123 0.6096658
        0.7258706 0.06897617 0.6095675 0.73158896 0.07017655 0.6094999
        0.7372504 0.07120643 0.60946256 0.7428063 0.07206411 0.6094535
        0.7482138 0.07275423 0.6094695 0.7534344 0.073286355 0.6095063
        0.7584359 0.07367412 0.6095597 0.7631928 0.07393381 0.60962534
        0.7676863 0.07408318 0.60969913 0.7719051 0.07414028 0.6097778
        0.7758449 0.074122466 0.6098586 0.77950716 0.07404561 0.60993934
        0.78289825 0.07392374 0.6100185 0.7860276 0.073768854 0.610095
        0.7889072 0.07359098 0.6101682 0.79155034 0.07339831 0.6102375
        0.79397154 0.07319741 0.61030275 0.7961853 0.07299347 0.61036384
        0.7982064 0.07279047 0.61042076 0.80004925 0.072591454 0.6104737
        0.8017277 0.07239864 0.6105227 0.80325514 0.07221363 0.610568
        0.804644 0.0720375 0.61060977 0.80590576 0.07187099 0.61064816
        0.80705106 0.07171453 0.61068344 0.80808973 0.071568295 0.61071575
        0.80903083 0.07143231 0.61074525 0.80988264 0.07130642 0.6107722
        0.810653 0.07119038 0.61079675 0.81134886 0.071083836 0.61081904
        0.8119769 0.07098635 0.6108392 0.81254315 0.07089746 0.6108575
        0.8130532 0.07081666 0.610874 0.8135122 0.070743404 0.6108889
        0.8139249 0.070677154 0.6109023 0.81429565 0.07061737 0.6109144
        0.8146284 0.07056351 0.61092526 0.81492686 0.07051509 0.610935
        0.81519455 0.07047156 0.6109437 0.62902373 0.023061695 0.61295944
        0.630077 0.023980726 0.61293495 0.6311985 0.02495006 0.61290723
        0.6324002 0.025973491 0.61287594 0.63369423 0.027055576 0.6128405
        0.6350936 0.02820135 0.6128004 0.6366122 0.029415965 0.6127549
        0.63826466 0.030704316 0.61270326 0.6400662 0.032070577 0.61264455
        0.6420325 0.033517644 0.61257774 0.6441784 0.03504644 0.61250186
        0.64651686 0.036654975 0.61241573 0.6490565 0.038337152 0.6123186
        0.6517992 0.040082164 0.6122096 0.65474015 0.04187565 0.61208874
        0.6578691 0.043701913 0.61195624 0.6611739 0.045546714 0.61181283
        0.6646446 0.047399633 0.6116591 0.66827697 0.04925498 0.61149585
        0.67207366 0.05111112 0.6113236 0.6760432 0.05296857 0.6111431
        0.68019456 0.054826412 0.6109556 0.68453234 0.056679823 0.6107629
        0.68905616 0.058520243 0.6105676 0.6937598 0.060335424 0.6103732
        0.6986382 0.06211238 0.6101836 0.7036856 0.063836366 0.61000293
        0.7088773 0.06548581 0.6098365 0.71418965 0.06704116 0.6096889
        0.71989816 0.06856085 0.60955787 0.7256532 0.06993215 0.60945624
        0.73139787 0.071139 0.6093858 0.737086 0.07217425 0.60934615
        0.7426685 0.07303612 0.60933536 0.748102 0.07372918 0.60935014
        0.7533475 0.07426312 0.6093864 0.7583726 0.074651614 0.6094395
        0.7631515 0.07491114 0.6095052 0.7676653 0.0750596 0.60957927
        0.77190256 0.075115226 0.6096584 0.7758589 0.075095534 0.6097398
        0.77953607 0.07501656 0.60982126 0.78294045 0.074892394 0.60990113
        0.78608173 0.074735135 0.60997844 0.78897196 0.07455483 0.6100523
        0.7916247 0.07435969 0.6101224 0.79405457 0.0741563 0.61018836
        0.7962763 0.073949814 0.6102502 0.7983047 0.07374424 0.6103079
        0.8001542 0.07354257 0.61036146 0.801839 0.073347025 0.6104112
        0.8033723 0.073159195 0.6104572 0.8047667 0.07298016 0.6104997
        0.8060338 0.07281066 0.6105387 0.80718416 0.07265113 0.61057466
        0.8082276 0.07250177 0.6106076 0.8091732 0.07236262 0.6106378
        0.8100294 0.07223356 0.6106653 0.8108037 0.072114356 0.6106905
        0.81150347 0.0720047 0.61071336 0.8121351 0.07190418 0.6107341
        0.81270474 0.07181238 0.6107529 0.81321794 0.07172878 0.61076987
        0.8136799 0.0716529 0.61078525 0.8140953 0.071584195 0.61079913
        0.8144685 0.071522154 0.61081153 0.8148036 0.07146624 0.61082274
        0.8151042 0.07141593 0.6108328 0.8153738 0.07137071 0.6108418
        0.62838656 0.023724716 0.61292744 0.6294448 0.024668243 0.6129013
        0.63057125 0.025660018 0.6128718 0.6317783 0.026703656 0.6128388
        0.63307846 0.027803952 0.6128017 0.6344846 0.028966263 0.61275977
        0.6360107 0.030196043 0.6127125 0.6376716 0.031498432 0.6126589
        0.6394826 0.032877818 0.61259824 0.6414595 0.03433724 0.61252946
        0.6436174 0.035877686 0.61245143 0.6459693 0.037497163 0.61236316
        0.64852375 0.039189458 0.6122636 0.6512826 0.040943537 0.61215234
        0.65424055 0.042744815 0.612029 0.6573868 0.044577457 0.6118941
        0.66070867 0.04642725 0.6117481 0.6641959 0.048284 0.6115918
        0.6678439 0.05014245 0.6114258 0.6716554 0.05200144 0.6112508
        0.67563915 0.05386198 0.61106735 0.6798046 0.055723496 0.6108767
        0.68415666 0.05758137 0.6106805 0.68869525 0.05942712 0.6104816
        0.69341445 0.061248492 0.6102834 0.6983095 0.06303254 0.6100897
        0.7033752 0.06476435 0.609905 0.70858705 0.06642203 0.6097344
        0.7139211 0.06798561 0.6095829 0.719654 0.06951357 0.609448
        0.72543466 0.070892416 0.60934293 0.7312059 0.072105855 0.60926956
        0.73692083 0.073146544 0.6092276 0.74253005 0.07401261 0.60921514
        0.7479896 0.07470863 0.60922873 0.7532602 0.07524433 0.60926425
        0.758309 0.07563352 0.6093171 0.76311 0.075892776 0.6093828
        0.76764417 0.07604022 0.6094573 0.7718999 0.07609426 0.60953695
        0.7758729 0.07607257 0.6096189 0.779565 0.07599135 0.6097011
        0.7829827 0.0758648 0.60978174 0.7861359 0.07570506 0.60985976
        0.7890368 0.07552224 0.60993445 0.7916992 0.07532457 0.61000526
        0.7941377 0.07511864 0.610072 0.79636735 0.07490959 0.6101346
        0.798403 0.074701406 0.610193 0.80025935 0.074497074 0.6102474
        0.8019504 0.0742988 0.6102978 0.8034896 0.074108146 0.6103445
        0.8048896 0.0739262 0.6103876 0.806162 0.0737537 0.61042744
        0.8073174 0.07359107 0.61046404 0.80836564 0.073438525 0.61049765
        0.8093158 0.07329614 0.6105285 0.81017625 0.073163785 0.61055666
        0.8109547 0.07304128 0.6105825 0.81165826 0.07292832 0.6106059
        0.8122935 0.07282454 0.61062723 0.8128665 0.072729535 0.6106466
        0.8133828 0.07264285 0.6106642 0.81384766 0.072564 0.61068004
        0.8142658 0.07249249 0.61069435 0.8146415 0.07242782 0.6107072
        0.81497884 0.072369464 0.61071885 0.8152815 0.072316945 0.6107292
        0.81555307 0.07226972 0.6107386 0.62774944 0.024387687 0.61289454
        0.62881047 0.025358632 0.6128665 0.6299408 0.026374388 0.6128353
        0.6311529 0.027438978 0.6128004 0.632459 0.028557835 0.61276144
        0.6338719 0.02973683 0.61271775 0.63540566 0.03098182 0.6126686
        0.637075 0.032298252 0.6126131 0.6388956 0.033690736 0.6125504
        0.6408832 0.035162475 0.6124795 0.6430531 0.036714535 0.61239934
        0.6454185 0.038344894 0.6123088 0.647988 0.0400472 0.612207
        0.65076315 0.041810192 0.6120934 0.6537383 0.04361904 0.6119676
        0.65690213 0.045457773 0.61183023 0.66024137 0.04731223 0.6116817
        0.6637453 0.049172487 0.61152285 0.6674091 0.05103371 0.6113542
        0.67123556 0.052895304 0.6111763 0.67523366 0.054758754 0.61099
        0.6794133 0.05662385 0.6107961 0.68377966 0.05848615 0.61059654
        0.6883331 0.060337264 0.61039394 0.6930678 0.06216491 0.6101918
        0.6979795 0.06395618 0.6099941 0.70306355 0.06569601 0.6098052
        0.70829546 0.0673621 0.6096306 0.7136515 0.06893411 0.60947496
        0.71940875 0.0704705 0.6093362 0.72521514 0.07185705 0.6092276
        0.7310129 0.07307718 0.6091513 0.73675483 0.07412338 0.60910696
        0.7423908 0.07499368 0.6090927 0.7478766 0.07569267 0.60910517
        0.75317234 0.076230094 0.60914 0.75824505 0.0766199 0.6091926
        0.76306826 0.07687882 0.6092584 0.7676229 0.07702513 0.60933316
        0.77189714 0.07707747 0.6094133 0.7758869 0.077053666 0.609496
        0.77959394 0.076970086 0.60957885 0.7830251 0.07684103 0.60966027
        0.7861902 0.07667872 0.6097391 0.7891018 0.07649333 0.6098146
        0.79177386 0.07629308 0.6098862 0.7942211 0.07608456 0.6099537
        0.79645866 0.07587293 0.61001706 0.7985016 0.07566213 0.6100762
        0.8003647 0.07545514 0.6101313 0.80206203 0.07525415 0.61018246
        0.80360717 0.0750607 0.61022985 0.80501276 0.07487588 0.6102737
        0.80629045 0.07470039 0.6103142 0.8074509 0.07453467 0.6103515
        0.8085039 0.07437895 0.6103858 0.8094587 0.07423329 0.6104173
        0.8103235 0.0740976 0.61044616 0.81110597 0.073971696 0.61047256
        0.81181335 0.07385531 0.6104967 0.8124522 0.0737481 0.61051863
        0.8130286 0.07364966 0.6105386 0.813548 0.07355958 0.6105567
        0.81401575 0.07347741 0.6105731 0.81443644 0.073402666 0.61058795
        0.8148146 0.07333489 0.61060137 0.8151542 0.07327359 0.6106134
        0.8154589 0.07321832 0.6106243 0.8157323 0.073168576 0.610634
        0.6271123 0.02505061 0.61286074 0.62817264 0.026053164 0.6128306
        0.62930614 0.027094174 0.6127974 0.63052315 0.028180145 0.61276066
        0.6318352 0.02931768 0.61271983 0.63325506 0.030513352 0.6126743
        0.6347965 0.03177349 0.6126232 0.63647455 0.033103894 0.61256576
        0.6383048 0.034509413 0.61250097 0.64030325 0.035993416 0.61242795
        0.6424854 0.037557025 0.6123456 0.64486444 0.039198197 0.61225283
        0.64744914 0.040910408 0.6121487 0.6502408 0.04268215 0.6120327
        0.65323335 0.04449833 0.61190456 0.656415 0.046342857 0.6117646
        0.65977186 0.04820162 0.61161363 0.6632927 0.050065022 0.61145216
        0.6669725 0.051928706 0.61128086 0.6708141 0.05379264 0.6111003
        0.6748267 0.055658832 0.61091095 0.6790206 0.05752742 0.6107139
        0.6834013 0.059394132 0.6105109 0.68796957 0.06125064 0.61030465
        0.6927199 0.06308465 0.6100986 0.6976482 0.06488331 0.60989684
        0.70275056 0.06663136 0.6097037 0.7080027 0.068306066 0.6095248
        0.7133806 0.0698867 0.6093651 0.71916234 0.0714317 0.6092223
        0.72499454 0.0728261 0.60911024 0.730819 0.074053034 0.6090309
        0.736588 0.07510483 0.6089842 0.7422509 0.075979404 0.60896814
        0.74776304 0.07668135 0.60897934 0.7530841 0.077220485 0.6090135
        0.75818074 0.07761084 0.60906583 0.7630263 0.07786933 0.6091317
        0.76760143 0.07801442 0.60920686 0.7718944 0.07806493 0.60928756
        0.7759009 0.0780389 0.6093709 0.77962303 0.07795284 0.6094545
        0.7830675 0.07782118 0.6095367 0.78624463 0.07765624 0.60961634
        0.789167 0.07746818 0.60969263 0.79184866 0.07726531 0.60976505
        0.79430467 0.07705418 0.60983336 0.7965502 0.07683995 0.6098975
        0.7986005 0.07662654 0.6099574 0.8004703 0.076416925 0.61001325
        0.802174 0.07621326 0.6100651 0.8037251 0.07601709 0.61011326
        0.8051363 0.075829454 0.61015785 0.8064194 0.07565104 0.610199
        0.8075849 0.07548232 0.610237 0.80864275 0.07532348 0.610272
        0.8096021 0.07517459 0.6103042 0.8104712 0.07503559 0.6103337
        0.8112578 0.07490629 0.61036074 0.81196904 0.07478644 0.6103855
        0.8126115 0.07467571 0.61040807 0.8131912 0.074573725 0.6104287
        0.8137137 0.074480064 0.61044747 0.8141843 0.07439429 0.61046445
        0.8146077 0.074315935 0.61047983 0.81498814 0.07424452 0.61049384
        0.8153299 0.07417959 0.6105065 0.81563646 0.074120685 0.61051786
        0.81591153 0.07406728 0.6105282
        <InformationKey name="L2_NORM_RANGE" location="vtkDataArray" length="2">
          <Value index="0">
            0.8772090355
          </Value>
          <Value index="1">
            1.0217349151
          </Value>
        </InformationKey>
      </DataArray>
    </Points>
  </Piece>
  </StructuredGrid>
</VTKFile>
