<?xml version="1.0"?>
<VTKFile type="StructuredGrid" version="0.1" byte_order="LittleEndian">
    <StructuredGrid WholeExtent="0 30 0 40 0 0">
        <Piece Extent="0 30 0 40 0 0">
            <Points>
                <DataArray type="Float32" NumberOfComponents="3" format="ascii">
                       -0.3500000000000000       -0.0186378842113413    0.0
                       -0.3335266414144666       -0.0186378842113413    0.0
                       -0.3171396824449534       -0.0186378842113413    0.0
                       -0.3009237195667442       -0.0186378842113413    0.0
                       -0.2849598223551413       -0.0186378842113413    0.0
                       -0.2693239625474492       -0.0186378842113413    0.0
                       -0.2540856581542928       -0.0186378842113413    0.0
                       -0.2393068796042804       -0.0186378842113413    0.0
                       -0.2250412472420868       -0.0186378842113413    0.0
                       -0.2113335311684187       -0.0186378842113413    0.0
                       -0.1982194470666826       -0.0186378842113413    0.0
                       -0.1857257266690605       -0.0186378842113413    0.0
                       -0.1738704298178600       -0.0186378842113413    0.0
                       -0.1626634571516088       -0.0186378842113413    0.0
                       -0.1521072183199567       -0.0186378842113413    0.0
                       -0.1421974099722226       -0.0186378842113413    0.0
                       -0.1329238599817346       -0.0186378842113413    0.0
                       -0.1242713987358912       -0.0186378842113413    0.0
                       -0.1162207240847879       -0.0186378842113413    0.0
                       -0.1087492329985979       -0.0186378842113413    0.0
                       -0.1018317995450105       -0.0186378842113413    0.0
                       -0.0954414850101843       -0.0186378842113413    0.0
                       -0.0895501715398125       -0.0186378842113413    0.0
                       -0.0841291153918690       -0.0186378842113413    0.0
                       -0.0791494196994040       -0.0186378842113413    0.0
                       -0.0745824295535917       -0.0186378842113413    0.0
                       -0.0704000543046288       -0.0186378842113413    0.0
                       -0.0665750233460345       -0.0186378842113413    0.0
                       -0.0630810824171434       -0.0186378842113413    0.0
                       -0.0598931377518312       -0.0186378842113413    0.0
                       -0.0569873553339548       -0.0186378842113413    0.0
                       -0.3500000000000000       -0.0181889183810428    0.0
                       -0.3335195133725312       -0.0181874977469534    0.0
                       -0.3171254666050261       -0.0181861670148106    0.0
                       -0.3009025072075979       -0.0181849283926688    0.0
                       -0.2849317510695421       -0.0181837807866487    0.0
                       -0.2692892134105194       -0.0181827226221408    0.0
                       -0.2540444525317877       -0.0181817519225739    0.0
                       -0.2392594755345295       -0.0181808663109254    0.0
                       -0.2249879355309530       -0.0181800630263441    0.0
                       -0.2112746313614678       -0.0181793389565681    0.0
                       -0.1981553034595983       -0.0181786906800012    0.0
                       -0.1856567045093844       -0.0181781145146116    0.0
                       -0.1737969118411536       -0.0181776065676015    0.0
                       -0.1625858405982968       -0.0181771627865006    0.0
                       -0.1520259126436826       -0.0181767790206822    0.0
                       -0.1421128357271548       -0.0181764511347880    0.0
                       -0.1328364502989248       -0.0181761752973707    0.0
                       -0.1241816074182239       -0.0181759487437802    0.0
                       -0.1161290507725884       -0.0181757716361453    0.0
                       -0.1086562893492356       -0.0181756510823628    0.0
                       -0.1017384642563216       -0.0181756087738808    0.0
                       -0.0953492299551722       -0.0181756935940736    0.0
                       -0.0894616784894734       -0.0181759989382167    0.0
                       -0.0840493272004184       -0.0181766790234545    0.0
                       -0.0790871925086822       -0.0181779479433062    0.0
                       -0.0745531388406175       -0.0181800594121448    0.0
                       -0.0704300502053164       -0.0181834789011333    0.0
                       -0.0667069602060647       -0.0181907046562232    0.0
                       -0.0633626841923071       -0.0182156329422076    0.0
                       -0.0603193613549383       -0.0182915250853837    0.0
                       -0.0574488376058976       -0.0184260922164802    0.0
                       -0.3500000000000000       -0.0177399525507442    0.0
                       -0.3335123606151340       -0.0177364064752992    0.0
                       -0.3171111757855901       -0.0177330246918727    0.0
                       -0.3008811438565826       -0.0177298127021201    0.0
                       -0.2849034272536940       -0.0177267694806547    0.0
                       -0.2692540852928136       -0.0177238930464665    0.0
                       -0.2540027175419335       -0.0177211806016845    0.0
                       -0.2392113690768185       -0.0177186285190266    0.0
                       -0.2249337273635033       -0.0177162323605737    0.0
                       -0.2112146218082296       -0.0177139869300924    0.0
                       -0.1980898196166778       -0.0177118863468958    0.0
                       -0.1855860966018537       -0.0177099241352860    0.0
                       -0.1737215498794519       -0.0177080933179364    0.0
                       -0.1625061114897653       -0.0177063865138870    0.0
                       -0.1519422179866373       -0.0177047960606413    0.0
                       -0.1420255908137102       -0.0177033142479430    0.0
                       -0.1327460858454169       -0.0177019339256152    0.0
                       -0.1240885783629246       -0.0177006501252917    0.0
                       -0.1160338634067552       -0.0176994640322383    0.0
                       -0.1085595726120871       -0.0176983915947115    0.0
                       -0.1016411367513496       -0.0176974799114556    0.0
                       -0.0952528507492741       -0.0176968342333050    0.0
                       -0.0893691061056869       -0.0176966545839999    0.0
                       -0.0839658221690891       -0.0176972682265283    0.0
                       -0.0790220724665425       -0.0176991203172595    0.0
                       -0.0745221316274001       -0.0177027171295418    0.0
                       -0.0704585806107503       -0.0177089603729881    0.0
                       -0.0668324606033537       -0.0177224947287322    0.0
                       -0.0636246439342798       -0.0177675837408372    0.0
                       -0.0607243097483986       -0.0179046236643672    0.0
                       -0.0579241390183146       -0.0181659021776079    0.0
                       -0.3500000000000000       -0.0172909867204457    0.0
                       -0.3335051809875140       -0.0172847112225612    0.0
                       -0.3170968085193651       -0.0172786556635550    0.0
                       -0.3008596311846255       -0.0172728293652283    0.0
                       -0.2848748577324683       -0.0172672320559884    0.0
                       -0.2692185916995878       -0.0172618620645482    0.0
                       -0.2539604743620568       -0.0172567165013590    0.0
                       -0.2391625895028004       -0.0172517912186813    0.0
                       -0.2248786599341944       -0.0172470808187676    0.0
                       -0.2111535468460453       -0.0172425787139724    0.0
                       -0.1980230456233811       -0.0172382772218337    0.0
                       -0.1855139567705678       -0.0172341676855655    0.0
                       -0.1736443988760949       -0.0172302406033999    0.0
                       -0.1624243226666344       -0.0172264857671283    0.0
                       -0.1518561812696265       -0.0172228924411564    0.0
                       -0.1419357118242011       -0.0172194497209696    0.0
                       -0.1326527878761886       -0.0172161474884216    0.0
                       -0.1239923118379261       -0.0172129789893132    0.0
                       -0.1159351348577867       -0.0172099471802607    0.0
                       -0.1084590207882822       -0.0172070785400145    0.0
                       -0.1015397109306234       -0.0172044494200253    0.0
                       -0.0951521845940084       -0.0172022294154219    0.0
                       -0.0892722149068837       -0.0172007394764096    0.0
                       -0.0838782456041526       -0.0172005001892489    0.0
                       -0.0789535014588519       -0.0172022049135625    0.0
                       -0.0744884413409375       -0.0172066044169046    0.0
                       -0.0704839503678946       -0.0172149693957210    0.0
                       -0.0669493096019577       -0.0172336502523528    0.0
                       -0.0638653021051705       -0.0172940658870241    0.0
                       -0.0611042105525672       -0.0174767997599849    0.0
                       -0.0584075029576606       -0.0178490355130701    0.0
                       -0.3500000000000000       -0.0168420208901471    0.0
                       -0.3334979726403718       -0.0168325267463875    0.0
                       -0.3170823644635141       -0.0168232889268053    0.0
                       -0.3008379734396447       -0.0168143205889115    0.0
                       -0.2848460541021808       -0.0168056224526463    0.0
                       -0.2691827539365096       -0.0167971934309189    0.0
                       -0.2539177559068069       -0.0167890308382027    0.0
                       -0.2391131827171724       -0.0167811303130530    0.0
                       -0.2248227929513041       -0.0167734858053057    0.0
                       -0.2110914801913514       -0.0167660896336238    0.0
                       -0.1979550687654733       -0.0167589325920089    0.0
                       -0.1854403847595228       -0.0167520040920993    0.0
                       -0.1735655692249518       -0.0167452923202443    0.0
                       -0.1623405926438497       -0.0167387844092113    0.0
                       -0.1517679258550497       -0.0167324666691404    0.0
                       -0.1418433229189200       -0.0167263250730365    0.0
                       -0.1325566764724816       -0.0167203465851094    0.0
                       -0.1238929180336868       -0.0167145227886491    0.0
                       -0.1158329584257072       -0.0167088588716319    0.0
                       -0.1083547014948751       -0.0167033932665942    0.0
                       -0.1014342167492771       -0.0166982352303599    0.0
                       -0.0950472055240670       -0.0166936266723650    0.0
                       -0.0891708916153459       -0.0166900240475693    0.0
                       -0.0837863366919275       -0.0166881618052667    0.0
                       -0.0788809465676502       -0.0166889970615167    0.0
                       -0.0744510148062301       -0.0166935069925940    0.0
                       -0.0705042572183920       -0.0167032212567493    0.0
                       -0.0670549576454410       -0.0167256635774739    0.0
                       -0.0640823815761236       -0.0167964889833960    0.0
                       -0.0614542209479355       -0.0170090168038939    0.0
                       -0.0588895976170387       -0.0174680983839644    0.0
                       -0.3500000000000000       -0.0163930550598486    0.0
                       -0.3334907341370075       -0.0163799793957974    0.0
                       -0.3170678445649825       -0.0163671791540992    0.0
                       -0.3008161776235789       -0.0163546709587019    0.0
                       -0.2848170328830749       -0.0163424564270131    0.0
                       -0.2691466012204427       -0.0163305349947460    0.0
                       -0.2538746069076794       -0.0163189041376872    0.0
                       -0.2390632113531992       -0.0163075592494126    0.0
                       -0.2247662088405356       -0.0162964935996480    0.0
                       -0.2110285253963292       -0.0162856983807237    0.0
                       -0.1978860144434983       -0.0162751628169280    0.0
                       -0.1853655278755242       -0.0162648743200963    0.0
                       -0.1734852294832540       -0.0162548186660992    0.0
                       -0.1622551098096206       -0.0162449801920254    0.0
                       -0.1516776577254730       -0.0162353420729337    0.0
                       -0.1417486445564656       -0.0162258869348875    0.0
                       -0.1324579824741829       -0.0162165985782940    0.0
                       -0.1237906329226791       -0.0162074667428845    0.0
                       -0.1157275684154982       -0.0161984989817987    0.0
                       -0.1082468380780742       -0.0161897467363919    0.0
                       -0.1013248526447983       -0.0161813553919734    0.0
                       -0.0949380637168838       -0.0161736466378088    0.0
                       -0.0890651954872397       -0.0161672263587999    0.0
                       -0.0836899817399385       -0.0161630621438140    0.0
                       -0.0788039621541983       -0.0161623867056191    0.0
                       -0.0744087936426494       -0.0161663729447453    0.0
                       -0.0705175136294936       -0.0161766565839526    0.0
                       -0.0671466952591427       -0.0162013242291974    0.0
                       -0.0642732095645584       -0.0162776469028178    0.0
                       -0.0617687559229189       -0.0165042054352022    0.0
                       -0.0593571909714655       -0.0170183603765206    0.0
                       -0.3500000000000000       -0.0159440892295500    0.0
                       -0.3334834646886782       -0.0159272130564203    0.0
                       -0.3170532517528737       -0.0159106184993655    0.0
                       -0.3007942548650032       -0.0158943250577148    0.0
                       -0.2847878177997780       -0.0158783349804150    0.0
                       -0.2691101741031601       -0.0158626479883096    0.0
                       -0.2538310887284045       -0.0158472614966427    0.0
                       -0.2390127612464420       -0.0158321704437578    0.0
                       -0.2247090211688244       -0.0158173672152398    0.0
                       -0.2109648265465673       -0.0158028416729305    0.0
                       -0.1978160595078940       -0.0157885812600491    0.0
                       -0.1852895973723490       -0.0157745711626408    0.0
                       -0.1734036262729096       -0.0157607944976632    0.0
                       -0.1621681563772355       -0.0157472325281670    0.0
                       -0.1515856940935528       -0.0157338649793223    0.0
                       -0.1416520274525216       -0.0157206707779712    0.0
                       -0.1323570875697556       -0.0157076301879163    0.0
                       -0.1236858653600574       -0.0156947307848864    0.0
                       -0.1156193952225889       -0.0156819824354359    0.0
                       -0.1081358737245508       -0.0156694503430620    0.0
                       -0.1012120596949432       -0.0156573187002748    0.0
                       -0.0948251705048964       -0.0156459954444989    0.0
                       -0.0889554545202817       -0.0156362480097607    0.0
                       -0.0835893216824490       -0.0156292931005446    0.0
                       -0.0787223109855694       -0.0156266444984185    0.0
                       -0.0743608592069614       -0.0156296258948363    0.0
                       -0.0705218312694376       -0.0156397896478123    0.0
                       -0.0672218779326256       -0.0156651287907187    0.0
                       -0.0644349745821803       -0.0157422391001597    0.0
                       -0.0620419645439797       -0.0159680270628770    0.0
                       -0.0597932992018157       -0.0165005456748209    0.0
                       -0.3500000000000000       -0.0154951233992515    0.0
                       -0.3334761645131382       -0.0154743652224100    0.0
                       -0.3170385909103412       -0.0154538872055884    0.0
                       -0.3007722192229130       -0.0154337110506896    0.0
                       -0.2847584366122678       -0.0154138393401473    0.0
                       -0.2690735185167408       -0.0153942718106235    0.0
                       -0.2537872698201545       -0.0153750055655401    0.0
                       -0.2389619275210530       -0.0153560348533036    0.0
                       -0.2246513556274848       -0.0153373509543386    0.0
                       -0.2109005434707876       -0.0153189421885606    0.0
                       -0.1977454011093941       -0.0153007940108751    0.0
                       -0.1852128304616503       -0.0152828891724091    0.0
                       -0.1733210390998635       -0.0152652079134235    0.0
                       -0.1620800558131246       -0.0152477281897285    0.0
                       -0.1514924034174163       -0.0152304260218195    0.0
                       -0.1415538853694827       -0.0152132763588070    0.0
                       -0.1322544502922083       -0.0151962556376053    0.0
                       -0.1235791170174432       -0.0151793490235894    0.0
                       -0.1155089803338723       -0.0151625686658311    0.0
                       -0.1080223832673798       -0.0151459941490272    0.0
                       -0.1010964330465931       -0.0151298506621378    0.0
                       -0.0947091143601944       -0.0151146376650509    0.0
                       -0.0888421951965988       -0.0151012938149759    0.0
                       -0.0834847132749312       -0.0150912964649341    0.0
                       -0.0786359903575637       -0.0150864385925572    0.0
                       -0.0743065803999982       -0.0150881377654444    0.0
                       -0.0705157620581855       -0.0150976540478192    0.0
                       -0.0672785194213057       -0.0151222431900786    0.0
                       -0.0645656164281214       -0.0151959422656587    0.0
                       -0.0622691204764441       -0.0154082328897451    0.0
                       -0.0601804105820563       -0.0159214292176832    0.0
                       -0.3500000000000000       -0.0150461575689529    0.0
                       -0.3334688352367496       -0.0150215978043508    0.0
                       -0.3170238707018524       -0.0149973159671296    0.0
                       -0.3007500919765754       -0.0149733353191158    0.0
                       -0.2847289289070474       -0.0149496585546850    0.0
                       -0.2690366980940009       -0.0149262852402893    0.0
                       -0.2537432435774554       -0.0149032120088268    0.0
                       -0.2389108389565598       -0.0148804322891088    0.0
                       -0.2245933818466553       -0.0148579361562841    0.0
                       -0.2108358918960450       -0.0148357103161954    0.0
                       -0.1976743060411884       -0.0148137381885711    0.0
                       -0.1851355496405528       -0.0147920000640904    0.0
                       -0.1732378504197144       -0.0147704732973575    0.0
                       -0.1619912543510334       -0.0147491325396449    0.0
                       -0.1513982990383685       -0.0147279501164889    0.0
                       -0.1414548015252237       -0.0147068970137177    0.0
                       -0.1321507258277881       -0.0146859458667572    0.0
                       -0.1234711162062176       -0.0146650794993426    0.0
                       -0.1153971247529393       -0.0146443125598934    0.0
                       -0.1079072367098078       -0.0146237396524793    0.0
                       -0.1009789007637785       -0.0146036286064025    0.0
                       -0.0945908546266883       -0.0145845739626803    0.0
                       -0.0887263493397586       -0.0145676914865288    0.0
                       -0.0833769453653840       -0.0145547239573877    0.0
                       -0.0785454520728030       -0.0145477321819293    0.0
                       -0.0742458278797621       -0.0145481615711701    0.0
                       -0.0704984815405203       -0.0145567725757882    0.0
                       -0.0673154076055902       -0.0145795129086689    0.0
                       -0.0646639018830091       -0.0146464412627867    0.0
                       -0.0624469586182612       -0.0148354221200851    0.0
                       -0.0605019626914916       -0.0152968629992666    0.0
                       -0.3500000000000000       -0.0145971917386544    0.0
                       -0.3334614796476089       -0.0145689895166689    0.0
                       -0.3170090995283832       -0.0145410654823958    0.0
                       -0.3007278900785728       -0.0145134438215093    0.0
                       -0.2846993232314977       -0.0144861271619306    0.0
                       -0.2689997560978822       -0.0144591147617314    0.0
                       -0.2536990711501613       -0.0144324026779590    0.0
                       -0.2388595777865567       -0.0144059834507117    0.0
                       -0.2245352063437269       -0.0143798459187947    0.0
                       -0.2107710058078974       -0.0143539751806987    0.0
                       -0.1976029389103931       -0.0143283526639578    0.0
                       -0.1850579532485308       -0.0143029562749673    0.0
                       -0.1731542953641936       -0.0142777605883920    0.0
                       -0.1619020269181530       -0.0142527370819693    0.0
                       -0.1513036986199731       -0.0142278545386058    0.0
                       -0.1413551391856719       -0.0142030801516354    0.0
                       -0.1320463257935601       -0.0141783829459297    0.0
                       -0.1233623253856372       -0.0141537436304982    0.0
                       -0.1152843435912610       -0.0141291796746286    0.0
                       -0.1077910017995066       -0.0141048012804180    0.0
                       -0.1008600786287227       -0.0140809201079717    0.0
                       -0.0944710401074612       -0.0140582280839992    0.0
                       -0.0886085630647747       -0.0140380213540934    0.0
                       -0.0832665920621765       -0.0140223086087320    0.0
                       -0.0784510941705572       -0.0140134022877430    0.0
                       -0.0741787392796654       -0.0140127094077710    0.0
                       -0.0704699723578032       -0.0140203051441460    0.0
                       -0.0673328346961980       -0.0140403731544481    0.0
                       -0.0647308665157883       -0.0140980516121648    0.0
                       -0.0625760911211890       -0.0142571151540912    0.0
                       -0.0607497341635328       -0.0146409415667708    0.0
                       -0.3500000000000000       -0.0141482259083558    0.0
                       -0.3334541016270126       -0.0141166095743358    0.0
                       -0.3169942877493154       -0.0140852769668633    0.0
                       -0.3007056330933888       -0.0140542525699372    0.0
                       -0.2846696512087656       -0.0140235388043655    0.0
                       -0.2689627391712568       -0.0139931345224679    0.0
                       -0.2536548172508119       -0.0139630351446436    0.0
                       -0.2388082299160353       -0.0139332323024100    0.0
                       -0.2244769393991458       -0.0139037136220260    0.0
                       -0.2107060230968708       -0.0138744626630104    0.0
                       -0.1975314684999154       -0.0138454589728555    0.0
                       -0.1849802442917380       -0.0138166782274946    0.0
                       -0.1730706145479675       -0.0137880924143737    0.0
                       -0.1618126551877347       -0.0137596700658545    0.0
                       -0.1512089284221332       -0.0137313766825242    0.0
                       -0.1412552728133598       -0.0137031759540260    0.0
                       -0.1319416765442374       -0.0136750336088682    0.0
                       -0.1232532264638511       -0.0136469285784989    0.0
                       -0.1151711775828247       -0.0136188815204907    0.0
                       -0.1076742799579226       -0.0135910186700719    0.0
                       -0.1007406267190624       -0.0135636961122904    0.0
                       -0.0943503784626632       -0.0135377039504852    0.0
                       -0.0884895629378668       -0.0135145189565833    0.0
                       -0.0831543439529550       -0.0134964115514819    0.0
                       -0.0783534980686658       -0.0134859254339086    0.0
                       -0.0741057592653454       -0.0134843669941268    0.0
                       -0.0704307101833302       -0.0134909733239537    0.0
                       -0.0673317646024288       -0.0135078338193707    0.0
                       -0.0647683873379804       -0.0135546365379717    0.0
                       -0.0626588878334161       -0.0136801295685357    0.0
                       -0.0609197436145959       -0.0139693785379679    0.0
                       -0.3500000000000000       -0.0136992600780573    0.0
                       -0.3334467065231686       -0.0136645925016401    0.0
                       -0.3169794508902564       -0.0136302243904234    0.0
                       -0.3006833517623591       -0.0135961799225179    0.0
                       -0.2846399640139810       -0.0135624612065777    0.0
                       -0.2689257242778056       -0.0135290666302488    0.0
                       -0.2536105900818671       -0.0134959909592448    0.0
                       -0.2387569402949601       -0.0134632249452052    0.0
                       -0.2244187682465268       -0.0134307550814946    0.0
                       -0.2106411788198260       -0.0133985635216805    0.0
                       -0.1974601832167406       -0.0133666281203192    0.0
                       -0.1849027700337546       -0.0133349225634209    0.0
                       -0.1729872195781660       -0.0133034165439319    0.0
                       -0.1617236205868493       -0.0132720759918334    0.0
                       -0.1511145451727702       -0.0132408635165495    0.0
                       -0.1411558399360765       -0.0132097397391178    0.0
                       -0.1318375019117993       -0.0131786675600672    0.0
                       -0.1231446349707595       -0.0131476246042718    0.0
                       -0.1150585388120180       -0.0131166351153278    0.0
                       -0.1075580829161476       -0.0130858415170022    0.0
                       -0.1006216547438991       -0.0130556438815663    0.0
                       -0.0942300647543669       -0.0130269287082598    0.0
                       -0.0883705956963311       -0.0130013485230384    0.0
                       -0.0830414353509370       -0.0129814234581548    0.0
                       -0.0782538023045971       -0.0129699013032478    0.0
                       -0.0740278989825705       -0.0129679328007190    0.0
                       -0.0703817404152239       -0.0129738140426559    0.0
                       -0.0673136940246961       -0.0129873685778605    0.0
                       -0.0647788408464852       -0.0130227379803477    0.0
                       -0.0626987768826798       -0.0131140928288059    0.0
                       -0.0610122408196766       -0.0133047598856937    0.0
                       -0.3500000000000000       -0.0132502942477587    0.0
                       -0.3334392993764734       -0.0132130356460779    0.0
                       -0.3169646026102379       -0.0131761048410180    0.0
                       -0.3006610720653131       -0.0131395250446027    0.0
                       -0.2846103037546351       -0.0131032978881571    0.0
                       -0.2688887735342264       -0.0130674211733403    0.0
                       -0.2535664756976636       -0.0130318889288625    0.0
                       -0.2387058228673693       -0.0129966909892416    0.0
                       -0.2243608386775569       -0.0129618127273798    0.0
                       -0.2105766545687653       -0.0129272349558514    0.0
                       -0.1973893043967290       -0.0128929339550716    0.0
                       -0.1848257954926535       -0.0128588815937906    0.0
                       -0.1729044231002398       -0.0128250454965383    0.0
                       -0.1616352873603540       -0.0127913892692841    0.0
                       -0.1510209687417090       -0.0127578729592653    0.0
                       -0.1410573201557390       -0.0127244544931194    0.0
                       -0.1317343454298552       -0.0126910943451126    0.0
                       -0.1230371626015807       -0.0126577692076728    0.0
                       -0.1149471111118272       -0.0126245071110172    0.0
                       -0.1074431695224906       -0.0125914663533803    0.0
                       -0.1005039963130733       -0.0125590894505132    0.0
                       -0.0941109999895681       -0.0125283551458713    0.0
                       -0.0882526097167505       -0.0125010825026472    0.0
                       -0.0829288278321364       -0.0124800233253564    0.0
                       -0.0781529541454609       -0.0124680988159841    0.0
                       -0.0739461417945213       -0.0124662603621633    0.0
                       -0.0703243210291861       -0.0124718108816487    0.0
                       -0.0672805996360684       -0.0124822775611086    0.0
                       -0.0647654201290517       -0.0125064997673413    0.0
                       -0.0627009277471633       -0.0125654443980352    0.0
                       -0.0610345666368629       -0.0126639812438789    0.0
                       -0.3500000000000000       -0.0128013284174602    0.0
                       -0.3334318844492684       -0.0127620406905010    0.0
                       -0.3169497550732833       -0.0127231225425642    0.0
                       -0.3006388177428883       -0.0126845954181609    0.0
                       -0.2845807094307840       -0.0126464601471506    0.0
                       -0.2688519448550732       -0.0126087136626984    0.0
                       -0.2535225545227182       -0.0125713490111732    0.0
                       -0.2386549840771904       -0.0125343549077856    0.0
                       -0.2243032865591103       -0.0124977154505761    0.0
                       -0.2105126189184630       -0.0124614100074527    0.0
                       -0.1973190364839821       -0.0124254132333413    0.0
                       -0.1847495640228155       -0.0123896951811201    0.0
                       -0.1728225103104319       -0.0123542214609237    0.0
                       -0.1615479853872914       -0.0123189534607444    0.0
                       -0.1509285764661800       -0.0122838488220493    0.0
                       -0.1409601410044104       -0.0122488629770297    0.0
                       -0.1316326875361948       -0.0122139541927766    0.0
                       -0.1229313453390190       -0.0121790983904519    0.0
                       -0.1148374883553613       -0.0121443272827221    0.0
                       -0.1073301929380374       -0.0121098141832574    0.0
                       -0.1003883627994070       -0.0120760414148456    0.0
                       -0.0939939474082801       -0.0120440736652979    0.0
                       -0.0881364053323910       -0.0120158836270497    0.0
                       -0.0828173379591874       -0.0119944320942184    0.0
                       -0.0780517833535875       -0.0119827816352202    0.0
                       -0.0738614105029811       -0.0119816536530224    0.0
                       -0.0702597139052527       -0.0119873535492189    0.0
                       -0.0672344906558770       -0.0119952016743147    0.0
                       -0.0647313736854388       -0.0120092409004426    0.0
                       -0.0626708147708588       -0.0120392346077576    0.0
                       -0.0609978446195110       -0.0120594090208239    0.0
                       -0.3500000000000000       -0.0123523625871616    0.0
                       -0.3334244647531413       -0.0123116982016216    0.0
                       -0.3169349174632044       -0.0122714570016945    0.0
                       -0.3006166072183649       -0.0122316576578500    0.0
                       -0.2845512116503774       -0.0121922996435694    0.0
                       -0.2688152838236417       -0.0121533785136200    0.0
                       -0.2534788897245529       -0.0121148858632297    0.0
                       -0.2386045070825176       -0.0120768088661515    0.0
                       -0.2242462172302452       -0.0120391299742801    0.0
                       -0.2104492013573418       -0.0120018267930606    0.0
                       -0.1972495348641687       -0.0119648720889603    0.0
                       -0.1846742584433011       -0.0119282338911716    0.0
                       -0.1727416928013342       -0.0118918756424312    0.0
                       -0.1614619562000266       -0.0118557564139089    0.0
                       -0.1508376408377870       -0.0118198313944349    0.0
                       -0.1408646068340981       -0.0117840535186038    0.0
                       -0.1315328652451697       -0.0117483788570656    0.0
                       -0.1228275535419803       -0.0117127824920593    0.0
                       -0.1147300746754068       -0.0116772994242674    0.0
                       -0.1072195908539747       -0.0116421166774124    0.0
                       -0.1002752237382780       -0.0116077529562048    0.0
                       -0.0938794038723656       -0.0115753511865941    0.0
                       -0.0880224989915733       -0.0115470226141232    0.0
                       -0.0827074967450666       -0.0115259122189701    0.0
                       -0.0779508580166919       -0.0115151932868647    0.0
                       -0.0737744144686737       -0.0115153393810882    0.0
                       -0.0701890106338464       -0.0115216910257817    0.0
                       -0.0671771989014967       -0.0115275332137912    0.0
                       -0.0646797222786322       -0.0115327688563506    0.0
                       -0.0626136721435432       -0.0115382567134746    0.0
                       -0.0609144496060671       -0.0114970850356344    0.0
                       -0.3500000000000000       -0.0119033967568631    0.0
                       -0.3334170425257902       -0.0118620966243112    0.0
                       -0.3169200972505815       -0.0118212810219978    0.0
                       -0.3005944559708217       -0.0117809646325044    0.0
                       -0.2845218364291268       -0.0117411447832023    0.0
                       -0.2687788292453994       -0.0117018149201724    0.0
                       -0.2534355348564568       -0.0116629645132352    0.0
                       -0.2385544618357416       -0.0116245785809019    0.0
                       -0.2241897183833560       -0.0115866373788520    0.0
                       -0.2103865083528079       -0.0115491162653395    0.0
                       -0.1971809255208140       -0.0115119856992631    0.0
                       -0.1846000247198652       -0.0114752113320113    0.0
                       -0.1726621367369161       -0.0114387541485992    0.0
                       -0.1613773861566340       -0.0114025706751703    0.0
                       -0.1507483682182531       -0.0113666134785502    0.0
                       -0.1407709436680859       -0.0113308328751105    0.0
                       -0.1314351237763583       -0.0112951826332988    0.0
                       -0.1227260510424273       -0.0112596368037375    0.0
                       -0.1146251517559952       -0.0112242331244748    0.0
                       -0.1071116616883840       -0.0111891707886161    0.0
                       -0.1001648924716816       -0.0111550010606407    0.0
                       -0.0937676949392417       -0.0111229367537793    0.0
                       -0.0879112262923491       -0.0110952118019330    0.0
                       -0.0825996559928416       -0.0110751304826413    0.0
                       -0.0778505839252040       -0.0110659492804413    0.0
                       -0.0736857255760280       -0.0110678871391920    0.0
                       -0.0701131691723858       -0.0110753779892727    0.0
                       -0.0671103705064558       -0.0110798909631881    0.0
                       -0.0646131904946621       -0.0110779074261980    0.0
                       -0.0625342636868124       -0.0110637318836226    0.0
                       -0.0607959575519494       -0.0109785582671256    0.0
                       -0.3500000000000000       -0.0114544309265645    0.0
                       -0.3334096196113696       -0.0114133179516551    0.0
                       -0.3169053008252055       -0.0113727519130668    0.0
                       -0.3005723772982809       -0.0113327421839501    0.0
                       -0.2844926059780455       -0.0112932830207772    0.0
                       -0.2687426138772946       -0.0112543649214034    0.0
                       -0.2533925344776720       -0.0112159744717432    0.0
                       -0.2385049055824988       -0.0111780938599645    0.0
                       -0.2241338604753329       -0.0111407005545789    0.0
                       -0.2103246237593643       -0.0111037671592378    0.0
                       -0.1971133055812941       -0.0110672613993834    0.0
                       -0.1845269728498165       -0.0110311462015763    0.0
                       -0.1725839643406898       -0.0109953798216366    0.0
                       -0.1612944088628386       -0.0109599160411733    0.0
                       -0.1506609025937775       -0.0109247046722214    0.0
                       -0.1406793047562091       -0.0108896933345592    0.0
                       -0.1313396244505301       -0.0108548334336022    0.0
                       -0.1226270059930529       -0.0108200978389057    0.0
                       -0.1145228933092196       -0.0107855265098105    0.0
                       -0.1070065834147204       -0.0107513292853117    0.0
                       -0.1000575500264178       -0.0107180861677914    0.0
                       -0.0936590042700864       -0.0106870715477446    0.0
                       -0.0878027767191560       -0.0106606265260453    0.0
                       -0.0824940265717918       -0.0106421911991940    0.0
                       -0.0777512419126695       -0.0106350817408043    0.0
                       -0.0735958079858957       -0.0106392643149325    0.0
                       -0.0700330320812517       -0.0106483394824465    0.0
                       -0.0670354755531782       -0.0106521995371381    0.0
                       -0.0645342023863627       -0.0106446170236086    0.0
                       -0.0624368074218182       -0.0106155611085877    0.0
                       -0.0606521470631943       -0.0105023066538691    0.0
                       -0.3500000000000000       -0.0110054650962660    0.0
                       -0.3334021977323739       -0.0109654371120937    0.0
                       -0.3168905340272782       -0.0109260103668129    0.0
                       -0.3005503831090907       -0.0108871877114238    0.0
                       -0.2844635397765096       -0.0108489594835704    0.0
                       -0.2687066658308579       -0.0108113125001791    0.0
                       -0.2533499259668474       -0.0107742298390258    0.0
                       -0.2384558852020005       -0.0107376903403670    0.0
                       -0.2240786997501714       -0.0107016682714452    0.0
                       -0.2102636127193314       -0.0106661331662518    0.0
                       -0.1970467483324052       -0.0106310497952572    0.0
                       -0.1844551832698094       -0.0105963782262484    0.0
                       -0.1725072620122266       -0.0105620739333845    0.0
                       -0.1612131153511354       -0.0105280879764123    0.0
                       -0.1505753382056915       -0.0104943675027016    0.0
                       -0.1405897860782174       -0.0104608575785046    0.0
                       -0.1312464635154264       -0.0104275074034367    0.0
                       -0.1225305134868979       -0.0103942887308168    0.0
                       -0.1144233919647266       -0.0103612434400647    0.0
                       -0.1069044451552750       -0.0103285907258851    0.0
                       -0.0999532816826265       -0.0102969358123151    0.0
                       -0.0935534149993129       -0.0102676068760053    0.0
                       -0.0876972386313761       -0.0102430377234358    0.0
                       -0.0823907239841740       -0.0102267830067174    0.0
                       -0.0776530285516189       -0.0102221991769962    0.0
                       -0.0735050476679728       -0.0102290075498805    0.0
                       -0.0699493428087187       -0.0102400552120566    0.0
                       -0.0669538160443489       -0.0102438965459442    0.0
                       -0.0644448823717075       -0.0102322612685438    0.0
                       -0.0623249385304833       -0.0101927670419115    0.0
                       -0.0604907728298571       -0.0100651833308962    0.0
                       -0.3500000000000000       -0.0105564992659674    0.0
                       -0.3333947787824048       -0.0105185305646467    0.0
                       -0.3168758030107354       -0.0104811975971081    0.0
                       -0.3005284856331040       -0.0104444959220584    0.0
                       -0.2844346574116479       -0.0104084115037249    0.0
                       -0.2686710128259378       -0.0103729271585874    0.0
                       -0.2533077454837348       -0.0103380222608158    0.0
                       -0.2384074451781619       -0.0103036722237992    0.0
                       -0.2240242885284114       -0.0102698481428209    0.0
                       -0.2102035345856128       -0.0102365166107038    0.0
                       -0.1969813190957091       -0.0102036396612179    0.0
                       -0.1843847260046762       -0.0101711748019882    0.0
                       -0.1724321030695844       -0.0101390750954986    0.0
                       -0.1611335807332203       -0.0101072893122604    0.0
                       -0.1504917504227792       -0.0100757624205771    0.0
                       -0.1405024617364929       -0.0100444374557137    0.0
                       -0.1311557123460470       -0.0100132619318912    0.0
                       -0.1224366408312777       -0.0099822069005022    0.0
                       -0.1143267098420033       -0.0099513162068095    0.0
                       -0.1068053031807053       -0.0099208174874674    0.0
                       -0.0998521382985048       -0.0098913381563559    0.0
                       -0.0934509757572589       -0.0098642531491868    0.0
                       -0.0875946683037968       -0.0098420758837065    0.0
                       -0.0822898370446145       -0.0098284567229255    0.0
                       -0.0775561193898181       -0.0098267766424758    0.0
                       -0.0734138056766444       -0.0098365240394758    0.0
                       -0.0698627900194073       -0.0098498739421469    0.0
                       -0.0668665701956962       -0.0098542710316516    0.0
                       -0.0643471102179331       -0.0098400025871527    0.0
                       -0.0622017782097553       -0.0097940410020730    0.0
                       -0.0603178507635187       -0.0096636150954992    0.0
                       -0.3500000000000000       -0.0101075334356689    0.0
                       -0.3333873645501452       -0.0100726625872767    0.0
                       -0.3168611132420578       -0.0100384282409259    0.0
                       -0.3005066952739217       -0.0100048188071069    0.0
                       -0.2844059749014765       -0.0099718162444762    0.0
                       -0.2686356766491315       -0.0099393998563263    0.0
                       -0.2532660202795092       -0.0099075459047231    0.0
                       -0.2383596175330440       -0.0098762270595984    0.0
                       -0.2239706625896717       -0.0098454120072109    0.0
                       -0.2101444276320342       -0.0098150652294988    0.0
                       -0.1969170571933039       -0.0097851469095754    0.0
                       -0.1843156398602823       -0.0097556129256430    0.0
                       -0.1723585241788719       -0.0097264148941160    0.0
                       -0.1610558379074545       -0.0096975002876964    0.0
                       -0.1504101667926603       -0.0096688129032610    0.0
                       -0.1404173524354113       -0.0096402947536679    0.0
                       -0.1310673834474286       -0.0096118926405217    0.0
                       -0.1223453911736104       -0.0095835777527896    0.0
                       -0.1142328398936203       -0.0095553963631451    0.0
                       -0.1067091400427649       -0.0095275840866398    0.0
                       -0.0997540932461808       -0.0095007880769435    0.0
                       -0.0933516552897872       -0.0094764239053879    0.0
                       -0.0874950418522418       -0.0094570730383495    0.0
                       -0.0821913763646098       -0.0094464651605215    0.0
                       -0.0774606130598920       -0.0094479931411667    0.0
                       -0.0733223576746008       -0.0094609264793710    0.0
                       -0.0697739442367702       -0.0094768468191920    0.0
                       -0.0667747285918986       -0.0094822990163067    0.0
                       -0.0642424555244485       -0.0094666527746076    0.0
                       -0.0620698650874728       -0.0094176568614727    0.0
                       -0.0601378075920856       -0.0092937170018840    0.0
                       -0.3500000000000000       -0.0096585676053703    0.0
                       -0.3333799583585514       -0.0096279616072760    0.0
                       -0.3168464751777351       -0.0095979394886759    0.0
                       -0.3004850325316976       -0.0095684843183907    0.0
                       -0.2843775248730545       -0.0095395759065251    0.0
                       -0.2686007033971995       -0.0095111919350379    0.0
                       -0.2532248106136391       -0.0094833074658330    0.0
                       -0.2383124768246292       -0.0094558943448191    0.0
                       -0.2239179104610413       -0.0094289207645592    0.0
                       -0.2100863936497623       -0.0094023509968249    0.0
                       -0.1968540766853658       -0.0093761452508323    0.0
                       -0.1842480499608419       -0.0093502596201252    0.0
                       -0.1722866601873797       -0.0093246460812835    0.0
                       -0.1609800300344253       -0.0092992525714966    0.0
                       -0.1503307373712347       -0.0092740234287704    0.0
                       -0.1403346137552501       -0.0092489012953136    0.0
                       -0.1309816366551794       -0.0092238338196836    0.0
                       -0.1222569275076863       -0.0091987937069096    0.0
                       -0.1141419474776714       -0.0091738306276280    0.0
                       -0.1066161232866561       -0.0091491882291819    0.0
                       -0.0996593174702842       -0.0091255315609550    0.0
                       -0.0932556323255702       -0.0091043115508629    0.0
                       -0.0873985570343218       -0.0090881674603934    0.0
                       -0.0820955833957250       -0.0090808938625086    0.0
                       -0.0773668419499007       -0.0090858852293090    0.0
                       -0.0732312041193255       -0.0091022077242986    0.0
                       -0.0696835770406169       -0.0091209262837367    0.0
                       -0.0666794495524982       -0.0091278797161609    0.0
                       -0.0641326138152798       -0.0091119716819542    0.0
                       -0.0619317406831307       -0.0090628609726875    0.0
                       -0.0599545752792207       -0.0089530654714739    0.0
                       -0.3500000000000000       -0.0092096017750718    0.0
                       -0.3333725605860819       -0.0091844176959823    0.0
                       -0.3168318889371471       -0.0091596959871434    0.0
                       -0.3004634960152057       -0.0091354183551815    0.0
                       -0.2843493026918944       -0.0091115661889591    0.0
                       -0.2685660831106368       -0.0090881191170723    0.0
                       -0.2531840988910924       -0.0090650544113407    0.0
                       -0.2382659953901310       -0.0090423463473759    0.0
                       -0.2238659919512945       -0.0090199657234818    0.0
                       -0.2100293775090739       -0.0089978795489222    0.0
                       -0.1967923052094044       -0.0089760508580310    0.0
                       -0.1841818645847169       -0.0089544386137887    0.0
                       -0.1722163980957180       -0.0089329976664832    0.0
                       -0.1609060211553763       -0.0089116787956277    0.0
                       -0.1502533018161879       -0.0088904291261229    0.0
                       -0.1402540598186588       -0.0088691940413499    0.0
                       -0.1308982596970707       -0.0088479239938105    0.0
                       -0.1221710106454816       -0.0088265949332757    0.0
                       -0.1140537664513145       -0.0088052612316295    0.0
                       -0.1065259606602950       -0.0087841749994151    0.0
                       -0.0995674953489757       -0.0087640178806099    0.0
                       -0.0931625747276754       -0.0087462717980066    0.0
                       -0.0873048803505529       -0.0087336251083195    0.0
                       -0.0820021530110020       -0.0087299250791690    0.0
                       -0.0772745796338620       -0.0087385594986303    0.0
                       -0.0731402670663949       -0.0087584056518990    0.0
                       -0.0695918324827583       -0.0087800793980073    0.0
                       -0.0665811557506182       -0.0087888808608938    0.0
                       -0.0640183416117305       -0.0087736246750166    0.0
                       -0.0617886310839473       -0.0087267939179016    0.0
                       -0.0597698207866924       -0.0086369803293113    0.0
                       -0.3500000000000000       -0.0087606359447732    0.0
                       -0.3333651828127320       -0.0087425263517711    0.0
                       -0.3168173923249447       -0.0087246312068927    0.0
                       -0.3004421617338668       -0.0087069413064675    0.0
                       -0.2843214321520276       -0.0086894489882375    0.0
                       -0.2685319948117718       -0.0086721443976938    0.0
                       -0.2531441249224070       -0.0086550148633977    0.0
                       -0.2382204777446979       -0.0086380442801577    0.0
                       -0.2238152787807602       -0.0086212126434573    0.0
                       -0.2099738194347787       -0.0086044957464243    0.0
                       -0.1967322517933995       -0.0085878649976638    0.0
                       -0.1841176610472011       -0.0085712873251430    0.0
                       -0.1721483823472353       -0.0085547251342223    0.0
                       -0.1608345211950947       -0.0085381363500388    0.0
                       -0.1501786335412345       -0.0085214748409848    0.0
                       -0.1401765253184834       -0.0085046923643271    0.0
                       -0.1308181462391193       -0.0084877454871040    0.0
                       -0.1220885909533841       -0.0084706163404204    0.0
                       -0.1139693018223711       -0.0084533663859820    0.0
                       -0.1064397103063310       -0.0084362576192579    0.0
                       -0.0994797379316729       -0.0084199879126676    0.0
                       -0.0930736490384018       -0.0084060667580119    0.0
                       -0.0872152421955654       -0.0083972239194138    0.0
                       -0.0819123986116465       -0.0083973483331254    0.0
                       -0.0771852600500956       -0.0084098143327688    0.0
                       -0.0730511673572008       -0.0084333274775412    0.0
                       -0.0695006248725799       -0.0084581257802972    0.0
                       -0.0664822090204706       -0.0084691281229407    0.0
                       -0.0639026553838357       -0.0084553512932817    0.0
                       -0.0616444414469977       -0.0084126539396295    0.0
                       -0.0595887722605211       -0.0083481009044969    0.0
                       -0.3500000000000000       -0.0083116701144747    0.0
                       -0.3333578122017490       -0.0083016755583658    0.0
                       -0.3168029406782989       -0.0082915525859741    0.0
                       -0.3004209360011761       -0.0082813109877282    0.0
                       -0.2842937552164846       -0.0082709625529383    0.0
                       -0.2684982027039017       -0.0082605154908064    0.0
                       -0.2531045636611777       -0.0082499739046536    0.0
                       -0.2381754999833494       -0.0082393373028398    0.0
                       -0.2237652403854768       -0.0082286002385004    0.0
                       -0.2099190761111019       -0.0082177520920476    0.0
                       -0.1966731558613836       -0.0082067769588375    0.0
                       -0.1840545584489160       -0.0081956536107175    0.0
                       -0.1720816099511924       -0.0081843555031617    0.0
                       -0.1607644044437793       -0.0081728508613954    0.0
                       -0.1501054844752625       -0.0081611031477408    0.0
                       -0.1401006410178185       -0.0081490730666700    0.0
                       -0.1307398077853914       -0.0081367256032909    0.0
                       -0.1220080632247644       -0.0081240510650772    0.0
                       -0.1138868349424398       -0.0081111195505308    0.0
                       -0.1063555445632205       -0.0080982037022095    0.0
                       -0.0993941153419680       -0.0080860169448045    0.0
                       -0.0929868349225529       -0.0080760932282170    0.0
                       -0.0871275528467208       -0.0080711972581707    0.0
                       -0.0818241962331902       -0.0080752505088515    0.0
                       -0.0770967730559439       -0.0080916074680734    0.0
                       -0.0729618500409595       -0.0081188120654886    0.0
                       -0.0694079453894253       -0.0081467745966887    0.0
                       -0.0663805469812012       -0.0081601573080078    0.0
                       -0.0637832640997822       -0.0081484425925892    0.0
                       -0.0614965001206737       -0.0081114749914966    0.0
                       -0.0594072874727371       -0.0080752563895311    0.0
                       -0.3500000000000000       -0.0078627042841761    0.0
                       -0.3333504098590927       -0.0078600754783501    0.0
                       -0.3167884027569522       -0.0078570501593984    0.0
                       -0.3003995499657082       -0.0078536494952780    0.0
                       -0.2842658276757495       -0.0078498977148723    0.0
                       -0.2684640563614667       -0.0078458148992205    0.0
                       -0.2530645338788219       -0.0078414164560857    0.0
                       -0.2381299311487532       -0.0078367126703154    0.0
                       -0.2237144822144569       -0.0078317083720083    0.0
                       -0.2098634800007726       -0.0078264027377316    0.0
                       -0.1966130713971926       -0.0078207891894694    0.0
                       -0.1839903301509202       -0.0078148553626629    0.0
                       -0.1720135743253234       -0.0078085831173956    0.0
                       -0.1606928873832281       -0.0078019486285797    0.0
                       -0.1500307990374972       -0.0077949228609324    0.0
                       -0.1400230855867295       -0.0077874735964493    0.0
                       -0.1306596646225499       -0.0077795725424193    0.0
                       -0.1219255974358129       -0.0077712165765974    0.0
                       -0.1138022939669652       -0.0077624827501720    0.0
                       -0.1062691584680368       -0.0077536522602284    0.0
                       -0.0993060983570928       -0.0077454510000180    0.0
                       -0.0928973880682147       -0.0077394324643379    0.0
                       -0.0870368625943959       -0.0077383888007604    0.0
                       -0.0817323997518712       -0.0077462642653973    0.0
                       -0.0770037752103772       -0.0077663842456131    0.0
                       -0.0728667301522381       -0.0077971288982365    0.0
                       -0.0693078114777429       -0.0078281060470289    0.0
                       -0.0662694626469840       -0.0078438392393133    0.0
                       -0.0636522995702657       -0.0078346548300719    0.0
                       -0.0613354773698062       -0.0078053496090951    0.0
                       -0.0592126356508597       -0.0077979576712773    0.0
                       -0.3500000000000000       -0.0074137384538776    0.0
                       -0.3333429620355452       -0.0074171050855607    0.0
                       -0.3167737316004697       -0.0074199236004611    0.0
                       -0.3003779061925694       -0.0074222166068809    0.0
                       -0.2842374865294876       -0.0074240114798376    0.0
                       -0.2684293142589012       -0.0074253317482700    0.0
                       -0.2530237046228601       -0.0074261964939015    0.0
                       -0.2380833419162903       -0.0074266198680435    0.0
                       -0.2236624694563105       -0.0074266107218792    0.0
                       -0.2098063853764742       -0.0074261723658328    0.0
                       -0.1965512378544660       -0.0074253024245362    0.0
                       -0.1839240982417766       -0.0074239927607409    0.0
                       -0.1719432788300120       -0.0074222294443683    0.0
                       -0.1606188542899227       -0.0074199928041961    0.0
                       -0.1499533428973871       -0.0074172578701555    0.0
                       -0.1399425072215424       -0.0074139963801876    0.0
                       -0.1305762490765091       -0.0074101838998987    0.0
                       -0.1218396118731824       -0.0074058211681464    0.0
                       -0.1137139848060258       -0.0074009894279646    0.0
                       -0.1061787462613071       -0.0073959752143156    0.0
                       -0.0992137676873798       -0.0073915125105905    0.0
                       -0.0928032681856617       -0.0073891678171048    0.0
                       -0.0869409922387802       -0.0073917511619614    0.0
                       -0.0816346570232124       -0.0074032174824916    0.0
                       -0.0769036872938099       -0.0074268515705860    0.0
                       -0.0727629242767081       -0.0074608656955466    0.0
                       -0.0691969255195975       -0.0074945927024764    0.0
                       -0.0661450968203005       -0.0075125664001244    0.0
                       -0.0635052327462938       -0.0075064497497467    0.0
                       -0.0611561799027033       -0.0074868610465521    0.0
                       -0.0589980056259611       -0.0075075061659638    0.0
                       -0.3500000000000000       -0.0069647726235790    0.0
                       -0.3333354768416387       -0.0069731189676215    0.0
                       -0.3167589534140985       -0.0069808376305354    0.0
                       -0.3003560569290778       -0.0069879481412019    0.0
                       -0.2842088162078026       -0.0069944764859206    0.0
                       -0.2683940975719685       -0.0070004453819274    0.0
                       -0.2529822370115100       -0.0070058736012848    0.0
                       -0.2380359353723574       -0.0070107754472908    0.0
                       -0.2236094481990823       -0.0070151603383867    0.0
                       -0.2097480815321612       -0.0070190325153580    0.0
                       -0.1964879872555944       -0.0070223908410452    0.0
                       -0.1838562364452055       -0.0070252286678253    0.0
                       -0.1718711374306194       -0.0070275337517557    0.0
                       -0.1605427575806206       -0.0070292882522788    0.0
                       -0.1498736048886209       -0.0070304691265763    0.0
                       -0.1398594289609518       -0.0070310500935693    0.0
                       -0.1304901160346435       -0.0070310087216260    0.0
                       -0.1217506907278355       -0.0070303477737251    0.0
                       -0.1136225179835017       -0.0070291506363019    0.0
                       -0.1060849407151766       -0.0070277064449651    0.0
                       -0.0991177715324440       -0.0070267529905331    0.0
                       -0.0927051261335635       -0.0070278627288673    0.0
                       -0.0868405715245694       -0.0070338527528481    0.0
                       -0.0815315369428877       -0.0070486750532174    0.0
                       -0.0767969636736581       -0.0070755625561935    0.0
                       -0.0726507230699527       -0.0071125614231653    0.0
                       -0.0690754018501954       -0.0071487721627806    0.0
                       -0.0660074442751092       -0.0071689122508719    0.0
                       -0.0633421114611808       -0.0071664678315063    0.0
                       -0.0609588605867642       -0.0071582645460907    0.0
                       -0.0587643564885476       -0.0072065382883142    0.0
                       -0.3500000000000000       -0.0065158067932805    0.0
                       -0.3333279535839406       -0.0065280844536995    0.0
                       -0.3167440650711459       -0.0065397154894928    0.0
                       -0.3003339944283444       -0.0065507138363037    0.0
                       -0.2841798018308085       -0.0065611013278225    0.0
                       -0.2683583815713561       -0.0065708971574500    0.0
                       -0.2529400936528158       -0.0065801171518062    0.0
                       -0.2379876586425196       -0.0065887732217827    0.0
                       -0.2235553473328551       -0.0065968729118454    0.0
                       -0.2096884764934025       -0.0066044190635719    0.0
                       -0.1964232042981844       -0.0066114095659587    0.0
                       -0.1837866038602590       -0.0066178371696698    0.0
                       -0.1717969815640166       -0.0066236893474788    0.0
                       -0.1604643991753330       -0.0066289482408783    0.0
                       -0.1497913557585621       -0.0066335910018270    0.0
                       -0.1397735888969295       -0.0066375916995017    0.0
                       -0.1304009695658608       -0.0066409283344067    0.0
                       -0.1216585026518920       -0.0066436040701755    0.0
                       -0.1135275249539365       -0.0066457024863503    0.0
                       -0.1059873330261077       -0.0066475124586645    0.0
                       -0.0990176544726460       -0.0066497707543611    0.0
                       -0.0926024462227464       -0.0066540474648873    0.0
                       -0.0867349970245046       -0.0066631537285407    0.0
                       -0.0814222996667635       -0.0066810222736755    0.0
                       -0.0766826564512366       -0.0067108217467711    0.0
                       -0.0725288882583580       -0.0067504381713175    0.0
                       -0.0689416417917021       -0.0067887972810357    0.0
                       -0.0658545186260889       -0.0068110089457625    0.0
                       -0.0631606386209347       -0.0068128869980827    0.0
                       -0.0607410124873652       -0.0068175543051016    0.0
                       -0.0585087006200421       -0.0068924003193430    0.0
                       -0.3500000000000000       -0.0060668409629819    0.0
                       -0.3333203944332468       -0.0060820913140525    0.0
                       -0.3167290730888252       -0.0060967193685037    0.0
                       -0.3003117309269234       -0.0061107327562146    0.0
                       -0.2841504620101138       -0.0061241480688349    0.0
                       -0.2683221912821158       -0.0061369798062666    0.0
                       -0.2528973055047156       -0.0061492396298363    0.0
                       -0.2379385477121563       -0.0061609358091967    0.0
                       -0.2235002066278207       -0.0061720727556937    0.0
                       -0.2096276123151998       -0.0061826506583592    0.0
                       -0.1963569316355929       -0.0061926651982936    0.0
                       -0.1837152419269139       -0.0062021073208445    0.0
                       -0.1717208495707668       -0.0062109630511955    0.0
                       -0.1603838123952880       -0.0062192133941964    0.0
                       -0.1497066218838200       -0.0062268346255248    0.0
                       -0.1396850045425396       -0.0062338001317112    0.0
                       -0.1303088163845657       -0.0062400873084453    0.0
                       -0.1215630414993013       -0.0062456985515469    0.0
                       -0.1134289841802689       -0.0062507160114317    0.0
                       -0.1058858823617628       -0.0062554255283364    0.0
                       -0.0989133489931716       -0.0062605576303046    0.0
                       -0.0924951191148337       -0.0062676705337800    0.0
                       -0.0866240875408837       -0.0062795541595159    0.0
                       -0.0813066388129642       -0.0063001029027075    0.0
                       -0.0765602554115059       -0.0063324080191177    0.0
                       -0.0723966181763792       -0.0063742075942524    0.0
                       -0.0687944903027409       -0.0064143281825537    0.0
                       -0.0656848191971169       -0.0064385105145623    0.0
                       -0.0629590939903742       -0.0064453667298820    0.0
                       -0.0605007966211251       -0.0064640529382231    0.0
                       -0.0582291168148825       -0.0065640360516934    0.0
                       -0.3500000000000000       -0.0056178751326834    0.0
                       -0.3333128008963160       -0.0056352002538355    0.0
                       -0.3167139818477937       -0.0056519572148700    0.0
                       -0.3002892744053938       -0.0056681477508613    0.0
                       -0.2841208084644361       -0.0056837832098572    0.0
                       -0.2682855417820979       -0.0056988732682440    0.0
                       -0.2528538901819752       -0.0057134251901530    0.0
                       -0.2378886215413832       -0.0057274432892730    0.0
                       -0.2234440448999915       -0.0057409284641441    0.0
                       -0.2095655059492348       -0.0057538778230432    0.0
                       -0.1962891824651341       -0.0057662843772462    0.0
                       -0.1836421580819980       -0.0057781367843014    0.0
                       -0.1716427410504090       -0.0057894191300820    0.0
                       -0.1603009868914479       -0.0058001107910241    0.0
                       -0.1496193808462397       -0.0058101866793117    0.0
                       -0.1395936392892737       -0.0058196190078795    0.0
                       -0.1302136035427253       -0.0058283840261862    0.0
                       -0.1214642356835635       -0.0058364826227349    0.0
                       -0.1133268026140672       -0.0058439941999755    0.0
                       -0.1057804698659700       -0.0058511988256680    0.0
                       -0.0988047022090190       -0.0058588150748986    0.0
                       -0.0923829409480455       -0.0058683783309568    0.0
                       -0.0865075541901389       -0.0058826393071704    0.0
                       -0.0811841188058219       -0.0059054315772783    0.0
                       -0.0764290846936722       -0.0059397548711174    0.0
                       -0.0722528884855862       -0.0059832189016801    0.0
                       -0.0686324944551121       -0.0060246476175359    0.0
                       -0.0654964684790027       -0.0060506790727163    0.0
                       -0.0627353051425390       -0.0060631308835235    0.0
                       -0.0602358358461678       -0.0060965950333700    0.0
                       -0.0579229426456940       -0.0062196516061239    0.0
                       -0.3500000000000000       -0.0051689093023848    0.0
                       -0.3333051747674020       -0.0051874823592543    0.0
                       -0.3166987967496552       -0.0052055595748648    0.0
                       -0.3002666351041461       -0.0052231378478759    0.0
                       -0.2840908569440361       -0.0052402239466733    0.0
                       -0.2682484544834482       -0.0052568232627224    0.0
                       -0.2528098744408356       -0.0052729390963597    0.0
                       -0.2378379114971732       -0.0052885721470414    0.0
                       -0.2233868970346330       -0.0053037200642233    0.0
                       -0.2095021944042121       -0.0053183770743611    0.0
                       -0.1962199942764853       -0.0053325336656512    0.0
                       -0.1835673884571627       -0.0053461763142286    0.0
                       -0.1715626887869391       -0.0053592872433206    0.0
                       -0.1602159499990011       -0.0053718442569203    0.0
                       -0.1495296523494887       -0.0053838209435888    0.0
                       -0.1394995029595604       -0.0053951883566402    0.0
                       -0.1301153286435738       -0.0054059215336928    0.0
                       -0.1213620680442094       -0.0054160195392969    0.0
                       -0.1132209451975999       -0.0054255580131467    0.0
                       -0.1056710378183472       -0.0054348085436491    0.0
                       -0.0986916248341322       -0.0054444714882820    0.0
                       -0.0922657725432419       -0.0054560468292580    0.0
                       -0.0863851706918417       -0.0054722249996977    0.0
                       -0.0810543574382896       -0.0054967523172791    0.0
                       -0.0762884987198657       -0.0055325216382618    0.0
                       -0.0720966627419694       -0.0055770425896085    0.0
                       -0.0684541333821305       -0.0056192562896033    0.0
                       -0.0652874725181396       -0.0056469836530474    0.0
                       -0.0624869479880510       -0.0056655482524986    0.0
                       -0.0599435546642668       -0.0057140507162093    0.0
                       -0.0575873154429616       -0.0058574197356279    0.0
                       -0.3500000000000000       -0.0047199434720863    0.0
                       -0.3332975178598139       -0.0047390077471927    0.0
                       -0.3166835233122682       -0.0047576572838365    0.0
                       -0.3002438236455249       -0.0047758854851932    0.0
                       -0.2840606240819615       -0.0047936955296044    0.0
                       -0.2682109524597370       -0.0048110894160954    0.0
                       -0.2527652877761579       -0.0048280672907126    0.0
                       -0.2377864530619788       -0.0048446269736025    0.0
                       -0.2233288036935269       -0.0048607635345683    0.0
                       -0.2094377223813540       -0.0048764689316772    0.0
                       -0.1961494143829000       -0.0048917316970560    0.0
                       -0.1834909813060799       -0.0049065366554462    0.0
                       -0.1714807400993372       -0.0049208646694028    0.0
                       -0.1601287460599657       -0.0049346924520653    0.0
                       -0.1494374755783694       -0.0049479927329649    0.0
                       -0.1394026272780001       -0.0049607358410133    0.0
                       -0.1300140135063806       -0.0049728959456652    0.0
                       -0.1212565477903976       -0.0049844703421013    0.0
                       -0.1131114051760337       -0.0049955301540191    0.0
                       -0.1055575584161110       -0.0050063357657202    0.0
                       -0.0985740585571592       -0.0050175624130246    0.0
                       -0.0921435055149235       -0.0050306602991790    0.0
                       -0.0862567382396282       -0.0050482350015952    0.0
                       -0.0809169888582639       -0.0050739145333980    0.0
                       -0.0761378407184258       -0.0051104679023926    0.0
                       -0.0719268409058695       -0.0051553428370367    0.0
                       -0.0682577501328832       -0.0051977421450418    0.0
                       -0.0650556310070297       -0.0052269609260082    0.0
                       -0.0622114289464201       -0.0052519778205007    0.0
                       -0.0596210348431445       -0.0053151622557810    0.0
                       -0.0572189675701330       -0.0054752618919204    0.0
                       -0.3500000000000000       -0.0042709776417877    0.0
                       -0.3332898320404008       -0.0042898465794266    0.0
                       -0.3166681672669216       -0.0043083833161481    0.0
                       -0.3002208512203401       -0.0043265791275171    0.0
                       -0.2840301277008584       -0.0043444346689562    0.0
                       -0.2681730609126482       -0.0043619495526730    0.0
                       -0.2527201630989496       -0.0043791217245995    0.0
                       -0.2377342867860696       -0.0043959470330641    0.0
                       -0.2232698126191309       -0.0044124188349236    0.0
                       -0.2093721440197440       -0.0044285276523592    0.0
                       -0.1960775022078379       -0.0044442608669368    0.0
                       -0.1834129999410267       -0.0044596024380296    0.0
                       -0.1713969605430107       -0.0044745326414311    0.0
                       -0.1600394410080097       -0.0044890278677783    0.0
                       -0.1493429147866933       -0.0045030607525223    0.0
                       -0.1393030725812326       -0.0045166016467283    0.0
                       -0.1299097121155910       -0.0045296245092389    0.0
                       -0.1211477198072774       -0.0045421252101658    0.0
                       -0.1129982148898312       -0.0045541697954867    0.0
                       -0.1054400462201272       -0.0045660046351747    0.0
                       -0.0984519904065887       -0.0045782722081720    0.0
                       -0.0920160790043757       -0.0045923565696823    0.0
                       -0.0861221052393346       -0.0046107499684841    0.0
                       -0.0807716866777852       -0.0046369257438059    0.0
                       -0.0759764678502586       -0.0046735098484022    0.0
                       -0.0717422819766234       -0.0047179370672613    0.0
                       -0.0680415664564285       -0.0047598412406100    0.0
                       -0.0647985415232098       -0.0047902688215952    0.0
                       -0.0619058760895948       -0.0048218030499753    0.0
                       -0.0592649986074587       -0.0048985584911902    0.0
                       -0.0568142437830198       -0.0050708940245084    0.0
                       -0.3500000000000000       -0.0038220118114891    0.0
                       -0.3332821191878215       -0.0038400671299231    0.0
                       -0.3166527344023797       -0.0038578687462063    0.0
                       -0.3001977292438083       -0.0038754070432025    0.0
                       -0.2839993862117201       -0.0038926811355377    0.0
                       -0.2681348062549807       -0.0039096892012994    0.0
                       -0.2526745354598166       -0.0039264279174469    0.0
                       -0.2376814566254236       -0.0039428920729701    0.0
                       -0.2232099765806619       -0.0039590742097882    0.0
                       -0.2093055204646831       -0.0039749643029729    0.0
                       -0.1960043265097929       -0.0039905494689803    0.0
                       -0.1833335196674126       -0.0040058136905785    0.0
                       -0.1713114306243585       -0.0040207375557165    0.0
                       -0.1599481189483359       -0.0040352980478052    0.0
                       -0.1492460558401364       -0.0040494686416062    0.0
                       -0.1392009244313708       -0.0040632206449917    0.0
                       -0.1298025074208024       -0.0040765286641583    0.0
                       -0.1210356617680849       -0.0040893876755721    0.0
                       -0.1128814433432689       -0.0041018581862439    0.0
                       -0.1053185563702974       -0.0041141695735753    0.0
                       -0.0983254519105761       -0.0041269231020118    0.0
                       -0.0918834802798932       -0.0041414181605866    0.0
                       -0.0859811700438632       -0.0041600009314715    0.0
                       -0.0806181691693888       -0.0041859476209135    0.0
                       -0.0758037569121505       -0.0042217187962279    0.0
                       -0.0715418036762995       -0.0042647963669538    0.0
                       -0.0678036676882376       -0.0043054375368985    0.0
                       -0.0645135637724604       -0.0043366761101769    0.0
                       -0.0615670803001415       -0.0043744005068535    0.0
                       -0.0588717389122900       -0.0044627092778071    0.0
                       -0.0563690521183927       -0.0046417977107991    0.0
                       -0.3500000000000000       -0.0033730459811906    0.0
                       -0.3332743811710241       -0.0033897346923716    0.0
                       -0.3166372304746827       -0.0034062403222413    0.0
                       -0.3001744691428038       -0.0034225533783005    0.0
                       -0.2839684182237274       -0.0034386722404587    0.0
                       -0.2680962154919798       -0.0034545944528606    0.0
                       -0.2526284411591335       -0.0034703162246558    0.0
                       -0.2376280087500592       -0.0034858320901059    0.0
                       -0.2231493518647173       -0.0035011345879055    0.0
                       -0.2092379180415744       -0.0035162139698191    0.0
                       -0.1959299632583210       -0.0035310579289074    0.0
                       -0.1832526253990021       -0.0035456513377106    0.0
                       -0.1712242432101411       -0.0035599759946703    0.0
                       -0.1598548794329935       -0.0035740104131500    0.0
                       -0.1491470034448948       -0.0035877298854947    0.0
                       -0.1390962908994422       -0.0036011076783566    0.0
                       -0.1296925087898466       -0.0036141199871127    0.0
                       -0.1209204818873020       -0.0036267615034850    0.0
                       -0.1127611944145974       -0.0036390867358223    0.0
                       -0.1051931834685028       -0.0036513048383488    0.0
                       -0.0981945190016923       -0.0036639665059835    0.0
                       -0.0917457462671218       -0.0036782656823190    0.0
                       -0.0858338850095952       -0.0036963651690294    0.0
                       -0.0804562064303637       -0.0037212946731428    0.0
                       -0.0756191124574236       -0.0037553226696467    0.0
                       -0.0713241832281015       -0.0037960489627017    0.0
                       -0.0675419840579852       -0.0038345650772805    0.0
                       -0.0641977734538037       -0.0038660520108836    0.0
                       -0.0611914222086542       -0.0039091057378499    0.0
                       -0.0584370415689480       -0.0040058790967179    0.0
                       -0.0558788311515631       -0.0041852102441683    0.0
                       -0.3500000000000000       -0.0029240801508920    0.0
                       -0.3332666198298793       -0.0029389106101551    0.0
                       -0.3166216611235899       -0.0029536182569663    0.0
                       -0.3001510821540409       -0.0029681944936594    0.0
                       -0.2839372421647587       -0.0029826375590451    0.0
                       -0.2680573156041619       -0.0029969449651722    0.0
                       -0.2525819168354604       -0.0030111130698431    0.0
                       -0.2375739902887055       -0.0030251367862173    0.0
                       -0.2230879966374208       -0.0030390093045766    0.0
                       -0.2091694062100895       -0.0030527218345892    0.0
                       -0.1958544931702155       -0.0030662633600472    0.0
                       -0.1831704087830035       -0.0030796203977978    0.0
                       -0.1711355002661207       -0.0030927767600829    0.0
                       -0.1597598338557669       -0.0031057133506203    0.0
                       -0.1490458772593088       -0.0031184082003879    0.0
                       -0.1389892984717912       -0.0031308374995386    0.0
                       -0.1295798478056272       -0.0031429799532125    0.0
                       -0.1208023147241702       -0.0031548305524951    0.0
                       -0.1126376028146499       -0.0031664372562419    0.0
                       -0.1050640579070655       -0.0031779854399324    0.0
                       -0.0980593090766489       -0.0031899649312860    0.0
                       -0.0916029619866830       -0.0032034411367675    0.0
                       -0.0856802573099953       -0.0032203513487318    0.0
                       -0.0802856242265622       -0.0032434216274862    0.0
                       -0.0754219709220759       -0.0032746955594408    0.0
                       -0.0710881506391706       -0.0033119708931901    0.0
                       -0.0672542558527726       -0.0033473955714883    0.0
                       -0.0638478884968309       -0.0033783375900151    0.0
                       -0.0607747651625124       -0.0034251567406255    0.0
                       -0.0579560811389127       -0.0035260609065393    0.0
                       -0.0553385101625366       -0.0036981088894111    0.0
                       -0.3500000000000000       -0.0024751143205935    0.0
                       -0.3332588369665247       -0.0024876517009072    0.0
                       -0.3166060318236426       -0.0025001148045229    0.0
                       -0.3001275791920247       -0.0025124964575813    0.0
                       -0.2839058760155130       -0.0025247951400193    0.0
                       -0.2680181330921858       -0.0025370087282792    0.0
                       -0.2525349987647493       -0.0025491341454516    0.0
                       -0.2375194483280744       -0.0025611671232538    0.0
                       -0.2230259695951274       -0.0025731019706156    0.0
                       -0.2091000558261705       -0.0025849313553848    0.0
                       -0.1957779995537941       -0.0025966460928144    0.0
                       -0.1830869656110419       -0.0026082349336802    0.0
                       -0.1710453098341798       -0.0026196843522538    0.0
                       -0.1596631020113376       -0.0026309783593374    0.0
                       -0.1489428080683380       -0.0026420985150873    0.0
                       -0.1388800878912216       -0.0026530247816107    0.0
                       -0.1294646738446504       -0.0026637391900159    0.0
                       -0.1206813165924528       -0.0026742375068211    0.0
                       -0.1125108294571395       -0.0026845604249546    0.0
                       -0.1049313413994600       -0.0026948656114530    0.0
                       -0.0979199770423851       -0.0027055707816646    0.0
                       -0.0914552577788468       -0.0027175874196146    0.0
                       -0.0855203484016289       -0.0027325802019804    0.0
                       -0.0801063063764985       -0.0027529056580010    0.0
                       -0.0752118023430337       -0.0027803412994243    0.0
                       -0.0708323747410583       -0.0028129694091696    0.0
                       -0.0669379792895899       -0.0028442162036139    0.0
                       -0.0634601606599818       -0.0028735020731709    0.0
                       -0.0603123068415618       -0.0029216151471312    0.0
                       -0.0574232883192567       -0.0030208897450868    0.0
                       -0.0547424685264427       -0.0031771966668329    0.0
                       -0.3500000000000000       -0.0020261484902949    0.0
                       -0.3332510343500542       -0.0020360101004968    0.0
                       -0.3165903478768533       -0.0020458336948103    0.0
                       -0.3001039708019503       -0.0020556138367400    0.0
                       -0.2838743371853290       -0.0020653494413183    0.0
                       -0.2679786937312338       -0.0020750389579071    0.0
                       -0.2524877224443390       -0.0020846801031153    0.0
                       -0.2374644292758820       -0.0020942696781845    0.0
                       -0.2229633290568294       -0.0021038033889863    0.0
                       -0.2090299379180642       -0.0021132756733623    0.0
                       -0.1957005667293291       -0.0021226795311023    0.0
                       -0.1830023938536273       -0.0021320063505837    0.0
                       -0.1709537836617838       -0.0021412457330535    0.0
                       -0.1595648093138732       -0.0021503853339827    0.0
                       -0.1488379346004357       -0.0021594108598838    0.0
                       -0.1387688105979392       -0.0021683067270797    0.0
                       -0.1293471501866054       -0.0021770589486861    0.0
                       -0.1205576614065993       -0.0021856643772065    0.0
                       -0.1123810571454208       -0.0021941555088206    0.0
                       -0.1047952226829392       -0.0022026579793721    0.0
                       -0.0977767113673147       -0.0022115052386852    0.0
                       -0.0913028063579293       -0.0022214272562814    0.0
                       -0.0853542731724502       -0.0022337639079546    0.0
                       -0.0799181966221551       -0.0022504264757459    0.0
                       -0.0749881101714975       -0.0022728737475434    0.0
                       -0.0705554404503906       -0.0022995611913610    0.0
                       -0.0665903262701574       -0.0023253984691068    0.0
                       -0.0630302193327469       -0.0023514817190581    0.0
                       -0.0597983750971697       -0.0023972579589967    0.0
                       -0.0568321808849334       -0.0024875286322548    0.0
                       -0.0540844925765895       -0.0026188889955639    0.0
                       -0.3500000000000000       -0.0015771826599964    0.0
                       -0.3332432137386242       -0.0015840335890442    0.0
                       -0.3165746144586288       -0.0015908705664695    0.0
                       -0.3000802672207155       -0.0015976900248716    0.0
                       -0.2838426425701242       -0.0016044913531793    0.0
                       -0.2679390225995275       -0.0016112736240323    0.0
                       -0.2524401225591645       -0.0016180354135123    0.0
                       -0.2374089787272414       -0.0016247746768965    0.0
                       -0.2229001326908778       -0.0016314886245659    0.0
                       -0.2089591232333536       -0.0016381736012332    0.0
                       -0.1956222793585864       -0.0016448249652605    0.0
                       -0.1829167927391206       -0.0016514369635893    0.0
                       -0.1708610360042532       -0.0016580026035716    0.0
                       -0.1594650853058546       -0.0016645135348963    0.0
                       -0.1487314017376773       -0.0016709600386484    0.0
                       -0.1386556266496468       -0.0016773314789046    0.0
                       -0.1292274516697886       -0.0016836183182103    0.0
                       -0.1204315381197807       -0.0016898186097004    0.0
                       -0.1122484878753591       -0.0016959554864414    0.0
                       -0.1046559148386114       -0.0017021178493081    0.0
                       -0.0976297317291226       -0.0017085419012996    0.0
                       -0.0911458214333029       -0.0017157464384349    0.0
                       -0.0851822006602607       -0.0017246891924135    0.0
                       -0.0797213020139792       -0.0017367493100278    0.0
                       -0.0747504309526885       -0.0017529986072910    0.0
                       -0.0702558165213694       -0.0017723495474569    0.0
                       -0.0662080297814008       -0.0017913601771742    0.0
                       -0.0625528498956873       -0.0018120981652026    0.0
                       -0.0592261490113190       -0.0018504296204123    0.0
                       -0.0561751490728462       -0.0019225167303453    0.0
                       -0.0533577305089835       -0.0020193032083266    0.0
                       -0.3500000000000000       -0.0011282168296978    0.0
                       -0.3332353769232324       -0.0011317664565706    0.0
                       -0.3165588367280816       -0.0011353145230790    0.0
                       -0.3000564785679835       -0.0011388593141280    0.0
                       -0.2838108088297877       -0.0011424006105609    0.0
                       -0.2678991444395283       -0.0011459380335571    0.0
                       -0.2523922334171089       -0.0011494709538380    0.0
                       -0.2373531419583652       -0.0011529984284837    0.0
                       -0.2228364380466205       -0.0011565191369183    0.0
                       -0.2088876827852041       -0.0011600313179653    0.0
                       -0.1955432229814012       -0.0011635327060201    0.0
                       -0.1828302632574750       -0.0011670204639721    0.0
                       -0.1707671840758581       -0.0011704911138330    0.0
                       -0.1593640640423833       -0.0011739404716690    0.0
                       -0.1486233608273115       -0.0011773636378090    0.0
                       -0.1385407049651262       -0.0011807552287254    0.0
                       -0.1291057648856967       -0.0011841104299630    0.0
                       -0.1203031509083950       -0.0011874284075265    0.0
                       -0.1121133430821870       -0.0011907215328013    0.0
                       -0.1045136557427194       -0.0011940369246607    0.0
                       -0.0974792899744015       -0.0011974998376556    0.0
                       -0.0909845598396894       -0.0012013863317321    0.0
                       -0.0850043585640566       -0.0012062093675395    0.0
                       -0.0795157003698535       -0.0012127161338807    0.0
                       -0.0744983362960673       -0.0012215019523738    0.0
                       -0.0699318127701512       -0.0012320047170074    0.0
                       -0.0657872224417477       -0.0012425212589962    0.0
                       -0.0620216792347661       -0.0012549484627857    0.0
                       -0.0585872763250846       -0.0012788363109685    0.0
                       -0.0554431817448384       -0.0013215624749679    0.0
                       -0.0525546454783044       -0.0013742530217595    0.0
                       -0.3500000000000000       -0.0006792509993993    0.0
                       -0.3332275257983002       -0.0006792509993993    0.0
                       -0.3165430200168354       -0.0006792509993993    0.0
                       -0.3000326151945100       -0.0006792509993993    0.0
                       -0.2837788529304303       -0.0006792509993993    0.0
                       -0.2678590844215231       -0.0006792509993993    0.0
                       -0.2523440899542556       -0.0006792509993993    0.0
                       -0.2372969651875793       -0.0006792509993993    0.0
                       -0.2227723040795556       -0.0006792509993993    0.0
                       -0.2088156896456460       -0.0006792509993993    0.0
                       -0.1954634860780959       -0.0006792509993993    0.0
                       -0.1827429104915005       -0.0006792509993993    0.0
                       -0.1706723506504202       -0.0006792509993993    0.0
                       -0.1592618869645922       -0.0006792509993993    0.0
                       -0.1485139728369683       -0.0006792509993993    0.0
                       -0.1384242267786191       -0.0006792509993993    0.0
                       -0.1289822919621072       -0.0006792509993993    0.0
                       -0.1201727233320307       -0.0006792509993993    0.0
                       -0.1119758682589863       -0.0006792509993993    0.0
                       -0.1043687132977993       -0.0006792509993993    0.0
                       -0.0973256762911164       -0.0006792509993993    0.0
                       -0.0908193293844058       -0.0006792509993993    0.0
                       -0.0848210441723840       -0.0006792509993993    0.0
                       -0.0793015549974687       -0.0006792509993993    0.0
                       -0.0742314402967827       -0.0006792509993993    0.0
                       -0.0695815248589361       -0.0006792509993993    0.0
                       -0.0653232079771157       -0.0006792509993993    0.0
                       -0.0614287238777976       -0.0006792509993993    0.0
                       -0.0578713415876098       -0.0006792509993993    0.0
                       -0.0546255116994442       -0.0006792509993993    0.0
                       -0.0516669674301301       -0.0006792509993993    0.0
                </DataArray>
            </Points>
            <PointData>
                <DataArray type="Float32" Name="orthogonality" NumberOfComponents="1" format="ascii">
                        0.0000000000000000
                        0.0158094587188234
                        0.0314217373242620
                        0.0467247277619452
                        0.0616192403805582
                        0.0760149057342728
                        0.0898309503216623
                        0.1029969494540284
                        0.1154531278356036
                        0.1271501913368389
                        0.1380487412855858
                        0.1481183334734477
                        0.1573362438419222
                        0.1656859703226213
                        0.1731553705533668
                        0.1797339141894263
                        0.1854072661929001
                        0.1901441128530923
                        0.1938627121097132
                        0.1963506644250552
                        0.1970900186605162
                        0.1949143652916708
                        0.1874007751513786
                        0.1698668761811477
                        0.1337097549807655
                        0.0633285890729297
                        0.0689895875375920
                        0.2956778834208813
                        0.5799569920770426
                        0.8013696684657511
                        0.9243799997324518
                        0.0000886959019596
                        0.0159232391259242
                        0.0315670734773704
                        0.0469084462311949
                        0.0618482263337232
                        0.0762959118992800
                        0.0901705174532586
                        0.1034013533053501
                        0.1159283488229957
                        0.1277019054630573
                        0.1386823286685484
                        0.1488389001940550
                        0.1581486514747005
                        0.1665948650644317
                        0.1741651954100388
                        0.1808488581016772
                        0.1866310142936932
                        0.1914790206031575
                        0.1953074709442796
                        0.1978944591486485
                        0.1986996389091434
                        0.1965100029861829
                        0.1888218569723477
                        0.1708590178461383
                        0.1340702237694675
                        0.0637070441160592
                        0.0642337381509497
                        0.2751068478574408
                        0.5430547910443684
                        0.7729483781803898
                        0.9179536624312530
                        0.0002194816182931
                        0.0160843364286048
                        0.0317649972231164
                        0.0471502258297487
                        0.0621410112960730
                        0.0766467889259609
                        0.0905864409274784
                        0.1038891041062582
                        0.1164945179610061
                        0.1283529008679755
                        0.1394244019772394
                        0.1496781894811147
                        0.1590912348225633
                        0.1676468176723558
                        0.1753326349460853
                        0.1821379351786569
                        0.1880477203304108
                        0.1930284601007248
                        0.1969917334024184
                        0.1997072615050715
                        0.2006145895819001
                        0.1984590373410856
                        0.1906668360977373
                        0.1723906497688091
                        0.1351746799730933
                        0.0651688408820654
                        0.0581345121698564
                        0.2537827213116204
                        0.5047645788506780
                        0.7422914814708981
                        0.9111272837548751
                        0.0003861077833641
                        0.0162907219645665
                        0.0320179001637468
                        0.0474572133216318
                        0.0625099476214825
                        0.0770856670768172
                        0.0911033294455943
                        0.1044921250704920
                        0.1171918528894119
                        0.1291528236686638
                        0.1403353365700084
                        0.1507087889617163
                        0.1602504782306899
                        0.1689441184911108
                        0.1767779484107119
                        0.1837418265268918
                        0.1898212803069760
                        0.1949827545970688
                        0.1991360288664189
                        0.2020444587967461
                        0.2031313185699135
                        0.2011083214950137
                        0.1933495245952147
                        0.1749774750604306
                        0.1377238009698853
                        0.0687900379456677
                        0.0489525797592329
                        0.2294909442638742
                        0.4635975812225621
                        0.7069315951954065
                        0.8994245517366130
                        0.0005815754860174
                        0.0165350474133120
                        0.0323180891937146
                        0.0478213644041303
                        0.0629466269873239
                        0.0776037581801483
                        0.0917119981486016
                        0.1052008189016370
                        0.1180103317159029
                        0.1300912216564442
                        0.1414042539159655
                        0.1519194113060666
                        0.1616147210976086
                        0.1704747925528798
                        0.1784889355322136
                        0.1856482350232190
                        0.1919394832760016
                        0.1973300473884406
                        0.2017292785473987
                        0.2048964977201763
                        0.2062432516580528
                        0.2044572016079642
                        0.1968809419420574
                        0.1786519878697537
                        0.1417816594077571
                        0.0746506053184267
                        0.0366531174521303
                        0.2020463344103719
                        0.4188616119700209
                        0.6654011197678269
                        0.8810798402986453
                        0.0007982726314145
                        0.0168089015036314
                        0.0326563241778950
                        0.0482325549250760
                        0.0634399699187909
                        0.0781889420695228
                        0.0923991870312690
                        0.1060006730273316
                        0.1189340634412392
                        0.1311506867464041
                        0.1426120778848584
                        0.1532891496637525
                        0.1631610521408160
                        0.1722137404598040
                        0.1804381167565778
                        0.1878271040030172
                        0.1943695018571344
                        0.2000345727088744
                        0.2047326978176419
                        0.2082217371895897
                        0.2099066537435281
                        0.2084619147592288
                        0.2012216982407764
                        0.1833861029409299
                        0.1473344984965046
                        0.0827234817564900
                        0.0213354685079665
                        0.1714326463309570
                        0.3700048476712542
                        0.6159035634378701
                        0.8534757397691585
                        0.0010276137719823
                        0.0171017958025831
                        0.0330201299823520
                        0.0486761880056343
                        0.0639730865128186
                        0.0788218278730827
                        0.0931427566959663
                        0.1068665092401465
                        0.1199344938929406
                        0.1322989003540388
                        0.1439222803033520
                        0.1547767580505970
                        0.1648429290722375
                        0.1741084664042929
                        0.1825662974447602
                        0.1902116968092078
                        0.1970361088106720
                        0.2030115614736957
                        0.2080508551882524
                        0.2119130028078456
                        0.2140018301331703
                        0.2129902536196477
                        0.2062283301975827
                        0.1890263824754337
                        0.1542111838652217
                        0.0927777669666348
                        0.0033497335497178
                        0.1379493724888453
                        0.3168623154195921
                        0.5565478265407241
                        0.8128838696141661
                        0.0012614403677373
                        0.0174029185127328
                        0.0333959133856616
                        0.0491356919077073
                        0.0645261774928278
                        0.0794790849198742
                        0.0939154811956879
                        0.1077667759084927
                        0.1209752415002656
                        0.1334940639712521
                        0.1452869656246797
                        0.1563274585205312
                        0.1665977865888230
                        0.1760875764656692
                        0.1847920581877400
                        0.1927091942694416
                        0.1998335109854407
                        0.2061404544788624
                        0.2115464162131466
                        0.2158140059106985
                        0.2183513173937669
                        0.2178414862594465
                        0.2116745931380611
                        0.1953158002184396
                        0.1621039877757514
                        0.1043960994138224
                        0.0167030614357565
                        0.1022792998681508
                        0.2599596069586570
                        0.4858749811261047
                        0.7544267825044387
                        0.0014901837910546
                        0.0176984098918586
                        0.0337653489294123
                        0.0495880024701406
                        0.0650710912624835
                        0.0801270441706130
                        0.0946776542520792
                        0.1086551097072295
                        0.1220025540696376
                        0.1346741783084148
                        0.1466348860574828
                        0.1578595904397665
                        0.1683322007751589
                        0.1780443198958972
                        0.1869935131613013
                        0.1951804863198339
                        0.2026029632925155
                        0.2092400966361199
                        0.2150126375911795
                        0.2196888035354806
                        0.2226858881534517
                        0.2227083393566238
                        0.2172086865736695
                        0.2018456880705373
                        0.1705169457462229
                        0.1169278115207393
                        0.0379438287984246
                        0.0654832646413407
                        0.2005419092193907
                        0.4037680026180187
                        0.6724098147254946
                        0.0017092012070203
                        0.0179792996490663
                        0.0341149723543595
                        0.0500149091604764
                        0.0655845428740393
                        0.0807369366809365
                        0.0953945236206251
                        0.1094901761696498
                        0.1229678043213449
                        0.1357824870824338
                        0.1479001778757523
                        0.1592970424168981
                        0.1699584877510355
                        0.1798779040469710
                        0.1890549819763676
                        0.1974929466112184
                        0.2051925137110117
                        0.2121364597895251
                        0.2182502334893926
                        0.2233091502843433
                        0.2267439270337389
                        0.2272901732015280
                        0.2224823564546998
                        0.2082035606437548
                        0.1789362574630032
                        0.1296845884225601
                        0.0594259326361705
                        0.0288037547688340
                        0.1404767436927702
                        0.3116743916750155
                        0.5605204225755044
                        0.0019144163466085
                        0.0182395251238806
                        0.0344366533164090
                        0.0504060832557609
                        0.0660538370365071
                        0.0812934927297796
                        0.0960479937738408
                        0.1102507544628285
                        0.1238462930315946
                        0.1367903994341940
                        0.1490498775067954
                        0.1606019201658768
                        0.1714331768052466
                        0.1815385357762299
                        0.1909194879006596
                        0.1995814211298333
                        0.2075276842801270
                        0.2147444175688683
                        0.2211618923903719
                        0.2265637364205972
                        0.2303978721083168
                        0.2314399762816103
                        0.2273234206269363
                        0.2141792607698554
                        0.1870837558636904
                        0.1422634349530011
                        0.0805616086187568
                        0.0069323100403921
                        0.0813494658892632
                        0.2126381427816266
                        0.4154376714247671
                        0.0020978896734846
                        0.0184700621206287
                        0.0347202403422730
                        0.0507501586519262
                        0.0664662852601378
                        0.0817825723371993
                        0.0966223209498759
                        0.1109193193204976
                        0.1246185077322710
                        0.1376761788620117
                        0.1500597527661121
                        0.1617471849697742
                        0.1727260675047562
                        0.1829924473014694
                        0.1925492324999896
                        0.2014035514585581
                        0.2095609513119625
                        0.2170105874918361
                        0.2236875720701149
                        0.2293849072181370
                        0.2335712168994645
                        0.2350704237429675
                        0.2316296452405865
                        0.2196455367956147
                        0.1947831267197559
                        0.1543957039830802
                        0.1009451487468667
                        0.0411053762682440
                        0.0246193866611519
                        0.1121949641596288
                        0.2451476230949715
                        0.0022538590307053
                        0.0186655988128066
                        0.0349608748149443
                        0.0510427171830454
                        0.0668179001077081
                        0.0822006130387715
                        0.0971143668865840
                        0.1114931620352515
                        0.1252821821468040
                        0.1384380236016031
                        0.1509284994766179
                        0.1627320763579825
                        0.1738370044694763
                        0.1842401674207135
                        0.1939455282141335
                        0.2029615561004135
                        0.2112955869496671
                        0.2189394670550494
                        0.2258331784099202
                        0.2317801195565047
                        0.2362729026381524
                        0.2381911602153119
                        0.2354084663470813
                        0.2245990754455416
                        0.2020000389042193
                        0.1659822176659258
                        0.1203804939266560
                        0.0733536438237952
                        0.0286389060409401
                        0.0161759967678768
                        0.0688588484677648
                        0.0023762655393203
                        0.0188221271014755
                        0.0351566511958854
                        0.0512840184361298
                        0.0671111986179840
                        0.0825525141428202
                        0.0975315741034531
                        0.1119824700218742
                        0.1258504962045370
                        0.1390924058608617
                        0.1516762412441281
                        0.1635807961074538
                        0.1747947715519275
                        0.1853156540029824
                        0.1951481992660311
                        0.2043019323431564
                        0.2127856975228833
                        0.2205938503534124
                        0.2276714183054918
                        0.2338333342678550
                        0.2385994743730079
                        0.2409122512484015
                        0.2387830017570258
                        0.2291719588208541
                        0.2088650396371245
                        0.1771384333156503
                        0.1389671672348748
                        0.1037354770549966
                        0.0780558565188569
                        0.0712458881395860
                        0.0921256935477017
                        0.0024596553728762
                        0.0189362780268934
                        0.0353063320231006
                        0.0514750182609888
                        0.0673494224378436
                        0.0828439285535596
                        0.0978821688564715
                        0.1123982458864887
                        0.1263374779575463
                        0.1396566803053144
                        0.1523240194761387
                        0.1643184993111236
                        0.1756291404285127
                        0.1862538844143585
                        0.1961981156792492
                        0.2054722405549351
                        0.2140864549752647
                        0.2220375742412037
                        0.2292759705043528
                        0.2356293142366565
                        0.2406479032431324
                        0.2433434189113962
                        0.2418746803220446
                        0.2334929999361575
                        0.2155058144687714
                        0.1879844105717275
                        0.1568288792150435
                        0.1323817536327989
                        0.1235557555070511
                        0.1480075651054680
                        0.2252350763188085
                        0.0024986382177517
                        0.0190040333595494
                        0.0354072952920407
                        0.0516145212847981
                        0.0675328539455261
                        0.0830766892679102
                        0.0981696317327107
                        0.1127457417119373
                        0.1267503051364712
                        0.1401401384466129
                        0.1528834658913357
                        0.1649594275492551
                        0.1763572808801593
                        0.1870753299678599
                        0.1971194855789585
                        0.2065009300226670
                        0.2152311288956315
                        0.2233093807332142
                        0.2306917486215823
                        0.2372197999141432
                        0.2424771253518920
                        0.2455503316606101
                        0.2447535890987445
                        0.2376312543005925
                        0.2219822640645787
                        0.1985678967368938
                        0.1740182436356844
                        0.1593724889574935
                        0.1651734860571066
                        0.2137441225110472
                        0.3284100469972931
                        0.0024881435616936
                        0.0190210384479738
                        0.0354559080988521
                        0.0516996178051152
                        0.0676593196413694
                        0.0832493831966128
                        0.0983933467524556
                        0.1130251893127551
                        0.1270901235710187
                        0.1405449236596370
                        0.1533578241972113
                        0.1655080490625966
                        0.1769850337102273
                        0.1877873785035806
                        0.1979214474859126
                        0.2073991250730837
                        0.2162330954788940
                        0.2244251846027094
                        0.2319374739407580
                        0.2386264539914025
                        0.2441114660837615
                        0.2475586969477536
                        0.2474435507137141
                        0.2416024779913896
                        0.2282943735874623
                        0.2088722648555349
                        0.1905217355761576
                        0.1847329709268329
                        0.2030078495320397
                        0.2691456060316623
                        0.4055561446890600
                        0.0024234599174230
                        0.0189829650868746
                        0.0354482222886241
                        0.0517267223193249
                        0.0677255863958095
                        0.0833591252847901
                        0.0985507792324626
                        0.1132344137538565
                        0.1273551351552137
                        0.1408696400424855
                        0.1537461349064596
                        0.1659638843740917
                        0.1775124530844495
                        0.1883906820709874
                        0.1986053265921751
                        0.2081689098574072
                        0.2170952904361560
                        0.2253888579056513
                        0.2330179865211557
                        0.2398549411926270
                        0.2455568107936772
                        0.2493729875711922
                        0.2499441001583164
                        0.2453953050770235
                        0.2344135236534914
                        0.2188532465290421
                        0.2063012587790351
                        0.2084759823567038
                        0.2372262252750265
                        0.3153986384109410
                        0.4621561090731897
                        0.0022997162423695
                        0.0188853592662652
                        0.0353801930180998
                        0.0516921677049102
                        0.0677283416717818
                        0.0834029410191287
                        0.0986392826953221
                        0.1133710933944049
                        0.1275433466961751
                        0.1411126332433737
                        0.1540470996996140
                        0.1663260152009050
                        0.1779390314617344
                        0.1888851812290605
                        0.1991715553072215
                        0.2088112575352552
                        0.2178192772780526
                        0.2262025900645249
                        0.2339360798066271
                        0.2409084668645360
                        0.2468161585624560
                        0.2509944687625163
                        0.2522516804128127
                        0.2489965803198747
                        0.2403129939944601
                        0.2284752318043109
                        0.2213361179669832
                        0.2306455296803844
                        0.2680764798309626
                        0.3538335256914061
                        0.5031655529267610
                        0.0021127152544379
                        0.0187242101367603
                        0.0352479809199577
                        0.0515922320437918
                        0.0676639332439395
                        0.0833772037807953
                        0.0986552153392892
                        0.1134315331452630
                        0.1276509738015692
                        0.1412699949093552
                        0.1542566520631153
                        0.1665901821503539
                        0.1782602802547108
                        0.1892661190180438
                        0.1996150645830636
                        0.2093207359892385
                        0.2183991960022881
                        0.2268599966669484
                        0.2346846679722386
                        0.2417788638611477
                        0.2478794066713750
                        0.2524092732546727
                        0.2543452096456360
                        0.2523728702006767
                        0.2459426695501204
                        0.2376751038861279
                        0.2355713086188802
                        0.2512432741180317
                        0.2957659857632751
                        0.3856259937501437
                        0.5324310180306662
                        0.0018542453189342
                        0.0184926433200073
                        0.0350460145119144
                        0.0514225583702441
                        0.0675291560004523
                        0.0832798192372629
                        0.0985975728319597
                        0.1134158171264393
                        0.1276792058230873
                        0.1413440541244931
                        0.1543783126710199
                        0.1667611665179411
                        0.1784823277319217
                        0.1895410747042861
                        0.1999450068534586
                        0.2097082112011334
                        0.2188477827981181
                        0.2273758484089132
                        0.2352807015451973
                        0.2424853215671710
                        0.2487678153704421
                        0.2536401166195114
                        0.2562476615236309
                        0.2555462635070154
                        0.2513255243536551
                        0.2464874317382893
                        0.2490792360106087
                        0.2704307192649238
                        0.3206949711640223
                        0.4119628624645854
                        0.5528030137465419
                        0.0015245338654045
                        0.0181894035456591
                        0.0347715488102595
                        0.0511788162831521
                        0.0673179876197056
                        0.0831029518894491
                        0.0984565686271127
                        0.1133120512873912
                        0.1276138636844826
                        0.1413181452308462
                        0.1543927003204190
                        0.1668166112691083
                        0.1785795448737729
                        0.1896808100197535
                        0.2001281499415592
                        0.2099360162799128
                        0.2191224239793865
                        0.2277019679990223
                        0.2356696357781853
                        0.2429657381157761
                        0.2494097130545442
                        0.2546021006307083
                        0.2578544436280233
                        0.2583824784066411
                        0.2562859602485124
                        0.2546887488920984
                        0.2615969659801384
                        0.2879435189153752
                        0.3427294095136145
                        0.4333568571208389
                        0.5662526149198194
                        0.0010922439843240
                        0.0177900213198833
                        0.0344067327004021
                        0.0508493611766354
                        0.0670247086981857
                        0.0828466400814123
                        0.0982379346230715
                        0.1131316921415605
                        0.1274722495631844
                        0.1412156239875761
                        0.1543295180278750
                        0.1667929470088658
                        0.1785955596668103
                        0.1897367142157048
                        0.2002243088717794
                        0.2100731661993424
                        0.2193022312704236
                        0.2279286057263548
                        0.2359540941162334
                        0.2433366526200845
                        0.2499376849424583
                        0.2554472188300020
                        0.2593429023271096
                        0.2610951938168027
                        0.2610934011792709
                        0.2626345294091980
                        0.2736064607884139
                        0.3044467326219988
                        0.3628577622643469
                        0.4512021197756584
                        0.5742865443441405
                        0.0005951359162209
                        0.0173443926168266
                        0.0340135490867887
                        0.0505085058864384
                        0.0667363919509793
                        0.0826113282277084
                        0.0980562826215201
                        0.1130045045246256
                        0.1274004665521264
                        0.1412003302045851
                        0.1543719715022701
                        0.1668946267224435
                        0.1787582315880771
                        0.1899625205450603
                        0.2005159015639532
                        0.2104339607048395
                        0.2197370252961365
                        0.2284452699757515
                        0.2365681318802730
                        0.2440825814222699
                        0.2508944961490902
                        0.2567878860814125
                        0.2614133950077542
                        0.2645029935553559
                        0.2667324885125304
                        0.2715421448750695
                        0.2866323238815002
                        0.3218230318844250
                        0.3832896533977482
                        0.4682802657504879
                        0.5791724376508412
                        0.0001455995727388
                        0.0169558527532956
                        0.0336870138395872
                        0.0502443410057695
                        0.0665354090416220
                        0.0824747217367554
                        0.0979855789038544
                        0.1130015401079263
                        0.1274673925944684
                        0.1413396413199487
                        0.1545865569656697
                        0.1671878429105476
                        0.1791339961359276
                        0.1904254338328773
                        0.2010714185965936
                        0.2110886947378644
                        0.2204994447934499
                        0.2293275424548765
                        0.2375910288303235
                        0.2452876526949644
                        0.2523712227852205
                        0.2587263178899885
                        0.2641875777188316
                        0.2687622101438108
                        0.2734188681872028
                        0.2817192787631723
                        0.3011025357863276
                        0.3406065917379339
                        0.4045543554017971
                        0.4856839171416908
                        0.5833484175769279
                        0.0002179930956642
                        0.0166477334711402
                        0.0334358783538147
                        0.0500514633792980
                        0.0664024279666912
                        0.0824035899108888
                        0.0979785288774694
                        0.1130610766681317
                        0.1275963095907968
                        0.1415410614610086
                        0.1548639932729106
                        0.1675452811368440
                        0.1795759991872921
                        0.1909572744960432
                        0.2016992657170770
                        0.2118199406087806
                        0.2213434550093551
                        0.2302976378790134
                        0.2387097541117097
                        0.2465998415325285
                        0.2539730949339463
                        0.2608217121378044
                        0.2671763845257422
                        0.2733344992705173
                        0.2805635276923841
                        0.2925195917566246
                        0.3162936882505429
                        0.3599596327153978
                        0.4257327010251811
                        0.5028216354180594
                        0.5881948605681573
                        0.0005183093341736
                        0.0163963794669799
                        0.0332354701029771
                        0.0499039365393677
                        0.0663100144502217
                        0.0823687710698132
                        0.0980040098005109
                        0.1131497852155479
                        0.1277514185166822
                        0.1417660325553484
                        0.1551626427289698
                        0.1679218657239437
                        0.1800353246367301
                        0.1915048332715989
                        0.2023414314053962
                        0.2125643139294587
                        0.2221996656809677
                        0.2312794777049987
                        0.2398408618610647
                        0.2479278102509029
                        0.2556008739495873
                        0.2629681609238473
                        0.2702708626114538
                        0.2781149252880233
                        0.2880749310851429
                        0.3038702577936040
                        0.3321428016045308
                        0.3798116118208456
                        0.4468405338192968
                        0.5196621669932001
                        0.5936309427062947
                        0.0007538211681502
                        0.0162057253732249
                        0.0330919856013779
                        0.0498100640954853
                        0.0662684693169967
                        0.0823824947558582
                        0.0980761500012590
                        0.1132836995112544
                        0.1279507005399162
                        0.1420345600176164
                        0.1555046466850670
                        0.1683420210296619
                        0.1805388633968375
                        0.1920976891853255
                        0.2030304444468965
                        0.2133575975719429
                        0.2231074641172331
                        0.2323164545541737
                        0.2410322088596673
                        0.2493244127236169
                        0.2573130594955828
                        0.2652306851782773
                        0.2735439111456773
                        0.2831864396187397
                        0.2960485297253606
                        0.3158777021464213
                        0.3487519322340821
                        0.4002327554338068
                        0.4679599342334302
                        0.5364002911028410
                        0.5997712402481327
                        0.0009305027164481
                        0.0160701420144269
                        0.0330000793384370
                        0.0497646670146004
                        0.0662726740094082
                        0.0824396060168031
                        0.0981896681039196
                        0.1134573265319262
                        0.1281883686393096
                        0.1423404813885604
                        0.1558833848777882
                        0.1687985838702681
                        0.1810788197381993
                        0.1927273180625213
                        0.2037569483845643
                        0.2141894899453636
                        0.2240554821549752
                        0.2333960097020045
                        0.2422699414157282
                        0.2507744802087077
                        0.2590933965637076
                        0.2675927911058224
                        0.2769809599509646
                        0.2885407001273898
                        0.3044879781763365
                        0.3285588024879285
                        0.3661369038361698
                        0.4212203731001497
                        0.4891352031728298
                        0.5531265818152565
                        0.6067114452550304
                        0.0010524644021024
                        0.0159864088773340
                        0.0329573566945316
                        0.0497660858346570
                        0.0663216271386762
                        0.0825396973107689
                        0.0983446981116317
                        0.1136713005617776
                        0.1284655265012644
                        0.1426853485812217
                        0.1563008454198800
                        0.1692939751859321
                        0.1816580522200829
                        0.1933970287058809
                        0.2045247225181675
                        0.2150642686952248
                        0.2250485322246721
                        0.2345235391634987
                        0.2435601130925574
                        0.2522848616769895
                        0.2609498392890144
                        0.2700642972245718
                        0.2805955163385959
                        0.2941986884642534
                        0.3134270181231359
                        0.3419605015435258
                        0.3843420022439858
                        0.4428016224898832
                        0.5104377915904009
                        0.5699824150528760
                        0.6146077175354608
                        0.0011243748543844
                        0.0159503986458463
                        0.0329601845743840
                        0.0498111140132959
                        0.0664124876207421
                        0.0826802382171063
                        0.0985389713920270
                        0.1139235713981556
                        0.1287803039731859
                        0.1430674377296527
                        0.1567554210040018
                        0.1698266779978221
                        0.1822751109098646
                        0.1941054172500138
                        0.2053323897735037
                        0.2159805654626837
                        0.2260852377775073
                        0.2356976444481850
                        0.2449013019835861
                        0.2538541546268404
                        0.2628811918042831
                        0.2726448332589977
                        0.2843897963215524
                        0.3001692851405803
                        0.3228873865765400
                        0.3561186316596839
                        0.4034016631228928
                        0.4650015261066647
                        0.5319457015898715
                        0.5871032921494370
                        0.6236273266238294
                        0.0011507701057784
                        0.0159580466790098
                        0.0330049311527015
                        0.0498965022412910
                        0.0665423424703088
                        0.0828586103268415
                        0.0987701266767911
                        0.1142120018100331
                        0.1291307589925102
                        0.1434849771001206
                        0.1572454892736728
                        0.1703952019806726
                        0.1829286234318119
                        0.1948512180836015
                        0.2061787824833315
                        0.2169373035397507
                        0.2271646070761212
                        0.2369174131816717
                        0.2462926715175191
                        0.2554816109608232
                        0.2648868897591510
                        0.2753344459945624
                        0.2883659658664604
                        0.3064608274027336
                        0.3328904068057145
                        0.3710695027774075
                        0.4233524385910708
                        0.4878545637293946
                        0.5537501040343771
                        0.6046326771938869
                        0.6339499591741777
                        0.0011361196819060
                        0.0160052200305532
                        0.0330877685970703
                        0.0500186895312354
                        0.0667078611459535
                        0.0830716794397279
                        0.0990351945413886
                        0.1145337581213280
                        0.1295141672696921
                        0.1439353280971009
                        0.1577684762390705
                        0.1709970191164541
                        0.1836160913246815
                        0.1956319477463975
                        0.2070614190176589
                        0.2179319903488951
                        0.2282841224964629
                        0.2381802834863939
                        0.2477315843836288
                        0.2571644687121678
                        0.2669640072643092
                        0.2781302235783045
                        0.2925223241507920
                        0.3130768843603667
                        0.3434526801811626
                        0.3868462212451398
                        0.4442309320941327
                        0.5114036536877761
                        0.5759520140469109
                        0.6227101143623829
                        0.6457438763902093
                        0.0010847165656567
                        0.0160878607199901
                        0.0332048472564128
                        0.0501740042688027
                        0.0669055201488176
                        0.0833160413178519
                        0.0993308623811869
                        0.1148855932563449
                        0.1299273227558461
                        0.1444153029686622
                        0.1583211915032504
                        0.1716289171563309
                        0.1843342628888977
                        0.1964442987969860
                        0.2079769206355227
                        0.2189611598836717
                        0.2294402114209401
                        0.2394825460406645
                        0.2492141365794432
                        0.2588985123479370
                        0.2691078203852915
                        0.2810268042307302
                        0.2968536592888671
                        0.3200164083118427
                        0.3545862883299628
                        0.4034796419555492
                        0.4660761010489071
                        0.5357016877884097
                        0.5986587842307119
                        0.6414629942227958
                        0.6591457456567268
                        0.0010006195964234
                        0.0162020513190725
                        0.0333523677348562
                        0.0503587393517572
                        0.0671316781336132
                        0.0835880938471113
                        0.0996535410230903
                        0.1152639050838037
                        0.1303665851369166
                        0.1449211987292594
                        0.1588998457597392
                        0.1722869977100464
                        0.1850791085806999
                        0.1972840889439273
                        0.2089209305139343
                        0.2200202573153369
                        0.2306280916359628
                        0.2408191445097012
                        0.2507349049184737
                        0.2606777535014724
                        0.2713113929592564
                        0.2840158108333508
                        0.3013504492789305
                        0.3272727077226148
                        0.3662979645303644
                        0.4209986666801712
                        0.4889308637333785
                        0.5608108935566604
                        0.6219770520295060
                        0.6609931512094361
                        0.6742348338681714
                        0.0008876041685371
                        0.0163440762030883
                        0.0335266528906840
                        0.0505692324848068
                        0.0673826622890808
                        0.0838841273413050
                        0.0999994568138990
                        0.1156648282943617
                        0.1308279692981422
                        0.1454488820114105
                        0.1595001286880380
                        0.1729667444793981
                        0.1858458767208625
                        0.1981463009535781
                        0.2098881342527535
                        0.2211036359946204
                        0.2318417401658158
                        0.2421836106716561
                        0.2522868409681034
                        0.2624942712611376
                        0.2735653380907153
                        0.2870854822775400
                        0.3059982887649547
                        0.3348327100510905
                        0.3785887691716741
                        0.4394314032121191
                        0.5128440572384997
                        0.5868003628735763
                        0.6460024570155668
                        0.6813611837849729
                        0.6910063900034747
                        0.0007491366663903
                        0.0165104525470751
                        0.0337241833192707
                        0.0508019043852684
                        0.0676548073907414
                        0.0842003626634723
                        0.1003646868513496
                        0.1160842646434674
                        0.1313071683727761
                        0.1459938023674540
                        0.1601172095784417
                        0.1736630079826081
                        0.1866290584722486
                        0.1990250235377414
                        0.2108721715210075
                        0.2222044340665741
                        0.2330737281451131
                        0.2435678497407371
                        0.2538609972089635
                        0.2643378657151389
                        0.2758573758839509
                        0.2902200912896256
                        0.3107771093616198
                        0.3426760865868881
                        0.3914539176248216
                        0.4588069093862935
                        0.5378720943909619
                        0.6137407485584521
                        0.6708058516466503
                        0.7025687875380327
                        0.7093456630051804
                        0.0005883734006107
                        0.0166979300381992
                        0.0339415948973169
                        0.0510532526928210
                        0.0679444445505397
                        0.0845329330360016
                        0.1007451320530883
                        0.1165178450982864
                        0.1317995024791479
                        0.1465509247145613
                        0.1607456501471774
                        0.1743698948071391
                        0.1874222489300562
                        0.1999132788434830
                        0.2118654236799859
                        0.2233143148055593
                        0.2343149053443468
                        0.2449617592497804
                        0.2554460688902449
                        0.2661955087519909
                        0.2781716728054499
                        0.2933991371853182
                        0.3156601888388459
                        0.3507742592156098
                        0.4048828803862205
                        0.4791577077086830
                        0.5640799297413012
                        0.6416954035326312
                        0.6964164188079498
                        0.7245408687648669
                        0.7290059038423682
                        0.0004081872133429
                        0.0169034539886028
                        0.0341756305943728
                        0.0513197911332269
                        0.0682478261311231
                        0.0848777928713294
                        0.1011364075432929
                        0.1169607992421666
                        0.1322997640268921
                        0.1471145469616546
                        0.1613791902709037
                        0.1750805163780964
                        0.1882178530503755
                        0.2008026786000245
                        0.2128586120179652
                        0.2244229974797046
                        0.2355538526634048
                        0.2463525906743010
                        0.2570276508940592
                        0.2680504810134423
                        0.2804878410272830
                        0.2965961825320671
                        0.3206128138612344
                        0.3590891781399105
                        0.4188597923259922
                        0.5005232141386537
                        0.5915406668718107
                        0.6707071568786782
                        0.7228027188834438
                        0.7471093833441651
                        0.7495929195657545
                        0.0002112248103996
                        0.0171240875790107
                        0.0344230411400244
                        0.0515979269629372
                        0.0685609780341682
                        0.0852305424610169
                        0.1015336369962616
                        0.1174077157369369
                        0.1328019403678108
                        0.1476779800964107
                        0.1620103798796888
                        0.1757865661935975
                        0.1890066005258444
                        0.2016828676994759
                        0.2138401594988117
                        0.2255175251032473
                        0.2367760418999699
                        0.2477239854357010
                        0.2585871329806396
                        0.2698811096011879
                        0.2827795036027680
                        0.2997772324484866
                        0.3255904944750993
                        0.3675718094309454
                        0.4333643394208172
                        0.5229543826965466
                        0.6203328358237020
                        0.7007800283043602
                        0.7498535683157730
                        0.7700007599406668
                        0.7705564149516957
                        0.0000000000000000
                        0.0173583914675506
                        0.0346834865788922
                        0.0518884488386430
                        0.0688858476688655
                        0.0855943170915953
                        0.1019411703555880
                        0.1178641824992983
                        0.1333128765132704
                        0.1482493403311789
                        0.1626486145602135
                        0.1764987201683240
                        0.1898004393173086
                        0.2025670456598333
                        0.2148244800409195
                        0.2266134655525701
                        0.2379980998533636
                        0.2490934727514795
                        0.2601426418172610
                        0.2717053498418855
                        0.2850620567940104
                        0.3029469165015442
                        0.3305583443017591
                        0.3760536159362886
                        0.4478438624269676
                        0.5451013627246314
                        0.6481945547111287
                        0.7294706183776655
                        0.7758230901750285
                        0.7921563929519225
                        0.7907246797117772
                </DataArray>
                <DataArray type="Float32" Name="aspect_ratio" NumberOfComponents="1" format="ascii">
                       27.5910057273627594
                       27.3781033701994201
                       27.0951953281536989
                       26.6760585590612663
                       26.1292484849819825
                       25.4657192295563642
                       24.6983505113431063
                       23.8414151657277881
                       22.9100296968822493
                       21.9196218190491603
                       20.8854430290097250
                       19.8221472112328873
                       18.7434482425032004
                       17.6618624082008592
                       16.5885354077205789
                       15.5331505046805137
                       14.5039154454305836
                       13.5076333297613764
                       12.5498782068903542
                       11.6353147807383647
                       10.7682060028301624
                        9.9530989225250955
                        9.1954765676152980
                        8.5016123690840686
                        7.8755488519364053
                        7.3079093860920616
                        6.7416037046164875
                        6.0043745690965173
                        4.9865775518416766
                        4.1918302344040250
                        4.2165443040780025
                       27.6029468848305873
                       27.3471057290842471
                       27.0214586525073503
                       26.5604537259088124
                       25.9733277190772363
                       25.2716531646243588
                       24.4688474414153358
                       23.5796258545603214
                       22.6194432379420935
                       21.6039582266608083
                       20.5485478266908978
                       19.4678924882799979
                       18.3756436763000764
                       17.2841785824956498
                       16.2044405326952804
                       15.1458601046889093
                       14.1163522100078620
                       13.1223899751692795
                       12.1691681357569470
                       11.2608822002790259
                       10.4011492350708881
                        9.5935399787760428
                        8.8419816359982150
                        8.1501920335994005
                        7.5178663465090676
                        6.9286048165295584
                        6.3223636883418025
                        5.5742731418195993
                        4.6694220629650094
                        4.0041967353986351
                        3.9881321301295930
                       27.6149084380737918
                       27.3193165393905239
                       26.9541747180563863
                       26.4545471630405215
                       25.8302987095394448
                       25.0935693736383169
                       24.2582673300216296
                       23.3395090149929754
                       22.3530528880374798
                       21.3147611322364974
                       20.2401165227689898
                       19.1438139002649790
                       18.0394373221507113
                       16.9392264393180057
                       15.8539294852223302
                       14.7927364120408126
                       13.7632850651138668
                       12.7717368571516362
                       11.8229265336065204
                       10.9205992842448596
                       10.0677441566867615
                        9.2669771420678309
                        8.5207195115309247
                        7.8303016330375201
                        7.1916560990708686
                        6.5832371328196247
                        5.9455913876483730
                        5.1917736228705611
                        4.3660711737504928
                        3.7884973737478709
                        3.7120369076480646
                       27.6268967502434345
                       27.2981777640471725
                       26.9000027021196765
                       26.3679394975585594
                       25.7123822290074119
                       24.9459535258723287
                       24.0829837507294539
                       23.1389395682099995
                       22.1298503164945355
                       21.0717666565167076
                       19.9802784780232168
                       18.8701109156417071
                       17.7548088202158799
                       16.6465123335921732
                       15.5558199492812860
                       14.4917312435239705
                       13.4616598720193499
                       12.4715089601769505
                       11.5258053999638225
                       10.6278936472237483
                        9.7801824164167817
                        8.9843858008731983
                        8.2415044859375010
                        7.5506885680092910
                        6.9047155881760198
                        6.2786304590786183
                        5.6163300285847365
                        4.8605175503295366
                        4.0869462161315028
                        3.5611564890204756
                        3.4062911646661182
                       27.6389180966068047
                       27.2844206593131447
                       26.8604238133025519
                       26.3028744844400966
                       25.6225842603298995
                       24.8325607453846688
                       23.9474757243385495
                       22.9830840650500637
                       21.9556434881238619
                       20.8813699360273974
                       19.7759554010396275
                       18.6541666817129675
                       17.5295348767615548
                       16.4141375865632760
                       15.3184693733138791
                       14.2513914582927893
                       13.2201490353742474
                       12.2304440159381574
                       11.2865516605722663
                       10.3914693091415306
                        9.5470763792544543
                        8.7542400599628624
                        8.0126271285250107
                        7.3194158154347772
                        6.6648127450931821
                        6.0219201284079022
                        5.3396235166992752
                        4.5830543657721866
                        3.8402730196529550
                        3.3337873271973389
                        3.0897681807166147
                       27.6509783685674931
                       27.2788908183636170
                       26.8371429961903305
                       26.2619225110321635
                       25.5643328983825653
                       24.7576557027983194
                       23.8568108617474740
                       22.8777682094385064
                       21.8369617381974420
                       20.7507416630851357
                       19.6348911598677965
                       18.5042260649557911
                       17.3722870182070600
                       16.2511255792905441
                       15.1511792229076743
                       14.0812251461825588
                       13.0483991305947316
                       12.0582629524061171
                       11.1149006947318060
                       10.2210199248206574
                        9.3780238775923948
                        8.5859867612814194
                        7.8433225282025387
                        7.1454328021237978
                        6.4804842884061394
                        5.8208101985695594
                        5.1210564281238539
                        4.3627815309090613
                        3.6341006249890606
                        3.1190173905738370
                        2.7813809387805259
                       27.6630827865782501
                       27.2819015658066821
                       26.8307987271784787
                       26.2460597195510924
                       25.5389493560276829
                       24.7229068188387578
                       23.8130016983552749
                       22.8253405441788261
                       21.7764768673749339
                       20.6828600049205334
                       19.5603498465580515
                       18.4238157341916713
                       17.2868289049258171
                       16.1614497992459877
                       15.0581046941486625
                       13.9855407017272134
                       12.9508433140056577
                       11.9594956086828346
                       11.0154512265958517
                       10.1211847693310930
                        9.2776736756203103
                        8.4842460561228733
                        7.7381301580941264
                        7.0331202274169093
                        6.3558033200965188
                        5.6786476120147201
                        4.9622636936593621
                        4.1999589813579947
                        3.4729749699775408
                        2.9278174570215822
                        2.4958580821037544
                       27.6752346590082676
                       27.2939873426245814
                       26.8424697093216388
                       26.2569141066725369
                       25.5486074593576758
                       24.7310220505132973
                       23.8192709373251713
                       22.8295122261766891
                       21.7783562550790273
                       20.6823114727883136
                       19.5572962964731586
                       18.4182354636617736
                       17.2787503792238769
                       16.1509448026508141
                       15.0452801040273063
                       13.9705283869059228
                       12.9337856619902718
                       11.9405196817872231
                       10.9946160161366569
                       10.0983733374151730
                        9.2523904118558217
                        8.4552860091231171
                        7.7031482910307031
                        6.9882931481766295
                        6.2960992237443862
                        5.5998288909888072
                        4.8659280445516736
                        4.0960580686232775
                        3.3616048042339441
                        2.7714584511265243
                        2.2474492661864337
                       27.6874354824029631
                       27.3133809137651566
                       26.8686497675865809
                       26.2892995282267532
                       25.5865265905706428
                       24.7737351592376344
                       23.8659950608391475
                       22.8794459688841645
                       21.8307030001427411
                       20.7362998544461159
                       19.6121971838757911
                       18.4733750466834451
                       17.3335192800467063
                       16.2048033313362570
                       15.0977597290158668
                       14.0212288563560124
                       12.9823652444772959
                       11.9866713306297572
                       11.0380133600746670
                       10.1385572106194325
                        9.2885553457565659
                        8.4859370119086824
                        7.7256747855947949
                        6.9987062447195325
                        6.2895185060788200
                        5.5726965926218453
                        4.8203324956536762
                        4.0401769507148919
                        3.2932702980147021
                        2.6519118664043551
                        2.0393170122873679
                       27.6996826436725345
                       27.3372977269550974
                       26.9038090190280877
                       26.3350232453207482
                       25.6419758010248637
                       24.8379390992501710
                       23.9378846576801023
                       22.9578887338766779
                       21.9145371849759670
                       20.8243661230531238
                       19.7033664907809011
                       18.5665718562584602
                       17.4277397061121233
                       16.2991280728686616
                       15.1913617484852661
                       14.1133751616008938
                       13.0724101633129107
                       12.0740338136217599
                       11.1221215484354721
                       10.2187297417036585
                        9.3637777108511429
                        8.5545062361151533
                        7.7847780815726708
                        7.0442330616866703
                        6.3167557884458699
                        5.5787286767012436
                        4.8077735895578322
                        4.0163357106330229
                        3.2560924399153402
                        2.5656053067549519
                        1.8696565302077412
                       27.7119714358359606
                       27.3674358962222610
                       26.9513468107817149
                       26.3991564904292795
                       25.7216417855554330
                       24.9318546864551376
                       24.0445913814049331
                       23.0758013763251875
                       22.0419928695294206
                       20.9596713570262622
                       19.8448400806649526
                       18.7125821933700194
                       17.5767355052464593
                       16.4496620997033380
                       15.3421072833618837
                       14.2631344480635524
                       13.2201121039408137
                       12.2187130676224989
                       11.2628612799366806
                       10.3545355261674997
                        9.4933384734652058
                        8.6758165906308153
                        7.8947048794545302
                        7.1383777891624333
                        6.3903216518196327
                        5.6290639232954799
                        4.8376566319606180
                        4.0325647054784013
                        3.2581694312809333
                        2.5254225338397787
                        1.7599048506117430
                       27.7242962608616101
                       27.4046679987104931
                       27.0130169615457562
                       26.4843232095804312
                       25.8289931066219641
                       25.0597561156224921
                       24.1911439823943458
                       23.2389057798943841
                       22.2194153150264036
                       21.1491082619482335
                       20.0439781914689033
                       18.9191520685714799
                       17.7885568326933104
                       16.6646799750339633
                       15.5584189481279376
                       14.4790055923384170
                       13.4339798196981909
                       12.4291671352251400
                       11.4685847842637432
                       10.5541697703140467
                        9.6852245557423766
                        8.8575876076213567
                        8.0628274099819817
                        7.2880463153910712
                        6.5164746962121466
                        5.7290643985804012
                        4.9142902971110501
                        4.0925251617119829
                        3.3034607333581684
                        2.5395914834430467
                        1.7273218396218911
                       27.7366509947500657
                       27.4480310398267032
                       27.0868917216007595
                       26.5876395959512599
                       25.9602138711841088
                       25.2169335448803873
                       24.3719894018964407
                       23.4408670692804478
                       22.4397577489340941
                       21.3849943589582747
                       20.2925428740121488
                       19.1775702369232205
                       18.0541013464857238
                       16.9347688149858052
                       15.8306508351049975
                       14.7511830363032745
                       13.7041165101307057
                       12.6954708767872765
                       11.7293957036994912
                       10.8078161730415493
                        9.9297451442835467
                        9.0902933209149560
                        8.2798169813863974
                        7.4841309771288971
                        6.6863418256777324
                        5.8701109401300408
                        5.0294520629495240
                        4.1888471114411324
                        3.3858594861333434
                        2.6047012718223012
                        1.7729473268839765
                       27.7490307988171123
                       27.4973559151059367
                       27.1726044479622515
                       26.7085123324984682
                       26.1144591835950075
                       25.4022705235890192
                       24.5857250716426041
                       23.6799876585540654
                       22.7010243473417189
                       21.6650378524336050
                       20.5879537390897406
                       19.4849796889592232
                       18.3702513620379212
                       17.2565694932428368
                       16.1552241881519815
                       15.0758920894774223
                       14.0265764846147703
                       13.0135332345380817
                       12.0410835801171924
                       11.1111710814748927
                       10.2225300778124086
                        9.3695246362687536
                        8.5412536662517755
                        7.7222259731811190
                        6.8955435285380532
                        6.0478490291153186
                        5.1788750653187405
                        4.3175777213728013
                        3.5017233500412183
                        2.7164951021238071
                        1.8915295788482098
                       27.7614325650704337
                       27.5522838162333050
                       27.2693939926469377
                       26.8457394103883218
                       26.2900561096035327
                       25.6136024408539625
                       24.8296837356074160
                       23.9530965183127629
                       22.9995486915446181
                       21.9850941650995081
                       20.9256131835228143
                       19.8363616828222455
                       18.7316043697584617
                       17.6243372612568394
                       16.5260963980767907
                       15.4468382835051881
                       14.3948599672864485
                       13.3766954205917105
                       12.3968763143268198
                       11.4573946649419419
                       10.5567190039709652
                        9.6884527165632835
                        8.8404002773936926
                        7.9957524322114985
                        7.1377194651374989
                        6.2561778688140346
                        5.3567783358541598
                        4.4733445150172774
                        3.6457680118861148
                        2.8670480900558679
                        2.0697406856534464
                       27.7738544085526547
                       27.6126027511417326
                       27.3767880545343795
                       26.9985446947422811
                       26.4858883054491053
                       25.8494446029104143
                       25.1019931454636276
                       24.2579238781447252
                       23.3326626587285735
                       22.3421046707331888
                       21.3020878432162305
                       20.2279308028688719
                       19.1340513572676263
                       18.0336724968429876
                       16.9386135078204950
                       15.8591517022843843
                       14.8039205136894982
                       13.7797741617817022
                       12.7914934689024525
                       11.8411494988156763
                       10.9269600713150047
                       10.0417594536771897
                        9.1720288322278653
                        8.2996328684485948
                        7.4079888425164043
                        6.4904270515172945
                        5.5587085342127576
                        4.6518926229889173
                        3.8134703310020162
                        3.0483380053341321
                        2.2929590829276804
                       27.7862950058833212
                       27.6779521427720139
                       27.4940200922609071
                       27.1657192647627098
                       26.7002784620886082
                       26.1076363386614644
                       25.4000054778300833
                       24.5913418398966055
                       23.6967754879948330
                       22.7320420125950431
                       21.7129477524364125
                       20.6548946799217645
                       19.5724824046801636
                       18.4791956691418125
                       17.3871759264511070
                       16.3070625333886676
                       15.2478671203666793
                       14.2168047398248749
                       13.2189423718937677
                       12.2564598321985471
                       11.3273407567138189
                       10.4236470621173931
                        9.5305158232835497
                        8.6284805160701493
                        7.7012470342521991
                        6.7457830082924151
                        5.7801329112644836
                        4.8489040580342529
                        4.0002089696190591
                        3.2525202759450863
                        2.5477686942365781
                       27.7987532012311361
                       27.7482187292109983
                       27.6208142406888831
                       27.3467819121882245
                       26.9325052495733832
                       26.3871901725050958
                       25.7224502214916149
                       24.9517890561981419
                       24.0900358680207146
                       23.1527737192273674
                       22.1557950320425908
                       21.1146115751980912
                       20.0440380199329104
                       18.9578589459845584
                       17.8685790008968677
                       16.7872418355601327
                       15.7232791884895155
                       14.6843069816174498
                       13.6757146222958381
                       12.6998202051045339
                       11.7543911439285227
                       10.8307175651108192
                        9.9125759490133858
                        8.9791601789479042
                        8.0145229732496433
                        7.0194156078824176
                        6.0183248523363929
                        5.0616738404166194
                        4.2028262002721936
                        3.4737297060413888
                        2.8242937086902175
                       27.8112277837495227
                       27.8231322601099466
                       27.7565884774944383
                       27.5408076890093080
                       27.1812807892926485
                       26.6864464917646904
                       26.0672980073399161
                       25.3368783260553627
                       24.5097194627427391
                       23.6012663758220124
                       22.6273210536415964
                       21.6035357248346344
                       20.5449760362936016
                       19.4657656983611075
                       18.3788135028216895
                       17.2956084865110081
                       16.2260424268798161
                       15.1781696880664538
                       14.1577359389834594
                       13.1672254798740092
                       12.2042077982149312
                       11.2592048074506937
                       10.3146196673065546
                        9.3482943556949576
                        8.3446630041943173
                        7.3083706508208919
                        6.2704893731179549
                        5.2874796787894279
                        4.4182462562319198
                        3.7069040530810220
                        3.1148384417328779
                       27.8237177013744548
                       27.9043841018578523
                       27.9046080929980680
                       27.7525025495222638
                       27.4526063405896550
                       27.0125483181232221
                       26.4426758223818193
                       25.7555623132451741
                       24.9654492696380424
                       24.0876639153665587
                       23.1380497069191741
                       22.1324403370176293
                       21.0862000436188999
                       20.0138434932221319
                       18.9287374539775665
                       17.8428702538823007
                       16.7666460152376482
                       15.7086066903784113
                       14.6748983537392926
                       13.6682077064976381
                       12.6859293707956231
                       11.7178191879310137
                       10.7448821680256837
                        9.7435683761232389
                        8.6986882759231279
                        7.6188699010028913
                        6.5419561670723981
                        5.5307190502107808
                        4.6496881187116466
                        3.9530584917852776
                        3.4189875993929573
                       27.8362211444135863
                       27.9897275100039655
                       28.0604269100236283
                       27.9753086146320191
                       27.7379369374999385
                       27.3551197245263475
                       26.8365582135886928
                       26.1943661200288721
                       25.4425129261829879
                       24.5962338838864369
                       23.6714452295102881
                       22.6841972852886507
                       21.6501902713201418
                       20.5843679585037256
                       19.5005927336423790
                       18.4113883359390553
                       17.3277050719528086
                       16.2586034917622298
                       15.2106577768626147
                       14.1867805882184262
                       13.1842090703452882
                       12.1919398861369851
                       11.1895702467763696
                       10.1521329309272466
                        9.0648004515263090
                        7.9402288419501328
                        6.8231547774317409
                        5.7828232235918945
                        4.8891935923227622
                        4.2039758392699608
                        3.7271903821654150
                       27.8487384973441919
                       28.0908721881455788
                       28.2467845227902782
                       28.2421894012245577
                       28.0795484520985301
                       27.7647566646358611
                       27.3068146789152342
                       26.7173585957572257
                       26.0101022957434944
                       25.2002360136523368
                       24.3038216202684987
                       23.3372196068794249
                       22.3165749878013962
                       21.2573794601691844
                       20.1741149717658171
                       19.0799653449389255
                       17.9865484981547801
                       16.9035577078914720
                       15.8380967833326349
                       14.7933844883977856
                       13.7665441584491867
                       12.7457981725233551
                       11.7092419412829560
                       10.6303348411281881
                        9.4945020745663564
                        8.3185509064867697
                        7.1545651057834904
                        6.0788819961309757
                        5.1668443193483247
                        4.4848153145988807
                        4.0665496342913382
                       27.8612636420322799
                       28.1888635488627218
                       28.4268291187564298
                       28.4996753617758982
                       28.4088200961219426
                       28.1592972376989042
                       27.7594500704266365
                       27.2204709025129898
                       26.5558420783520683
                       25.7807232779818150
                       24.9113274360256647
                       23.9643225158520897
                       22.9562886328714116
                       21.9032499877026833
                       20.8202882705691685
                       19.7212245439534459
                       18.6183199682156935
                       17.5218765203837904
                       16.4395067162638848
                       15.3747218815026181
                       14.3245311520804012
                       13.2763998955621951
                       12.2069513622327841
                       11.0880877439072847
                        9.9054553677838575
                        8.6799425303673388
                        7.4709321474868118
                        6.3617884630448436
                        5.4326645581325407
                        4.7514322136825786
                        4.3882493080081085
                       27.8738064757223541
                       28.2104213138900524
                       28.4571488416250889
                       28.5383598729127522
                       28.4553382169350931
                       28.2130033524503110
                       27.8196067731836546
                       27.2862737042287298
                       26.6264446918125070
                       25.8552620952249003
                       24.9889440341091263
                       24.0441833378054375
                       23.0376012783943493
                       21.9852758210859101
                       20.9023511285121824
                       19.8027149664917692
                       18.6986929492571629
                       17.6006370175960241
                       16.5161695856561378
                       15.4487211195003055
                       14.3950439558471447
                       13.3420712746831418
                       12.2656255640008379
                       11.1369646307706099
                        9.9423965885511767
                        8.7059511629878513
                        7.4917951707150430
                        6.3869405195125088
                        5.4733308631681028
                        4.8173504138893478
                        4.4807627731571933
                       27.8863903063626051
                       28.1551212779301520
                       28.3369200447224115
                       28.3570621408952440
                       28.2176109989677855
                       27.9241205753850522
                       27.4853169202372681
                       26.9126342695847532
                       26.2196592670225983
                       25.4215273119448212
                       24.5343121600451133
                       23.5744446699317954
                       22.5581887699469875
                       21.5011927881654026
                       20.4181215186640152
                       19.3223546140432640
                       18.2256996393499903
                       17.1379971623732303
                       16.0663804724470504
                       15.0138306752121686
                       13.9767157474626448
                       12.9416929358862998
                       11.8845036233623674
                       10.7767152887724384
                        9.6057100215594725
                        8.3975669363596903
                        7.2185023626686121
                        6.1556397937494476
                        5.2895093614936137
                        4.6813155631133696
                        4.3417730140020572
                       27.8990198121446689
                       28.0917613455265071
                       28.2007377689887866
                       28.1522554116199718
                       27.9492760455169413
                       27.5980897309380886
                       27.1079788332286959
                       26.4907469210762824
                       25.7601652450087475
                       24.9313796276311641
                       24.0203173217856798
                       23.0431278409340317
                       22.0156839138278539
                       20.9531588839161327
                       19.8696844093780073
                       18.7780729473936757
                       17.6895529685427853
                       16.6133950015492754
                       15.5561938424211783
                       14.5204531437390608
                       13.5021685493583555
                       12.4877944583390139
                       11.4531244855113166
                       10.3701581945412848
                        9.2273047558073232
                        8.0523641390163279
                        6.9130855369099836
                        5.8960805010790617
                        5.0792218096825915
                        4.5150227693305016
                        4.1701307967698413
                       27.9116874946616197
                       28.0389847580881493
                       28.0848703327629323
                       27.9765890543595504
                       27.7179360922760965
                       27.3158972566408692
                       26.7802953439117780
                       26.1233106198110658
                       25.3589273823648051
                       24.5023484916251694
                       23.5694161133777293
                       22.5760710445191869
                       21.5378750859368392
                       20.4696111503370465
                       19.3849635864923964
                       18.2962621860630846
                       17.2142374360082726
                       16.1476657507104087
                       15.1026724054840875
                       14.0813430472199738
                       13.0793457653184232
                       12.0829510245519108
                       11.0679757030463574
                       10.0067460149444597
                        8.8885262729300020
                        7.7427208869000891
                        6.6386986078630778
                        5.6626923431178690
                        4.8892002574532437
                        4.3593037102581194
                        4.0106114767387491
                       27.9243914386812208
                       27.9883403076498112
                       27.9729035704336701
                       27.8062635634302874
                       27.4930590983918073
                       27.0409892399613866
                       26.4604406507512243
                       25.7639982054927748
                       24.9658901364589051
                       24.0814087592534605
                       23.1263437762889570
                       22.1164589669274788
                       21.0670350667496457
                       19.9924919154487644
                       18.9060909888106573
                       17.8197008031776399
                       16.7435724833659832
                       15.6860051785575892
                       14.6526720077524260
                       13.6452628080913332
                       12.6591512857792361
                       11.6804714432005040
                       10.6851103028155553
                        9.6457113489217718
                        8.5522539371408498
                        7.4355035072294989
                        6.3662401118581484
                        5.4300404632892513
                        4.6969798477357682
                        4.1954957936004338
                        3.8412812617103268
                       27.9371287122369290
                       27.9427195506673937
                       27.8705429280736473
                       27.6496690756299219
                       27.2855468138057610
                       26.7865690559042190
                       26.1636807316888174
                       25.4298785296454509
                       24.5996531303086285
                       23.6884142892136940
                       22.7119346591132046
                       21.6858417601698241
                       20.6251793495987649
                       19.5440497789275693
                       18.4553371586216833
                       17.3704929254851256
                       16.2993309225488718
                       15.2497128252566940
                       14.2268978165642223
                       13.2322183481087016
                       12.2607942946941418
                       11.2986631280577032
                       10.3218007136629403
                        9.3031121916254566
                        8.2331135183726706
                        7.1437089481666909
                        6.1069790737631673
                        5.2076612052261646
                        4.5105188720030433
                        4.0309749624498620
                        3.6707151471669608
                       27.9498971892863341
                       27.9014809851195222
                       27.7765848976444044
                       27.5051177989053918
                       27.0933030449713624
                       26.5502047821807559
                       25.8873162692808163
                       25.1180480023767872
                       24.2571658111894279
                       23.3202187116585989
                       22.3229914430610822
                       21.2810098312939986
                       20.2091187989691485
                       19.1211432258554778
                       18.0296302648949596
                       16.9456539023559067
                       15.8786288183354222
                       14.8360157690325389
                       13.8226959799685579
                       12.8396822338736963
                       11.8818827948798077
                       10.9352832028410870
                        9.9759727096560039
                        8.9770609853123312
                        7.9294000162863210
                        6.8657720197665366
                        5.8594106081580224
                        4.9939825597281361
                        4.3281784111044030
                        3.8648852976187508
                        3.4977977337899883
                       27.9626949724871424
                       27.8648688600872489
                       27.6915598960650851
                       27.3734556954506707
                       26.9175072663096725
                       26.3334161579036957
                       25.6332034612141437
                       24.8306859602480075
                       23.9409091558685430
                       22.9795764891960861
                       21.9625088749596222
                       20.9051615625808030
                       19.8222168549888806
                       18.7272616190000192
                       17.6325470896526966
                       16.5488110479064407
                       15.4851095251617056
                       14.4485418894421511
                       13.4436507540099473
                       12.4711704724977728
                       11.5258431584520023
                       10.5936488480644535
                        9.6508119558585165
                        8.6705748060459602
                        7.6438912005529210
                        6.6041247554335251
                        5.6255081986551705
                        4.7904271288117713
                        4.1509784635623940
                        3.6986512580840754
                        3.3244336222102149
                       27.9755204544015902
                       27.8328079881409940
                       27.6153671519242776
                       27.2546000234318449
                       26.7581326107801724
                       26.1362634987816283
                       25.4015141550435031
                       24.5680930968667872
                       23.6513232168267364
                       22.6670712365610227
                       21.6312127163022213
                       20.5591586527012054
                       19.4654610455148010
                       18.3635052229275218
                       17.2652854407626976
                       16.1812432456657097
                       15.1201160212880366
                       14.0886814852493612
                       13.0911839376683153
                       12.1281223754194931
                       11.1941210955753919
                       10.2752046420047018
                        9.3477557405741258
                        8.3850664946976601
                        7.3779192805989973
                        6.3599062697748616
                        5.4060809931474306
                        4.5973804411059275
                        3.9790926978219724
                        3.5330007119276960
                        3.1518196807664098
                       27.9883722240546560
                       27.8051997048550665
                       27.5478546753382858
                       27.1483867753655677
                       26.6150403738898282
                       25.9586657687232508
                       25.1922517233956258
                       24.3303779450499824
                       23.3886363834481167
                       22.3830600424974350
                       21.3295921628966138
                       20.2436209649043819
                       19.1395963148495059
                       18.0307350927569819
                       16.9288109083417127
                       15.8440072016400700
                       14.7847816091067748
                       13.7576295823968663
                       12.7665378970752776
                       11.8118148427567295
                       10.8880182654636294
                        9.9812716699034817
                        9.0681421744676209
                        8.1218778392110398
                        7.1327686091594616
                        6.1342054243888830
                        5.2018536070313876
                        4.4151268067868956
                        3.8126644144693349
                        3.3686751969890761
                        2.9813302583587302
                       28.0012490187507472
                       27.7818570217379112
                       27.4886904464034656
                       27.0543795665688707
                       26.4877290811731684
                       25.8000930969449410
                       25.0048910282093434
                       24.1170489282469196
                       23.1524146881693876
                       22.1271855904659893
                       21.0573805948872932
                       19.9583818337881833
                       18.8445607932749759
                       17.7289950673863988
                       16.6232705895282433
                       15.5373480726897610
                       14.4794422160366727
                       13.4558042427475557
                       12.4702037987169082
                       11.5228041241248302
                       10.6081511256799729
                        9.7125275392674987
                        8.8127168442447733
                        7.8818201831683133
                        6.9092566506713148
                        5.9276812760033412
                        5.0131217780469733
                        4.2435468012766795
                        3.6515454625494846
                        3.2062148630206674
                        2.8141901812563382
                       28.0141496728182206
                       27.7625349079413736
                       27.4374215478929234
                       26.9719554505705803
                       26.3754442289687815
                       25.6596972538678924
                       24.8385261674180874
                       23.9271757859353599
                       22.9417333381570394
                       21.8985543633590354
                       20.8137372605209071
                       19.7026703502145802
                       18.5796661670475333
                       17.4576880977535574
                       16.3481636440253102
                       15.2608628993579736
                       14.2037917105151583
                       13.1829930817252389
                       12.2020589034767793
                       11.2610536459424367
                       10.3545691550555191
                        9.4691149680172230
                        8.5817321005984475
                        7.6652653699155328
                        6.7078159378554645
                        5.7406283884323107
                        4.8397941590524738
                        4.0821477283840875
                        3.4953256864611881
                        3.0459848153016404
                        2.6514589300172717
                       28.0270730735598134
                       27.7469462037699500
                       27.3935054824276532
                       26.9003506067624096
                       26.2772368834450254
                       25.5363813651079978
                       24.6919492726709907
                       23.7594752959231140
                       22.7552671674176534
                       21.6958296934186372
                       20.5973409260370272
                       19.4752038058866261
                       18.3436873506622031
                       17.2156618413723609
                       16.1024217779264811
                       15.0135752132567999
                       13.9569501183566667
                       12.9384148003452574
                       11.9614212983110119
                       11.0259819442399357
                       10.1267960505950701
                        9.2506764245136192
                        8.3749758593689490
                        7.4721705351129362
                        6.5285151531701438
                        5.5729851311336447
                        4.6813786207760455
                        3.9300428354041363
                        3.3433192639083595
                        2.8881582485166904
                        2.4939453129724757
                       28.0400181194643351
                       27.7347863008489043
                       27.3563592308543856
                       26.8387328256428093
                       26.1920580746749692
                       25.4289142080259171
                       24.5637823129041320
                       23.6124579136725948
                       22.5914492775621582
                       21.5173995133602920
                       20.4065638887877806
                       19.2743652506221691
                       18.1350410687400980
                       17.0013860005856478
                       15.8845833536648904
                       14.7941042381072961
                       13.7376265359454358
                       12.7208747153650456
                       11.7471971847734534
                       10.8166010056557320
                        9.9239584513084920
                        9.0564725638505079
                        8.1918794807475336
                        7.3021763633722186
                        6.3711468345608791
                        5.4243973789906252
                        4.5370084839827382
                        3.7859617362769531
                        3.1945815005024212
                        2.7327183134872497
                        2.3421441932729162
                       28.0529836767832818
                       27.7257601997146464
                       27.3254132724061480
                       26.7862817406257939
                       26.1188638959625709
                       25.3360583117056032
                       24.4526258914949838
                       23.4845946220869486
                       22.4486530663468127
                       21.3615705633314740
                       20.2396753406940214
                       19.0984130574286494
                       17.9519988129770080
                       16.8131660697183021
                       15.6930055802038655
                       14.6008734570191653
                       13.5443223035113047
                       12.5289610503847034
                       11.5580690390718191
                       10.6316951902816482
                        9.7449545083011068
                        8.8855392237585898
                        8.0316622858196730
                        7.1547396094600285
                        6.2353458726478417
                        5.2943031690238311
                        4.4054739189925388
                        3.6482625472519102
                        3.0479328412293840
                        2.5794577317774538
                        2.1961719472984197
                       28.0659685290777750
                       27.7196130613984441
                       27.3001726209197317
                       26.7422795917745948
                       26.0567346270067084
                       25.2567155204239323
                       24.3572288602686705
                       23.3745078327291599
                       22.3254013820064548
                       21.2267926027601488
                       20.0950773828539624
                       18.9457255185007752
                       17.7929369157198906
                       16.6493959671636084
                       15.5261170216465423
                       14.4323605891212943
                       13.3755763319879490
                       12.3612837802091781
                       11.3927263827298111
                       10.4700424713209368
                        9.5886640802274987
                        8.7368848417849592
                        7.8935146607067991
                        7.0293018722463498
                        6.1207400750371216
                        5.1820349605579872
                        4.2852488454163571
                        3.5149399597366678
                        2.9019875434170843
                        2.4279718002464366
                        2.0557041295881836
                       28.0789713128596195
                       27.7161652182517718
                       27.2802866220710311
                       26.7062148534723214
                       26.0050105956331642
                       25.1900929153814032
                       24.2766816393938369
                       23.2811890518446347
                       22.2206052042178320
                       21.1119146036415415
                       19.9715751640370864
                       18.8150813972447778
                       17.6566241001790238
                       16.5088493578947925
                       15.3827097080710583
                       14.2873877865576612
                       13.2302509853546374
                       12.2167540939487596
                       11.2501369720198675
                       10.3306756282388584
                        9.4541981127991382
                        8.6097258671469098
                        7.7768173965941459
                        6.9254923062930324
                        6.0271292535758734
                        5.0869283872790843
                        4.1744941280478959
                        3.3836184962918733
                        2.7551786043810270
                        2.2776346156705058
                        1.9199124688130056
                       28.0919904316015264
                       27.7140502372060249
                       27.2630536464075417
                       26.6741047369746362
                       25.9585033257986208
                       25.1298904855325930
                       24.2036822296058404
                       23.1964555786423989
                       22.1253303403843998
                       21.0073842329993750
                       19.8591321329709523
                       18.6960911915421497
                       17.5324437492770134
                       16.3808006459136231
                       15.2520577622415074
                       14.1553269445295336
                       13.0979026796866362
                       12.0851883751314055
                       11.1204424749370085
                       10.2041207957507902
                        9.3325322589038456
                        8.4955947186103761
                        7.6739157345175316
                        6.8371300938230112
                        5.9512058108037424
                        5.0104796944894638
                        4.0808317235533426
                        3.2675748862991239
                        2.6234237623032862
                        2.1417979682583778
                        1.7950588314944876
                </DataArray>
                <DataArray type="Float32" Name="jacobian" NumberOfComponents="1" format="ascii">
                        0.0088984444233981
                        0.0088729572881928
                        0.0088224412879967
                        0.0087247816106120
                        0.0085821682263820
                        0.0083976663807341
                        0.0081750824083762
                        0.0079188068144061
                        0.0076336433276701
                        0.0073246345558121
                        0.0069968941296512
                        0.0066554535619634
                        0.0063051300337706
                        0.0059504189526579
                        0.0055954128696016
                        0.0052437461179551
                        0.0048985624141300
                        0.0045625005763897
                        0.0042376915123986
                        0.0039257586252795
                        0.0036278149985195
                        0.0033444561451668
                        0.0030757590849517
                        0.0028213228175151
                        0.0025804152759378
                        0.0023521761948026
                        0.0021348483291744
                        0.0019175605442870
                        0.0016411471538831
                        0.0011922546873903
                        0.0006223662417943
                        0.0089022955610106
                        0.0088906861939898
                        0.0088541205843596
                        0.0087702282775160
                        0.0086409639808172
                        0.0084691728596726
                        0.0082584645433140
                        0.0080130622033459
                        0.0077376357613777
                        0.0074371297903955
                        0.0071165960505788
                        0.0067810390692448
                        0.0064352812422875
                        0.0060838516238418
                        0.0057309002495150
                        0.0053801374169826
                        0.0050347946841109
                        0.0046976011583510
                        0.0043707648425150
                        0.0040559456677457
                        0.0037542071935240
                        0.0034659427723833
                        0.0031907945058150
                        0.0029276176821221
                        0.0026745327740182
                        0.0024288624029547
                        0.0021863638040401
                        0.0019383344609736
                        0.0016512984540283
                        0.0012484387582435
                        0.0006963080555040
                        0.0089061531320353
                        0.0089074464033404
                        0.0088839031946252
                        0.0088129163740239
                        0.0086962210776526
                        0.0085364550236953
                        0.0083370403631769
                        0.0081020385948061
                        0.0078359879577633
                        0.0075437337894518
                        0.0072302618041833
                        0.0069005428504460
                        0.0065593958449026
                        0.0062113733284807
                        0.0058606717064007
                        0.0055110655939395
                        0.0051658624388999
                        0.0048278691595370
                        0.0044993566694124
                        0.0041820025329894
                        0.0038767913626398
                        0.0035838658817769
                        0.0033023590933272
                        0.0030302931230785
                        0.0027646031072023
                        0.0025010431652168
                        0.0022339360393412
                        0.0019578725562611
                        0.0016612587991551
                        0.0012995177451291
                        0.0007661562121367
                        0.0089100190630109
                        0.0089221051130735
                        0.0089095445681882
                        0.0088495345967099
                        0.0087436260768401
                        0.0085942791286425
                        0.0084047519110236
                        0.0081789608279946
                        0.0079213219491644
                        0.0076365840333190
                        0.0073296630728850
                        0.0070054869943550
                        0.0066688573562839
                        0.0063243326861453
                        0.0059761356556919
                        0.0056280834235574
                        0.0052835365964804
                        0.0049453564474847
                        0.0046158518535975
                        0.0042966889223358
                        0.0039887345725408
                        0.0036918245497878
                        0.0034045045486078
                        0.0031238829072760
                        0.0028457163353282
                        0.0025645393757357
                        0.0022743492991065
                        0.0019740228096452
                        0.0016694539084046
                        0.0013448891442424
                        0.0008450716720313
                        0.0089138952542376
                        0.0089344085741388
                        0.0089304884243978
                        0.0088791815047309
                        0.0087818955453099
                        0.0086409500681975
                        0.0084594709082295
                        0.0082412547992012
                        0.0079906142814497
                        0.0077122132226243
                        0.0074109028060890
                        0.0070915666443824
                        0.0067589819423445
                        0.0064177014679789
                        0.0060719585938692
                        0.0057255945568978
                        0.0053820025471891
                        0.0050440759416777
                        0.0047141373030590
                        0.0043938131059745
                        0.0040838163667094
                        0.0037836260530110
                        0.0034911372960250
                        0.0032024961400654
                        0.0029123510968071
                        0.0026144486454030
                        0.0023035024880246
                        0.0019833178894388
                        0.0016731339630562
                        0.0013812471871788
                        0.0009305523359851
                        0.0089177835088729
                        0.0089440667247174
                        0.0089461093986925
                        0.0089008565347298
                        0.0088096187580614
                        0.0086746181272045
                        0.0084988869072439
                        0.0082861353377999
                        0.0080405991780076
                        0.0077668772443827
                        0.0074697687267559
                        0.0071541189250292
                        0.0068246803652976
                        0.0064859940979271
                        0.0061422934368348
                        0.0057974290262017
                        0.0054548089129832
                        0.0051173384720520
                        0.0047873316940930
                        0.0044663503671668
                        0.0041549239431781
                        0.0038521387623119
                        0.0035552036897921
                        0.0032593036091674
                        0.0029581257523754
                        0.0026451247387227
                        0.0023166392197722
                        0.0019816333040739
                        0.0016688694367087
                        0.0014046525964157
                        0.0010162713297478
                        0.0089216854658420
                        0.0089509663571016
                        0.0089561490122961
                        0.0089141255860677
                        0.0088261567856838
                        0.0086944124388526
                        0.0085218729602405
                        0.0083121989822090
                        0.0080695805339814
                        0.0077985759388007
                        0.0075039501554729
                        0.0071905211666713
                        0.0068630213655737
                        0.0065259787296099
                        0.0061836199753557
                        0.0058397942587923
                        0.0054979101116765
                        0.0051608679523949
                        0.0048309545234946
                        0.0045096473520015
                        0.0041972729503195
                        0.0038925092203436
                        0.0035918796869329
                        0.0032896682188573
                        0.0029788208061055
                        0.0026530167976264
                        0.0023109123258813
                        0.0019664118977499
                        0.0016543700396521
                        0.0014123157153415
                        0.0010936979250640
                        0.0089256022059320
                        0.0089549254615154
                        0.0089602204756123
                        0.0089183766718510
                        0.0088306540616751
                        0.0086992180488239
                        0.0085270419376543
                        0.0083177770090641
                        0.0080756022133505
                        0.0078050636521813
                        0.0075109135227144
                        0.0071979570760501
                        0.0068709144943284
                        0.0065343024111016
                        0.0061923371470659
                        0.0058488578611686
                        0.0055072613093245
                        0.0051704281262854
                        0.0048406020511928
                        0.0045191622690434
                        0.0042062245560811
                        0.0039000659923730
                        0.0035965678227486
                        0.0032892353674019
                        0.0029705525870946
                        0.0026349082003518
                        0.0022836919126711
                        0.0019351139194907
                        0.0016271453040926
                        0.0014018663699625
                        0.0011512714390321
                        0.0089295343107386
                        0.0089565207310697
                        0.0089594868828184
                        0.0089153591969191
                        0.0088254361284666
                        0.0086919168123447
                        0.0085178032933514
                        0.0083067699153656
                        0.0080630126273845
                        0.0077910884198900
                        0.0074957545141596
                        0.0071818158043746
                        0.0068539873746633
                        0.0065167767200964
                        0.0061743875769465
                        0.0058306431810744
                        0.0054889196798069
                        0.0051520673590591
                        0.0048222765850360
                        0.0045008215447939
                        0.0041876109162362
                        0.0038805471041113
                        0.0035749400928026
                        0.0032636705987674
                        0.0029390421616219
                        0.0025965288113576
                        0.0022403748758173
                        0.0018922159567732
                        0.0015908206861736
                        0.0013773664914797
                        0.0011856975177627
                        0.0089334810390880
                        0.0089566649046164
                        0.0089558001300020
                        0.0089078746583750
                        0.0088142493056061
                        0.0086771802232150
                        0.0084997200372000
                        0.0082855858674324
                        0.0080390077100742
                        0.0077645674494213
                        0.0074670380852354
                        0.0071512316117439
                        0.0068218622712671
                        0.0064834296988791
                        0.0061401236704046
                        0.0057957478971133
                        0.0054536526779919
                        0.0051166520178987
                        0.0047868780432905
                        0.0044654996072164
                        0.0041522291399999
                        0.0038446284360192
                        0.0035375134953570
                        0.0032232885313231
                        0.0028943102413284
                        0.0025473722929983
                        0.0021894704378540
                        0.0018447624070274
                        0.0015512366170451
                        0.0013452954933894
                        0.0011995014740027
                        0.0089374409994188
                        0.0089548013057618
                        0.0089480406117997
                        0.0088942417298580
                        0.0087948607562332
                        0.0086522427524362
                        0.0084695206878720
                        0.0082504811715028
                        0.0079994111924989
                        0.0077209362087651
                        0.0074198591471818
                        0.0071010086735203
                        0.0067691033353702
                        0.0064286359508173
                        0.0060837797353464
                        0.0057383132388514
                        0.0053955530751951
                        0.0050582682938916
                        0.0047285258399057
                        0.0044073890911330
                        0.0040943903830485
                        0.0037867991841690
                        0.0034790395644724
                        0.0031632124152330
                        0.0028319492209841
                        0.0024834914611403
                        0.0021272986979583
                        0.0017891011280808
                        0.0015049626948818
                        0.0013044608279417
                        0.0011873750280367
                        0.0089414126112208
                        0.0089506456166341
                        0.0089356494182349
                        0.0088736397611349
                        0.0087662055629867
                        0.0086158167449525
                        0.0084257197450873
                        0.0081997999625219
                        0.0079424260947475
                        0.0076582868026310
                        0.0073522292480771
                        0.0070291077713175
                        0.0066936491610513
                        0.0063503387105458
                        0.0060033283021682
                        0.0056563632262374
                        0.0053127160058392
                        0.0049750996839893
                        0.0046455074930101
                        0.0043248975616511
                        0.0040126425815288
                        0.0037057783994689
                        0.0033984546874279
                        0.0030826493503453
                        0.0027514535303956
                        0.0024045668875100
                        0.0020534799836682
                        0.0017245775726281
                        0.0014512321101867
                        0.0012560151049544
                        0.0011502899117529
                        0.0089453941228394
                        0.0089445174314880
                        0.0089193022818407
                        0.0088471305299538
                        0.0087297559890217
                        0.0085698032293690
                        0.0083706586595538
                        0.0081363289341813
                        0.0078712823722313
                        0.0075802839261656
                        0.0072682332183536
                        0.0069400138001716
                        0.0066003599040878
                        0.0062537446635554
                        0.0059042907672030
                        0.0055556998968173
                        0.0052111886304236
                        0.0048734022383724
                        0.0045442516008538
                        0.0042245900396332
                        0.0039136508474613
                        0.0036082921958660
                        0.0033024957826244
                        0.0029882643808333
                        0.0026592617040180
                        0.0023165506841152
                        0.0019731745588619
                        0.0016554314909435
                        0.0013936295339914
                        0.0012043626186788
                        0.0010974007398478
                        0.0089493842182634
                        0.0089364789438608
                        0.0088991633899269
                        0.0088150176292372
                        0.0086859904167378
                        0.0085148875867588
                        0.0083052578466618
                        0.0080612466022557
                        0.0077874341740025
                        0.0074886690409598
                        0.0071699055766291
                        0.0068360542843295
                        0.0064918505787197
                        0.0061417458200825
                        0.0057898212659816
                        0.0054397209383191
                        0.0050945906168434
                        0.0047569937042492
                        0.0044287482836805
                        0.0041106016203441
                        0.0038016652325857
                        0.0034986694994669
                        0.0031955195121474
                        0.0028843570001544
                        0.0025594710953741
                        0.0022231282340943
                        0.0018894603954270
                        0.0015841244229327
                        0.0013342697414187
                        0.0011518237578289
                        0.0010367268932326
                        0.0089533821263836
                        0.0089266572097669
                        0.0088755342892296
                        0.0087778205896313
                        0.0086356854404828
                        0.0084521368578440
                        0.0082309014591401
                        0.0079762734765314
                        0.0076929498214922
                        0.0073858619029405
                        0.0070600135681252
                        0.0067203329715715
                        0.0063715441426461
                        0.0060180616381302
                        0.0056639086103081
                        0.0053126539425221
                        0.0049673553028832
                        0.0046304784829039
                        0.0043037371057806
                        0.0039877694877653
                        0.0036815791309762
                        0.0033818089923076
                        0.0030823582516966
                        0.0027755841326668
                        0.0024564034829881
                        0.0021280973336079
                        0.0018054858908755
                        0.0015132256872595
                        0.0012754297703106
                        0.0011004483254390
                        0.0009752046060024
                        0.0089573874484612
                        0.0089151336843499
                        0.0088486268106120
                        0.0087359260681240
                        0.0085794416005804
                        0.0083823978868659
                        0.0081487075205599
                        0.0078828155506474
                        0.0075895318202845
                        0.0072738620103606
                        0.0069408466018377
                        0.0065954152888261
                        0.0062422622762326
                        0.0058857454741893
                        0.0055298095525331
                        0.0051779281708503
                        0.0048330519711415
                        0.0044975325877280
                        0.0041729670769314
                        0.0038598809137026
                        0.0035571799902572
                        0.0032614513918558
                        0.0029666405793180
                        0.0026653663370290
                        0.0023531421577853
                        0.0020340720509911
                        0.0017233406511240
                        0.0014444025113269
                        0.0012185778573515
                        0.0010513718093093
                        0.0009168933474360
                        0.0089613999186652
                        0.0089020392932927
                        0.0088187512082067
                        0.0086898648548754
                        0.0085180433648749
                        0.0083067330252533
                        0.0080600311048012
                        0.0077825260970864
                        0.0074791281608299
                        0.0071549003843720
                        0.0068148998547936
                        0.0064640357138536
                        0.0061069492333836
                        0.0057479185013262
                        0.0053907872888704
                        0.0050389130934864
                        0.0046951207723476
                        0.0043616321338496
                        0.0040399166466630
                        0.0037303833827621
                        0.0034318488548207
                        0.0031408683919402
                        0.0028514702222025
                        0.0025565571176856
                        0.0022521883891839
                        0.0019431132223876
                        0.0016446342712727
                        0.0013789224476282
                        0.0011648038471422
                        0.0010054033678992
                        0.0008638982895728
                        0.0089654192542075
                        0.0088874260106771
                        0.0087860606784482
                        0.0086399323608181
                        0.0084519604670571
                        0.0082258090285174
                        0.0079657492159575
                        0.0076764964923702
                        0.0073630403476758
                        0.0070304770686203
                        0.0066838541973408
                        0.0063280334391584
                        0.0059675765879511
                        0.0056066566065966
                        0.0052489930264764
                        0.0048978063664688
                        0.0045557779012842
                        0.0042249854575015
                        0.0039067615005723
                        0.0036013960353089
                        0.0033076232502236
                        0.0030219856130435
                        0.0027386196329776
                        0.0024507195047513
                        0.0021548314580869
                        0.0018561925964709
                        0.0015700402294122
                        0.0013172548353596
                        0.0011144687227387
                        0.0009627336887859
                        0.0008166508055385
                        0.0089694450724422
                        0.0088713966790979
                        0.0087508068558498
                        0.0085865634690596
                        0.0083818341121522
                        0.0081404853597850
                        0.0078669410976310
                        0.0075660179812670
                        0.0072427559457071
                        0.0069022539405319
                        0.0065495191289630
                        0.0061893358296589
                        0.0058261582590336
                        0.0054640287416570
                        0.0051065201548192
                        0.0047566970515355
                        0.0044170817947239
                        0.0040895968630051
                        0.0037754309622775
                        0.0034747541660048
                        0.0031862251720463
                        0.0029063887142539
                        0.0026295068854182
                        0.0023490627000505
                        0.0020620288007927
                        0.0017739960912394
                        0.0015000053598613
                        0.0012596880825769
                        0.0010677636575652
                        0.0009234384773838
                        0.0007749671318366
                        0.0089734769185893
                        0.0088534318980510
                        0.0087120384113539
                        0.0085284549861453
                        0.0083060813848512
                        0.0080489630839828
                        0.0077616469297806
                        0.0074490166356926
                        0.0071161258179986
                        0.0067680383529485
                        0.0064096837961151
                        0.0060457336008932
                        0.0056805016517178
                        0.0053178703024578
                        0.0049612403091527
                        0.0046134988928174
                        0.0042769923635040
                        0.0039534751183153
                        0.0036439842733642
                        0.0033485681240007
                        0.0030658155519827
                        0.0027922870993771
                        0.0025223859122181
                        0.0022498807462497
                        0.0019721150976158
                        0.0016949145158172
                        0.0014330127371948
                        0.0012048353538557
                        0.0010234261578873
                        0.0008863612342414
                        0.0007372382817597
                        0.0089775140288676
                        0.0088342654545950
                        0.0086712282382238
                        0.0084677996414846
                        0.0082275747066368
                        0.0079547369113885
                        0.0076539129544989
                        0.0073300100918290
                        0.0069880533133527
                        0.0066330316780929
                        0.0062697610063696
                        0.0059027681073643
                        0.0055361995291462
                        0.0051737555717244
                        0.0048186476256656
                        0.0044735729256783
                        0.0041406933344847
                        0.0038215907430869
                        0.0035171501123096
                        0.0032273014083591
                        0.0029505712964114
                        0.0026835465735835
                        0.0024207783463640
                        0.0021563082273828
                        0.0018877961908834
                        0.0016212102806009
                        0.0013709172915690
                        0.0011542215938305
                        0.0009827172150447
                        0.0008525286514850
                        0.0007040697581118
                        0.0089815560276396
                        0.0088102432524884
                        0.0086215000784610
                        0.0083949245477831
                        0.0081342588572825
                        0.0078437675224333
                        0.0075280935913423
                        0.0071921002615994
                        0.0068407145618219
                        0.0064787818299647
                        0.0061109375533679
                        0.0057415011320230
                        0.0053743940044396
                        0.0050130824258670
                        0.0046605426735318
                        0.0043192426904235
                        0.0039911270903812
                        0.0036775791087473
                        0.0033793126367436
                        0.0030961290690133
                        0.0028264936274858
                        0.0025670328278331
                        0.0023124674110849
                        0.0020571213355461
                        0.0017989304196335
                        0.0015438938755358
                        0.0013058873363309
                        0.0011010818574273
                        0.0009397775979985
                        0.0008169480913170
                        0.0006700796444338
                        0.0089856006210500
                        0.0087873465057171
                        0.0085742620113218
                        0.0083260624921317
                        0.0080465608380931
                        0.0077400345354121
                        0.0074110843586388
                        0.0070644809315718
                        0.0067050151155686
                        0.0063373604028499
                        0.0059659533057693
                        0.0055948957635760
                        0.0052278815488122
                        0.0048681465986254
                        0.0045184408359254
                        0.0041810154807756
                        0.0038576131191454
                        0.0035494351036086
                        0.0032570414299474
                        0.0029801210126690
                        0.0027170902667860
                        0.0024646205015630
                        0.0022175931325936
                        0.0019705844402310
                        0.0017217566645529
                        0.0014770988874615
                        0.0012500208392806
                        0.0010557056038454
                        0.0009033629386144
                        0.0007869248318062
                        0.0006422802867988
                        0.0089896496096802
                        0.0087883430394382
                        0.0085724457585537
                        0.0083216833095877
                        0.0080398845198925
                        0.0077313369238336
                        0.0074006451134264
                        0.0070525775518466
                        0.0066919174883645
                        0.0063233260772344
                        0.0059512236250554
                        0.0055796929167661
                        0.0052124065464204
                        0.0048525781262672
                        0.0045029349161949
                        0.0041657058872240
                        0.0038426125696143
                        0.0035348374816394
                        0.0032429256869493
                        0.0029665580311924
                        0.0027041546621481
                        0.0024524097277451
                        0.0022062564184340
                        0.0019603664169523
                        0.0017130617834986
                        0.0014705388326895
                        0.0012462968144511
                        0.0010552216633319
                        0.0009057968134571
                        0.0007904812944692
                        0.0006489258947019
                        0.0089937095491236
                        0.0088133742933606
                        0.0086162210650832
                        0.0083818961203876
                        0.0081142079207034
                        0.0078174687193703
                        0.0074963493383051
                        0.0071557212064614
                        0.0068005013794236
                        0.0064355090592186
                        0.0060653399690604
                        0.0056942629238355
                        0.0053261408500526
                        0.0049643763727838
                        0.0046118796602162
                        0.0042710525685012
                        0.0039437762673334
                        0.0036313766369645
                        0.0033345218785973
                        0.0030529891016488
                        0.0027852567987395
                        0.0025280260306351
                        0.0022761846812162
                        0.0020243616938746
                        0.0017709982163785
                        0.0015227428372829
                        0.0012937425684886
                        0.0010992000008190
                        0.0009470645731961
                        0.0008281761629545
                        0.0006909819589172
                        0.0089977826042316
                        0.0088411042341250
                        0.0086653636425677
                        0.0084500547626367
                        0.0081989044121872
                        0.0079161997812711
                        0.0076066399113233
                        0.0072751727921139
                        0.0069268338769315
                        0.0065665950335084
                        0.0061992308003259
                        0.0058292067851640
                        0.0054605928789868
                        0.0050970017373241
                        0.0047415504379494
                        0.0043968394444564
                        0.0040649359241197
                        0.0037473352106917
                        0.0034448536854478
                        0.0031573878363801
                        0.0028834942360125
                        0.0026198944389072
                        0.0023614340978732
                        0.0021026898046932
                        0.0018422123158650
                        0.0015871293038995
                        0.0013523190518224
                        0.0011533751480523
                        0.0009976667778734
                        0.0008750871627639
                        0.0007429285355685
                        0.0090018670949162
                        0.0088656652051222
                        0.0087087578496541
                        0.0085104400992476
                        0.0082743060321323
                        0.0080045633538947
                        0.0077058832823564
                        0.0073832343549690
                        0.0070417159231760
                        0.0066864007898832
                        0.0063221943381313
                        0.0059537154726869
                        0.0055852024732396
                        0.0052204445722224
                        0.0048627374284846
                        0.0045148567865233
                        0.0041790373702748
                        0.0038569305359685
                        0.0035494931740154
                        0.0032567410672936
                        0.0029773193445381
                        0.0027079936146714
                        0.0024436006936913
                        0.0021786908558197
                        0.0019119145352847
                        0.0016508231202767
                        0.0014109543618365
                        0.0012082123757695
                        0.0010493521375135
                        0.0009241674635629
                        0.0007975443050140
                        0.0090059629260964
                        0.0088896954802856
                        0.0087513713998510
                        0.0085700461991751
                        0.0083491386914049
                        0.0080927339888215
                        0.0078054333718108
                        0.0074921861946923
                        0.0071581194739878
                        0.0068083750185093
                        0.0064479619311657
                        0.0060816303029630
                        0.0057137696631869
                        0.0053483334064960
                        0.0049887876915386
                        0.0046380793387538
                        0.0042986098960544
                        0.0039721893168430
                        0.0036599212362640
                        0.0033619517694558
                        0.0030770322205455
                        0.0028019972536550
                        0.0025317025303475
                        0.0022606867946237
                        0.0019876831064203
                        0.0017206265335122
                        0.0014756896884627
                        0.0012690680101142
                        0.0011069585690328
                        0.0009797554639672
                        0.0008597593322981
                        0.0090100695143044
                        0.0089122613075882
                        0.0087913727366640
                        0.0086262011582992
                        0.0084199653352801
                        0.0081765980249450
                        0.0079005974215263
                        0.0075968587554632
                        0.0072705014633384
                        0.0069267021143320
                        0.0065705413595878
                        0.0062068711954210
                        0.0058402065711197
                        0.0054746429840307
                        0.0051137989229317
                        0.0047607779972641
                        0.0044181381852515
                        0.0040878418221579
                        0.0037711382426767
                        0.0034683102178413
                        0.0031782323532371
                        0.0028978389720682
                        0.0026220440216224
                        0.0023454010042297
                        0.0020667037893421
                        0.0017941963744246
                        0.0015446094024091
                        0.0013343818481375
                        0.0011692850016795
                        0.0010410209607466
                        0.0009287234190343
                        0.0090141864160398
                        0.0089335465879331
                        0.0088290709747428
                        0.0086792909883293
                        0.0084872107984304
                        0.0082565905282504
                        0.0079918005990959
                        0.0076976544477014
                        0.0073792346824618
                        0.0070417231095614
                        0.0066902432671068
                        0.0063297221889249
                        0.0059647758769758
                        0.0055996205480119
                        0.0052380089115873
                        0.0048831866963349
                        0.0045378572721904
                        0.0042041284635338
                        0.0038833939054508
                        0.0035760799289468
                        0.0032812040395885
                        0.0029958362508395
                        0.0027149964947680
                        0.0024332860689590
                        0.0021495326170126
                        0.0018721898803075
                        0.0016184400540840
                        0.0014049224838830
                        0.0012372052701229
                        0.0011089507438562
                        0.0010056824179094
                        0.0090183131530430
                        0.0089534546827800
                        0.0088642349268787
                        0.0087289229315302
                        0.0085503046351448
                        0.0083319574039587
                        0.0080781082460106
                        0.0077934688063443
                        0.0074830617586174
                        0.0071520491807008
                        0.0068055718492947
                        0.0064486065484580
                        0.0060858462801725
                        0.0057216058502554
                        0.0053597524925794
                        0.0050036571915804
                        0.0046561551233436
                        0.0043194901286252
                        0.0039951966282181
                        0.0036838506274217
                        0.0033846340714685
                        0.0030947951148811
                        0.0028095187862495
                        0.0025234985607194
                        0.0022355650618682
                        0.0019542489503792
                        0.0016970300027258
                        0.0014807058377311
                        0.0013109610520936
                        0.0011840088747462
                        0.0010911735046523
                        0.0090224492578390
                        0.0089719920496262
                        0.0088968357773943
                        0.0087749984277522
                        0.0086090521352408
                        0.0084023895351074
                        0.0081590864364335
                        0.0078837399294518
                        0.0075812960105328
                        0.0072568773869588
                        0.0069156206173835
                        0.0065625299929926
                        0.0062023534065464
                        0.0058394830609290
                        0.0054778810852345
                        0.0051210262153257
                        0.0047718706998594
                        0.0044327835510205
                        0.0041054353387366
                        0.0037905578484137
                        0.0034875215886050
                        0.0031938024988537
                        0.0029048227445740
                        0.0026154265213137
                        0.0023244153684251
                        0.0020402272954624
                        0.0017804305339940
                        0.0015619471616789
                        0.0013909997265201
                        0.0012668472585362
                        0.0011858732472488
                        0.0090265942627559
                        0.0089891742868531
                        0.0089268662544349
                        0.0088174538350857
                        0.0086633059124309
                        0.0084676350315178
                        0.0082343647729677
                        0.0079679714824325
                        0.0076733138463628
                        0.0073554609835818
                        0.0070195283623072
                        0.0066705291918306
                        0.0063132468429045
                        0.0059521314884504
                        0.0055912214292898
                        0.0052340858070085
                        0.0048837787799342
                        0.0045427829227439
                        0.0042128996760416
                        0.0038950230699718
                        0.0035887392534491
                        0.0032918095475958
                        0.0029999802627644
                        0.0027083232586069
                        0.0024155819785944
                        0.0021298917680437
                        0.0018686328552497
                        0.0016488298304658
                        0.0014777664086898
                        0.0013581059928355
                        0.0012902845689028
                        0.0090307477028795
                        0.0090050472558035
                        0.0089543831697673
                        0.0088563246700296
                        0.0087130519575416
                        0.0085276069098759
                        0.0083037651200538
                        0.0080458814722271
                        0.0077587221188083
                        0.0074472934798516
                        0.0071166776762428
                        0.0067718822295416
                        0.0064177098373011
                        0.0060586517174821
                        0.0056988053697256
                        0.0053418140455850
                        0.0049908191039743
                        0.0046484051288722
                        0.0043164992141152
                        0.0039961650000479
                        0.0036872347232317
                        0.0033878212756760
                        0.0030940990595574
                        0.0028014679348843
                        0.0025085938350207
                        0.0022230569374929
                        0.0019616918123107
                        0.0017416168967612
                        0.0015717969813301
                        0.0014584698140454
                        0.0014047520278398
                        0.0090349091149438
                        0.0090196775298701
                        0.0089794894288489
                        0.0088917207922006
                        0.0087583799526215
                        0.0085823506616986
                        0.0083672685593196
                        0.0081173705955625
                        0.0078373296289846
                        0.0075320847388543
                        0.0072066767175689
                        0.0068660967159673
                        0.0065151540554856
                        0.0061583669657276
                        0.0057998774673630
                        0.0054433883250757
                        0.0050921145433534
                        0.0047487319108354
                        0.0044152886319239
                        0.0040930266794279
                        0.0037820584789726
                        0.0034809237306253
                        0.0031863478104594
                        0.0028941883998124
                        0.0026030334935618
                        0.0023196126758212
                        0.0020597580389029
                        0.0018406823758963
                        0.0016737377842102
                        0.0015686540994934
                        0.0015293643927573
                        0.0090390780356906
                        0.0090331472790324
                        0.0090023242016118
                        0.0089238127160456
                        0.0087994669304270
                        0.0086320267043963
                        0.0084249981919231
                        0.0081825069507822
                        0.0079091352034157
                        0.0076097536840829
                        0.0072893575583199
                        0.0069529144930918
                        0.0066052310545149
                        0.0062508414250789
                        0.0058939200222883
                        0.0055382166238395
                        0.0051870079700272
                        0.0048430515252182
                        0.0045085132174584
                        0.0041848237582042
                        0.0038724136294878
                        0.0035703338548752
                        0.0032760046042999
                        0.0029859080683485
                        0.0026985858630225
                        0.0024195804499924
                        0.0021631413777187
                        0.0019465727142737
                        0.0017843910497717
                        0.0016894078246707
                        0.0016638697364991
                        0.0090432539980133
                        0.0090455461591443
                        0.0090230466907500
                        0.0089528077178169
                        0.0088365465954170
                        0.0086768741306540
                        0.0084771787777857
                        0.0082414831749548
                        0.0079742839843763
                        0.0076803853545202
                        0.0073647354914244
                        0.0070322744925682
                        0.0066877997538309
                        0.0063358531459582
                        0.0059806318981552
                        0.0056259225260362
                        0.0052750534814109
                        0.0049308559517060
                        0.0045956116360179
                        0.0042709522071146
                        0.0039576677303480
                        0.0036554143402899
                        0.0033624738315083
                        0.0030761655009882
                        0.0027950658895782
                        0.0025231576628379
                        0.0022723712566024
                        0.0020600692145227
                        0.0019047604747478
                        0.0018215114963109
                        0.0018075716064173
                        0.0090474365239350
                        0.0090569622947860
                        0.0090418177311719
                        0.0089789221084927
                        0.0088698727376411
                        0.0087171660982161
                        0.0085240852434633
                        0.0082945594479309
                        0.0080330064618755
                        0.0077441675690413
                        0.0074329449250750
                        0.0071042493807635
                        0.0067628652152220
                        0.0064133361537030
                        0.0060598749614918
                        0.0057062967386963
                        0.0053559735124535
                        0.0050118038858182
                        0.0046761848681080
                        0.0043509630495700
                        0.0040373329309797
                        0.0037356585933188
                        0.0034452755462034
                        0.0031646099389206
                        0.0028924285450038
                        0.0026307552846179
                        0.0023882621302979
                        0.0021822607219299
                        0.0020361052498181
                        0.0019657802294912
                        0.0019592255741376
                        0.0090516251131589
                        0.0090674720216886
                        0.0090587786776908
                        0.0090023490433160
                        0.0088996761257790
                        0.0087531563368526
                        0.0085659796678812
                        0.0083419921053721
                        0.0080855400858046
                        0.0078013070637810
                        0.0074941516555281
                        0.0071689555939875
                        0.0068304880206727
                        0.0064832906484906
                        0.0061315864382453
                        0.0057792127614726
                        0.0054295787761904
                        0.0050856456978983
                        0.0047499267217849
                        0.0044244987483314
                        0.0041110083346078
                        0.0038106389757040
                        0.0035239998038923
                        0.0032509649228689
                        0.0029907541622308
                        0.0027430257041311
                        0.0025119867828838
                        0.0023146315073384
                        0.0021800059360718
                        0.0021230827916751
                        0.0021169561486706
                        0.0090558192256120
                        0.0090771280962284
                        0.0090740271148065
                        0.0090232213486429
                        0.0089261144263790
                        0.0087850164926140
                        0.0086030367212665
                        0.0083839481465980
                        0.0081320340740470
                        0.0078519260352395
                        0.0075484427228764
                        0.0072264381647358
                        0.0068906657489096
                        0.0065456627774801
                        0.0061956585448742
                        0.0058445078169095
                        0.0054956517792580
                        0.0051521106439139
                        0.0048165156583435
                        0.0044911903630069
                        0.0041782829853334
                        0.0038799159304084
                        0.0035982226654893
                        0.0033349559450049
                        0.0030902060936674
                        0.0028608837147980
                        0.0026451699685991
                        0.0024591783740884
                        0.0023384534330456
                        0.0022944073501016
                        0.0022782417597119
                        0.0090600182562512
                        0.0090863728139252
                        0.0090884464677675
                        0.0090428534349109
                        0.0089509152222211
                        0.0088148624752354
                        0.0086377296167546
                        0.0084232219187677
                        0.0081755637433459
                        0.0078993378187934
                        0.0075993249514729
                        0.0072803524547141
                        0.0069471579878845
                        0.0066042736201731
                        0.0062559334832560
                        0.0059060078535704
                        0.0055579682900951
                        0.0052148940943279
                        0.0048795401560008
                        0.0045544964403050
                        0.0042424656901222
                        0.0039466340490515
                        0.0036709287418697
                        0.0034194748841216
                        0.0031937769937066
                        0.0029875974940986
                        0.0027906349513964
                        0.0026154769777302
                        0.0025045943151043
                        0.0024680631324959
                        0.0024320003461396
                </DataArray>
            </PointData>
        </Piece>
    </StructuredGrid>
</VTKFile>