<?xml version="1.0"?>
<VTKFile type="StructuredGrid" version="0.1" byte_order="LittleEndian" header_type="UInt32" compressor="vtkZLibDataCompressor">
  <StructuredGrid WholeExtent="0 30 0 40 0 0">
  <Piece Extent="0 30 0 40 0 0">
    <PointData>
      <DataArray type="Float32" Name="orthogonality" format="ascii" RangeMin="0" RangeMax="0.9999967217445374">
        0.998231 0.9991043 0.99781746 0.99351656 0.98496926 0.96883094
        0.9380565 0.8816817 0.7874008 0.6452832 0.45955122 0.27445623
        0.14700887 0.08363414 0.059063148 0.05146602 0.04949097 0.048664715
        0.04761704 0.046040963 0.04390744 0.041240852 0.038072567 0.034436073
        0.030369023 0.025915679 0.02112865 0.016069658 0.010809221 0.005425212
        2.918e-13 0.9972536 0.9986151 0.99639213 0.9908547 0.9802173
        0.9601632 0.9232321 0.85995793 0.7612751 0.62030625 0.44240442
        0.2671574 0.1453268 0.08376662 0.059573058 0.05196677 0.049898095
        0.04897532 0.047848027 0.046211217 0.044033438 0.041335996 0.038147338
        0.03449827 0.030424004 0.025966592 0.02117668 0.016114315 0.010848629
        0.0054564145 1.8904071e-05 0.9967228 0.9982923 0.9953419 0.98834914
        0.9742689 0.9476875 0.9019974 0.8314072 0.7303257 0.5931247
        0.4246902 0.25977343 0.1436971 0.084037125 0.06025552 0.052642334
        0.050470512 0.04943939 0.048221316 0.046513826 0.044282984 0.04154688
        0.038330913 0.034663107 0.030576171 0.026109923 0.021313036 0.01624387
        0.010970199 0.0055677453 0.00011629821 0.9975131 0.99791414 0.9940963
        0.9849029 0.9659303 0.9316143 0.87799007 0.8027782 0.70164025
        0.5689737 0.40922156 0.25339723 0.14250162 0.084631234 0.061242905
        0.053601854 0.0513012 0.050136592 0.048805125 0.047007088 0.044705845
        0.04191602 0.03865975 0.034962155 0.030853337 0.026370801 0.021561194
        0.016481133 0.01119697 0.0057832934 0.00031766866 0.99916536 0.997592
        0.9926308 0.9803148 0.95531046 0.9134142 0.85396093 0.77639043
        0.67613614 0.5475246 0.39488113 0.24655397 0.14020133 0.0841244
        0.061293885 0.053791396 0.05150402 0.050323818 0.048976205 0.047167808
        0.04486242 0.042073887 0.038823422 0.035135247 0.03103863 0.026570324
        0.02177635 0.016712893 0.011446129 0.006050776 0.00060259295 0.9999967
        0.99713916 0.98968846 0.9712566 0.93728137 0.88772464 0.824833
        0.74762714 0.65062475 0.52812517 0.38412777 0.24402885 0.14221324
        0.0875101 0.0646871 0.056787055 0.054043207 0.05245353 0.050765175
        0.04868065 0.046154134 0.043190166 0.039802026 0.036007386 0.031830236
        0.027303243 0.022469552 0.017383829 0.012112427 0.006732544 0.0013081735
        0.9998473 0.9963598 0.9853409 0.96054626 0.91984975 0.865778
        0.8011938 0.724913 0.6315366 0.5156186 0.38051704 0.24842146
        0.15050484 0.09629765 0.07256519 0.06343645 0.059530895 0.056949105
        0.054442473 0.051690266 0.048620198 0.04521333 0.0414632 0.03737099
        0.032946866 0.028211784 0.02319887 0.017954035 0.012535748 0.0070137093
        0.0014442363 0.9999056 0.99463904 0.97875696 0.9478254 0.9014765
        0.8426487 0.7741506 0.6957287 0.60342705 0.49276435 0.36663842
        0.2439169 0.15181239 0.099708736 0.076193154 0.06663435 0.06217295
        0.059081566 0.056149397 0.053051624 0.049702942 0.04607152 0.042139757
        0.037899442 0.03335279 0.028514015 0.023410466 0.01808307 0.012585928
        0.006984776 0.0013335432 0.9999123 0.99046034 0.9690464 0.9312753
        0.8773097 0.8106066 0.7354063 0.65337753 0.56195885 0.4572474
        0.34143597 0.22998641 0.14577559 0.09747703 0.0753798 0.06624931
        0.06188713 0.058810722 0.055882066 0.05279215 0.049456768 0.045842435
        0.04192974 0.03770884 0.033180553 0.028357893 0.02326719 0.01794854
        0.012455378 0.006852871 0.0011959615 0.9986852 0.9839234 0.9562887
        0.910466 0.84726775 0.7717767 0.69042104 0.60626686 0.5172106
        0.41939604 0.31422234 0.21416424 0.13819858 0.094134316 0.07376496
        0.06525742 0.06112557 0.058161832 0.055313587 0.052293185 0.04902076
        0.045463584 0.041602362 0.03742723 0.03293892 0.028150326 0.023087688
        0.017791022 0.012313746 0.006721019 0.0010692258 0.99604326 0.9753737
        0.9404093 0.8852578 0.81208396 0.72851145 0.6429382 0.5587079
        0.4733752 0.38289982 0.2880015 0.19872285 0.13072191 0.09088255
        0.07226868 0.06438568 0.06047084 0.057603523 0.05482073 0.05185694
        0.048636474 0.045127098 0.04130937 0.0371732 0.032719065 0.027959622
        0.022920888 0.017642708 0.012178386 0.006592982 0.00094423606 0.9916263
        0.9641152 0.92042506 0.8543874 0.77064353 0.68007785 0.5923062
        0.5098487 0.42942855 0.34675038 0.26197797 0.18313807 0.12299548
        0.08745883 0.07068187 0.06346577 0.05978743 0.057026897 0.054316193
        0.05141363 0.048248366 0.044788994 0.041016214 0.036919925 0.032500546
        0.027770646 0.022756148 0.017496832 0.01204596 0.0064685657 0.0008237655
        0.9851389 0.94956154 0.89529794 0.81678164 0.72256535 0.62686473
        0.5391722 0.46022934 0.38573015 0.3111833 0.23634864 0.16759883
        0.115169294 0.0839653 0.06907483 0.062549755 0.05911595 0.056464292
        0.05382585 0.05098395 0.047872923 0.044462353 0.0407332 0.036675442
        0.032289527 0.027588006 0.022596767 0.017355563 0.011917646 0.006348041
        0.0007072304 0.9760079 0.9306689 0.8634533 0.7710262 0.66730505
        0.5689792 0.48374155 0.40991706 0.34221584 0.27608556 0.21103793
        0.15209132 0.10724943 0.08040028 0.067438945 0.061627556 0.05844732
        0.05590817 0.05334361 0.05056302 0.047506258 0.044144113 0.04045793
        0.036437918 0.03208464 0.027410727 0.022442102 0.01721855 0.011793357
        0.0062315664 0.00059502455 0.9633012 0.9058428 0.8227468 0.71558326
        0.60452896 0.5067114 0.42633393 0.35908476 0.2989326 0.2414492
        0.18605225 0.13665575 0.09927805 0.076788455 0.065785795 0.060704958
        0.057785157 0.05536122 0.052871592 0.050152536 0.04714976 0.043835398
        0.040191337 0.036208116 0.03188652 0.02723934 0.022292605 0.017086182
        0.011673427 0.0061194347 0.00048740293 0.94535595 0.87249583 0.77020484
        0.6488051 0.53408265 0.44042116 0.36725596 0.3078815 0.25591448
        0.20726268 0.16139495 0.1213264 0.09129206 0.07315117 0.06412469
        0.059786063 0.057131775 0.054825094 0.05241113 0.049753632 0.04680438
        0.04353704 0.039934147 0.035986684 0.031695765 0.027074395 0.022148792
        0.016958954 0.011558342 0.0060121296 0.00038485325 0.9191102 0.82636076
        0.7018622 0.56919086 0.45616284 0.37064272 0.30689356 0.25651044
        0.21324404 0.17355774 0.13710178 0.10615758 0.08334138 0.06951953
        0.062472634 0.058881156 0.0564945 0.054305553 0.051966924 0.049370166
        0.046473324 0.0432517 0.0396886 0.035775516 0.031513967 0.026917262
        0.022011844 0.016837891 0.011449 0.0059104427 0.00028807047 0.8786139
        0.7602901 0.6128364 0.4758495 0.37150693 0.29816288 0.24576102
        0.20526163 0.17107385 0.1404233 0.1132505 0.09123128 0.07549489
        0.06593904 0.060858093 0.058009762 0.055888195 0.05381451 0.051548686
        0.049010124 0.046163175 0.042984825 0.039459195 0.035578355 0.031344257
        0.026770549 0.02188394 0.01672481 0.011346906 0.0058156103 0.00019804416
        0.8114997 0.66249704 0.49826667 0.36931026 0.28166914 0.22415449
        0.18459457 0.15458155 0.12967782 0.10804315 0.08998935 0.07667886
        0.06785692 0.062482398 0.059331197 0.05720896 0.055341993 0.053375527
        0.051175654 0.048689254 0.045886837 0.04274701 0.039254647 0.035402354
        0.031192502 0.026639061 0.021768989 0.016622853 0.01125454 0.0057295174
        0.000116103845 0.69030327 0.51552397 0.3561622 0.25262532 0.18933906
        0.1503498 0.12448004 0.10516905 0.08952301 0.07675046 0.06757911
        0.06271458 0.060594365 0.059271723 0.057982057 0.05654837 0.054911576
        0.053033788 0.050884664 0.048437633 0.045668885 0.042558324 0.03909133
        0.03526085 0.031069513 0.026531495 0.021673895 0.016537387 0.011175907
        0.0056549395 4.3863554e-05 0.45630458 0.30257037 0.19220486 0.13200393
        0.098339066 0.079020865 0.06684065 0.05796331 0.051258154 0.04701963
        0.046391647 0.049641293 0.053947583 0.056491368 0.056953005 0.056140736
        0.05468787 0.052863162 0.050735872 0.048304245 0.045549184 0.042451162
        0.038995497 0.03517503 0.030992273 0.026461294 0.021609088 0.016476218
        0.011116488 0.0055952263 1.7356875e-05 0.050239425 0.03099079 0.019195218
        0.013361575 0.011126021 0.011217912 0.012132974 0.013150469 0.014950303
        0.0188849 0.026476994 0.037536014 0.048001926 0.054216687 0.056305002
        0.056034755 0.05470993 0.052895077 0.050754532 0.04830934 0.0455439
        0.042438354 0.038977258 0.035152737 0.030966729 0.026432805 0.021577537
        0.016441103 0.011076934 0.005549989 6.895023e-05 0.38102823 0.24669164
        0.15432672 0.104923904 0.07569758 0.056297556 0.04236427 0.031475477
        0.021150516 0.008999344 0.006846612 0.02569972 0.042257715 0.052070644
        0.055739656 0.05598867 0.054780196 0.05296759 0.05080774 0.04834375
        0.045563295 0.042446107 0.0389759 0.03514408 0.030951967 0.026412632
        0.021552205 0.016410472 0.01104048 0.005506796 0.00011926498 0.6461379
        0.47189865 0.3208627 0.22563918 0.1663862 0.12738436 0.099829085
        0.07846135 0.059049953 0.038169894 0.013630105 0.013327066 0.036133297
        0.049611196 0.054906152 0.055718068 0.05466625 0.052890256 0.050739262
        0.0482792 0.045501977 0.042387776 0.038920216 0.035090577 0.030900083
        0.02636172 0.021501543 0.016359234 0.01098771 0.0054513547 0.00017776016
        0.78396493 0.63007534 0.4676031 0.34384245 0.25934055 0.20165524
        0.16031481 0.12801404 0.098979436 0.06881175 0.035057742 0.00038628787
        0.029633138 0.046850413 0.053814765 0.05523053 0.054373596 0.052667033
        0.050551847 0.04811749 0.045360994 0.042263806 0.038810153 0.034991775
        0.03081028 0.026278984 0.021424197 0.016285796 0.010916792 0.0053815916
        0.00024675624 0.8596227 0.73583835 0.58712244 0.4528163 0.35060507
        0.27680847 0.22240716 0.17921768 0.14031036 0.10045598 0.057053894
        0.0128033785 0.023010036 0.043980747 0.05261376 0.05464354 0.053996988
        0.052374877 0.050308116 0.047909558 0.045181736 0.042107787 0.038672887
        0.034869548 0.030700035 0.026178202 0.021330807 0.016198069 0.010833222
        0.0053007873 0.00032508117 0.9050338 0.8072653 0.6803912 0.5488533
        0.43717462 0.35095248 0.28494152 0.23133732 0.18255393 0.13274318
        0.07932256 0.02599509 0.016452009 0.04113745 0.05140292 0.054034535
        0.0535985 0.05206421 0.050049182 0.047688972 0.044991616 0.04194207
        0.03852663 0.0347387 0.03058132 0.026068985 0.021228984 0.016101941
        0.010741373 0.005211942 0.00041102924 0.9344936 0.8570805 0.75204194
        0.6309935 0.5172228 0.42277724 0.34712797 0.2839177 0.22543927
        0.16548161 0.10169217 0.039034814 0.010074522 0.03839778 0.05023539
        0.053443227 0.053209584 0.051760525 0.04979588 0.047472797 0.04480462
        0.041778147 0.038380817 0.034606986 0.030460494 0.025956532 0.021122953
        0.016000815 0.010643922 0.0051170965 0.0005031567 0.95480186 0.89310056
        0.8070753 0.69991356 0.5898028 0.49138802 0.40843093 0.33669558
        0.2688495 0.19859846 0.124076135 0.051828593 0.003947747 0.03580384
        0.049136713 0.05288727 0.052843805 0.051474787 0.04955721 0.047268458
        0.044626907 0.041621123 0.038239703 0.034477957 0.030340545 0.025843363
        0.021014845 0.015896492 0.010542408 0.0050175535 0.00060037454 0.96941614
        0.92000765 0.8496418 0.7570047 0.65450746 0.55610216 0.4684133
        0.38948077 0.3127318 0.23207214 0.1464216 0.0643045 0.0018755865
        0.033383694 0.048121437 0.052375585 0.052507672 0.051212173 0.049337417
        0.04707947 0.04446139 0.04147344 0.038105343 0.034353346 0.030222949
        0.025730748 0.020905761 0.015789941 0.010437684 0.004914079 0.00070199417
        0.98020136 0.94067734 0.88296884 0.80398285 0.71142507 0.6165173
        0.52682656 0.4422533 0.35718948 0.26600844 0.16876404 0.07644859
        0.007383967 0.031134795 0.047180835 0.051898837 0.052193105 0.050966103
        0.049131244 0.04690168 0.044304814 0.041332576 0.037975807 0.034231734
        0.030106694 0.025618024 0.020795349 0.015681086 0.010329931 0.0048070955
        0.0008073576 0.98808855 0.9567698 0.90925884 0.8422448 0.76048076
        0.67182875 0.5829203 0.49453765 0.4019558 0.3002245 0.190919
        0.088089705 0.012458484 0.029131748 0.04636535 0.051494572 0.051929496
        0.050760027 0.048957482 0.046750117 0.04416918 0.041208062 0.037858628
        0.034118995 0.029996308 0.025508592 0.020686049 0.015571539 0.010220027
        0.0046968115 0.0009168888 0.9938955 0.9696863 0.9306158 0.8738686
        0.80296963 0.7227927 0.63752455 0.5473989 0.44815856 0.33568275
        0.2135451 0.09963665 0.017384212 0.027153006 0.045497887 0.05102055
        0.051602565 0.05050221 0.048742626 0.046566032 0.044007674 0.041062783
        0.0377246 0.03399243 0.029874457 0.025389621 0.02056887 0.015455649
        0.010105306 0.0045833164 0.0010278849 0.9971799 0.97911924 0.9472362
        0.89855206 0.83670825 0.76525116 0.6856119 0.59598124 0.49158728
        0.3689445 0.23398077 0.10916113 0.020803364 0.026193615 0.045345977
        0.051085904 0.051700946 0.050585646 0.048802562 0.04660286 0.044023044
        0.04105823 0.037701488 0.03395206 0.029818185 0.025318861 0.020485114
        0.015360395 0.009999952 0.004468993 0.001149178 0.9975494 0.9832696
        0.95886165 0.9167337 0.8603347 0.7939692 0.71810335 0.6289696
        0.5205396 0.38935542 0.2435147 0.11006323 0.017753983 0.030123543
        0.049025353 0.054238863 0.05432151 0.052739285 0.050563697 0.048037436
        0.045185816 0.04199393 0.03844651 0.03453596 0.030264894 0.025647651
        0.020711303 0.015495858 0.010053422 0.004446178 0.0012444531 0.9947163
        0.98415554 0.96744853 0.93366766 0.8831237 0.8193631 0.7434477
        0.65171796 0.53785676 0.39833567 0.24301839 0.10305812 0.008812739
        0.038516358 0.05622486 0.060251568 0.05930101 0.05685302 0.05396068
        0.050842438 0.04750121 0.043903176 0.04001746 0.035823654 0.031313773
        0.026493357 0.021382036 0.016013365 0.01043362 0.0046994137 0.0011135269
        0.985431 0.9841641 0.9739905 0.9498521 0.90857196 0.84991676
        0.7748918 0.6809829 0.56211233 0.4145183 0.24954124 0.102491595
        0.0054805023 0.04221499 0.059583 0.06315691 0.061784074 0.05897166
        0.05577212 0.052396663 0.04884049 0.045063112 0.041028254 0.036711253
        0.032100867 0.027200282 0.022027574 0.016615529 0.011010474 0.0052700266
        0.0005379316 0.97660154 0.9835605 0.97665256 0.9586161 0.92573696
        0.87453383 0.80353034 0.71005726 0.5881994 0.43390805 0.25989404
        0.105808154 0.005742243 0.042774886 0.060280144 0.06383459 0.062410187
        0.059542485 0.056290764 0.052867513 0.0492679 0.045451257 0.04138123
        0.037033197 0.03239612 0.027473472 0.022283746 0.016860193 0.011249645
        0.005510239 0.00029104287 0.97278 0.9833272 0.9787034 0.96524763
        0.9400968 0.89787424 0.8334499 0.742052 0.61736727 0.4551424
        0.27014127 0.10785052 0.0046311296 0.044463273 0.061876614 0.06524016
        0.0636318 0.060601495 0.05720838 0.0536624 0.04995606 0.046046432
        0.041895326 0.037476715 0.032778468 0.02780325 0.022568928 0.017108247
        0.011467553 0.005704442 0.000115490126 0.97557956 0.98353803 0.9802478
        0.96988297 0.95085436 0.91761374 0.86212415 0.7757007 0.6497689
        0.47930798 0.2817668 0.11020294 0.0036523514 0.045957044 0.06324792
        0.066428654 0.06465764 0.061486702 0.057971183 0.05431808 0.050517637
        0.046525136 0.042301007 0.037818164 0.03306371 0.028039748 0.022763716
        0.017268002 0.011598575 0.0058125597 2.5261823e-05 0.9812329 0.98515415
        0.9829005 0.9743195 0.95884794 0.9315423 0.8834912 0.8033074
        0.6789785 0.50262177 0.29331678 0.112557456 0.0027801092 0.047269166
        0.064420216 0.06742838 0.06551255 0.062218826 0.058596767 0.05485018
        0.050967228 0.046901654 0.04261273 0.038072515 0.0332675 0.028199378
        0.022885306 0.017357439 0.0116614895 0.00585423 0
      </DataArray>
      <DataArray type="Float32" Name="aspect_ratio" format="ascii" RangeMin="1.0125861167907715" RangeMax="61.974918365478516">
        1.9701456 2.5632567 2.4229853 2.1467988 2.0437 2.1641064
        2.555836 3.3022282 4.5000515 6.202564 8.279192 10.346399
        12.215045 14.065211 16.064465 18.277395 20.72588 23.41677
        26.346376 29.499233 32.845787 36.339993 39.91749 43.494976
        46.971375 50.231316 53.151104 55.607063 57.485493 58.69307
        59.565525 2.0653365 2.5477672 2.335315 2.134592 2.1182525
        2.3164392 2.7845404 3.6123872 4.896721 6.685343 8.855257
        11.054579 13.086105 15.091854 17.22931 19.568531 22.135853
        24.938171 27.968372 31.20545 34.61309 38.13787 41.707977
        45.233234 48.60701 51.710506 54.41952 56.613354 58.185
        59.051407 59.561436 2.3359272 2.5570617 2.2724156 2.120805
        2.180496 2.4720538 3.051063 3.9986963 5.3992767 7.293138
        9.570444 11.916763 14.130134 16.313221 18.610826 21.097567
        23.803925 26.736341 29.883465 33.21771 36.694847 40.252907
        43.811504 47.27262 50.52339 53.44132 55.901882 57.788086
        59.00091 59.469303 59.557346 2.8707428 2.5228531 2.2087488
        2.1233466 2.265391 2.6526759 3.3372984 4.392212 5.895107
        7.8835278 10.26146 12.748417 15.138676 17.497211 19.954557
        22.589045 25.435389 28.499804 31.76686 35.202465 38.754475
        42.352207 45.906433 49.310863 52.4458 55.184326 57.400772
        58.981003 59.833187 59.89763 59.55325 4.143207 2.4298253
        2.1849217 2.212544 2.4869633 3.0284138 3.890113 5.148696
        6.8864098 9.141831 11.822106 14.652101 17.40524 20.114988
        22.90568 25.863018 29.0261 32.39804 35.953876 39.645382
        43.40293 47.13589 50.73354 54.06781 56.99859 59.381805
        61.079914 61.973858 61.97492 61.034504 59.549145 5.040782
        2.268055 2.0721774 2.1267781 2.4004192 2.903364 3.6787722
        4.7968273 6.3331165 8.32768 10.7217655 13.311318 15.897077
        18.474054 21.13823 23.971548 27.018072 30.287405 33.76131
        37.398514 41.136417 44.891132 48.557827 52.012745 55.117786
        57.72791 59.701122 60.910294 61.255238 60.67323 59.54513
        3.2077584 2.0894516 1.9026262 1.8786416 1.9854437 2.240293
        2.6805906 3.3580935 4.330022 5.6379256 7.2727723 9.134135
        11.087039 13.098008 15.2219925 17.526075 20.05758 22.839535
        25.873924 29.144772 32.618668 36.243584 39.947544 43.63845
        47.205902 50.525562 53.466244 55.899433 57.710373 58.809372
        59.540947 2.1543312 1.9161657 1.7865478 1.7467048 1.8032111
        1.9781032 2.302691 2.8188734 3.574848 4.612308 5.9454427
        7.523177 9.240841 11.0473585 12.974724 15.083573 17.424467
        20.02729 22.902716 26.044878 29.431635 33.02292 36.7587
        40.557823 44.318653 47.92217 51.237823 54.132164 56.47948
        58.173355 59.536633 1.896455 1.8114483 1.7167231 1.6940063
        1.7677485 1.9581815 2.2910414 2.8007827 3.5292015 4.5184426
        5.7967124 7.3383093 9.048873 10.860156 12.788402 14.892007
        17.224651 19.819023 22.687408 25.824873 29.20996 32.80321
        36.545128 40.355007 44.131496 47.75565 51.09676 54.020916
        56.401676 58.131622 59.532307 1.8518553 1.7426875 1.653219
        1.6501818 1.7496169 1.9680531 2.3264534 2.852439 3.5819333
        4.5573797 5.8182406 7.3580565 9.089692 10.930352 12.882645
        15.003095 17.348206 19.952812 22.82988 25.974295 29.364075
        32.95912 36.699314 40.503395 44.269623 47.8789 51.200645
        54.10143 56.455612 58.156883 59.527985 1.7450945 1.6577507
        1.5845175 1.6017051 1.7242352 1.9662737 2.3445432 2.8810098
        3.6072264 4.566351 5.807361 7.3398843 9.083908 10.945365
        12.914745 15.046368 17.399076 20.00969 22.891932 26.04073
        29.433828 33.030777 36.77108 40.57315 44.33501 47.937443
        51.249924 54.139275 56.4803 58.16731 59.523666 1.6487812
        1.5714644 1.5137933 1.5521139 1.6988276 1.9654387 2.3643086
        2.9125717 3.6386223 4.5867414 5.814029 7.3432775 9.100594
        10.982807 12.969799 15.113693 17.47532 20.093222 22.981728
        26.135683 29.53248 33.131214 36.87094 40.669674 44.425144
        48.018 51.31781 54.191692 56.51502 58.182842 59.519356
        1.5427185 1.4793385 1.4394382 1.4999349 1.6715173 1.9626038
        2.3812685 2.9408412 3.6676497 4.6073675 5.824021 7.351206
        9.120336 11.021046 13.024079 15.1794195 17.549538 20.174458
        23.069025 26.227978 29.628359 33.22882 36.96799 40.76349
        44.51276 48.096333 51.38383 54.242683 56.548782 58.197914
        59.515045 1.4315158 1.3824785 1.3619663 1.4464177 1.6443067
        1.9601958 2.3982456 2.9691288 3.6980598 4.6323013 5.841789
        7.368904 9.149458 11.067369 13.085636 15.252256 17.63104
        20.263256 23.164137 26.328272 29.732311 33.334457 37.072865
        40.86476 44.607292 48.18084 51.455112 54.297832 56.585438
        58.21448 59.510742 1.3132931 1.2806629 1.2819734 1.3928565
        1.6185584 1.9592637 2.4160783 2.998203 3.7305076 4.661939
        5.8674474 7.3964543 9.188267 11.122277 13.155063 15.332858
        17.720545 20.36039 23.267897 26.437443 29.845259 33.449062
        37.186523 40.974434 44.709633 48.27235 51.53236 54.357708
        56.625393 58.232758 59.506443 1.1881626 1.174611 1.2010953
        1.3414625 1.5962887 1.9614861 2.4363823 3.0298111 3.7668834
        4.6982474 5.903065 7.4362683 9.239741 11.189276 13.236276
        15.4254875 17.822624 20.470722 23.385414 26.560793 29.972624
        33.578083 37.314316 41.097652 44.824574 48.375156 51.619236
        54.425194 56.67064 58.25376 59.50215 1.0563333 1.0657378
        1.121938 1.2949944 1.5796529 1.9685807 2.460833 3.0657964
        3.8092306 4.7434325 5.9510527 7.491166 9.307301 11.27236
        13.333736 15.535005 17.942501 20.5998 23.522518 26.704374
        30.120586 33.727734 37.462368 41.240288 44.957592 48.49416
        51.719906 54.503574 56.723446 58.278656 59.497864 1.0882013
        1.0451849 1.0483121 1.2567409 1.5710025 1.9824735 2.4914017
        3.1083875 3.8600848 4.8003345 6.0146174 7.5649076 9.395427
        11.376712 13.453219 15.667694 18.086926 20.754787 23.686726
        26.875969 30.297096 33.905987 37.638508 41.40985 45.115665
        48.635612 51.839676 54.59702 56.786694 58.30891 59.493584
        1.2843899 1.1731709 1.0149475 1.2302275 1.5726143 2.0050337
        2.5300496 3.159836 3.922042 4.8719068 6.0971303 7.6614313
        9.508763 11.507663 13.600645 15.82999 18.262789 20.942984
        23.88568 27.083479 30.510195 34.120888 37.850624 41.613888
        45.305794 48.80575 51.983826 54.70967 56.86323 58.34598
        59.48931 1.5593374 1.3153365 1.0653415 1.2182788 1.5856521
        2.03685 2.5772529 3.2206485 3.9956546 4.9587154 6.199141
        7.7812905 9.647917 11.665892 13.776742 16.022648 18.470848
        21.165138 24.120104 27.327587 30.760511 34.372997 38.099194
        41.85278 45.528267 49.004776 52.152477 54.841587 56.953068
        58.389854 59.485043 1.9102464 1.4451264 1.0956663 1.2197132
        1.606182 2.0723314 2.626033 3.2824244 4.070931 5.048875
        6.30641 7.9074054 9.792768 11.8284 13.955932 16.217749
        18.68103 21.389208 24.356236 27.57317 31.012043 34.626045
        38.348415 42.09205 45.750877 49.203743 52.320942 54.97325
        57.042675 58.433582 59.480778 2.1499012 1.5094167 1.1054363
        1.2237203 1.6184856 2.0914838 2.6519475 3.3158548 4.1130996
        5.101219 6.3699584 7.9814467 9.874959 11.917333 14.051876
        16.321321 18.792381 21.507917 24.48138 27.703339 31.14533
        34.760036 38.480217 42.218353 45.868076 49.308105 52.408825
        55.04135 57.088272 58.454758 59.476513 1.9798975 1.4663683
        1.0999578 1.2197312 1.6085343 2.0768435 2.6337533 3.295488
        4.0919642 5.080015 6.347345 7.9530387 9.835701 11.865979
        13.990772 16.253166 18.718845 21.429945 24.399721 27.618849
        31.059093 34.673405 38.394814 42.13605 45.790947 49.238342
        52.348633 54.99282 57.053234 58.434658 59.472244 1.6308836
        1.3470423 1.0749822 1.2157516 1.5869509 2.0416255 2.5874732
        3.2404306 4.030091 5.0118675 6.2701006 7.859635 9.71888
        11.724369 13.828097 16.073578 18.52507 21.223831 24.18311
        27.394072 30.82919 34.442192 38.166897 41.916714 45.58602
        49.05395 52.190865 54.867363 56.96497 58.38729 59.467976
        1.3428807 1.2072763 1.0289023 1.2240814 1.5712255 2.0079877
        2.5401921 3.183196 3.9661164 4.9425683 6.192664 7.7658815
        9.600061 11.578492 13.659206 15.88634 18.322535 21.008005
        23.955933 27.157986 30.587393 34.198723 37.926624 41.68526
        45.36959 48.859066 52.024036 54.73467 56.87164 58.337307
        59.46371 1.1363155 1.0781801 1.0305622 1.2471417 1.5669136
        1.9835511 2.501417 3.1353245 3.9139068 4.8887153 6.1348577
        7.6952643 9.506578 11.459419 13.518616 15.729129 18.151836
        20.825724 23.763756 26.957983 30.382263 33.99189 37.722225
        41.488102 45.18498 48.692596 51.8813 54.62091 56.79138
        58.294006 59.459454 1.0125861 1.0319171 1.1002419 1.282265
        1.5731472 1.9681277 2.47122 3.0970774 3.8739698 4.8511233
        6.0977507 7.6489305 9.439578 11.368386 13.407738 15.603557
        18.01479 20.678999 23.608782 26.796429 30.216305 33.82429
        37.55635 41.32785 45.03469 48.556847 51.764683 54.52773
        56.725365 58.258007 59.4552 1.1401405 1.1369884 1.175698
        1.3257364 1.5874996 1.9597101 2.4475355 3.0661924 3.8438537
        4.8271403 6.0783005 7.6231027 9.394409 11.300017 13.320632
        15.503199 17.90453 20.560575 23.483418 26.665487 30.081543
        33.687958 37.421185 41.19705 44.911804 48.445652 51.668953
        54.451027 56.670765 58.22787 59.450954 1.2619996 1.240223
        1.2530051 1.3739285 1.6072041 1.9559059 2.4279003 3.0399852
        3.820664 4.8136497 6.0729375 7.613353 9.365638 11.248049
        13.2503805 15.420561 17.813026 20.461931 23.378727 26.555899
        29.968529 33.573402 37.307407 41.086754 44.808014 48.35157
        51.5878 54.385834 56.62415 58.20184 59.446712 1.3798133
        1.341044 1.3299447 1.4241407 1.6300634 1.9549633 2.4106696
        3.0167966 3.8027902 4.809135 6.080028 7.6175 9.350402
        11.209124 13.19327 15.351617 17.735958 20.378466 23.289864
        26.462624 29.872097 33.475433 37.20989 40.992027 44.7187
        48.270454 51.517685 54.329353 56.583584 58.178925 59.442474
        1.4902737 1.4380699 1.4047656 1.473496 1.652761 1.9533883
        2.3920062 2.9923656 3.78561 4.808611 6.093879 7.6285744
        9.340332 11.173748 13.138889 15.285116 17.66128 20.297415
        23.203451 26.371817 29.778131 33.379894 37.11474 40.89957
        44.631508 48.191265 51.449245 54.27424 56.544 58.156532
        59.438244 1.611255 1.5359842 1.4793853 1.5233096 1.6771803
        1.9544117 2.376671 2.9731145 3.7775464 4.8228564 6.1275973
        7.661569 9.3521385 11.160431 13.107506 15.242961 17.612392
        20.243507 23.145319 26.310122 29.713697 33.313812 37.048386
        40.83459 44.569763 48.134758 51.400005 54.234184 56.514797
        58.13944 59.43402 1.6802195 1.6194152 1.5487808 1.5666544
        1.6914473 1.9403803 2.3409297 2.9291706 3.7425318 4.809148
        6.130682 7.6571302 9.317877 11.093588 13.016592 15.136133
        17.494236 20.11626 23.010437 26.169146 29.568594 33.16708
        36.903065 40.6942 44.43819 48.01608 51.29825 54.153065
        56.457417 58.108047 59.4298 1.939464 1.7417463 1.6320947
        1.6273986 1.7331496 1.9683787 2.3658378 2.9684806 3.817828
        4.936774 6.306346 7.85182 9.505332 11.270143 13.190534
        15.315006 17.681473 20.31224 23.21386 26.377739 29.779356
        33.376354 37.1066 40.88728 44.61578 48.173073 51.42976
        54.254734 56.525738 58.14063 59.425587 2.881864 1.9532278
        1.8053198 1.8263966 1.9894146 2.3099895 2.826041 3.5884953
        4.6448574 6.0117035 7.6376586 9.403395 11.236685 13.169293
        15.261997 17.563053 20.103926 22.899092 25.94658 29.228352
        32.70949 36.33664 40.036686 43.716766 47.266243 50.561264
        53.47193 55.871815 57.64891 58.71668 59.42136 4.3753767
        2.1999652 2.0887733 2.2185423 2.5602562 3.123568 3.9531527
        5.1134467 6.661725 8.601654 10.82108 13.119248 15.415169
        17.785921 20.317982 23.059994 26.033123 29.236883 32.65073
        36.23467 39.92892 43.653217 47.306957 50.771126 53.912743
        56.59207 58.67237 60.031483 60.573807 60.24095 59.417034
        3.6270053 2.3738832 2.2280755 2.331949 2.6766808 3.2788363
        4.183479 5.459052 7.1697717 9.31168 11.724966 14.153897
        16.53324 18.98178 21.59965 24.431753 27.492327 30.774712
        34.252903 37.8816 41.595673 45.30966 48.91826 52.298813
        55.31629 57.831066 59.709072 60.833588 61.117104 60.511517
        59.412624 2.579879 2.3997166 2.194116 2.1870635 2.4041681
        2.8663514 3.6174822 4.7233706 6.2491574 8.1902485 10.369885
        12.521064 14.608415 16.776329 19.126001 21.696817 24.50109
        27.535769 30.783127 34.209587 37.764297 41.37795 44.962494
        48.41255 51.60901 54.42516 56.735203 58.424522 59.400566
        59.602867 59.408237 2.121854 2.3937092 2.2252426 2.1550455
        2.2884936 2.6594303 3.3192925 4.3410153 5.7971964 7.6816916
        9.783559 11.802348 13.733069 15.754852 17.9736 20.423409
        23.113134 26.040146 29.190151 32.534916 36.030064 39.613384
        43.20406 46.70348 49.998146 52.96502 55.47925 57.42389
        58.700443 59.23898 59.403843 1.8810598 2.3483834 2.2528174
        2.1381247 2.1938698 2.472044 3.0320532 3.9584305 5.3367624
        7.1620626 9.184942 11.067913 12.841099 14.718445 16.808508
        19.139664 21.717579 24.540274 27.596985 30.86478 34.305634
        37.864193 41.46654 45.020397 48.417324 51.53732 54.255856
        56.453033 58.02391 58.888783 59.39944 1.7885057 2.3236983
        2.2946923 2.1151996 2.0910814 2.29783 2.790642 3.6512263
        4.970621 6.747191 8.699357 10.457313 12.088284 13.838322
        15.81659 18.0453 20.526793 23.259384 26.23523 29.435917
        32.828888 36.364746 39.97558 43.574642 47.05799 50.308384
        53.201702 55.615616 57.439713 58.585876 59.39503
      </DataArray>
      <DataArray type="Float32" Name="jacobian" format="ascii" RangeMin="-1.4804924830968957e-05" RangeMax="0.00905749574303627">
        1.2238847e-05 9.535154e-06 2.1770978e-05 5.8447742e-05 0.00012871619 0.00024019691
        0.0003912691 0.0005660932 0.0007432058 0.00091255474 0.0010819192 0.0012711192
        0.0014952593 0.0017572802 0.0020581228 0.0024000602 0.0027852622 0.0032147872
        0.0036880255 0.0042022043 0.004751896 0.0053285863 0.0059203906 0.0065120314
        0.007085167 0.0076191514 0.008092248 0.008483224 0.008773187 0.008947415
        0.009057496 1.2930923e-05 1.29357495e-05 3.4129673e-05 8.019952e-05 0.00015282659
        0.000252235 0.0003759917 0.00051732984 0.0006667621 0.0008193814 0.0009806459
        0.0011642851 0.0013803815 0.0016305686 0.0019163107 0.002240924 0.002607655
        0.0030185462 0.0034739494 0.0039721346 0.0045088436 0.0050768415 0.0056655677
        0.006261002 0.006845861 0.007400217 0.00790256 0.008331294 0.008666521
        0.008891896 0.009056874 1.2664111e-05 1.6583988e-05 4.702962e-05 0.000100607125
        0.00017242291 0.00025899507 0.0003592591 0.00047282985 0.0005979621 0.0007338563
        0.00088492426 0.0010602877 0.0012659696 0.0015025452 0.0017718148 0.0020778475
        0.0024247498 0.0028154282 0.0032511528 0.0037312456 0.0042526773 0.004809604
        0.0053929538 0.005990193 0.006585383 0.0071596317 0.0076919994 0.008160845
        0.008545519 0.008828209 0.0090562515 1.1063817e-05 2.273241e-05 6.301173e-05
        0.000119913784 0.00018513793 0.00025693077 0.0003383945 0.00043305333 0.00054191914
        0.000665574 0.000807894 0.0009754023 0.0011714975 0.0013959218 0.0016505945
        0.001940066 0.0022690527 0.002641111 0.0030582366 0.0035206287 0.0040263305
        0.0045707705 0.005146315 0.0057419557 0.006343255 0.006932651 0.007490199
        0.007994755 0.0084255375 0.008763895 0.0090556275 6.5503727e-06 3.1934695e-05
        7.906209e-05 0.00013034185 0.00018053404 0.0002332195 0.0002947063 0.0003693337
        0.0004586255 0.0005637554 0.0006882541 0.000836872 0.0010111996 0.0012104347
        0.0014364808 0.0016940626 0.0019882773 0.002323291 0.00270201 0.0031259325
        0.003594876 0.0041065733 0.004656244 0.0052362527 0.00583596 0.006441875
        0.0070381863 0.0076077213 0.008133314 0.008599501 0.009055003 -6.420152e-07
        4.801012e-05 0.0001007301 0.00015097772 0.00019980149 0.00025385708 0.00031958157
        0.00040040058 0.0004974489 0.00061218155 0.0007485595 0.00091105857 0.0011002478
        0.0013144114 0.0015551009 0.0018271499 0.002135765 0.0024849654 0.0028772373
        0.0033134443 0.003792604 0.004311525 0.0048644184 0.0054426165 0.0060345023
        0.0066257496 0.007199957 0.0077396864 0.0082278885 0.008649606 0.009054386
        -1.1664505e-05 7.125486e-05 0.00012814446 0.00018646759 0.00025287736 0.00033535797
        0.0004388567 0.0005644526 0.0007112368 0.0008800517 0.0010758794 0.0013036355
        0.0015618041 0.0018456895 0.0021557366 0.0024972768 0.0028757595 0.0032943068
        0.003753366 0.0042508314 0.00478198 0.0053392225 0.0059118564 0.0064859986
        0.00704481 0.0075691105 0.008038405 0.008432283 0.008732066 0.008922493
        0.009053748 -1.4804925e-05 9.423913e-05 0.00015578658 0.00021914889 0.00029537524
        0.00039290838 0.00051607605 0.0006655003 0.0008403335 0.0010420436 0.0012764554
        0.0015476912 0.0018505093 0.0021761346 0.002523632 0.0028991057 0.0033087821
        0.0037556225 0.00423908 0.004755554 0.0052985693 0.005858694 0.0064234384
        0.006977352 0.0075024394 0.007978966 0.0083866585 0.00870622 0.008921022
        0.0090187155 0.009053093 1.4661622e-05 0.00012238594 0.00018302638 0.00024527573
        0.00031984693 0.0004134535 0.0005299767 0.0006716521 0.0008403827 0.0010399756
        0.0012774381 0.0015563896 0.0018687912 0.002202611 0.0025555913 0.0029343609
        0.003346064 0.0037942126 0.0042784438 0.0047951555 0.0053378083 0.005896897
        0.006459873 0.0070112506 0.0075330297 0.008005511 0.008408497 0.008722812
        0.008931984 0.009023855 0.009052438 5.4573567e-05 0.00015366972 0.00020948962
        0.00026812157 0.0003380098 0.0004243626 0.0005310985 0.0006618536 0.00082059996
        0.0010130161 0.0012472903 0.0015270748 0.0018424822 0.0021788822 0.0025327215
        0.0029109013 0.0033213191 0.003768041 0.0042510023 0.004766767 0.005308915
        0.005868045 0.006431698 0.0069844527 0.0075083445 0.007983662 0.008390148
        0.0087085115 0.008922118 0.009018609 0.009051782 9.188733e-05 0.00018277076
        0.00023375807 0.00028817978 0.00035313747 0.000433229 0.0005325792 0.0006555881
        0.0008073797 0.0009949072 0.001227412 0.0015087742 0.001827672 0.0021672004
        0.0025225717 0.0029008847 0.0033107074 0.0037565953 0.0042387308 0.004753798
        0.005295453 0.005854359 0.0064181117 0.006971336 0.007496094 0.007972676
        0.008380797 0.008701108 0.008916888 0.009015667 0.009051126 0.00012821963
        0.00021024482 0.00025542738 0.00030481958 0.00036453223 0.0004387844 0.00053174404
        0.00064818125 0.0007939376 0.000976912 0.0012072617 0.0014892179 0.0018104401
        0.0021521456 0.002508419 0.0028864655 0.0032954204 0.0037402757 0.004221447
        0.004735742 0.0052769054 0.0058356747 0.0063997135 0.006953699 0.0074797226
        0.007958076 0.008368437 0.008691384 0.008910087 0.009011937 0.009050472
        0.00016271463 0.00023524355 0.00027408235 0.00031823514 0.0003730758 0.00044238096
        0.0005301352 0.0006412482 0.0007820389 0.00096112967 0.001189458 0.0014716387
        0.0017945955 0.002137995 0.0024949135 0.002872607 0.00328069 0.003724536
        0.0042047678 0.004718309 0.0052589863 0.005817611 0.006381911 0.0069366167
        0.007463849 0.007943901 0.008356419 0.008681913 0.008903447 0.009008284
        0.009049817 0.00019492427 0.0002573116 0.00028947994 0.00032856062 0.00037912623
        0.00044428863 0.00052771956 0.0006343874 0.00077095506 0.00094659894 0.0011728994
        0.0014548454 0.001778851 0.0021233426 0.0024805283 0.0028576723 0.0032647836
        0.0037075626 0.004186819 0.0046995855 0.0052397735 0.0057982695 0.006362871
        0.0069183605 0.007446893 0.007928764 0.008343588 0.008671802 0.008896365
        0.009004404 0.009049163 0.0002244984 0.00027603022 0.00030156964 0.00033612153
        0.00038314293 0.00044488363 0.0005247021 0.00062762265 0.00076056627 0.00093312765
        0.0011573997 0.0014387047 0.0017631213 0.00210812 0.0024651904 0.002841578
        0.003247607 0.0036892511 0.0041674855 0.004679448 0.0052191354 0.0057775136
        0.006342452 0.0068987915 0.0074287215 0.007912542 0.008329834 0.008660963
        0.008888778 0.009000265 0.00904851 0.0002510601 0.00029110003 0.00031041994
        0.0003412133 0.00038539254 0.00044428522 0.0005210338 0.0006207392 0.00075051165
        0.00092024973 0.0011424351 0.0014226668 0.0017468279 0.0020917014 0.0024482189
        0.0028235891 0.003228375 0.0036687725 0.004145902 0.0046570045 0.005196167
        0.005754442 0.006319775 0.006877071 0.007408559 0.007894545 0.008314577
        0.008648945 0.008880378 0.008995711 0.0090478575 0.00027422505 0.00030232556
        0.00031616952 0.0003440712 0.0003860065 0.00044248905 0.0005165831 0.0006134783
        0.0007404139 0.0009074927 0.0011274689 0.0014061522 0.0017293477 0.0020734093
        0.0024288732 0.002802904 0.0032062302 0.0036452191 0.0041211187 0.0046312744
        0.005169871 0.0057280543 0.0062938603 0.0068522645 0.00738554 0.007874003
        0.008297166 0.008635236 0.008870813 0.0089905625 0.0090472065 0.00029351402
        0.00030957392 0.00031895167 0.00034481325 0.00038496646 0.0004393629 0.0005111171
        0.0006055015 0.0007298268 0.00089431205 0.0011118744 0.001388465 0.0017099165
        0.002052403 0.0024062356 0.0027785297 0.0031801087 0.0036174632 0.0040919534
        0.0046010343 0.0051389993 0.005697104 0.0062634847 0.0068232003 0.0073585776
        0.007849946 0.00827678 0.008619194 0.008859642 0.0089845965 0.0090465555
        0.00030827304 0.00031273635 0.00031889143 0.00034347642 0.00038217648 0.0004347296
        0.0005043874 0.000596479 0.000718332 0.00088020286 0.0010950688 0.0013689552
        0.00168782 0.0020279007 0.0023794526 0.002749541 0.003149017 0.0035844475
        0.004057295 0.00456513 0.0051023723 0.005660403 0.0062274784 0.0067887558
        0.0073266267 0.007821438 0.0082526235 0.008600193 0.008846432 0.00897759
        0.009045905 0.0003176328 0.0003118719 0.00031632103 0.0003402364 0.00037771353
        0.0004286419 0.00049643154 0.00058642594 0.00070592196 0.0008651456 0.0010770429
        0.0013476509 0.001663137 0.0020000245 0.0023486714 0.0027160973 0.003113118
        0.0035463348 0.004017302 0.0045237136 0.0050601317 0.0056180824 0.0061859577
        0.00674903 0.007289768 0.0077885417 0.008224742 0.008578262 0.0088312
        0.008969552 0.009045256 0.00032112916 0.00030819786 0.00031258108 0.00033619805
        0.00037270514 0.00042234978 0.00048864697 0.00057691487 0.000694392 0.0008512334
        0.0010602922 0.0013275577 0.0016394332 0.0019728646 0.002318434 0.002683128
        0.003077683 0.0035086963 0.0039777937 0.0044827866 0.0050183744 0.0055762273
        0.0061448733 0.0067096995 0.007253252 0.0077559263 0.008197075 0.008556481
        0.008816056 0.008961551 0.009044608 0.0003213246 0.00030604083 0.00031103287
        0.00033456704 0.00037065407 0.00041975523 0.00048540646 0.00057290087 0.0006894405
        0.00084512937 0.0010527312 0.0013181209 0.001627802 0.00195907 0.0023027603
        0.0026658645 0.003059034 0.0034888247 0.0039568814 0.0044610733 0.0049961726
        0.0055539277 0.00612294 0.0066886595 0.007233674 0.0077383933 0.008182149
        0.008544663 0.008807747 0.008957017 0.00904396 0.0003227879 0.00030950617
        0.00031418318 0.00033791893 0.00037447058 0.00042412418 0.0004903796 0.0005785484
        0.00069585897 0.00085243076 0.0010609895 0.0013272142 0.0016374442 0.001969093
        0.002313217 0.0026768704 0.00307064 0.0035009987 0.0039695306 0.0044740574
        0.005009308 0.0055669905 0.0061356663 0.0067007514 0.0072448086 0.007748237
        0.008190374 0.00855097 0.008811886 0.00895881 0.009043311 0.0003219448
        0.00031546538 0.0003202296 0.000344427 0.00038210017 0.0004331607 0.0005009924
        0.00059093215 0.00071026315 0.0008691495 0.0010802876 0.0013490824 0.0016615473
        0.0019951263 0.0023411275 0.0027067075 0.0031023782 0.0035344874 0.004004495
        0.004510105 0.005045926 0.0056035444 0.006171409 0.006734836 0.007276321
        0.007776235 0.008213944 0.008569283 0.0088242665 0.008964787 0.009042662
        0.0003152565 0.0003189062 0.00032550597 0.00035058643 0.00038972206 0.0004426281
        0.0005125113 0.0006046896 0.0007264713 0.000888028 0.0011019678 0.0013733612
        0.0016879244 0.0020232752 0.0023710968 0.002738652 0.0031363277 0.0035703015
        0.0040418855 0.0045486502 0.005085075 0.005642617 0.006209603 0.0067712464
        0.0073099695 0.007806118 0.008239089 0.008588813 0.008837471 0.008971177
        0.009042013 0.00030281852 0.00031800478 0.0003281868 0.00035487855 0.00039579874
        0.00045085137 0.0005230822 0.00061773666 0.000742089 0.00090624794 0.0011226471
        0.0013959806 0.0017117837 0.002048087 0.0023970983 0.0027661747 0.003165507
        0.003601059 0.004073985 0.004581731 0.0051186616 0.005676124 0.0062423386
        0.006802432 0.007338766 0.007831665 0.008260554 0.008605452 0.008848679
        0.008976547 0.009041365 0.0002855274 0.00031251324 0.00032767619 0.0003569326
        0.00040010732 0.00045765776 0.00053255813 0.0006299405 0.00075697503 0.00092362566
        0.0011420631 0.0014165789 0.0017326748 0.0020690484 0.002418576 0.0027886853
        0.0031892976 0.0036261186 0.0041001355 0.00460868 0.0051460206 0.0057034115
        0.0062689893 0.0068278066 0.007362178 0.007852411 0.008277956 0.008618905
        0.008857695 0.008980801 0.009040718 0.00026412087 0.00030251069 0.000323686
        0.0003565737 0.00040267574 0.00046321325 0.0005412134 0.0006416711 0.00077157683
        0.00094066246 0.0011607545 0.0014357371 0.0017512434 0.002086889 0.0024363464
        0.0028070798 0.003208667 0.0036465118 0.004121424 0.0046306285 0.00516831
        0.0057256464 0.0062907035 0.006848475 0.0073812352 0.00786928 0.008292081
        0.00862979 0.008864946 0.008984157 0.009040073 0.00023917288 0.00028817714
        0.00031598276 0.00035355552 0.00040347097 0.00046769064 0.0005493906 0.00065341423
        0.00078648946 0.000958028 0.0011794455 0.001454242 0.0017683664 0.002102596
        0.0024515055 0.0028225523 0.003224896 0.003663596 0.0041392725 0.004649046
        0.005187026 0.005744326 0.006308949 0.0068658404 0.007397239 0.007883431
        0.008303908 0.008638876 0.008870958 0.008986882 0.009039427 0.00021098957
        0.00026977342 0.000304342 0.0003474301 0.000402174 0.00047100434 0.00055721926
        0.0006654652 0.0008021109 0.000976159 0.0011985693 0.0014725229 0.0017845008
        0.0021166832 0.0024646309 0.0028357382 0.003238671 0.0036781027 0.0041544503
        0.004664731 0.005202987 0.0057602716 0.0063245357 0.0068806796 0.0074109123
        0.0078955125 0.008313988 0.008646593 0.008876031 0.008989129 0.009038782
        0.00018010108 0.00024773227 0.0002887691 0.00033785627 0.00039852143 0.00047324214
        0.0005651822 0.0006786346 0.00081947877 0.0009962342 0.0012194054 0.0014919726
        0.0018011897 0.0021308654 0.0024776014 0.002848661 0.0032521414 0.0036922882
        0.004169299 0.0046800827 0.0052186125 0.0057758833 0.0063397936 0.0068951994
        0.007424283 0.007907314 0.008323822 0.008654109 0.008880957 0.008991297
        0.009038138 0.00014620612 0.00022263244 0.0002692755 0.00032399836 0.00039113266
        0.0004729034 0.00057185267 0.0006915229 0.0008370553 0.0010163995 0.0012396494
        0.0015097926 0.0018151939 0.00214155 0.0024865356 0.0028571875 0.0032609522
        0.003701611 0.0041791354 0.004690334 0.005229124 0.0057864534 0.0063501806
        0.0069051273 0.0074334526 0.007915419 0.008330566 0.008659232 0.008884257
        0.008992648 0.009037495 0.000110430614 0.00019462036 0.000246549 0.00030664288
        0.00038117965 0.0004723801 0.0005814253 0.000710135 0.00086237513 0.0010455238
        0.0012695158 0.00153765 0.001839652 0.0021632381 0.002507137 0.0028780762
        0.003282783 0.0037245234 0.0042029996 0.0047148787 0.0052539785 0.005811163
        0.006374217 0.006927902 0.007454342 0.0079338 0.008345857 0.008670934
        0.008891994 0.008996213 0.009036852 7.429073e-05 0.00016693112 0.00022088808
        0.0002829006 0.00036141634 0.0004592781 0.0005761996 0.0007115452 0.0008672725
        0.0010499381 0.0012693496 0.0015296061 0.0018226228 0.0021386484 0.0024774265
        0.0028451653 0.0032477693 0.0036880216 0.0041654753 0.0046768156 0.005215938
        0.0057737953 0.006338247 0.0068941102 0.00742353 0.007906746 0.008323273
        0.008653408 0.008879954 0.008989879 0.00903621 4.4089826e-05 0.0001358816
        0.00018801831 0.00024192805 0.00030763238 0.0003897817 0.00048907025 0.00060494134
        0.0007385274 0.00089477934 0.0010818747 0.0013045468 0.0015585214 0.001837929
        0.0021436485 0.0024811835 0.002855821 0.0032705513 0.0037258416 0.004219727
        0.00474769 0.0053023733 0.0058733006 0.0064467783 0.00700609 0.0075320806
        0.008004161 0.008401696 0.00870567 0.0089004 0.009035567 2.5916343e-05
        9.933099e-05 0.00015075492 0.00019276202 0.00023637217 0.00028918873 0.000354797
        0.00043465642 0.0005301789 0.0006445559 0.00078331603 0.0009506382 0.001145266
        0.0013648054 0.0016111649 0.0018893878 0.0022046173 0.0025607017 0.0029599243
        0.0034029111 0.00388838 0.004412753 0.0049697487 0.0055500804 0.0061413706
        0.006728382 0.0072936276 0.007818394 0.008284112 0.008673945 0.00903491
        2.9048591e-05 7.470923e-05 0.00012745852 0.00017394347 0.0002188339 0.00026999335
        0.00033249002 0.00040834874 0.00049860997 0.00060577487 0.0007351095 0.0008913203
        0.001073985 0.0012815604 0.0015163183 0.00178319 0.0020871868 0.002432243
        0.0028209547 0.0032544343 0.0037320186 0.004250849 0.004805431 0.005387287
        0.005984812 0.0065834248 0.007166102 0.0077143223 0.008209379 0.008633953
        0.009034243 3.6494177e-05 6.193319e-05 0.00011410025 0.00017370725 0.00023604704
        0.00030479243 0.00038462994 0.0004774817 0.0005836262 0.00070531765 0.00084922864
        0.0010221982 0.0012243968 0.0014541702 0.0017138217 0.002008141 0.0023417403
        0.0027179373 0.0031384656 0.0036032603 0.0041101007 0.0046541537 0.0052275322
        0.005818993 0.0064138905 0.006994491 0.0075407135 0.008031313 0.008445428
        0.008764317 0.0090335775 3.9739403e-05 5.2680287e-05 9.605219e-05 0.00015873314
        0.00023347657 0.00031890516 0.00041615526 0.0005247476 0.0006429774 0.00077259087
        0.00092229637 0.0011019512 0.0013127562 0.0015530773 0.0018251538 0.0021334179
        0.0024819465 0.0028734813 0.0033091279 0.003788085 0.004307245 0.0048607346
        0.0054395003 0.006031071 0.0066196015 0.0071863057 0.0077103376 0.008170105
        0.008544932 0.008816871 0.00903291 4.211776e-05 4.714467e-05 7.984054e-05
        0.0001393252 0.00022240261 0.000326589 0.00044834445 0.0005806293 0.00071605854
        0.00085509644 0.0010102878 0.0011964391 0.0014162158 0.0016678447 0.0019533401
        0.002276589 0.0026409568 0.0030484633 0.0034994676 0.0039923317 0.0045229825
        0.0050844583 0.005666541 0.006255593 0.006834714 0.007384297 0.007883042
        0.008309398 0.008643297 0.008867998 0.00903224 4.347498e-05 4.242824e-05
        6.373752e-05 0.00011681968 0.00020559764 0.00033016852 0.00048172002 0.0006425343
        0.0007967535 0.00094389665 0.0011020054 0.0012921197 0.0015187976 0.0017801336
        0.0020777378 0.0024147322 0.002793616 0.0032156138 0.0036803256 0.0041853045
        0.0047255773 0.005293195 0.005876915 0.006462115 0.007031049 0.007563524
        0.008038025 0.008433251 0.008729904 0.008912523 0.00903157
      </DataArray>
    </PointData>
    <CellData>
    </CellData>
    <Points>
      <DataArray type="Float32" Name="Points" NumberOfComponents="3" format="ascii" RangeMin="1.1956568344077636" RangeMax="1.3784465989416945">
        0.8707722 0.025037345 0.81897753 0.8713754 0.025037292 0.81897575
        0.872085 0.025037227 0.81897366 0.87291926 0.025037149 0.8189711
        0.8738997 0.025037056 0.81896806 0.87505096 0.02503694 0.8189643
        0.87640184 0.0250368 0.8189597 0.8779854 0.025036633 0.8189542
        0.8798399 0.025036426 0.8189475 0.88200873 0.025036177 0.8189393
        0.8845415 0.025035875 0.81892943 0.8874941 0.025035514 0.81891763
        0.8909291 0.025035089 0.8189037 0.894916 0.025034597 0.81888765
        0.8995309 0.025034048 0.81886965 0.90485567 0.025033444 0.8188499
        0.91097724 0.025032789 0.81882846 0.91798544 0.025032084 0.81880546
        0.9259702 0.025031341 0.81878114 0.935018 0.025030565 0.8187557
        0.94520724 0.02502976 0.8187294 0.9566021 0.02502893 0.8187022
        0.9692464 0.025028057 0.81867373 0.9831564 0.025027113 0.81864285
        0.9983141 0.025026044 0.81860787 1.0146613 0.02502476 0.81856585
        1.0320958 0.025023147 0.8185131 1.0504698 0.02502106 0.81844485
        1.069593 0.02501833 0.81835556 1.0892378 0.025014794 0.8182398
        1.1091502 0.025010288 0.81809247 0.8709707 0.025049007 0.8189766
        0.8715718 0.025047395 0.8189749 0.8723378 0.025059355 0.8189723
        0.87324536 0.025083072 0.8189687 0.87428266 0.025115514 0.8189644
        0.87545335 0.025152763 0.8189594 0.87677926 0.025189128 0.8189538
        0.8783038 0.025218312 0.8189475 0.8800842 0.025236674 0.81894046
        0.8821796 0.02524526 0.81893224 0.8846488 0.025248207 0.8189225
        0.88755435 0.025249915 0.81891084 0.8909611 0.025252307 0.81889695
        0.8949345 0.025255026 0.81888086 0.89954406 0.025257662 0.8188628
        0.90486735 0.025260119 0.81884295 0.9109886 0.02526239 0.8188214
        0.91799676 0.025264474 0.81879824 0.9259814 0.025266362 0.8187739
        0.935029 0.025268054 0.8187484 0.9452178 0.025269546 0.81872207
        0.95661205 0.025270822 0.8186948 0.9692557 0.025271865 0.8186662
        0.98316485 0.025272643 0.81863534 0.9983216 0.025273094 0.81860024
        1.0146677 0.025273137 0.8185582 1.032101 0.025272658 0.8185054
        1.0504738 0.025271509 0.81843716 1.0695957 0.025269538 0.8183479
        1.0892392 0.025266582 0.8182321 1.1091502 0.02526249 0.8180848
        0.8711482 0.025059143 0.8189758 0.8717771 0.025061496 0.81897384
        0.87261957 0.025094237 0.8189703 0.8735937 0.025148863 0.8189656
        0.8746611 0.025215903 0.81896013 0.8758204 0.025285603 0.8189541
        0.8771038 0.02534797 0.81894773 0.87857044 0.025395153 0.81894106
        0.8802891 0.025424317 0.8189339 0.88232535 0.025438452 0.8189257
        0.8847425 0.025444105 0.8189161 0.8876082 0.025448088 0.81890446
        0.8909902 0.02545342 0.8188906 0.89495146 0.025459459 0.8188744
        0.89955634 0.025465475 0.8188563 0.9048782 0.025471289 0.81883633
        0.91099924 0.025476879 0.8188147 0.9180074 0.025482235 0.8187915
        0.9259919 0.025487345 0.818767 0.9350393 0.025492188 0.81874144
        0.94522774 0.025496753 0.818715 0.9566215 0.025501022 0.8186876
        0.9692645 0.025504962 0.81865895 0.98317295 0.025508534 0.81862795
        0.9983288 0.025511675 0.81859285 1.014674 0.02551429 0.81855077
        1.0321062 0.025516262 0.81849784 1.0504777 0.02551745 0.81842947
        1.0695983 0.025517689 0.8183401 1.0892406 0.025516817 0.8182243
        1.1091502 0.025514688 0.8180769 0.8713056 0.025067898 0.81897503
        0.872002 0.02508287 0.8189725 0.8729318 0.025145829 0.81896776
        0.8739523 0.025235433 0.8189618 0.87501824 0.025333881 0.81895524
        0.87614286 0.025427189 0.8189486 0.8773774 0.025505142 0.8189419
        0.8787925 0.025562033 0.8189351 0.880461 0.02559719 0.8189278
        0.88244957 0.025615009 0.8189197 0.8848239 0.025623156 0.8189101
        0.8876559 0.025629602 0.8188986 0.8910165 0.025637932 0.8188847
        0.89496696 0.025647324 0.8188685 0.89956766 0.025656814 0.8188503
        0.90488833 0.02566617 0.8188302 0.91100913 0.025675349 0.8188085
        0.9180172 0.02568434 0.8187852 0.9260017 0.025693132 0.8187606
        0.93504894 0.025701698 0.8187349 0.94523704 0.025710024 0.8187083
        0.95663047 0.025718084 0.8186808 0.9692729 0.025725847 0.81865203
        0.9831807 0.025733264 0.8186209 0.9983358 0.025740273 0.8185857
        1.01468 0.02574678 0.81854343 1.0321112 0.025752662 0.81849045
        1.0504817 0.025757777 0.81842196 1.0696009 0.025761954 0.8183325
        1.0892419 0.025765043 0.8182165 1.1091502 0.025766883 0.81806904
        0.8714507 0.02507578 0.8189744 0.87225807 0.025115812 0.81897074
        0.87327224 0.02521756 0.8189645 0.874308 0.025341794 0.8189573
        0.8753451 0.025464823 0.8189501 0.87642413 0.025573025 0.8189431
        0.8776121 0.025659481 0.8189363 0.87898374 0.025721591 0.81892943
        0.8806107 0.0257604 0.81892216 0.8825594 0.025781024 0.81891406
        0.8848972 0.025791582 0.8189046 0.8876996 0.025800563 0.8188931
        0.8910409 0.025811879 0.8188792 0.8949816 0.025824573 0.8188629
        0.89957845 0.025837537 0.81884456 0.9048979 0.025850471 0.81882435
        0.91101855 0.025863338 0.81880254 0.9180266 0.025876116 0.8187791
        0.9260111 0.025888799 0.8187543 0.9350582 0.025901368 0.81872857
        0.94524604 0.025913807 0.81870186 0.95663905 0.025926095 0.8186742
        0.969281 0.0259382 0.8186453 0.98318815 0.025950091 0.81861407
        0.9983425 0.025961697 0.8185786 1.0146859 0.025972938 0.8185363
        1.032116 0.0259837 0.8184831 1.0504855 0.025993843 0.81841445
        1.0696037 0.02600322 0.8183248 1.0892433 0.026011672 0.8182087
        1.1091502 0.02601908 0.818061 0.8715601 0.02508162 0.8189739
        0.87255985 0.025165504 0.8189683 0.87362087 0.025308058 0.8189606
        0.8746246 0.025456266 0.8189528 0.87560725 0.025589056 0.8189454
        0.876636 0.025699634 0.81893843 0.87778383 0.025786256 0.8189317
        0.8791224 0.025848608 0.8189249 0.8807195 0.025888348 0.81891775
        0.8826399 0.025910536 0.81890965 0.8849515 0.025923096 0.8189002
        0.8877324 0.02593448 0.81888866 0.8910594 0.025948612 0.8188748
        0.89499277 0.025964446 0.8188584 0.8995867 0.025980785 0.81883997
        0.9049054 0.025997318 0.8188197 0.9110259 0.026013998 0.8187977
        0.9180341 0.026030833 0.81877416 0.92601854 0.026047835 0.8187493
        0.93506557 0.02606502 0.8187233 0.9452534 0.0260824 0.81869644
        0.95664614 0.026100004 0.81866866 0.9692878 0.026117848 0.8186396
        0.9831945 0.026135955 0.81860816 0.9983483 0.02615433 0.8185725
        1.014691 0.026172984 0.8185299 1.0321205 0.026191913 0.8184765
        1.050489 0.02621113 0.8184075 1.0696061 0.026230669 0.81831753
        1.0892445 0.02625064 0.81820107 1.1091502 0.026271269 0.81805295
        0.87173915 0.025091274 0.81897306 0.8729319 0.025241964 0.81896484
        0.8739968 0.025428705 0.81895566 0.8749647 0.0256047 0.8189471
        0.8759076 0.025755057 0.81893915 0.8768998 0.025876973 0.81893194
        0.878013 0.025970982 0.818925 0.8793163 0.026038205 0.81891817
        0.8808761 0.026081359 0.81891096 0.882758 0.026106173 0.818903
        0.8850324 0.026120957 0.8188936 0.8877821 0.026134487 0.8188821
        0.8910882 0.026150964 0.8188682 0.89501053 0.026169375 0.8188518
        0.89959997 0.026188409 0.81883335 0.9049172 0.026207676 0.81881297
        0.91103727 0.026227113 0.8187909 0.9180452 0.026246725 0.8187672
        0.9260295 0.026266512 0.8187423 0.9350762 0.02628649 0.8187162
        0.9452635 0.026306674 0.8186892 0.9566558 0.026327087 0.8186614
        0.96929675 0.026347745 0.8186322 0.9832027 0.026368666 0.81860065
        0.9983556 0.026389861 0.81856495 1.0146973 0.026411332 0.8185222
        1.0321256 0.026433073 0.8184687 1.050493 0.026455086 0.8183996
        1.0696088 0.026477408 0.8183096 1.0892459 0.026500134 0.818193
        1.1091502 0.02652346 0.81804484 0.87214875 0.025133377 0.81897056
        0.87335694 0.025355231 0.81896 0.874386 0.025585588 0.8189495
        0.8753211 0.02579348 0.81894 0.87623924 0.025970265 0.8189312
        0.87721 0.026114764 0.8189233 0.87829846 0.026226781 0.81891584
        0.8795689 0.026306743 0.8189087 0.88108677 0.026357774 0.81890136
        0.88292044 0.026386755 0.8188934 0.8851459 0.026403101 0.81888413
        0.88785344 0.026416503 0.8188728 0.8911306 0.026432134 0.818859
        0.8950375 0.026449533 0.8188427 0.8996202 0.0264675 0.8188243
        0.9049347 0.02648563 0.81880397 0.9110536 0.026503852 0.8187819
        0.9180608 0.026522169 0.8187583 0.9260442 0.026540589 0.8187334
        0.9350901 0.026559118 0.8187074 0.9452765 0.026577784 0.81868047
        0.9566677 0.026596606 0.8186527 0.9693076 0.026615603 0.81862354
        0.9832124 0.026634801 0.818592 0.9983641 0.026654204 0.81855637
        1.0147045 0.02667382 0.8185137 1.0321314 0.026693646 0.8184602
        1.0504973 0.02671368 0.8183912 1.0696117 0.026733948 0.81830126
        1.0892473 0.02675454 0.81818473 1.1091502 0.026775645 0.8180366
        0.8726447 0.025230361 0.81896603 0.8737846 0.025508523 0.8189539
        0.87476605 0.025777752 0.8189423 0.87566626 0.026014805 0.81893176
        0.87655795 0.026215412 0.81892234 0.87750524 0.026379136 0.81891376
        0.8785681 0.02650548 0.8189059 0.8798073 0.026595071 0.81889844
        0.881287 0.02665191 0.81889105 0.8830768 0.026683863 0.8188832
        0.885257 0.02670099 0.818874 0.8879248 0.026713502 0.8188629
        0.89117396 0.026727388 0.81884927 0.89506555 0.026742801 0.81883305
        0.8996414 0.02675872 0.8188147 0.9049532 0.026774744 0.8187945
        0.91107076 0.02679081 0.8187725 0.918077 0.026806915 0.818749
        0.92605954 0.026823075 0.8187241 0.9351045 0.026839303 0.8186982
        0.94528985 0.026855614 0.81867135 0.95668006 0.026872043 0.8186436
        0.96931875 0.026888609 0.8186146 0.9832223 0.02690534 0.81858313
        0.9983727 0.026922243 0.81854755 1.0147117 0.026939323 0.8185049
        1.0321373 0.026956571 0.81845164 1.0505017 0.026973998 0.8183827
        1.0696146 0.026991608 0.81829274 1.0892488 0.027009496 0.8181764
        1.1091502 0.027027829 0.81802833 0.8731099 0.025369667 0.8189603
        0.8741956 0.025700683 0.81894654 0.875128 0.026002778 0.81893396
        0.87598926 0.026262822 0.81892276 0.8768495 0.02648015 0.8189128
        0.87776893 0.026655441 0.81890386 0.8788047 0.026789159 0.8188958
        0.8800148 0.026883248 0.8188883 0.88146156 0.026942799 0.81888086
        0.8832144 0.026976224 0.81887305 0.88535637 0.026993658 0.81886405
        0.8879898 0.02700534 0.8188531 0.89121443 0.02701771 0.81883955
        0.89509225 0.027031414 0.81882346 0.89966196 0.027045568 0.8188052
        0.9049712 0.02705978 0.818785 0.9110875 0.027073981 0.81876314
        0.91809285 0.027088173 0.81873965 0.92607456 0.027102364 0.8187149
        0.93511856 0.027116574 0.81868905 0.945303 0.027130831 0.8186622
        0.95669216 0.027145157 0.81863457 0.9693297 0.02715958 0.8186056
        0.9832321 0.027174119 0.81857425 0.9983812 0.027188795 0.8185387
        1.0147189 0.027203603 0.81849617 1.0321431 0.027218543 0.81844294
        1.0505061 0.027233608 0.81837404 1.0696175 0.027248815 0.8182843
        1.0892503 0.027264226 0.8181679 1.1091502 0.02728001 0.8180199
        0.8735706 0.02555807 0.81895304 0.87459046 0.02593165 0.81893796
        0.87546957 0.026259461 0.8189246 0.8762888 0.026535783 0.818913
        0.8771149 0.026763039 0.8189027 0.8780053 0.026943587 0.8188936
        0.87901473 0.027079668 0.8188855 0.8801986 0.027174825 0.81887794
        0.8816167 0.027235063 0.8188706 0.8833379 0.027268935 0.81886286
        0.8854468 0.027286254 0.818854 0.8880502 0.02729697 0.8188431
        0.89125276 0.027307777 0.8188298 0.8951181 0.027319735 0.8188138
        0.8996821 0.027332095 0.8187957 0.90498894 0.027344473 0.81877553
        0.91110414 0.027356796 0.8187537 0.9181086 0.027369065 0.8187303
        0.9260895 0.02738129 0.81870556 0.9351326 0.0273935 0.81867975
        0.94531614 0.027405709 0.8186531 0.9567042 0.027417948 0.8186255
        0.9693407 0.027430251 0.81859654 0.98324186 0.027442634 0.8185653
        0.9983897 0.027455116 0.8185298 1.0147262 0.027467694 0.8184874
        1.0321488 0.027480362 0.8184342 1.0505104 0.027493108 0.81836534
        1.0696205 0.027505942 0.81827563 1.0892518 0.027518922 0.81815934
        1.1091502 0.027532188 0.8180115 0.87401295 0.025792345 0.8189442
        0.8749635 0.026199592 0.81892824 0.8757866 0.026544917 0.81891435
        0.87656146 0.026829708 0.81890243 0.8773522 0.027059693 0.8188921
        0.87821406 0.027239602 0.8188831 0.879199 0.027373808 0.8188751
        0.8803596 0.027467327 0.8188676 0.8817532 0.027526706 0.8188604
        0.88344747 0.027560256 0.81885266 0.8855281 0.027577171 0.8188439
        0.8881055 0.027586889 0.81883323 0.89128876 0.027596187 0.81881994
        0.89514303 0.027606457 0.8188041 0.89970183 0.02761709 0.818786
        0.9050065 0.02762771 0.81876594 0.9111206 0.02763823 0.8187442
        0.9181242 0.027648661 0.8187208 0.9261043 0.027659014 0.8186962
        0.9351466 0.027669307 0.81867045 0.94532907 0.02767957 0.8186438
        0.9567162 0.027689826 0.8186163 0.9693516 0.02770011 0.8185875
        0.9832516 0.027710441 0.81855625 0.9983982 0.027720831 0.81852084
        1.0147333 0.027731284 0.81847847 1.0321547 0.027741784 0.8184253
        1.0505148 0.027752312 0.8183566 1.0696234 0.027762875 0.8182669
        1.0892532 0.027773518 0.8181507 1.1091502 0.027784364 0.818003
        0.8744341 0.02607251 0.818934 0.87531114 0.026502566 0.81891733
        0.87607616 0.02685615 0.8189032 0.8768058 0.02714122 0.81889135
        0.8775617 0.027367193 0.81888115 0.87839663 0.027541501 0.81887233
        0.8793596 0.027670532 0.8188645 0.88049996 0.027760398 0.8188572
        0.88187265 0.027817769 0.81885004 0.88354415 0.02785043 0.8188425
        0.8856008 0.027866723 0.8188338 0.88815594 0.02787541 0.8188232
        0.89132243 0.02788323 0.8188101 0.8951669 0.02789186 0.8187943
        0.89972115 0.027900813 0.8187763 0.9050238 0.027909722 0.81875634
        0.91113687 0.027918508 0.8187346 0.9181397 0.027927166 0.81871134
        0.92611897 0.027935715 0.8186867 0.93516034 0.02794417 0.8186611
        0.94534194 0.027952563 0.8186345 0.95672804 0.027960917 0.8186071
        0.9693624 0.027969273 0.81857824 0.9832612 0.027977638 0.8185471
        0.9984066 0.027986027 0.8185118 1.0147403 0.027994445 0.81846946
        1.0321604 0.028002862 0.8184164 1.0505191 0.028011266 0.81834775
        1.0696263 0.028019642 0.81825817 1.0892546 0.028028028 0.81814206
        1.1091502 0.028036539 0.81799436 0.8748284 0.026396658 0.81892234
        0.8756293 0.02683777 0.81890535 0.8763355 0.02718958 0.81889135
        0.87702066 0.027466768 0.8188797 0.8777437 0.027682671 0.8188699
        0.87855434 0.02784729 0.8188614 0.879498 0.027968593 0.81885386
        0.88062114 0.028053287 0.8188468 0.88197625 0.028107809 0.8188397
        0.88362867 0.02813916 0.8188323 0.88566524 0.028154677 0.8188237
        0.8882016 0.028162329 0.8188132 0.8913537 0.02816872 0.8188002
        0.89518976 0.028175762 0.81878453 0.89974 0.028183103 0.8187666
        0.90504086 0.028190378 0.8187466 0.9111529 0.028197497 0.81872505
        0.91815495 0.02820446 0.8187018 0.92613345 0.028211286 0.81867725
        0.93517405 0.02821799 0.8186516 0.94535476 0.028224606 0.81862515
        0.95673984 0.028231151 0.8185978 0.9693731 0.028237667 0.818569
        0.9832708 0.02824416 0.81853795 0.998415 0.028250653 0.81850266
        1.0147475 0.028257128 0.8184604 1.0321661 0.028263569 0.8184074
        1.0505235 0.028269941 0.8183388 1.0696292 0.028276226 0.8182493
        1.089256 0.02828245 0.8181333 1.1091502 0.028288707 0.8179857
        0.8751908 0.026762752 0.8189093 0.8759146 0.027201895 0.81889236
        0.87656283 0.027541505 0.8188788 0.8772058 0.0278031 0.81886774
        0.8778991 0.028003747 0.81885844 0.87868845 0.028155437 0.8188504
        0.8796158 0.028267074 0.8188431 0.88072443 0.02834547 0.81883633
        0.88206494 0.028396519 0.8188295 0.8837017 0.02842625 0.8188221
        0.88572174 0.028440895 0.8188136 0.8882425 0.028447527 0.8188032
        0.8913827 0.028452545 0.81879026 0.8952115 0.028458076 0.81877464
        0.8997583 0.02846387 0.81875676 0.9050576 0.028469583 0.8187369
        0.9111688 0.028475119 0.81871533 0.9181701 0.028480478 0.81869215
        0.9261479 0.028485665 0.8186677 0.93518764 0.028490717 0.8186422
        0.94536746 0.028495641 0.81861573 0.9567516 0.028500482 0.81858844
        0.9693838 0.028505258 0.8185597 0.98328036 0.028509988 0.8185287
        0.99842334 0.028514678 0.8184935 1.0147545 0.028519321 0.81845134
        1.0321718 0.028523877 0.81839836 1.0505278 0.028528322 0.8183298
        1.069632 0.028532617 0.8182404 1.0892576 0.028536778 0.8181245
        1.1091502 0.028540878 0.81797695 0.8755163 0.027167946 0.81889486
        0.87616384 0.027591102 0.81887853 0.8767569 0.027908128 0.8188657
        0.8773615 0.02814722 0.8188554 0.8780288 0.028328342 0.8188468
        0.8788003 0.028464576 0.8188393 0.879714 0.0285651 0.8188325
        0.8808108 0.028636381 0.8188259 0.8821396 0.028683513 0.8188192
        0.8837637 0.02871143 0.8188119 0.8857705 0.028725138 0.8188034
        0.8882788 0.028730791 0.8187932 0.8914093 0.02873451 0.8187803
        0.89523226 0.028738609 0.8187648 0.89977616 0.028742945 0.818747
        0.9050741 0.028747188 0.8187272 0.91118443 0.028751235 0.8187056
        0.91818506 0.028755076 0.81868255 0.92616206 0.028758736 0.8186582
        0.93520105 0.028762229 0.8186326 0.94538 0.028765582 0.81860626
        0.9567632 0.028768817 0.81857896 0.9693944 0.02877197 0.81855035
        0.98328984 0.028775042 0.8185194 0.99843156 0.028778046 0.81848425
        1.0147616 0.028780965 0.81844217 1.0321776 0.028783755 0.81838924
        1.0505321 0.028786382 0.8183208 1.069635 0.028788796 0.8182314
        1.089259 0.028791 0.81811553 1.1091502 0.02879304 0.8179681
        0.87579995 0.027608724 0.8188792 0.8763746 0.028001122 0.81886387
        0.8769172 0.028285692 0.8188522 0.8774882 0.02849636 0.8188429
        0.8781339 0.028654572 0.8188351 0.8788909 0.028773459 0.81882817
        0.87979376 0.02886182 0.8188218 0.8808813 0.028925419 0.8188154
        0.8822009 0.028968344 0.8188089 0.88381517 0.028994316 0.8188017
        0.8858118 0.029007081 0.81879336 0.8883105 0.02901181 0.8187831
        0.8914335 0.02901433 0.81877035 0.8952519 0.029017096 0.8187549
        0.8997935 0.029020078 0.81873715 0.90509033 0.029022962 0.81871736
        0.9111999 0.02902563 0.8186959 0.91819984 0.029028075 0.8186729
        0.9261762 0.029030323 0.81864846 0.93521434 0.029032378 0.81862307
        0.9453925 0.029034274 0.8185968 0.9567747 0.029036036 0.81856954
        0.9694049 0.029037682 0.818541 0.98329926 0.02903923 0.81851006
        0.99843985 0.029040674 0.81847495 1.0147686 0.029041994 0.81843287
        1.0321832 0.029043147 0.81838006 1.0505364 0.029044077 0.8183117
        1.0696379 0.029044736 0.81822234 1.0892605 0.029045098 0.8181066
        1.1091502 0.029045204 0.8179592 0.87603736 0.028080776 0.81886226
        0.876545 0.0284273 0.8188486 0.87704337 0.02867047 0.81883836
        0.8775868 0.028847897 0.81883025 0.8782154 0.02898064 0.81882334
        0.8789612 0.02908083 0.8188171 0.879856 0.029156324 0.8188111
        0.8809366 0.029211877 0.8188051 0.8822494 0.029250436 0.8187987
        0.88385665 0.029274419 0.81879157 0.8858459 0.029286275 0.8187833
        0.88833773 0.029290175 0.8187731 0.89145535 0.02929161 0.8187604
        0.89527047 0.029293176 0.81874496 0.8998103 0.029294934 0.81872725
        0.9051062 0.029296586 0.8187076 0.9112151 0.02929801 0.8186861
        0.91821444 0.0292992 0.8186632 0.9261901 0.02930017 0.8186388
        0.9352275 0.029300936 0.81861347 0.9454048 0.029301524 0.8185872
        0.95678616 0.029301953 0.81856 0.96941537 0.029302243 0.8185315
        0.9833086 0.029302409 0.81850064 0.998448 0.029302444 0.8184656
        1.0147755 0.029302312 0.8184236 1.0321889 0.02930197 0.8183708
        1.0505407 0.029301353 0.8183025 1.0696408 0.029300392 0.8182132
        1.0892619 0.02929906 0.8180975 1.1091502 0.029297363 0.8179502
        0.87622416 0.02857899 0.81884444 0.8766737 0.028864583 0.8188329
        0.87713593 0.029058715 0.81882435 0.87765807 0.029199254 0.81881756
        0.8782743 0.029304722 0.8188116 0.87901235 0.029385354 0.818806
        0.8799016 0.029447585 0.8188005 0.8809775 0.02949493 0.8187948
        0.8822859 0.029529067 0.8187885 0.8838885 0.029551094 0.81878155
        0.8858731 0.029562134 0.8187732 0.8883606 0.029565323 0.81876314
        0.89147496 0.029565834 0.81875044 0.89528793 0.029566359 0.8187351
        0.8998266 0.029567061 0.8187174 0.9051218 0.029567642 0.81869775
        0.91123015 0.02956799 0.81867635 0.9182288 0.029568093 0.81865346
        0.92620385 0.029567957 0.81862915 0.93524057 0.029567605 0.8186039
        0.94541705 0.029567052 0.8185776 0.9567975 0.029566322 0.81855047
        0.9694257 0.029565431 0.81852204 0.9833179 0.029564392 0.8184912
        0.9984562 0.029563185 0.81845623 1.0147824 0.02956178 0.8184143
        1.0321945 0.029560119 0.8183615 1.050545 0.029558124 0.8182932
        1.0696436 0.029555716 0.81820405 1.0892633 0.02955285 0.81808835
        1.1091502 0.02954952 0.8179411 0.87635696 0.029097479 0.8188257
        0.87676007 0.029307524 0.81881684 0.87719566 0.029446699 0.8188103
        0.87770355 0.029547853 0.81880486 0.878312 0.029624986 0.8187999
        0.8790455 0.029685644 0.818795 0.8799315 0.02973449 0.81879
        0.88100487 0.029773638 0.8187846 0.88231087 0.029803429 0.8187786
        0.8839112 0.029823607 0.81877154 0.8858936 0.029833963 0.8187633
        0.88837934 0.029836623 0.8187532 0.8914923 0.029836394 0.81874055
        0.8953043 0.02983608 0.8187253 0.8998424 0.029835917 0.8187076
        0.905137 0.029835638 0.818688 0.91124487 0.029835109 0.81866664
        0.918243 0.029834323 0.81864375 0.9262174 0.029833287 0.8186195
        0.93525344 0.029832019 0.8185942 0.9454291 0.029830532 0.81856805
        0.9568087 0.029828854 0.81854093 0.969436 0.029826993 0.8185125
        0.98332715 0.029824952 0.81848174 0.9984643 0.029822718 0.81844676
        1.0147893 0.029820245 0.81840485 1.0322001 0.029817466 0.81835216
        1.0505493 0.029814295 0.8182839 1.0696465 0.029810645 0.81819475
        1.0892648 0.029806446 0.8180791 1.1091502 0.029801674 0.817932
        0.87643296 0.029629638 0.81880635 0.87680477 0.029750727 0.8188007
        0.87722474 0.029831098 0.8187963 0.87772536 0.029891534 0.8187923
        0.87833035 0.02993991 0.8187884 0.87906206 0.029980585 0.81878424
        0.87994707 0.030016178 0.8187797 0.8810197 0.030047277 0.8187745
        0.8823253 0.030072885 0.8187686 0.8839254 0.030091375 0.8187617
        0.88590795 0.030101229 0.8187535 0.8883941 0.030103555 0.81874335
        0.8915075 0.030102817 0.8187307 0.8953197 0.030101884 0.8187155
        0.8998576 0.030101096 0.81869787 0.9051519 0.030100174 0.81867826
        0.91125935 0.030099003 0.8186569 0.91825694 0.030097555 0.8186341
        0.9262307 0.030095847 0.81860983 0.93526614 0.030093895 0.8185846
        0.94544107 0.030091709 0.81855845 0.95681983 0.030089315 0.8185314
        0.9694462 0.030086715 0.81850296 0.9833363 0.030083908 0.8184722
        0.99847233 0.030080877 0.81843734 1.0147961 0.030077567 0.81839544
        1.0322057 0.030073907 0.81834275 1.0505534 0.03006979 0.81827456
        1.0696493 0.030065123 0.81818545 1.0892662 0.030059818 0.8180698
        1.1091502 0.030053828 0.8179228 0.87645054 0.030168328 0.8187866
        0.8768113 0.030191025 0.81878453 0.8772273 0.030210847 0.8187823
        0.87772685 0.030230144 0.8187799 0.8783319 0.030249812 0.818777
        0.8790641 0.030270707 0.81877357 0.8799498 0.030293265 0.8187695
        0.88102335 0.030316519 0.8187646 0.8823301 0.030338103 0.8187588
        0.88393193 0.030355055 0.81875193 0.8859167 0.030364558 0.8187437
        0.88840544 0.030366732 0.8187336 0.891521 0.030365674 0.818721
        0.89533424 0.030364322 0.81870574 0.8998725 0.030363092 0.81868815
        0.9051666 0.030361727 0.81866854 0.91127366 0.0303601 0.81864727
        0.9182708 0.030358197 0.8186244 0.926244 0.030356018 0.8186002
        0.9352787 0.030353576 0.818575 0.9454529 0.030350896 0.81854886
        0.95683086 0.03034798 0.8185218 0.96945626 0.030344842 0.8184934
        0.9833454 0.030341476 0.8184627 0.9984803 0.030337848 0.8184278
        1.0148029 0.0303339 0.81838596 1.0322112 0.030329553 0.8183333
        1.0505577 0.030324694 0.81826514 1.0696522 0.030319208 0.81817603
        1.0892676 0.03031299 0.8180605 1.1091502 0.030305972 0.8179135
        0.87640905 0.03070608 0.8187668 0.8767837 0.030630594 0.8187683
        0.8772068 0.030590074 0.8187683 0.8777104 0.030568322 0.8187674
        0.87831837 0.03055935 0.8187655 0.8790529 0.030560499 0.81876284
        0.87994075 0.030570026 0.8187592 0.8810166 0.030585403 0.8187546
        0.8823261 0.03060293 0.818749 0.8839314 0.030618312 0.81874216
        0.8859204 0.030627439 0.8187339 0.8884137 0.030629454 0.8187238
        0.8915329 0.030628087 0.81871116 0.8953483 0.030626338 0.8186959
        0.8998872 0.030624691 0.8186783 0.90518135 0.0306229 0.81865877
        0.911288 0.030620838 0.8186375 0.91828465 0.030618489 0.81861466
        0.92625725 0.030615862 0.81859046 0.93529135 0.03061296 0.8185653
        0.9454648 0.030609801 0.81853914 0.9568419 0.030606396 0.81851214
        0.9694664 0.030602748 0.8184838 0.9833545 0.030598845 0.8184531
        0.99848837 0.030594645 0.81841826 1.0148098 0.030590095 0.8183764
        1.0322168 0.030585092 0.8183238 1.0505619 0.030579515 0.8182556
        1.069655 0.030573236 0.8181666 1.089269 0.030566135 0.8180511
        1.1091502 0.03055812 0.81790406 0.8763092 0.031235361 0.8187471
        0.8767185 0.031072106 0.8187519 0.8771601 0.030973542 0.8187541
        0.8776738 0.030911388 0.8187546 0.8782881 0.030873813 0.8187539
        0.8790272 0.03085504 0.8187519 0.87991893 0.030851278 0.8187488
        0.88099873 0.030858511 0.8187444 0.8823127 0.030871728 0.81873894
        0.8839234 0.03088529 0.81873214 0.8859189 0.030893825 0.8187239
        0.8884189 0.03089547 0.8187138 0.89154345 0.030893605 0.81870115
        0.8953619 0.030891273 0.8186859 0.899902 0.030889018 0.81866837
        0.9051962 0.030886618 0.8186488 0.9113025 0.030883946 0.81862754
        0.91829866 0.03088098 0.81860477 0.92627066 0.030877722 0.8185806
        0.93530405 0.030874185 0.8185555 0.9454767 0.03087038 0.81852937
        0.956853 0.03086631 0.81850237 0.9694765 0.03086198 0.81847405
        0.9833637 0.03085737 0.81844336 0.99849635 0.030852435 0.81840855
        1.0148166 0.03084711 0.8183667 1.0322224 0.030841282 0.81831414
        1.0505662 0.030834828 0.818246 1.0696578 0.030827591 0.818157
        1.0892705 0.030819438 0.81804156 1.1091502 0.030810261 0.81789464
        0.8761529 0.031748876 0.8187279 0.87661135 0.031512707 0.8187354
        0.8770824 0.03136059 0.81873965 0.87761325 0.031259667 0.8187416
        0.87823814 0.031194018 0.8187419 0.8789847 0.031155357 0.81874067
        0.87988263 0.031138139 0.81873804 0.88096833 0.03113698 0.818734
        0.88228893 0.0311456 0.8187287 0.8839074 0.031157067 0.8187219
        0.8859118 0.031164726 0.81871367 0.8884208 0.031165743 0.8187035
        0.8915525 0.031163134 0.8186909 0.895375 0.031159978 0.8186757
        0.8999167 0.031156883 0.8186581 0.90521115 0.03115364 0.8186387
        0.91131717 0.031150125 0.8186174 0.9183128 0.031146307 0.81859463
        0.9262842 0.031142194 0.81857055 0.93531686 0.031137796 0.8185454
        0.9454888 0.031133117 0.81851935 0.9568642 0.031128163 0.8184924
        0.9694868 0.031122928 0.81846416 0.98337287 0.03111739 0.8184335
        0.99850446 0.031111505 0.8183987 1.0148236 0.031105189 0.81835693
        1.0322279 0.031098325 0.8183044 1.0505704 0.03109077 0.81823635
        1.0696607 0.031082362 0.81814736 1.0892719 0.031072954 0.8180319
        1.1091502 0.031062404 0.81788504 0.87594295 0.032239836 0.81870943
        0.8764613 0.03194669 0.8187191 0.8769712 0.031747732 0.8187251
        0.87752616 0.03161095 0.81872845 0.8781663 0.031518497 0.81872976
        0.87892365 0.03146042 0.8187292 0.8798303 0.031429827 0.8187271
        0.8809243 0.03142018 0.8187234 0.8822538 0.03142401 0.81871814
        0.88388264 0.031433143 0.81871146 0.88589865 0.031439684 0.81870323
        0.8884192 0.031439837 0.81869304 0.89155996 0.03143626 0.8186804
        0.8953876 0.031432066 0.8186652 0.8999313 0.031427912 0.81864774
        0.9052262 0.031423617 0.81862825 0.9113319 0.031419042 0.8186071
        0.91832703 0.03141417 0.8185843 0.9262978 0.031409 0.81856036
        0.93532974 0.031403538 0.8185352 0.9455009 0.031397786 0.8185092
        0.95687544 0.031391744 0.81848234 0.969497 0.031385407 0.8184541
        0.9833821 0.03137875 0.8184235 0.99851257 0.031371716 0.81838876
        1.0148304 0.031364214 0.818347 1.0322335 0.03135612 0.8182945
        1.0505747 0.03134728 0.8182265 1.0696635 0.03133751 0.8181376
        1.0892733 0.031326648 0.81802225 1.1091502 0.03131454 0.81787544
        0.87568355 0.03270216 0.81869197 0.87626916 0.032368068 0.81870323
        0.8768253 0.03213084 0.8187107 0.8774107 0.031962447 0.81871516
        0.87807107 0.031845283 0.8187174 0.8788427 0.03176877 0.81871766
        0.87976086 0.031725213 0.81871593 0.8808657 0.03170716 0.81871253
        0.88220686 0.031706125 0.81870747 0.8838487 0.03171276 0.81870085
        0.8858793 0.031717982 0.81869256 0.888414 0.031717066 0.8186824
        0.8915657 0.03171233 0.81866974 0.8953996 0.03170692 0.8186546
        0.8999458 0.03170154 0.81863713 0.9052412 0.031696014 0.8186177
        0.91134673 0.031690218 0.8185966 0.91834134 0.031684123 0.8185739
        0.9263115 0.031677727 0.81854993 0.9353427 0.031671025 0.8185249
        0.94551307 0.031664036 0.81849897 0.9568867 0.031656746 0.8184721
        0.9695074 0.03164915 0.81844395 0.98339134 0.031641208 0.8184134
        0.9985207 0.03163286 0.8183787 1.0148373 0.031624015 0.818337
        1.0322391 0.031614535 0.8182846 1.0505788 0.031604245 0.8182166
        1.0696664 0.031592965 0.8181278 1.0892748 0.031580497 0.8180125
        1.1091502 0.031566676 0.8178658 0.87537915 0.03313068 0.81867576
        0.87603664 0.032771233 0.818688 0.87664443 0.03250567 0.8186965
        0.8772659 0.032311253 0.81870204 0.8779509 0.032172393 0.8187051
        0.8787405 0.032079007 0.8187059 0.87967324 0.032023232 0.81870466
        0.88079166 0.031997073 0.8187015 0.88214725 0.031991202 0.8186966
        0.88380533 0.03199523 0.81869 0.88585347 0.031998973 0.8186817
        0.8884052 0.03199682 0.8186715 0.8915698 0.031990785 0.8186589
        0.89541095 0.031984013 0.81864375 0.8999601 0.031977266 0.81862634
        0.9052562 0.031970378 0.818607 0.9113616 0.03196322 0.81858593
        0.91835564 0.03195576 0.8185633 0.9263252 0.031948004 0.8185394
        0.9353557 0.031939935 0.8185144 0.9455253 0.031931575 0.81848854
        0.95689803 0.031922903 0.8184617 0.9695177 0.03191391 0.8184336
        0.98340064 0.031904556 0.8184032 0.9985288 0.03189477 0.8183685
        1.0148442 0.031884447 0.8183269 1.0322447 0.031873446 0.8182745
        1.0505831 0.031861585 0.8182066 1.0696692 0.03184866 0.81811786
        1.0892762 0.031834465 0.81800264 1.1091502 0.031818803 0.81785595
        0.875035 0.033521093 0.818661 0.87576634 0.033151034 0.8186736
        0.8764291 0.032867912 0.8186828 0.87709063 0.032654345 0.818689
        0.8778046 0.032497816 0.81869274 0.87861574 0.032389786 0.8186941
        0.8795662 0.032322947 0.8186933 0.8807013 0.032289203 0.8186904
        0.88207453 0.032278653 0.8186856 0.88375217 0.03228003 0.81867903
        0.8858212 0.032282162 0.81867075 0.88839275 0.032278642 0.8186605
        0.89157224 0.032271177 0.8186479 0.8954218 0.032262936 0.8186328
        0.8999743 0.03225471 0.8186154 0.9052713 0.032246348 0.8185961
        0.9113765 0.03223772 0.8185751 0.91837007 0.03222879 0.81855255
        0.926339 0.032219555 0.8185287 0.9353688 0.032210015 0.81850374
        0.9455375 0.03220017 0.818478 0.95690936 0.03219001 0.8184513
        0.9695281 0.03217951 0.81842315 0.98340994 0.032168634 0.8183928
        0.99853694 0.032157302 0.8183582 1.0148511 0.032145396 0.81831664
        1.0322504 0.03213277 0.81826437 1.0505874 0.032119233 0.81819654
        1.0696721 0.032104563 0.81810784 1.0892776 0.032088533 0.8179927
        1.1091502 0.032070935 0.8178461 0.8746564 0.03387023 0.81864786
        0.8754615 0.033502914 0.8186603 0.8761803 0.03321325 0.8186697
        0.87688464 0.03298852 0.81867635 0.8776309 0.032819457 0.8186805
        0.8784669 0.032699797 0.8186823 0.8794384 0.032623544 0.81868184
        0.88059354 0.03258301 0.81867915 0.8819879 0.032568075 0.81867445
        0.8836888 0.032566816 0.8186679 0.8857825 0.032567237 0.81865954
        0.88837683 0.03256222 0.81864935 0.8915732 0.032553226 0.8186367
        0.89543205 0.03254342 0.81862164 0.89998835 0.032533623 0.8186043
        0.9052863 0.03252369 0.81858504 0.9113914 0.032513503 0.8185642
        0.9183845 0.03250301 0.8185417 0.92635274 0.03249221 0.8185179
        0.9353818 0.0324811 0.818493 0.9455498 0.03246968 0.81846726
        0.95692074 0.032457933 0.8184406 0.96953845 0.03244584 0.81841266
        0.98341924 0.03243335 0.8183823 0.9985451 0.032420374 0.8183478
        1.014858 0.0324068 0.8183063 1.032256 0.032392457 0.81825405
        1.0505917 0.032377146 0.81818634 1.069675 0.03236064 0.8180977
        1.089279 0.032342684 0.8179827 1.1091502 0.03232306 0.8178362
        0.8742494 0.034175243 0.81863654 0.87512636 0.03382278 0.8186483
        0.87590027 0.03353723 0.81865746 0.8766479 0.03331007 0.8186642
        0.87742853 0.03313474 0.81866854 0.8782925 0.033007447 0.8186706
        0.8792883 0.03292406 0.81867033 0.88046706 0.032877892 0.8186678
        0.8818866 0.03285904 0.81866324 0.8836149 0.032855228 0.8186567
        0.88573706 0.032853857 0.81864834 0.8883574 0.032847248 0.818638
        0.8915726 0.032836642 0.8186254 0.89544183 0.032825198 0.8186103
        0.9000023 0.032813754 0.8185931 0.9053014 0.032802187 0.81857395
        0.91140634 0.03279036 0.8185531 0.918399 0.032778226 0.8185306
        0.9263666 0.032765787 0.8185069 0.93539494 0.032753035 0.81848216
        0.94556206 0.032739963 0.81845653 0.9569321 0.032726556 0.81842995
        0.9695489 0.03271279 0.818402 0.9834286 0.0326986 0.8183718
        0.9985533 0.03268391 0.8183373 1.0148649 0.032668583 0.8182959
        1.0322616 0.032652445 0.81824374 1.0505959 0.032635286 0.8181761
        1.0696778 0.032616857 0.8180875 1.0892805 0.032596905 0.8179726
        1.1091502 0.03257518 0.8178262 0.8738173 0.03443585 0.818627
        0.8747646 0.034107786 0.81863767 0.8755916 0.033835962 0.8186462
        0.87638104 0.03361541 0.8186526 0.87719643 0.033441186 0.81865686
        0.8780904 0.033311408 0.818659 0.8791137 0.033224005 0.8186589
        0.8803201 0.033173826 0.81865644 0.88176924 0.033151712 0.8186519
        0.8835297 0.033145495 0.8186453 0.88568485 0.033142254 0.8186369
        0.8883345 0.03313394 0.8186265 0.8915706 0.03312163 0.81861395
        0.8954511 0.033108465 0.81859887 0.9000162 0.033095293 0.8185817
        0.9053164 0.033082 0.81856257 0.91142136 0.03306845 0.8185418
        0.9184135 0.033054594 0.8185195 0.9263805 0.033040427 0.81849587
        0.9354081 0.033025943 0.81847113 0.9455744 0.033011127 0.81844556
        0.9569436 0.032995973 0.81841904 0.9695593 0.03298044 0.8183912
        0.98343796 0.032964468 0.81836104 0.99856144 0.03294797 0.8183267
        1.014872 0.032930795 0.8182854 1.0322672 0.032912772 0.8182333
        1.0506002 0.032893684 0.8181657 1.0696807 0.03287325 0.81807727
        1.0892819 0.03285121 0.8179624 1.1091502 0.0328273 0.81781614
        0.87337375 0.03464707 0.8186195 0.8743827 0.034354772 0.8186286
        0.87525904 0.034104995 0.8186362 0.8760872 0.03389937 0.81864184
        0.87693554 0.033734042 0.8186458 0.87785995 0.03360794 0.81864774
        0.87891334 0.033520613 0.8186475 0.88015157 0.03346869 0.8186451
        0.8816355 0.03344433 0.8186405 0.88343334 0.03343602 0.8186339
        0.8856261 0.033430934 0.81862545 0.8883085 0.03342089 0.818615
        0.89156747 0.033406876 0.8186024 0.89546 0.033392 0.81858736
        0.9000299 0.033377107 0.8185702 0.9053315 0.03336209 0.8185512
        0.9114364 0.033346813 0.81853044 0.91842806 0.033331234 0.81850827
        0.9263944 0.03331533 0.81848466 0.9354213 0.0332991 0.81846005
        0.9455868 0.033282533 0.8184346 0.956955 0.033265613 0.81840813
        0.96956974 0.033248294 0.81838036 0.9834473 0.03323052 0.81835026
        0.99856967 0.033212185 0.818316 1.0148789 0.033193145 0.8182748
        1.0322728 0.03317322 0.81822276 1.0506045 0.033152156 0.8181553
        1.0696836 0.033129696 0.8180669 1.0892833 0.03310554 0.81795216
        1.1091502 0.03307941 0.817806 0.8728942 0.03481987 0.81861365
        0.87397933 0.034564387 0.81862104 0.87490416 0.034343015 0.81862736
        0.87576604 0.03416043 0.8186321 0.8766423 0.03401304 0.8186353
        0.87759477 0.033898886 0.8186367 0.8786799 0.033817623 0.8186361
        0.8799548 0.033767324 0.81863356 0.8814803 0.033742085 0.81862885
        0.8833227 0.03373194 0.8186222 0.8855592 0.03372482 0.81861365
        0.8882788 0.033712745 0.81860316 0.8915629 0.033696733 0.8185905
        0.8954686 0.033679847 0.8185755 0.90004367 0.033662945 0.81855845
        0.9053467 0.033645917 0.8185395 0.9114516 0.033628635 0.8185189
        0.9184428 0.033611048 0.8184967 0.92640847 0.033593137 0.8184733
        0.93543464 0.033574894 0.8184488 0.94559926 0.033556312 0.81842333
        0.9569666 0.03353736 0.81839705 0.9695803 0.033518005 0.8183694
        0.98345673 0.03349817 0.81833935 0.9985779 0.033477757 0.81830513
        1.0148858 0.033456612 0.818264 1.0322785 0.033434536 0.8182121
        1.0506086 0.033411276 0.81814474 1.0696864 0.033386562 0.81805646
        1.0892848 0.03336008 0.8179418 1.1091502 0.033331525 0.81779575
        0.87249094 0.03492483 0.8186104 0.87357706 0.0347316 0.81861526
        0.8745408 0.034543775 0.8186201 0.8754342 0.034387246 0.8186238
        0.8763354 0.034261744 0.8186259 0.87731373 0.03416427 0.81862664
        0.8784307 0.034093376 0.8186256 0.8797451 0.03404773 0.8186227
        0.88131624 0.03402341 0.8186178 0.8832071 0.034012455 0.81861097
        0.8854903 0.034004048 0.8186023 0.88824856 0.033990745 0.8185918
        0.8915582 0.033973623 0.8185791 0.89547694 0.033955652 0.81856406
        0.90005726 0.033937633 0.81854707 0.90536165 0.033919472 0.8185282
        0.91146654 0.033901036 0.8185076 0.91845727 0.03388226 0.8184855
        0.9264223 0.03386314 0.81846213 0.9354477 0.033843655 0.81843764
        0.94561154 0.0338238 0.8184123 0.95697796 0.033803552 0.818386
        0.9695907 0.033782855 0.8183585 0.983466 0.03376165 0.8183285
        0.99858606 0.033739816 0.81829435 1.0148927 0.0337172 0.81825334
        1.0322841 0.033693593 0.8182015 1.0506129 0.033668738 0.8181341
        1.0696892 0.033642344 0.8180459 1.0892861 0.03361408 0.81793135
        1.1091502 0.033583634 0.81778544 0.87230563 0.034963343 0.8186093
        0.873232 0.034851503 0.81861126 0.874205 0.034699008 0.8186146
        0.8751368 0.034560744 0.8186174 0.8760755 0.03444622 0.8186191
        0.87708783 0.03435552 0.81861943 0.878238 0.034288514 0.8186181
        0.8795868 0.034244966 0.8186151 0.8811941 0.034221932 0.81861
        0.8831221 0.034212124 0.81860304 0.88544065 0.034205087 0.81859416
        0.8882279 0.034193628 0.8185834 0.89155656 0.034178752 0.8185705
        0.8954851 0.03416318 0.8185554 0.9000692 0.03414761 0.81853825
        0.9053746 0.034131918 0.8185193 0.9114794 0.034115974 0.8184986
        0.9184698 0.034099728 0.81847644 0.92643434 0.034083158 0.81845295
        0.9354592 0.034066256 0.8184284 0.94562244 0.034049015 0.81840295
        0.95698816 0.034031406 0.8183766 0.9696001 0.03401338 0.8183489
        0.9834746 0.03399487 0.81831884 0.9985936 0.03397575 0.8182846
        1.0148993 0.03395586 0.8182434 1.0322895 0.03393499 0.81819147
        1.0506171 0.033912864 0.81812406 1.069692 0.03388918 0.8180358
        1.0892876 0.03386359 0.81792104 1.1091502 0.033835743 0.8177751
        0.8721862 0.034987796 0.81860864 0.8729558 0.03493499 0.8186085
        0.8739056 0.034817696 0.81861055 0.8748744 0.0346933 0.8186127
        0.87585884 0.034582734 0.81861407 0.87691 0.0344927 0.8186143
        0.8780922 0.034425776 0.8186129 0.87946993 0.034382664 0.8186097
        0.8811052 0.034360647 0.8186045 0.8830609 0.034352373 0.8185974
        0.8854055 0.034347333 0.8185884 0.88821393 0.034338374 0.8185774
        0.89155644 0.03432641 0.81856436 0.895492 0.034313988 0.8185491
        0.90007883 0.03430173 0.81853175 0.90538496 0.034289524 0.8185127
        0.9114898 0.034277257 0.8184918 0.91847986 0.034264892 0.8184695
        0.9264441 0.034252446 0.81844586 0.93546855 0.03423993 0.8184211
        0.9456314 0.034227353 0.8183955 0.9569966 0.03421473 0.8183689
        0.969608 0.034202054 0.81834096 0.9834819 0.034189284 0.8183107
        0.99860024 0.034176372 0.8182762 1.0149051 0.034163207 0.8182348
        1.0322944 0.03414965 0.81818247 1.0506209 0.034135528 0.81811476
        1.0696948 0.034120645 0.81802607 1.089289 0.034104805 0.817911
        1.1091502 0.03408784 0.8177646 0.8720302 0.03501947 0.81860775
        0.87270695 0.035000596 0.8186065 0.8735944 0.03492445 0.818607
        0.8745637 0.034828782 0.818608 0.8755807 0.03473533 0.8186086
        0.87667257 0.034654986 0.8186082 0.8778948 0.03459364 0.8186065
        0.87931144 0.03455392 0.8186031 0.8809855 0.03453412 0.8185977
        0.88297945 0.03452749 0.81859034 0.88535917 0.034524225 0.8185811
        0.8881955 0.03451768 0.81856996 0.89155585 0.034508627 0.8185567
        0.89550024 0.03449928 0.8185412 0.90009046 0.03449016 0.8185238
        0.9053974 0.034481157 0.8185046 0.9115021 0.03447217 0.81848365
        0.91849184 0.034463186 0.8184612 0.9264556 0.034454208 0.81843734
        0.9354796 0.03444526 0.8184125 0.94564176 0.03443636 0.8183867
        0.9570064 0.03442752 0.81836 0.9696171 0.034418736 0.8183319
        0.98349017 0.034409985 0.81830144 0.99860764 0.034401197 0.8182668
        1.0149114 0.034392282 0.81822515 1.0322996 0.0343831 0.8181727
        1.050625 0.03437347 0.8181048 1.0696975 0.034363195 0.81801593
        1.0892904 0.034352075 0.8179007 1.1091502 0.034339942 0.81775403
        0.8718605 0.03505363 0.8186068 0.8724803 0.035052396 0.81860495
        0.87329835 0.03501128 0.81860423 0.87423986 0.03494923 0.8186039
        0.8752703 0.034881484 0.8186034 0.8763984 0.0348185 0.8186022
        0.87766504 0.034768 0.81859994 0.8791281 0.03473463 0.8185961
        0.88084877 0.03471821 0.8185904 0.8828879 0.034713287 0.81858283
        0.885308 0.034711484 0.81857336 0.88817555 0.034707237 0.818562
        0.8915552 0.03470111 0.81854856 0.8955091 0.034694817 0.81853294
        0.9001029 0.034688745 0.81851536 0.9054107 0.034682803 0.818496
        0.9115153 0.034676917 0.8184749 0.91850454 0.03467108 0.81845236
        0.9264678 0.034665294 0.8184284 0.93549114 0.03465958 0.8184034
        0.9456527 0.034653965 0.8183775 0.95701665 0.034648452 0.8183506
        0.9696266 0.03464304 0.8183224 0.98349875 0.03463769 0.81829184
        0.99861526 0.034632348 0.81825703 1.014918 0.0346269 0.8182152
        1.032305 0.03462121 0.8181626 1.0506291 0.034615085 0.81809455
        1.0697004 0.034608323 0.8180056 1.0892919 0.034600705 0.8178902
        1.1091502 0.03459204 0.81774336 0.87166905 0.035091817 0.8186057
        0.87226635 0.03509549 0.8186038 0.87302107 0.035080113 0.81860214
        0.87391305 0.035051566 0.81860054 0.8749303 0.03501655 0.81859875
        0.8760802 0.03498078 0.8185964 0.87739116 0.03494996 0.81859314
        0.878909 0.034928698 0.8185887 0.88068736 0.034918137 0.81858253
        0.8827818 0.03491512 0.81857467 0.88525003 0.034914277 0.818565
        0.8881533 0.034912065 0.8185534 0.8915546 0.034908775 0.81853974
        0.89551884 0.0349054 0.81852394 0.90011644 0.034902144 0.81850624
        0.90542513 0.034898955 0.81848675 0.9115295 0.034895793 0.8184656
        0.9185182 0.03489265 0.8184429 0.9264808 0.034889534 0.81841886
        0.93550354 0.03488647 0.8183937 0.94566435 0.034883466 0.81836766
        0.9570275 0.03488052 0.8183407 0.9696365 0.03487763 0.8183124
        0.98350775 0.034874756 0.8182817 0.9986232 0.034871828 0.81824684
        1.0149248 0.03486872 0.81820494 1.0323106 0.03486529 0.81815225
        1.0506334 0.03486134 0.8180841 1.0697032 0.034856644 0.8179951
        1.0892934 0.034850977 0.81787956 1.1091502 0.034844134 0.8177327
        0.8714548 0.035134107 0.8186046 0.8720563 0.03513403 0.8186028
        0.8727638 0.035133936 0.81860065 0.8735957 0.035133824 0.81859803
        0.8745733 0.03513369 0.8185949 0.8757213 0.035133526 0.8185911
        0.8770683 0.03513333 0.81858647 0.8786474 0.03513309 0.81858087
        0.8804965 0.035132796 0.8185741 0.88265914 0.03513244 0.81856585
        0.88518465 0.035132017 0.81855595 0.88812876 0.03513151 0.8185441
        0.89155394 0.035130914 0.81853026 0.89552945 0.035130233 0.8185143
        0.90013105 0.035129465 0.81849647 0.9054406 0.035128627 0.8184769
        0.9115447 0.035127714 0.81845564 0.9185328 0.035126735 0.8184328
        0.92649466 0.0351257 0.8184087 0.9355166 0.03512462 0.8183835
        0.9456766 0.035123497 0.8183574 0.9570388 0.035122335 0.81833035
        0.9696469 0.03512112 0.818302 0.98351705 0.035119798 0.8182712
        0.9986314 0.035118297 0.8182363 1.0149318 0.035116497 0.8181943
        1.0323163 0.035114236 0.81814164 1.0506377 0.035111308 0.8180734
        1.0697062 0.035107482 0.8179843 1.0892948 0.035102528 0.8178688
        1.1091502 0.03509622 0.8177219
        <InformationKey name="L2_NORM_RANGE" location="vtkDataArray" length="2">
          <Value index="0">
            1.1956568344
          </Value>
          <Value index="1">
            1.3784465989
          </Value>
        </InformationKey>
      </DataArray>
    </Points>
  </Piece>
  </StructuredGrid>
</VTKFile>
