<?xml version="1.0"?>
<VTKFile type="StructuredGrid" version="0.1" byte_order="LittleEndian" header_type="UInt32" compressor="vtkZLibDataCompressor">
  <StructuredGrid WholeExtent="0 30 0 40 0 0">
  <Piece Extent="0 30 0 40 0 0">
    <PointData>
      <DataArray type="Float32" Name="orthogonality" format="ascii" RangeMin="0" RangeMax="0.6571053862571716">
        0 0.04751585 0.094593726 0.14081599 0.1858151 0.22929232
        0.2710295 0.3108934 0.34883216 0.3848641 0.41905764 0.45150274
        0.4822732 0.5113838 0.5387484 0.56415164 0.587248 0.6076004
        0.62475866 0.6383614 0.648226 0.6543931 0.6571054 0.65673447
        0.6536849 0.6483115 0.6408681 0.6314858 0.620161 0.6067282
        0.59078187 4.029716e-05 0.047115397 0.0938333 0.1396959 0.18433471
        0.22744884 0.26881653 0.3082994 0.3458391 0.38144654 0.41518316
        0.44713435 0.4773751 0.50593096 0.5327399 0.55762553 0.58029336
        0.6003601 0.6174179 0.63112056 0.6412661 0.6478454 0.6510383
        0.65116096 0.6485864 0.6436678 0.63668436 0.6278149 0.6171269
        0.60455954 0.58992964 8.028155e-05 0.046716783 0.09307618 0.13858055
        0.18286037 0.22561261 0.26661196 0.30571494 0.34285668 0.37804064
        0.41132125 0.44277915 0.47249016 0.50048983 0.5267395 0.55110097
        0.57333076 0.59310055 0.6100471 0.623843 0.63426995 0.6412708
        0.6449622 0.6456033 0.6435334 0.63910156 0.63261056 0.6242855
        0.61426306 0.6025845 0.5892446 0.00011972747 0.046321854 0.09232593
        0.13747534 0.18139966 0.22379377 0.26442903 0.30315703 0.33990672
        0.37467456 0.4075082 0.43848392 0.46767825 0.49513635 0.5208414
        0.54469144 0.566491 0.5859648 0.60279435 0.61667395 0.62737423
        0.6347962 0.6389972 0.64017993 0.6386472 0.6347396 0.62877816
        0.621028 0.611685 0.60087234 0.5886919 0.0001584431 0.04593087
        0.091582894 0.1363807 0.17995302 0.22199288 0.26226833 0.3006264
        0.33699003 0.37134904 0.40374473 0.43424916 0.46293965 0.4898703
        0.5150449 0.53839535 0.5597718 0.57895 0.5956559 0.6096087
        0.62057346 0.6284149 0.633135 0.63488024 0.63391393 0.6305632
        0.6251619 0.6180087 0.60934955 0.59937346 0.588247 0.00019626139
        0.045544043 0.09084732 0.13529693 0.17852083 0.2202103 0.26013035
        0.29812348 0.33410707 0.36806458 0.40003127 0.4300752 0.45827433
        0.48469126 0.5093489 0.53221095 0.55317074 0.5720528 0.58862793
        0.6026425 0.6138615 0.62211937 0.62736636 0.62969285 0.62931937
        0.6265545 0.6217391 0.61519897 0.60722244 0.59805167 0.5878924
        0.00023303388 0.045161553 0.09011941 0.13422424 0.17710336 0.21844634
        0.25801533 0.2956486 0.3312582 0.3648215 0.39636803 0.42596206
        0.45368212 0.4795986 0.50375235 0.5261366 0.5466854 0.5652703
        0.5817064 0.59577024 0.60723186 0.6159013 0.62168103 0.62460566
        0.6248493 0.6226966 0.61848915 0.6125744 0.60527587 0.5968795
        0.5876149 0.0002686262 0.044783548 0.08939933 0.13316283 0.17570078
        0.21670122 0.25592354 0.29320207 0.32844368 0.36162 0.39275515
        0.42190975 0.44916275 0.4745917 0.49825403 0.52017057 0.5403136
        0.5585996 0.5748877 0.58898705 0.60067785 0.60975194 0.6160683
        0.61960596 0.6204893 0.61897296 0.61539346 0.6101137 0.60348684
        0.59583557 0.5874043 0.00030291494 0.04441015 0.08868722 0.13211283
        0.17431326 0.2149751 0.25385517 0.290784 0.32566363 0.35846022
        0.38919264 0.4179181 0.44471577 0.4696698 0.49285278 0.51431125
        0.5340532 0.5520379 0.5681682 0.5822881 0.59419286 0.6036624
        0.6105169 0.6146806 0.6162247 0.6153677 0.6124345 0.607798
        0.601836 0.59490293 0.58725256 0.00033578518 0.04404149 0.08798319
        0.13107438 0.17294091 0.2132681 0.2518103 0.2883945 0.32291815
        0.35534215 0.38568047 0.4139869 0.44034076 0.46483207 0.4875475
        0.5085571 0.5279022 0.54558283 0.5615449 0.57566893 0.5877704
        0.5976235 0.6050151 0.6098159 0.6120405 0.6118651 0.609596
        0.60561055 0.600307 0.59406763 0.58715314 0.00036712864 0.043677658
        0.08728735 0.13004756 0.17158385 0.2115803 0.24978907 0.2860337
        0.32020727 0.3522658 0.3822185 0.4101159 0.43603724 0.46007785
        0.48233706 0.5029066 0.52185875 0.5392322 0.5550147 0.5691253
        0.58140403 0.5916263 0.599551 0.60499775 0.6079215 0.60844946
        0.6068624 0.6035361 0.5988854 0.59331816 0.5871006 0.0003968422
        0.043318752 0.08659978 0.12903245 0.1702421 0.20991178 0.24779147
        0.28370157 0.317531 0.34923112 0.3788066 0.40630478 0.4318047
        0.45540628 0.47722036 0.4973584 0.5159213 0.53298396 0.5485752
        0.5626535 0.57508796 0.58566165 0.59411246 0.6002114 0.6038517
        0.605105 0.60421854 0.6015606 0.5975587 0.5926447 0.58709055
        0.0004248267 0.042964865 0.085920565 0.12802912 0.16891576 0.20826256
        0.24581754 0.28139812 0.3148893 0.346238 0.37544453 0.4025532
        0.42764258 0.45081663 0.4721964 0.4919113 0.5100884 0.5268366
        0.5422242 0.55625015 0.56881654 0.5797209 0.58868706 0.59544176
        0.59981465 0.60181546 0.60164934 0.59967047 0.59631544 0.5920387
        0.58711904 0.0004509859 0.042616073 0.08524975 0.12703763 0.16760485
        0.20663267 0.24386731 0.27912334 0.3122821 0.34328628 0.37213212
        0.39886084 0.42355037 0.4463081 0.46726415 0.48656404 0.5043587
        0.5207886 0.53596 0.5499125 0.5625848 0.5737957 0.5832626
        0.59067327 0.5957933 0.598564 0.5991398 0.59785295 0.59514517
        0.5914927 0.58718276 0.00047522585 0.042272456 0.084587425 0.126058
        0.1663094 0.20502213 0.24194072 0.27687716 0.3097093 0.34037587
        0.3688691 0.39522725 0.41952744 0.44187993 0.46242267 0.48131558
        0.49873108 0.5148388 0.5297811 0.5436382 0.5563884 0.567878
        0.5778268 0.5858899 0.5917697 0.5953332 0.59667444 0.59609526
        0.5940381 0.59100014 0.5872788 0.0004974538 0.041934088 0.08393363
        0.12509029 0.16502942 0.20343092 0.2400378 0.27465957 0.30717084
        0.33750653 0.36565518 0.39165205 0.4155733 0.43753135 0.45767105
        0.47616488 0.4932046 0.5089864 0.52368665 0.53742564 0.5502235
        0.5619606 0.5723676 0.58107513 0.5877249 0.59210443 0.5942371
        0.59438473 0.5929849 0.5905548 0.58740467 0.00051757775 0.04160104
        0.08328841 0.12413452 0.16376494 0.20185904 0.23815846 0.27247044
        0.30466655 0.33467808 0.36249006 0.3881348 0.41168728 0.4332616
        0.45300838 0.47111103 0.48777837 0.5032307 0.51767594 0.5312736
        0.54408735 0.5560369 0.56687343 0.57621235 0.58363914 0.58885777
        0.5918106 0.59270805 0.5919762 0.590151 0.5875581 0.0005355059
        0.04127338 0.082651824 0.12319072 0.16251594 0.20030646 0.23630267
        0.27030972 0.30219626 0.33189034 0.35937342 0.38467506 0.40786883
        0.42906997 0.4484338 0.46615312 0.48245168 0.49757123 0.51174885
        0.5251816 0.53797764 0.5501013 0.5613332 0.5712847 0.57949156
        0.5855719 0.5893764 0.59105146 0.5910028 0.58978343 0.5877372
        0.00055114576 0.04095118 0.08202391 0.1222589 0.16128242 0.19877313
        0.23447034 0.26817724 0.29975986 0.32914302 0.3563049 0.38127232
        0.4041173 0.42495564 0.44394645 0.46129033 0.47722387 0.49200773
        0.50590545 0.51914966 0.53189325 0.544149 0.55573666 0.56627524
        0.5752601 0.58222365 0.58691436 0.5893999 0.5900551 0.58944684
        0.5879403 0.0005644038 0.04063451 0.081404716 0.12133909 0.16006437
        0.19725904 0.23266141 0.26607293 0.29735714 0.32643586 0.35328418
        0.37792614 0.40043205 0.42091784 0.43954548 0.45652187 0.47209442
        0.48654014 0.5001462 0.51317847 0.5258337 0.53817666 0.55007446
        0.56116724 0.5709219 0.57878786 0.58440214 0.58773685 0.5891229
        0.589136 0.5881658 0.0005751846 0.040323425 0.080794275 0.12043128
        0.15886176 0.1957641 0.23087578 0.2639966 0.29498786 0.32376856
        0.35031083 0.37463596 0.3968124 0.41695583 0.43523008 0.45184702
        0.46706286 0.48116854 0.49447194 0.5072692 0.51979977 0.532182
        0.5443385 0.55594444 0.566453 0.57523715 0.58181447 0.58604383
        0.588195 0.58884573 0.5884125 0.0005833902 0.040018003 0.08019262
        0.11953548 0.15767455 0.19428824 0.22911331 0.26194814 0.29265183
        0.32114083 0.34738442 0.37140125 0.39325774 0.4130688 0.43099937
        0.44726497 0.46212876 0.47589308 0.48888358 0.50142366 0.51379293
        0.5261642 0.5385223 0.5505914 0.5618286 0.5715414 0.5791231
        0.58429974 0.58725905 0.5885704 0.5886795 0.00058891904 0.039718304
        0.07959978 0.11865169 0.15650272 0.1928314 0.22737391 0.25992733
        0.2903488 0.31855235 0.3445045 0.36822137 0.38976726 0.4092559
        0.42685246 0.44277498 0.45729172 0.47071403 0.4833824 0.49564403
        0.5078156 0.52012396 0.5326211 0.5450939 0.5570235 0.567668
        0.57629555 0.5824797 0.5863006 0.58830404 0.5889658 0.0005916651
        0.0394244 0.07901579 0.117779896 0.1553462 0.19139346 0.22565742
        0.25793394 0.28807846 0.31600264 0.3416706 0.36509576 0.38634026
        0.4055162 0.4227885 0.43837628 0.4525513 0.46563166 0.47796974
        0.4899329 0.5018713 0.5140635 0.5266321 0.5394393 0.5520123
        0.5635814 0.5732947 0.58055466 0.5853027 0.5880399 0.58927095
        0.0005915163 0.039136358 0.07844067 0.11692007 0.15420493 0.18997432
        0.22396363 0.25596774 0.28584045 0.31349137 0.33888212 0.3620237
        0.38297585 0.40184882 0.41880643 0.43406796 0.44790706 0.4606463
        0.47264707 0.4842932 0.49596402 0.5079866 0.52055484 0.5336174
        0.54677016 0.5592432 0.57007796 0.57848954 0.5842446 0.58777004
        0.58959466 0.00058835285 0.038854245 0.077874444 0.116072185 0.15307881
        0.18857382 0.22229236 0.25402847 0.28363445 0.311018 0.33613846
        0.3590044 0.3796731 0.3982527 0.41490522 0.42984912 0.44335836
        0.45575812 0.46741584 0.4787281 0.4900987 0.50189847 0.51439154
        0.52762055 0.54127336 0.5546127 0.5665962 0.5762418 0.58310074
        0.5874851 0.58993715 0.00058204465 0.03857813 0.07731711 0.11523618
        0.15196773 0.18719178 0.22064334 0.25211573 0.28145996 0.30858195
        0.3334389 0.356037 0.37643102 0.39472663 0.41108364 0.42571858
        0.43890455 0.45096716 0.46227738 0.47324076 0.4842807 0.49580592
        0.5081468 0.5214448 0.53550035 0.549647 0.5627931 0.57375956
        0.5818384 0.58717304 0.5902989 0.0005724478 0.038308084 0.076768674
        0.11441197 0.15087153 0.18582794 0.21901622 0.2502291 0.27931643
        0.30618253 0.33078256 0.35312042 0.37324834 0.39126927 0.40734023
        0.42167506 0.4345446 0.44627324 0.45723283 0.46783438 0.4785156
        0.48971662 0.50182796 0.5150899 0.5294332 0.5443023 0.5586045
        0.57097894 0.5804155 0.5868182 0.59068084 0.00055940007 0.038044177
        0.0762291 0.11359946 0.14979 0.184482 0.21741058 0.24836802
        0.2772032 0.30381888 0.32816845 0.3502535 0.37012368 0.387879
        0.4036733 0.41771686 0.43027714 0.4416757 0.45228288 0.46251166
        0.47280902 0.48363933 0.49544477 0.5085603 0.52305835 0.5385351
        0.553958 0.56782097 0.57877624 0.5863995 0.5910845 0.00054271397
        0.037786484 0.07569835 0.11279846 0.14872284 0.18315352 0.21582589
        0.24653181 0.27511936 0.30148998 0.3255953 0.3474347 0.36705527
        0.3845539 0.4000807 0.4138419 0.4261004 0.43717337 0.44742763
        0.4572748 0.46716627 0.47758305 0.489009 0.5018648 0.51636875
        0.5323049 0.5487734 0.5641882 0.57684624 0.58588696 0.5915118
        0.0005221674 0.037535068 0.07517634 0.11200874 0.14766966 0.18184197
        0.21426138 0.24471956 0.2730638 0.29919446 0.32306144 0.3446621
        0.3640409 0.38129145 0.3965598 0.4100474 0.4220118 0.4327643
        0.44266623 0.45212504 0.46159175 0.4715566 0.4825339 0.49501678
        0.5093646 0.5255763 0.5429644 0.55996114 0.57452476 0.58523726
        0.5919648 0.0004974906 0.037290003 0.074662946 0.111229986 0.14662993
        0.18054661 0.21271612 0.24293004 0.2710351 0.29693052 0.32056484
        0.3419333 0.36107782 0.37808853 0.39310715 0.4063298 0.41800773
        0.42844537 0.43799666 0.44706225 0.45608857 0.46556786 0.4760332
        0.48803356 0.50205475 0.51832336 0.5364415 0.5549945 0.5716745
        0.5843857 0.5924451 0.00046834777 0.037051365 0.074157976 0.110461734
        0.14560294 0.17926644 0.21118882 0.24116169 0.2690313 0.29469597
        0.3181028 0.33924523 0.35816246 0.37494114 0.38971835 0.4026844
        0.4140835 0.42421204 0.4334152 0.44208443 0.45065776 0.4596229
        0.46952015 0.48093534 0.49445724 0.5105335 0.5291184 0.549116
        0.5681076 0.5832334 0.5929524 0.00043431434 0.036819246 0.07366119
        0.10970342 0.14458777 0.17800018 0.20967785 0.23941247 0.26704997
        0.29248786 0.315672 0.33659396 0.35529035 0.37184423 0.3863878
        0.3991051 0.4102327 0.42005804 0.42891616 0.43718728 0.44529784
        0.4537252 0.46300602 0.47374356 0.4865988 0.502212 0.5209215
        0.5421281 0.5635677 0.5816259 0.59348184 0.00039484721 0.036593765
        0.0731723 0.10895432 0.14358328 0.17674628 0.20818117 0.2376799
        0.2650881 0.29030266 0.31326824 0.3339747 0.35245603 0.3687916
        0.3831086 0.3955844 0.40644738 0.41597518 0.42449155 0.43236402
        0.44000444 0.44787505 0.45649943 0.46647957 0.47851402 0.4933864
        0.5118041 0.53381896 0.55770904 0.5793173 0.5940186 0.00034925464
        0.036375143 0.07269104 0.10821369 0.14258824 0.17550299 0.20669656
        0.23596118 0.26314235 0.2881364 0.31088692 0.33138207 0.3496533
        0.3657763 0.37987295 0.39211375 0.4027183 0.41195387 0.42013198
        0.4276059 0.434771 0.44207025 0.45000643 0.45916387 0.47024426
        0.4841102 0.5017657 0.5239892 0.55007815 0.57590926 0.59452856
        0.0002966754 0.03616378 0.07221735 0.10748104 0.1416017 0.17426889
        0.20522209 0.23425388 0.26120976 0.2859855 0.3085238 0.3288112
        0.34687665 0.36279202 0.37667382 0.3886854 0.39903724 0.40798557
        0.4158289 0.42290536 0.42959192 0.43630946 0.44353387 0.45181894
        0.4618391 0.47446677 0.49087712 0.5125055 0.540114 0.5707443
        0.5949422 0.00023610012 0.03596052 0.07175193 0.10675688 0.14062399
        0.17304417 0.20375778 0.23255785 0.25928992 0.2838494 0.30617812
        0.32626104 0.3441247 0.3598371 0.37350947 0.38529754 0.3954025
        0.40406904 0.41158217 0.41826388 0.4244718 0.43060243 0.43710077
        0.4444806 0.45336622 0.46457848 0.47930938 0.49939612 0.5272119
        0.5627138 0.595126 0.0001665146 0.035767164 0.071297355 0.1060446
        0.13965933 0.17183384 0.20230947 0.2308798 0.2573905 0.28173667
        0.30385944 0.32374233 0.34140944 0.3569251 0.37039497 0.38196737
        0.39183375 0.4002271 0.4074185 0.4137133 0.41944906 0.42499676
        0.43076783 0.43723056 0.44494453 0.45463616 0.46737444 0.48499987
        0.51096696 0.5499009 0.5948348 8.7373075e-05 0.03558766 0.070861
        0.105355 0.13872199 0.17065574 0.20089866 0.22924498 0.25554067
        0.27968073 0.30160567 0.32129782 0.33877906 0.35411015 0.36739135
        0.37876362 0.38840875 0.3965479 0.40343815 0.4093682 0.41465527
        0.41964447 0.42471284 0.43028048 0.43683577 0.4449902 0.45560724
        0.47015968 0.4918792 0.5288952 0.59363276 0 0.035419773
        0.07043961 0.10468369 0.13780625 0.16950262 0.1995163 0.22764228
        0.25372693 0.27766526 0.2993973 0.31890428 0.33620605 0.35135993
        0.36446097 0.37564278 0.38507757 0.39297456 0.39957666 0.40515584
        0.41000867 0.41445404 0.41883364 0.423518 0.42892087 0.43553066
        0.4439774 0.4552124 0.47137842 0.5015395 0.59078187
      </DataArray>
      <DataArray type="Float32" Name="aspect_ratio" format="ascii" RangeMin="1.241990327835083" RangeMax="10.395672798156738">
        10.395673 10.3240595 10.203545 10.010965 9.75237 9.435449
        9.068989 8.662313 8.224785 7.765409 7.292581 6.8139715
        6.3365455 5.8666635 5.4101954 4.9725666 4.5586543 4.1725216
        3.8170195 3.4934127 3.2012146 2.9383664 2.701752 2.487863
        2.2933798 2.1155097 1.9520766 1.801443 1.662383 1.5339634
        1.4097275 10.360085 10.288843 10.169163 9.977894 9.721033
        9.406205 9.042126 8.638054 8.203295 7.74681 7.276967
        6.801426 6.327151 5.8605022 5.407335 4.973024 4.562359
        4.1792765 3.826492 3.5051632 3.2147563 2.9532359 2.7175572
        2.5043006 2.3102272 2.1326087 1.9693184 1.8187653 1.6797768
        1.551501 1.4274482 10.324766 10.253913 10.135079 9.945132
        9.690014 9.377285 9.0155945 8.614135 8.182156 7.7285757
        7.2617345 6.789277 6.3181615 5.8547378 5.4048305 4.9737535
        4.566198 4.1859746 3.835681 3.5163984 3.2275834 2.9672508
        2.7324343 2.519788 2.326125 2.1487494 1.9855595 1.8349876
        1.6958904 1.5674474 1.4431999 10.289713 10.219278 10.101315
        9.912706 9.659342 9.348719 8.989419 8.5905695 8.161364
        7.710676 7.246816 6.77741 6.3094034 5.849126 5.402366
        4.9743724 4.569739 4.1921663 3.8441534 3.5267298 3.239362
        2.9801235 2.746124 2.534077 2.3408275 2.1636927 2.0005784
        1.8499295 1.7106229 1.5818598 1.4572754 10.254926 10.184933
        10.067857 9.8806 9.628997 9.320484 8.963573 8.56733
        8.140888 7.6930795 7.2321796 6.7657933 6.300846 5.843642
        5.3999257 4.974876 4.572994 4.19788 3.8519514 3.5362065
        3.2501392 2.991893 2.758654 2.5471861 2.3543503 2.1774585
        2.014409 1.863648 1.7240694 1.5948967 1.4698969 10.220399
        10.15087 10.034697 9.848801 9.598966 9.2925625 8.938039
        8.544394 8.120707 7.675761 7.217801 6.7544026 6.2924676
        5.838268 5.397498 4.975265 4.5759783 4.2031455 3.859118
        3.544879 3.259966 3.0026035 2.7700577 2.5591395 2.3667138
        2.1900713 2.027087 1.876199 1.7363154 1.6066875 1.4812376
        10.186132 10.117086 10.001826 9.817299 9.569234 9.26494
        8.912799 8.521744 8.1008 7.658703 7.2036595 6.7432184
        6.2842503 5.83299 5.3950777 4.975544 4.578709 4.207995
        3.8656979 3.5527997 3.268895 3.0123012 2.7803724 2.5699654
        2.3779416 2.2015564 2.0386474 1.8876344 1.7474371 1.6173407
        1.4914366 10.152123 10.083576 9.969239 9.786086 9.539793
        9.237606 8.887839 8.499367 8.081152 7.6418877 7.18974
        6.732225 6.2761807 5.827799 5.39266 4.9757185 4.581205
        4.2124605 3.871735 3.5600202 3.2769797 3.021035 2.7896373
        2.5796945 2.3880596 2.211941 2.049125 1.8980026 1.7575022
        1.6269474 1.5006074 10.118368 10.050334 9.936931 9.755156
        9.510633 9.210549 8.863152 8.47725 8.061753 7.6253033
        7.176029 6.7214103 6.2682476 5.822686 5.3902445 4.9757957
        4.5834837 4.2165728 3.8772726 3.5665922 3.2842739 3.028855
        2.797895 2.5883598 2.397094 2.221251 2.0585518 1.9073478
        1.7665703 1.6355854 1.5088444 10.084866 10.017359 9.904895
        9.724501 9.48175 9.183763 8.838726 8.455384 8.042591
        7.608939 7.1625156 6.710763 6.260442 5.8176465 5.38783
        4.9757833 4.5855646 4.220363 3.8823526 3.572566 3.2908316
        3.0358126 2.805189 2.5959954 2.405073 2.2295127 2.066959
        1.91571 1.7746947 1.6433218 1.5162271 10.051613 9.984645
        9.873126 9.694116 9.453133 9.157239 8.814554 8.433762
        8.023657 7.5927854 7.14919 6.7002745 6.2527556 5.8126755
        5.385417 4.9756904 4.587466 4.2238603 3.887016 3.5779917
        3.296707 3.0419598 2.8115642 2.6026373 2.4120238 2.236751
        2.074374 1.9231251 1.7819216 1.6502142 1.5228237 10.018607
        9.952189 9.841622 9.663997 9.42478 9.130973 8.79063
        8.4123745 8.004944 7.5768337 7.136044 6.6899366 6.2451835
        5.807769 5.383007 4.9755244 4.5892043 4.2270937 3.8913026
        3.582918 3.3019536 3.0473502 2.8170679 2.608323 2.417976
        2.2429903 2.0808227 1.9296252 1.7882922 1.6563128 1.5286922
        9.985846 9.919991 9.810379 9.634139 9.396685 9.104958
        8.766948 8.391216 7.9864445 7.5610776 7.123071 6.679744
        6.237719 5.8029246 5.380602 4.975294 4.590798 4.2300906
        3.8952503 3.5873923 3.3066254 3.0520375 2.8217485 2.6130915
        2.4229577 2.248253 2.086328 1.935238 1.7938421 1.661661
        1.5338832 9.953327 9.888043 9.779393 9.604538 9.368843
        9.079188 8.743503 8.370282 7.9681535 7.545511 7.110265
        6.6696887 6.230358 5.7981405 5.378204 4.975007 4.5922623
        4.232877 3.8988965 3.591462 3.3107758 3.0560765 2.8256562
        2.616983 2.426999 2.2525623 2.0909102 1.9399877 1.7986021
        1.6662962 1.5384403 9.921049 9.856345 9.74866 9.575191
        9.34125 9.053661 8.720288 8.349566 7.9500647 7.530128
        7.0976195 6.6597676 6.223097 5.793414 5.3758144 4.974672
        4.5936136 4.2354774 3.9022758 3.5951717 3.3144574 3.0595238
        2.8288434 2.6200407 2.4301312 2.2559388 2.0945873 1.9438945
        1.8025981 1.6702508 1.5424017 9.8890085 9.824895 9.718177
        9.546093 9.313905 9.028374 8.697302 8.329065 7.9321747
        7.5149245 7.0851307 6.649976 6.215932 5.7887454 5.373436
        4.9742956 4.5948663 4.2379165 3.9054227 3.598566 3.3177235
        3.0624356 2.8313642 2.6223097 2.4323862 2.2584038 2.0973744
        1.9469749 1.8058517 1.6735517 1.5458001 9.857203 9.793689
        9.6879425 9.517242 9.286801 9.003321 8.6745405 8.308775
        7.9144793 7.499896 7.0727944 6.640309 6.2088604 5.7841325
        5.371072 4.973886 4.5960345 4.240216 3.9083693 3.6016877
        3.3206258 3.0648699 2.8332758 2.623838 2.4337983 2.2599778
        2.0992846 1.9492409 1.8083794 1.6762215 1.548664 9.825629
        9.762724 9.657952 9.488637 9.259938 8.978499 8.651999
        8.2886915 7.8969746 7.4850388 7.060607 6.630765 6.2018805
        5.779576 5.3687234 4.9734497 4.5971313 4.2423973 3.9111466
        3.6045785 3.3232164 3.0668855 2.8346372 2.624677 2.4344049
        2.2606826 2.1003287 1.9507011 1.8101937 1.678278 1.5510175
        9.794288 9.731998 9.628205 9.460273 9.233313 8.953908
        8.629678 8.268813 7.8796577 7.4703507 7.048565 6.6213403
        6.19499 5.775075 5.3663945 4.9729943 4.59817 4.244481
        3.9137838 3.607278 3.325546 3.0685415 2.8355103 2.6248825
        2.4342463 2.2605405 2.1005156 1.95136 1.8113017 1.6797347
        1.5528812 9.763173 9.7015085 9.598698 9.432148 9.206922
        8.9295435 8.607572 8.249137 7.862527 7.455828 7.036667
        6.612033 6.188188 5.7706304 5.3640876 4.9725256 4.5991616
        4.2464857 3.9163094 3.6098254 3.3276646 3.0698981 2.8359594
        2.6245136 2.433367 2.2595763 2.0998533 1.9512177 1.811706
        1.6806002 1.5542716 9.732285 9.671254 9.569428 9.404261
        9.180763 8.905405 8.58568 8.229662 7.8455796 7.44147
        7.0249104 6.6028423 6.181474 5.7662425 5.3618054 4.972051
        4.6001186 4.24843 3.918749 3.6122572 3.3296218 3.0710158
        2.8360524 2.6236355 2.4318175 2.2578177 2.0983486 1.9502707
        1.811403 1.6808778 1.5552016 9.701619 9.6412325 9.540395
        9.376609 9.154838 8.88149 8.564002 8.210385 7.8288155
        7.4272757 7.013295 6.593767 6.1748476 5.761913 5.3595514
        4.9715767 4.6010513 4.2503304 3.9211287 3.6146095 3.331465
        3.071956 2.835859 2.6223178 2.4296546 2.2552974 2.0960093
        1.9485111 1.8103842 1.6805658 1.5556805 9.671175 9.61144
        9.511596 9.349192 9.129142 8.857799 8.542537 8.191309
        7.8122334 7.4132442 7.0018206 6.584808 6.1683097 5.7576437
        5.357331 4.9711103 4.6019716 4.2522035 3.9234724 3.6169157
        3.3332412 3.0727787 2.8354518 2.6206362 2.4269419 2.2520542
        2.0928442 1.945928 1.8086339 1.6796565 1.5557134 9.640949
        9.581877 9.483029 9.322008 9.103676 8.83433 8.521284
        8.172431 7.795835 7.3993764 6.990488 6.575966 6.161863
        5.753438 5.355147 4.9706583 4.6028895 4.254066 3.9258027
        3.619209 3.3349957 3.0735452 2.834906 2.6186726 2.4237533
        2.2481353 2.088866 1.9425068 1.8061298 1.6781349 1.5553017
        9.610941 9.55254 9.454695 9.295058 9.078442 8.811086
        8.500246 8.153755 7.7796216 7.385675 6.9792995 6.5672436
        6.15551 5.7493 5.3530064 4.970229 4.6038175 4.255934
        3.9281423 3.6215205 3.3367724 3.074315 2.8342988 2.6165152
        2.420172 2.2435987 2.084093 1.9382312 1.802842 1.6759781
        1.5544413 9.581147 9.523429 9.426593 9.268341 9.053438
        8.788068 8.479424 8.135283 7.763597 7.3721437 6.9682593
        6.558646 6.149256 5.745236 5.350917 4.969833 4.604768
        4.257823 3.9305134 3.623881 3.3386145 3.0751483 2.833709
        2.6142583 2.4162931 2.2385159 2.0785532 1.9330847 1.798732
        1.6731536 1.5531231 9.551565 9.494542 9.398722 9.241859
        9.028669 8.76528 8.458824 8.117022 7.747767 7.358789
        6.957375 6.550181 6.1431093 5.741255 5.348888 4.969481
        4.6057544 4.259752 3.932939 3.6263208 3.3405635 3.0761037
        2.833217 2.6120026 2.4122243 2.2329752 2.0722873 1.9270527
        1.7937531 1.6696178 1.5513303 9.522194 9.465879 9.371084
        9.215616 9.00414 8.742726 8.438454 8.098978 7.732141
        7.34562 6.946656 6.541858 6.1370816 5.7373686 5.346934
        4.969189 4.606795 4.2617407 3.935444 3.6288717 3.3426619
        3.0772395 2.832904 2.6098552 2.4080875 2.2270854 2.0653546
        1.9201277 1.7878505 1.6653122 1.5490369 9.49303 9.437441
        9.343683 9.189615 8.979856 8.720419 8.418322 8.081163
        7.7167315 7.332652 6.936118 6.5336943 6.131189 5.733595
        5.3450723 4.968976 4.607911 4.2638135 3.938056 3.6315672
        3.344953 3.0786154 2.8328538 2.6079283 2.4040186 2.2209787
        2.0578406 1.9123148 1.780962 1.6601616 1.5462033 9.464072
        9.409228 9.316522 9.163866 8.955829 8.698369 8.398445
        8.063598 7.7015595 7.3199053 6.925783 6.525712 6.1254554
        5.729958 5.343329 4.9688697 4.609131 4.2660003 3.9408083
        3.6344454 3.3474832 3.080292 2.8331509 2.6063404 2.4001696
        2.2148163 2.0498633 1.9036404 1.7730219 1.6540701 1.5427697
        9.435319 9.381244 9.289608 9.138378 8.932073 8.676596
        8.378845 8.046306 7.6866517 7.3074102 6.915683 6.5179443
        6.119915 5.7264934 5.34174 4.9689054 4.610492 4.268341
        3.9437428 3.6375515 3.3503046 3.0823348 2.8338833 2.6052158
        2.3967066 2.2087893 2.0415852 1.8941656 1.763967 1.6469158
        1.5386447 9.406769 9.353493 9.262952 9.113169 8.908612
        8.6551285 8.359556 8.029323 7.672048 7.295209 6.9058614
        6.5104375 6.1146154 5.7232494 5.340355 4.9691353 4.6120462
        4.2708883 3.946913 3.6409423 3.353479 3.0848157 2.835145
        2.6046846 2.393812 2.2031243 2.0332215 1.8840028 1.7537478
        1.6385473 1.533685 9.378419 9.32598 9.236569 9.088263
        8.885477 8.634004 8.340623 8.0127 7.6578035 7.2833605
        6.896381 6.5032554 6.109622 5.7202935 5.3392415 4.969627
        4.613863 4.273711 3.95039 3.6446903 3.3570824 3.0878193
        2.8370378 2.6048846 2.391681 2.1980815 2.025052 1.8733376
        1.7423472 1.6287795 1.5276605 9.350268 9.298718 9.210483
        9.063691 8.862712 8.613276 8.322104 7.9965057 7.643993
        7.271944 6.887325 6.4964857 6.105025 5.717716 5.338493
        4.970474 4.6160355 4.2769036 3.954267 3.6488883 3.3612099
        3.091446 2.8396761 2.605963 2.390522 2.193955 2.01743
        1.8624554 1.7298108 1.6173939 1.5201925 9.322316 9.271719
        9.184719 9.039497 8.84037 8.593011 8.30408 7.980828
        7.6307125 7.2610626 6.878802 6.49024 6.100939 5.7156353
        5.3382263 4.971795 4.618683 4.2805843 3.958662 3.6536543
        3.3659785 3.0958152 2.8431897 2.6080751 2.3905509 2.1910641
        2.0107825 1.8517698 1.7162907 1.6041449 1.5106446 9.294562
        9.245 9.159312 9.015731 8.818519 8.57329 8.286643
        7.9657707 7.618076 7.2508388 6.8709397 6.4846516 6.097501
        5.7141905 5.338584 4.9737325 4.6219463 4.2848945 3.9637144
        3.659126 3.3715248 3.101063 2.8477187 2.6113808 2.3919795
        2.1897342 2.0055983 1.8418459 1.7021074 1.5887866 1.4979281
        9.267005 9.218577 9.134295 8.992441 8.797223 8.554192
        8.269887 7.951438 7.606196 7.2413926 6.863866 6.479853
        6.0948462 5.713519 5.3397045 4.9764256 4.6259665 4.2899723
        3.969562 3.6654384 3.377981 3.1073194 2.8533938 2.6160207
        2.3949897 2.1902587 2.0023854 1.8333989 1.6878239 1.5711299
        1.4801584 9.239645 9.192458 9.109683 8.969651 8.77651
        8.535751 8.253849 7.9378743 7.595122 7.232777 6.8576365
        6.475902 6.093036 5.7136836 5.3416514 4.9799385 4.6308064
        4.2958813 3.9762661 3.672651 3.385404 3.1146383 2.860267
        2.62205 2.3996618 2.1928127 2.0015662 1.8272322 1.6743112
        1.5511652 1.4540389 9.212482 9.166614 9.08542 8.947277
        8.756274 8.5178385 8.238381 7.9249125 7.5846725 7.2247987
        6.852049 6.4725895 6.0918555 5.714466 5.344205 4.9840508
        4.636246 4.3024015 3.9836087 3.6805477 3.3935785 3.122805
        2.8681226 2.6292548 2.4057941 2.1972592 2.0032463 1.824022
        1.6627337 1.5292827 1.4137659 9.185514 9.140911 9.06124
        8.924927 8.736003 8.499833 8.222765 7.9117494 7.5739727
        7.216524 6.8461223 6.4689 6.0902634 5.7148085 5.3462977
        4.9876914 4.6412168 4.308471 3.9905365 3.6880867 3.4014769
        3.1308067 2.875963 2.6366506 2.4124165 2.2026641 2.0066733
        1.8237299 1.6542428 1.5065851 1.3490924 9.158738 9.115319
        9.037088 8.902522 8.715597 8.481618 8.20687 7.8982453
        7.5628757 7.207804 6.8397083 6.464688 6.0881205 5.7145796
        5.347808 4.990749 4.6456165 4.3139973 3.996966 3.6951923
        3.4090302 3.1385803 2.8837314 2.6441872 2.4194837 2.2089913
        2.011893 1.8270726 1.6522585 1.4774349 1.2419903
      </DataArray>
      <DataArray type="Float32" Name="jacobian" format="ascii" RangeMin="0.003607476130127907" RangeMax="0.024362429976463318">
        0.02436243 0.024248753 0.02407227 0.023772927 0.023356717 0.02283189
        0.022208601 0.021498496 0.020714264 0.019869162 0.018976524 0.018049328
        0.017099794 0.016139116 0.015177332 0.0142233595 0.013285154 0.01236988
        0.011484002 0.01063317 0.009822011 0.009053898 0.008330868 0.0076537114
        0.0070222043 0.006435367 0.0058917096 0.0053894273 0.004926552 0.0045010936
        0.0040946845 0.024279028 0.024165288 0.023988867 0.02368981 0.02327409
        0.022749912 0.022127366 0.021418022 0.020634487 0.01978994 0.018897671
        0.017970683 0.017021338 0.016061136 0.0151006 0.01414928 0.013215796
        0.0123078255 0.011431958 0.010593443 0.009795991 0.009041783 0.008331743
        0.007665923 0.007043838 0.0064646504 0.0059272377 0.0054302393 0.0049721305
        0.0045513585 0.0041493587 0.024196258 0.024082433 0.02390606 0.023607293
        0.023192083 0.022668593 0.022046857 0.021338375 0.020555677 0.019711865
        0.018820195 0.017893685 0.016944831 0.0159854 0.015026331 0.014077721
        0.013148763 0.012247586 0.011380923 0.010553739 0.009769016 0.009027926
        0.008330373 0.007675647 0.0070628934 0.0064912844 0.00595995 0.0054678796
        0.0050138943 0.004596688 0.004197744 0.024114111 0.024000153 0.023823783
        0.02352528 0.023110576 0.022587793 0.021966914 0.021259375 0.02047763
        0.01963472 0.018743858 0.017818084 0.016870001 0.015911603 0.014954196
        0.014008333 0.0130836945 0.012188805 0.0113305645 0.010513756 0.009740811
        0.009012062 0.008326488 0.007682601 0.007079089 0.006515005 0.005989626
        0.005502212 0.005051869 0.004637478 0.0042407983 0.024032585 0.023918454
        0.023742056 0.023443803 0.023029603 0.02250755 0.02188758 0.021181062
        0.020400388 0.019558536 0.018668683 0.017743882 0.016796827 0.01583971
        0.014884135 0.013941043 0.0130205285 0.012131457 0.011280905 0.01047357
        0.00971148 0.008994293 0.008320164 0.0076868334 0.007092449 0.0065358365
        0.0060163178 0.005533353 0.005086294 0.004674196 0.0042792414 0.023951672
        0.023837335 0.023660887 0.023362871 0.022949185 0.022427892 0.02180888
        0.021103464 0.020323975 0.019483332 0.018594675 0.017671067 0.016725281
        0.015769664 0.0148160765 0.013875777 0.012959199 0.012075508 0.011231961
        0.01043324 0.009681113 0.008974711 0.008311473 0.007688386 0.0071029975
        0.006553806 0.00604008 0.005561417 0.0051173856 0.004707223 0.004313632
        0.023871368 0.023756802 0.023580281 0.023282498 0.022869337 0.022348832
        0.02173083 0.021026596 0.0202484 0.019409107 0.018521825 0.01759962
        0.01665532 0.01570141 0.014749948 0.013812455 0.012899641 0.012020924
        0.011183741 0.010392822 0.009649794 0.008953404 0.008300481 0.007687299
        0.007110759 0.00656894 0.006060967 0.0055865124 0.005145336 0.0047368747
        0.004344416 0.023791667 0.023676848 0.023500243 0.023202693 0.02279007
        0.022270383 0.021653444 0.020950466 0.020173667 0.019335862 0.018450122
        0.01752951 0.0165869 0.015634881 0.0146856755 0.013751001 0.012841791
        0.011967673 0.011136254 0.010352369 0.0096176015 0.00893045 0.008287252
        0.007683611 0.007115756 0.0065812655 0.006079032 0.0056087393 0.005170317
        0.0047634174 0.004371955 0.02371256 0.023597475 0.023420773 0.023123456
        0.022711387 0.022192553 0.021576725 0.02087508 0.020099778 0.019263586
        0.018379543 0.017460704 0.016519975 0.015570021 0.014623185 0.0136913415
        0.012785587 0.011915721 0.011089513 0.010311932 0.009584614 0.008905932
        0.008271847 0.0076773595 0.0071180095 0.0065908064 0.0060943225 0.0056281895
        0.0051924814 0.0047870777 0.0043965513 0.023634046 0.02351868 0.023341872
        0.023044791 0.022633292 0.02211534 0.021500677 0.020800432 0.020026723
        0.019192267 0.01831007 0.017393172 0.016454495 0.015506765 0.014562406
        0.013633402 0.01273097 0.011865038 0.011043525 0.010271561 0.0095509095
        0.008879932 0.008254331 0.007668581 0.0071175396 0.006597583 0.006106882
        0.0056449454 0.0052119633 0.0048080496 0.0044184574 0.023556117 0.023440456
        0.023263536 0.022966696 0.022555783 0.022038747 0.021425296 0.020726522
        0.019954493 0.019121889 0.018241674 0.017326871 0.016390413 0.015445051
        0.0145032685 0.013577115 0.012677885 0.011815598 0.010998303 0.010231309
        0.009516565 0.00885253 0.008234767 0.0076573133 0.007114363 0.0066016125
        0.006116745 0.005659079 0.0052288803 0.0048265015 0.0044378894 0.023478767
        0.0233628 0.023185764 0.02288917 0.022478862 0.021962771 0.02135058
        0.02065334 0.01988308 0.019052433 0.01817433 0.01726177 0.01632768
        0.01538482 0.014445704 0.013522414 0.012626277 0.011767373 0.010953859
        0.010191226 0.009481664 0.008823815 0.008213227 0.007643596 0.007108495
        0.0066029048 0.006123941 0.005670651 0.0052433354 0.004842578 0.004455032
        0.023401992 0.023285711 0.023108553 0.02281221 0.022402525 0.02188741
        0.021276522 0.020580878 0.019812468 0.01898388 0.01810801 0.017197827
        0.016266242 0.015326013 0.014389651 0.013469235 0.012576099 0.011720343
        0.010910207 0.010151369 0.009446288 0.008793877 0.008189781 0.00762747
        0.0070999498 0.006601465 0.006128488 0.0056797112 0.0052554165 0.004856405
        0.0044700457 0.023325784 0.02320918 0.023031898 0.022735814 0.022326767
        0.021812657 0.021203116 0.020509128 0.019742642 0.01891621 0.018042684
        0.017135004 0.016206054 0.015268572 0.014335043 0.013417519 0.0125273
        0.011674481 0.010867363 0.010111792 0.009410526 0.008762814 0.00816451
        0.007608981 0.00708874 0.006597292 0.0061303955 0.005686297 0.0052651963
        0.00486809 0.00448307 0.023250138 0.023133205 0.022955796 0.022659976
        0.022251584 0.021738507 0.021130353 0.020438077 0.019673588 0.018849399
        0.017978324 0.017073264 0.01614707 0.01521244 0.01428182 0.013367205
        0.012479837 0.0116297705 0.010825341 0.010072552 0.009374466 0.008730727
        0.008137503 0.0075881793 0.0070748776 0.006590379 0.006129662 0.005690434
        0.005272735 0.0048777256 0.004494227 0.02317505 0.023057781 0.022880241
        0.022584692 0.02217697 0.021664951 0.021058224 0.020367712 0.019605288
        0.018783426 0.017914899 0.017012568 0.016089238 0.015157565 0.014229924
        0.013318239 0.012433664 0.01158619 0.010784157 0.010033705 0.009338203
        0.008697726 0.008108852 0.007565123 0.0070583774 0.0065807123 0.0061262758
        0.005692133 0.0052780774 0.004885389 0.004503621 0.023100512 0.022982901
        0.022805227 0.022509953 0.022102917 0.021591984 0.020986719 0.020298019
        0.019537723 0.018718265 0.017852379 0.016952878 0.016032517 0.015103891
        0.0141793 0.013270565 0.01238874 0.011543722 0.010743828 0.009995311
        0.009301832 0.008663927 0.008078667 0.0075398786 0.0070392555 0.006568273
        0.0061202124 0.0056913914 0.0052812546 0.0048911427 0.0045113433 0.02302652
        0.02290856 0.022730751 0.022435758 0.02202942 0.021519596 0.020915827
        0.020228986 0.019470878 0.018653896 0.017790733 0.016894154 0.01597686
        0.015051368 0.014129889 0.013224132 0.0123450225 0.011502345 0.010704368
        0.009957426 0.009265453 0.008629453 0.008047063 0.0075125243 0.0070175333
        0.006553038 0.0061114347 0.005688191 0.0052822814 0.0048950356 0.0045174733
        0.022953069 0.02283475 0.022656804 0.022362098 0.021956472 0.021447776
        0.020845536 0.020160597 0.01940473 0.018590294 0.017729932 0.016836362
        0.01592222 0.014999943 0.014081639 0.013178889 0.012302471 0.011462043
        0.010665794 0.009920108 0.009229165 0.008594437 0.00801417 0.0074831503
        0.00699324 0.00653498 0.0060998932 0.0056824954 0.005281157 0.004897102
        0.0045220763 0.022880152 0.022761468 0.02258338 0.022288965 0.021884063
        0.021376515 0.020775834 0.020092836 0.019339262 0.01852743 0.017669944
        0.016779462 0.015868554 0.014949568 0.014034498 0.013134784 0.012261048
        0.011422794 0.010628115 0.009883412 0.009193071 0.008559014 0.007980132
        0.007451865 0.006966415 0.0065140715 0.0060855253 0.00567425 0.0052778614
        0.00489736 0.004525208 0.022807764 0.02268871 0.022510475 0.022216352
        0.021812184 0.021305803 0.020706708 0.020025685 0.01927445 0.018465282
        0.017610736 0.016723417 0.015815817 0.014900193 0.013988413 0.013091767
        0.01222071 0.011384578 0.010591344 0.009847391 0.009157273 0.008523326
        0.007945104 0.007418792 0.0069371117 0.006490285 0.0060682553 0.0056633805
        0.005272355 0.004895815 0.0045269104 0.0227359 0.022616465 0.022438081
        0.02214425 0.021740824 0.021235628 0.02063814 0.01995913 0.019210277
        0.018403824 0.017552279 0.016668186 0.015763965 0.014851767 0.013943331
        0.013049791 0.012181417 0.011347372 0.010555485 0.009812093 0.00912187
        0.0084875235 0.007909256 0.0073840786 0.0069054016 0.0064635994 0.006047995
        0.005649788 0.0052645756 0.004892451 0.0045272163 0.022664553 0.022544729
        0.022366188 0.022072652 0.021669975 0.021165976 0.02057012 0.019893149
        0.019146716 0.018343026 0.017494537 0.016613735 0.015712954 0.014804242
        0.013899203 0.013008803 0.012143129 0.011311152 0.010520544 0.009777564
        0.00908696 0.008451755 0.007872772 0.0073478925 0.00687138 0.006434001
        0.006024645 0.0056333495 0.005254433 0.004887234 0.004526144 0.02259372
        0.022473495 0.02229479 0.022001548 0.021599624 0.021096833 0.020502625
        0.019827724 0.019083746 0.018282859 0.017437477 0.016560018 0.015662737
        0.014757569 0.013855976 0.012968754 0.0121058 0.011275888 0.010486519
        0.009743841 0.009052634 0.008416173 0.007835848 0.007310426 0.0068351696
        0.006401494 0.0059980988 0.005613914 0.0052418066 0.0048801056 0.0045237006
        0.022523394 0.022402758 0.022223879 0.021930926 0.021529756 0.021028183
        0.020435642 0.019762829 0.019021338 0.018223293 0.017381063 0.016506998
        0.015613268 0.014711695 0.013813595 0.012929592 0.0120693855 0.0112415515
        0.010453402 0.009710958 0.009018979 0.008380927 0.0077986885 0.007271898
        0.0067969263 0.006366104 0.005968244 0.0055913012 0.005226539 0.004870979
        0.004519876 0.02245357 0.022332508 0.022153443 0.021860773 0.02146036
        0.02096001 0.020369144 0.019698441 0.018959463 0.018164294 0.017325252
        0.016454628 0.015564497 0.014666565 0.013772004 0.01289126 0.012033837
        0.011208104 0.010421181 0.0096789375 0.008986072 0.008346162 0.0077615054
        0.0072325505 0.006756845 0.006327888 0.00593497 0.005565298 0.005208427
        0.004859734 0.0045146444 0.022384247 0.022262737 0.022083472 0.021791074
        0.021391414 0.020892289 0.02030311 0.019634532 0.018898085 0.018105822
        0.017270004 0.016402857 0.015516367 0.014622122 0.013731143 0.0128537
        0.011999099 0.011175503 0.010389833 0.00964779 0.0089539755 0.008312014
        0.007724514 0.0071926513 0.006715164 0.006286947 0.0058981776 0.005535658
        0.0051872144 0.004846205 0.0045079566 0.022315413 0.022193437 0.022013955
        0.021721816 0.021322897 0.020824997 0.020237505 0.019571062 0.018837167
        0.018047832 0.017215269 0.016351633 0.01546882 0.0145783005 0.013690945
        0.0128168445 0.011965109 0.0111436965 0.010359326 0.009617518 0.008922742
        0.0082786055 0.0076879263 0.0071524847 0.0066721686 0.006243436 0.005857791
        0.0055021048 0.0051625804 0.0048301723 0.004499734 0.022247069 0.022124598
        0.021944871 0.021652972 0.021254783 0.020758098 0.020172294 0.019507991
        0.018776657 0.017990267 0.017160982 0.016300885 0.0154217845 0.014535026
        0.013651332 0.012780617 0.011931797 0.011112623 0.010329614 0.009588102
        0.0088924 0.008246041 0.0076519432 0.0071123503 0.0066281897 0.0061975787
        0.0058137756 0.0054643345 0.005134124 0.004811341 0.004489857 0.022179207
        0.022056207 0.021876205 0.021584518 0.02118704 0.020691551 0.02010743
        0.019445263 0.018716495 0.017933063 0.017107071 0.016250538 0.0153751755
        0.01449221 0.0136122145 0.012744928 0.011899073 0.011082202 0.010300634
        0.009559506 0.008862959 0.008214398 0.0076167476 0.007072551 0.0065836054
        0.0061496776 0.0057661613 0.0054220273 0.0051013515 0.0047893203 0.004478147
        0.022111824 0.021988247 0.021807928 0.021516418 0.021119615 0.020625304
        0.020042844 0.019382806 0.018656604 0.017876131 0.017053446 0.016200492
        0.01532889 0.0144497445 0.013573482 0.012709666 0.011866831 0.011052336
        0.010272299 0.009531667 0.008834396 0.008183723 0.0075824917 0.0070333793
        0.0065388298 0.006100129 0.005715072 0.005374869 0.0050636595 0.004763585
        0.004464331 0.022044914 0.021920703 0.021740008 0.021448625 0.021052456
        0.020559285 0.019978456 0.019320527 0.018596876 0.01781936 0.016999982
        0.016150618 0.015282794 0.014407494 0.013534995 0.012674693 0.011834937
        0.011022893 0.010244492 0.0095044905 0.0088066505 0.008154022 0.0075492864
        0.006995103 0.006494301 0.006049426 0.0056607644 0.005322586 0.005020322
        0.0047334298 0.004447992 0.021978477 0.02185355 0.021672405 0.021381078
        0.02098548 0.020493396 0.019914158 0.019258302 0.018537179 0.017762605
        0.016946528 0.016100757 0.0152367195 0.014365284 0.013496579 0.012639834
        0.011803216 0.010993709 0.010217059 0.009477839 0.008779619 0.008125246
        0.0075171855 0.006957942 0.0064504575 0.0059981574 0.005603667 0.0052650026
        0.0049704863 0.004697899 0.0044284663 0.021912506 0.021786759 0.021605063
        0.021313697 0.020918587 0.020427514 0.019849805 0.01919597 0.018477336
        0.017705675 0.016892884 0.016050698 0.015190451 0.014322894 0.013458011
        0.012604865 0.01177145 0.01096457 0.010189797 0.009451526 0.008753145
        0.008097287 0.007486176 0.0069220513 0.0064077103 0.005946996 0.005544426
        0.0052021337 0.0049131988 0.004655696 0.0044046827 0.021847 0.021720294
        0.021537913 0.021246385 0.02085165 0.020361487 0.019785216 0.01913333
        0.018417126 0.017648334 0.0168388 0.01600018 0.015143721 0.014280052
        0.013419014 0.012569511 0.011739365 0.010935209 0.010162448 0.009425312
        0.008727011 0.008069976 0.007456169 0.0068875 0.0063664094 0.005896666
        0.0054839444 0.005134316 0.004847475 0.0046050604 0.004374864 0.021781957
        0.021654112 0.021470875 0.021179024 0.020784512 0.020295128 0.019720182
        0.019070148 0.018356293 0.01759031 0.016783984 0.015948905 0.01509622
        0.014236442 0.013379273 0.012533456 0.011706648 0.010905319 0.010134714
        0.00939891 0.008700954 0.0080430815 0.0074270032 0.0068542683 0.0063268174
        0.005847901 0.005423404 0.0050623994 0.0047724764 0.0045436216 0.004336005
        0.021717377 0.021588178 0.021403875 0.021111503 0.020717036 0.020228267
        0.019654501 0.019006196 0.018294591 0.017531337 0.01672816 0.01589658
        0.015047648 0.01419176 0.013338477 0.01249639 0.011672994 0.010874598
        0.010106302 0.009372038 0.008674705 0.008016365 0.00739849 0.0068222787
        0.0062891124 0.005801405 0.005364261 0.0049879886 0.0046878844 0.004468248
        0.004282937 0.02165326 0.021522475 0.021336883 0.021043781 0.020649161
        0.02016083 0.01958809 0.018941384 0.018231919 0.017471302 0.01667121
        0.01584308 0.014997874 0.014145869 0.01329649 0.0124581745 0.01163826
        0.010842907 0.010077074 0.009344563 0.0086481385 0.007989709 0.0073705427
        0.0067915176 0.0062534744 0.0057578613 0.0053082244 0.0049137375 0.0045946254
        0.0043749777 0.0042066462 0.021589603 0.021457069 0.02127003 0.020976046
        0.020581136 0.020093119 0.019521296 0.01887609 0.018168686 0.017410645
        0.016613584 0.01578887 0.014947368 0.01409924 0.013253778 0.012419269
        0.011602902 0.01081069 0.01004746 0.009316897 0.008621652 0.0079635
        0.007343536 0.0067623737 0.0062203924 0.0057181353 0.005257278 0.004843649
        0.0044962587 0.0042592473 0.00409123 0.021526406 0.021392263 0.02120392
        0.02090919 0.02051412 0.020026531 0.019455725 0.01881211 0.018106835
        0.017351424 0.016557436 0.015736166 0.014898388 0.01405415 0.013212617
        0.012381935 0.011569144 0.010780127 0.010019587 0.009291106 0.008597233
        0.007939643 0.0073192916 0.0067365877 0.006191556 0.00568404 0.0052140984
        0.004783371 0.0044016037 0.004117048 0.003908388 0.021463653 0.021328107
        0.021138655 0.02084337 0.020448312 0.019961314 0.019391665 0.018749759
        0.01804671 0.017294006 0.016503148 0.015685357 0.014851323 0.014010988
        0.01317339 0.012346543 0.0115373535 0.010751573 0.009993798 0.009267515
        0.008575194 0.007918423 0.0072980616 0.006714369 0.0061671278 0.0056557227
        0.0051791915 0.0047362153 0.004325317 0.0039478163 0.0036074761
      </DataArray>
    </PointData>
    <CellData>
    </CellData>
    <Points>
      <DataArray type="Float32" Name="Points" NumberOfComponents="3" format="ascii" RangeMin="0.931502244120672" RangeMax="1.0701969392026676">
        0.44608444 0.00043126068 0.81774384 0.4597665 0.00043126798 0.81775767
        0.4733773 0.0004312792 0.8177789 0.48684686 0.00043129388 0.8178068
        0.5001081 0.00043131137 0.8178399 0.5130982 0.00043133073 0.81787664
        0.5257595 0.00043135099 0.8179151 0.53804064 0.0004313713 0.8179536
        0.549897 0.00043139092 0.8179908 0.56129146 0.00043140925 0.8180255
        0.5721942 0.00043142593 0.8180572 0.58258295 0.00043144074 0.81808525
        0.5924425 0.00043145366 0.81810975 0.6017645 0.0004314647 0.8181307
        0.6105467 0.00043147398 0.8181483 0.61879265 0.00043148175 0.818163
        0.6265105 0.00043148815 0.81817514 0.63371277 0.00043149345 0.8181852
        0.6404153 0.00043149784 0.81819355 0.6466368 0.00043150154 0.8182005
        0.652398 0.00043150465 0.8182065 0.6577211 0.0004315074 0.8182117
        0.6626295 0.00043150983 0.81821626 0.66714686 0.00043151208 0.8182205
        0.67129725 0.00043151417 0.8182245 0.6751043 0.00043151615 0.81822824
        0.67859143 0.00043151807 0.8182319 0.6817812 0.00043151996 0.81823546
        0.68469536 0.00043152177 0.8182389 0.6873548 0.00043152354 0.81824225
        0.6897793 0.0004315253 0.8182456 0.44608444 0.001420932 0.8177427
        0.45971957 0.0014214993 0.8177565 0.4732835 0.0014220639 0.81777763
        0.4867064 0.0014226148 0.81780535 0.49992132 0.001423142 0.8178383
        0.5128654 0.0014236375 0.81787485 0.5254812 0.0014240949 0.8179131
        0.5377173 0.0014245101 0.81795144 0.549529 0.001424882 0.8179885
        0.56087923 0.0014252093 0.8180232 0.571738 0.0014254904 0.81805474
        0.58208287 0.0014257173 0.81808287 0.5918987 0.0014258721 0.8181073
        0.601177 0.0014259232 0.8181283 0.60991585 0.0014258245 0.818146
        0.6181192 0.0014255226 0.8181607 0.6257962 0.0014249714 0.818173
        0.63296056 0.0014241503 0.81818306 0.6396296 0.0014230809 0.81819147
        0.6458234 0.0014218308 0.8181985 0.65156394 0.0014205034 0.8182045
        0.65687394 0.0014192169 0.8182097 0.66177654 0.001418082 0.81821436
        0.666295 0.0014171893 0.8182186 0.6704522 0.0014166038 0.8182225
        0.67427087 0.0014163711 0.8182263 0.67777354 0.001416524 0.8182299
        0.6809822 0.0014170926 0.81823343 0.6839182 0.0014181136 0.8182368
        0.6866022 0.001419644 0.81824017 0.6890542 0.0014218021 0.81824344
        0.44608444 0.0024106014 0.8177404 0.45967302 0.0024117206 0.8177541
        0.47319046 0.0024128314 0.81777513 0.48656708 0.0024139115 0.81780267
        0.49973604 0.0024149425 0.8178355 0.51263463 0.0024159092 0.8178718
        0.5252053 0.0024167998 0.8179099 0.53739685 0.0024176075 0.8179481
        0.5491646 0.0024183292 0.81798506 0.5604713 0.0024189644 0.8180196
        0.57128686 0.0024195092 0.81805116 0.58158886 0.0024199493 0.81807923
        0.591362 0.0024202513 0.81810373 0.6005979 0.0024203549 0.8181247
        0.6092949 0.0024201747 0.8181424 0.6174572 0.0024196098 0.81815726
        0.6250949 0.0024185732 0.8181696 0.63222265 0.0024170245 0.8181798
        0.63885903 0.0024150012 0.81818825 0.6450256 0.002412627 0.81819534
        0.6507452 0.0024100938 0.81820136 0.6560413 0.002407624 0.8182066
        0.6609372 0.0024054295 0.8182112 0.66545534 0.0024036865 0.8182155
        0.66961807 0.0024025259 0.8182194 0.6734471 0.0024020392 0.8182232
        0.6769639 0.0024022935 0.81822675 0.6801899 0.0024033461 0.8182302
        0.68314594 0.0024052595 0.8182336 0.6858524 0.0024081178 0.8182369
        0.68832904 0.0024120745 0.8182401 0.44608444 0.0034002673 0.81773686
        0.4596268 0.0034019276 0.8177505 0.47309813 0.0034035735 0.81777143
        0.48642883 0.0034051733 0.81779885 0.49955225 0.0034066995 0.81783146
        0.51240575 0.0034081298 0.8178676 0.5249319 0.0034094471 0.8179055
        0.5370794 0.0034106423 0.8179436 0.54880375 0.0034117105 0.81798035
        0.5600676 0.0034126507 0.81801486 0.57084084 0.0034134574 0.81804633
        0.5811009 0.0034141103 0.8180744 0.5908325 0.0034145631 0.8180989
        0.60002726 0.0034147312 0.8181199 0.60868365 0.003414493 0.8181377
        0.6168064 0.0034137084 0.8181526 0.6244061 0.0034122528 0.81816494
        0.63149846 0.0034100674 0.8181752 0.6381031 0.0034072017 0.8181838
        0.6442427 0.003403825 0.81819093 0.64994127 0.0034002042 0.818197
        0.65522283 0.003396653 0.81820226 0.66011083 0.003393475 0.81820697
        0.66462755 0.0033909276 0.8182112 0.6687944 0.0033892046 0.81821513
        0.6726323 0.0033884451 0.8182188 0.67616194 0.0033887513 0.8182224
        0.67940384 0.0033902053 0.81822586 0.68237823 0.0033928864 0.8182292
        0.68510514 0.003396885 0.8182324 0.68760395 0.0034023412 0.81823564
        0.44608444 0.004389928 0.81773216 0.45958093 0.0043921163 0.81774575
        0.4730065 0.0043942844 0.81776655 0.4862917 0.004396392 0.81779385
        0.49936995 0.004398402 0.8178262 0.5121788 0.0044002864 0.8178622
        0.5246608 0.004402023 0.81789994 0.53676486 0.0044035986 0.81793785
        0.5484464 0.004405007 0.8179745 0.559668 0.0044062478 0.8180089
        0.5703997 0.004407313 0.8180404 0.58061874 0.0044081784 0.8180683
        0.5903098 0.0044087847 0.8180928 0.59946465 0.0044090264 0.8181139
        0.60808176 0.0044087535 0.81813174 0.61616635 0.004407788 0.81814677
        0.6237294 0.0044059753 0.81815916 0.6307875 0.004403238 0.81816953
        0.6373612 0.0043996335 0.8181781 0.6434743 0.004395369 0.8181853
        0.6491516 0.004390773 0.81819147 0.654418 0.0043862383 0.81819683
        0.6592971 0.0043821516 0.8182015 0.663811 0.0043788436 0.8182058
        0.66798073 0.004376572 0.8182097 0.6718262 0.0043755234 0.8182134
        0.6753672 0.0043758336 0.8182169 0.6786235 0.004377607 0.8182203
        0.68161464 0.0043809363 0.81822366 0.6843601 0.004385902 0.8182268
        0.68687886 0.0043926006 0.81823 0.44608444 0.0053795828 0.81772625
        0.45953542 0.0053822827 0.8177398 0.4729156 0.0053849593 0.8177604
        0.48615566 0.0053875595 0.8177876 0.49918914 0.0053900415 0.81781983
        0.5119537 0.005392368 0.8178556 0.5243921 0.0053945133 0.81789315
        0.53645325 0.005396461 0.8179309 0.54809254 0.005398203 0.8179675
        0.5592726 0.0053997384 0.81800175 0.56996346 0.0054010586 0.8180331
        0.5801424 0.005402134 0.8180611 0.5897939 0.0054028947 0.8180857
        0.5989099 0.00540322 0.8181067 0.60748905 0.005402932 0.81812465
        0.6155367 0.005401823 0.8181397 0.62306446 0.0053997096 0.8181522
        0.63008934 0.0053964993 0.8181626 0.636633 0.005392253 0.8181713
        0.6427198 0.005387206 0.81817853 0.64837575 0.0053817416 0.81818473
        0.6536263 0.005376319 0.81819016 0.65849555 0.005371397 0.8181948
        0.66300553 0.005367375 0.8181991 0.66717666 0.00536457 0.81820303
        0.67102826 0.0053632166 0.8182067 0.6745792 0.005363484 0.81821024
        0.67784846 0.0053654998 0.8182136 0.68085474 0.005369363 0.81821686
        0.683617 0.0053751343 0.81822 0.68615377 0.005382851 0.8182231
        0.44608444 0.0063692294 0.81771916 0.45949027 0.0063724243 0.81773263
        0.47282538 0.0063755913 0.81775314 0.48602065 0.0063786693 0.81778014
        0.4990098 0.0063816076 0.8178122 0.5117305 0.0063843643 0.8178478
        0.52412575 0.0063869073 0.81788516 0.53614444 0.006389217 0.8179228
        0.547742 0.006391285 0.8179592 0.5588813 0.0063931085 0.81799346
        0.56953204 0.0063946783 0.8180247 0.57967156 0.006395959 0.8180527
        0.5892846 0.006396877 0.81807727 0.59836286 0.006397293 0.81809837
        0.6069052 0.006397007 0.8181163 0.61491716 0.0063957893 0.8181314
        0.6224108 0.006393428 0.818144 0.6294036 0.006389817 0.81815445
        0.63591784 0.006385018 0.8181632 0.64197886 0.006379291 0.8181706
        0.6476133 0.0063730595 0.81817687 0.65284747 0.00636684 0.81818223
        0.65770584 0.0063611544 0.818187 0.6622106 0.0063564647 0.8181913
        0.6663818 0.006353144 0.8181952 0.67023814 0.006351473 0.8181989
        0.67379767 0.0063516544 0.8182023 0.67707837 0.0063538374 0.8182057
        0.6800983 0.0063581266 0.81820893 0.68287575 0.006364556 0.81821203
        0.6854287 0.006373092 0.8182151 0.44608444 0.0073588667 0.8177109
        0.45944545 0.007362537 0.8177242 0.47273588 0.007366177 0.8177447
        0.48588672 0.0073697153 0.8177715 0.49883187 0.0073730946 0.8178034
        0.5115092 0.007376266 0.81783885 0.5238617 0.007379194 0.81787604
        0.5358384 0.0073818546 0.8179135 0.54739493 0.007384239 0.8179497
        0.55849385 0.007386342 0.81798387 0.56910527 0.0073881545 0.81801516
        0.57920635 0.00738964 0.8180431 0.5887818 0.0073907143 0.8180676
        0.5978233 0.007391227 0.81808877 0.60633 0.007390962 0.8181068
        0.61430746 0.0073896646 0.81812197 0.62176806 0.0073871044 0.8181346
        0.62872976 0.0073831603 0.81814516 0.6352154 0.0073778946 0.818154
        0.64125097 0.0073715816 0.8181614 0.6468638 0.007364679 0.8181677
        0.652081 0.0073577515 0.81817317 0.6569276 0.0073513733 0.818178
        0.6614259 0.007346063 0.8181823 0.6655958 0.007342246 0.8181862
        0.6694555 0.0073402454 0.81818986 0.67302215 0.0073403018 0.8181933
        0.6763129 0.0073425816 0.8181966 0.679345 0.0073471945 0.8181998
        0.68213606 0.0073541445 0.8182029 0.6847035 0.0073633217 0.8182059
        0.44608444 0.008348493 0.81770134 0.45940098 0.00835262 0.81771463
        0.47264704 0.008356712 0.817735 0.48575383 0.008360692 0.81776166
        0.4986554 0.008364494 0.81779337 0.5112897 0.008368064 0.81782866
        0.5235999 0.008371363 0.81786567 0.53553516 0.008374364 0.817903
        0.5470511 0.008377055 0.8179391 0.5581104 0.00837943 0.8179732
        0.56868315 0.0083814785 0.8180043 0.57874656 0.008383162 0.81803226
        0.5882852 0.008384393 0.8180568 0.5972911 0.008385008 0.81807804
        0.60576314 0.008384779 0.8180961 0.61370724 0.008383431 0.8181113
        0.62113595 0.008380717 0.81812406 0.62806755 0.008376503 0.81813467
        0.6345253 0.008370847 0.81814355 0.6405357 0.008364039 0.818151
        0.646127 0.008356557 0.8181574 0.65132666 0.008349007 0.8181629
        0.65616053 0.008342005 0.81816775 0.6606512 0.008336122 0.81817204
        0.6648185 0.008331828 0.818176 0.6686801 0.008329492 0.81817967
        0.6722524 0.008329385 0.8181831 0.67555183 0.0083316965 0.81818634
        0.6785947 0.008336538 0.8181895 0.6813979 0.008343882 0.8181926
        0.68397844 0.008353539 0.8181955 0.44608444 0.009338107 0.8176906
        0.45935684 0.009342669 0.8177039 0.47255892 0.009347193 0.8177241
        0.48562202 0.0093515925 0.81775063 0.49848032 0.009355799 0.81778216
        0.51107204 0.009359753 0.8178172 0.5233404 0.009363407 0.8178541
        0.5352347 0.009366734 0.81789124 0.54671055 0.00936972 0.81792724
        0.55773085 0.009372357 0.8179612 0.56826556 0.009374636 0.8179924
        0.578292 0.009376514 0.8180203 0.58779484 0.009377898 0.81804484
        0.596766 0.009378621 0.81806606 0.60520446 0.00937844 0.8180842
        0.6131163 0.009377069 0.81809944 0.62051415 0.009374243 0.81811225
        0.62741655 0.009369817 0.8181229 0.6338471 0.009363847 0.81813186
        0.63983285 0.009356624 0.81813943 0.6454024 0.009348652 0.8181459
        0.6505841 0.009340561 0.8181514 0.6554043 0.009333006 0.8181563
        0.6598862 0.009326598 0.81816065 0.6640495 0.00932185 0.8181646
        0.6679116 0.009319172 0.8181683 0.6714882 0.00931887 0.8181717
        0.6747949 0.009321151 0.8181749 0.6778472 0.009326133 0.818178
        0.6806612 0.009333751 0.81818104 0.68325335 0.0093437405 0.8181839
        0.44608444 0.010327708 0.81767875 0.45931304 0.01033268 0.8176919
        0.47247145 0.0103376135 0.817712 0.48549122 0.0103424145 0.8177384
        0.49830666 0.010347006 0.81776977 0.51085615 0.0103513235 0.81780463
        0.52308315 0.010355318 0.81784135 0.5349369 0.010358958 0.8178783
        0.54637325 0.010362226 0.81791425 0.5573551 0.0103651155 0.8179481
        0.56785244 0.010367615 0.8179792 0.5778427 0.010369681 0.8180071
        0.5873105 0.0103712175 0.81803167 0.5962478 0.010372053 0.8180529
        0.6046537 0.010371933 0.81807107 0.6125343 0.010370562 0.8180864
        0.61990225 0.010367663 0.81809926 0.62677646 0.010363079 0.81811
        0.6331805 0.010356862 0.81811905 0.6391419 0.010349307 0.8181267
        0.64468974 0.010340927 0.8181332 0.64985305 0.010332375 0.8181387
        0.65465885 0.010324334 0.81814367 0.6591307 0.0103174485 0.818148
        0.66328865 0.010312273 0.81815195 0.6671498 0.010309251 0.81815565
        0.67072934 0.010308722 0.81815904 0.6740419 0.010310918 0.8181623
        0.67710227 0.010315955 0.81816536 0.67992574 0.010323741 0.81816834
        0.68252826 0.010333927 0.81817114 0.44608444 0.011317293 0.81766564
        0.45926955 0.011322653 0.81767875 0.47238463 0.011327972 0.8176987
        0.4853614 0.011333152 0.817725 0.4981344 0.011338106 0.81775624
        0.5106421 0.01134277 0.81779087 0.5228281 0.011347088 0.8178274
        0.53464174 0.011351025 0.8178642 0.5460391 0.011354562 0.81790006
        0.55698305 0.011357694 0.8179338 0.56744367 0.011360406 0.81796485
        0.5773985 0.011362654 0.81799275 0.58683205 0.011364341 0.81801724
        0.5957364 0.01136529 0.8180385 0.60411066 0.011365242 0.8180567
        0.611961 0.011363893 0.81807214 0.6193001 0.011360955 0.818085
        0.62614685 0.011356265 0.8180959 0.63252515 0.011349866 0.81810504
        0.6384626 0.011342052 0.8181127 0.6439888 0.011333345 0.8181192
        0.64913327 0.0113244075 0.8181249 0.65392375 0.011315948 0.8181298
        0.65838444 0.0113086365 0.8181342 0.6625357 0.011303059 0.8181382
        0.6663945 0.011299695 0.8181419 0.6699755 0.0112989135 0.8181453
        0.67329264 0.011300971 0.8181485 0.6763598 0.011305986 0.8181515
        0.67919147 0.011313837 0.8181544 0.68180317 0.011324097 0.8181572
        0.44608444 0.012306862 0.81765133 0.4592264 0.012312585 0.8176644
        0.4722985 0.012318264 0.8176843 0.48523262 0.012323799 0.81771034
        0.4979635 0.012329097 0.8177414 0.5104298 0.012334085 0.8177759
        0.52257514 0.012338709 0.81781226 0.53434926 0.012342927 0.817849
        0.54570806 0.012346722 0.8178846 0.5566147 0.012350083 0.8179183
        0.56703925 0.012352997 0.8179493 0.5769592 0.012355422 0.81797713
        0.5863593 0.012357255 0.8180017 0.5952316 0.012358321 0.81802297
        0.60357517 0.012358355 0.8180412 0.61139613 0.012357047 0.81805664
        0.6187073 0.012354105 0.81806964 0.6255275 0.012349355 0.8180806
        0.6318807 0.012342834 0.8180898 0.6377946 0.012334832 0.8180975
        0.6432992 0.012325872 0.8181041 0.64842457 0.012316626 0.8181098
        0.65319896 0.012307812 0.8181148 0.6576474 0.012300124 0.8181192
        0.66179055 0.012294173 0.8181232 0.6656456 0.012290469 0.81812686
        0.6692267 0.012289415 0.8181303 0.67254704 0.012291286 0.8181335
        0.6756196 0.012296207 0.81813645 0.6784584 0.0123040285 0.8181393
        0.6810781 0.012314248 0.81814206 0.44608444 0.013296411 0.81763583
        0.45918357 0.0133024715 0.8176488 0.472213 0.013308488 0.8176686
        0.48510483 0.013314352 0.81769454 0.49779394 0.013319968 0.8177254
        0.5102192 0.013325264 0.81775975 0.5223244 0.013330175 0.81779593
        0.53405935 0.013334658 0.81783247 0.5453801 0.013338695 0.817868
        0.5562499 0.013342275 0.8179016 0.566639 0.013345381 0.8179325
        0.57652485 0.013347973 0.8179604 0.58589226 0.01334995 0.8179849
        0.59473324 0.013351133 0.8180062 0.60304695 0.013351258 0.8180245
        0.6108395 0.01335001 0.81804 0.6181236 0.013347092 0.81805307
        0.6249181 0.013342326 0.8180641 0.63124686 0.013335737 0.8180733
        0.6371377 0.013327614 0.81808114 0.64262074 0.013318474 0.81808776
        0.64772666 0.01330899 0.81809354 0.65248424 0.01329989 0.81809855
        0.6569193 0.013291876 0.818103 0.6610531 0.013285584 0.818107
        0.6649029 0.013281547 0.8181107 0.66848266 0.0132802 0.8181141
        0.67180485 0.01328184 0.81811726 0.6748817 0.013286602 0.81812024
        0.6777264 0.013294307 0.81812304 0.680353 0.013304379 0.8181257
        0.44608444 0.014285944 0.81761914 0.45914105 0.014292312 0.8176321
        0.47212815 0.014298639 0.81765175 0.48497805 0.014304807 0.8176775
        0.49762574 0.014310722 0.81770825 0.51001036 0.0143163 0.8177424
        0.5220758 0.014321478 0.8177784 0.533772 0.014326208 0.81781477
        0.5450552 0.014330473 0.81785023 0.5558888 0.014334258 0.81788373
        0.56624293 0.014337548 0.8179146 0.5760953 0.0143403 0.8179424
        0.5854307 0.014342417 0.81796694 0.59424114 0.014343716 0.8179883
        0.6025259 0.014343939 0.8180066 0.6102908 0.014342768 0.8180222
        0.61754876 0.014339902 0.8180353 0.6243183 0.014335158 0.8180464
        0.6306233 0.014328556 0.8180557 0.63649154 0.014320374 0.81806356
        0.64195323 0.014311122 0.81807023 0.64703935 0.014301468 0.8180761
        0.65177953 0.014292144 0.8180811 0.6562002 0.014283859 0.8180856
        0.66032326 0.014277258 0.81808966 0.6641664 0.014272901 0.8180933
        0.6677434 0.0142712435 0.8180967 0.67106605 0.014272616 0.81809986
        0.67414594 0.0142771555 0.8181028 0.67699534 0.014284662 0.8181056
        0.6796279 0.01429449 0.81810826 0.44608444 0.015275454 0.81760126
        0.45909888 0.015282104 0.81761414 0.47204396 0.0152887115 0.8176337
        0.48485222 0.015295162 0.8176593 0.49745888 0.015301347 0.81768984
        0.5098032 0.015307185 0.8177239 0.52182925 0.01531261 0.8177597
        0.53348714 0.015317572 0.81779593 0.54473335 0.015322049 0.8178312
        0.5555311 0.015326025 0.81786466 0.5658509 0.015329488 0.8178955
        0.5756704 0.015332392 0.8179232 0.5849745 0.015334642 0.81794775
        0.59375525 0.015336058 0.81796914 0.6020117 0.015336384 0.8179875
        0.60975 0.015335305 0.8180032 0.6169825 0.015332517 0.81801635
        0.6237279 0.015327834 0.8180275 0.63000983 0.015321266 0.8180368
        0.63585585 0.015313081 0.8180447 0.6412964 0.015303782 0.8180515
        0.6463626 0.015294029 0.81805736 0.65108466 0.015284544 0.8180625
        0.65548986 0.015276037 0.818067 0.659601 0.015269163 0.818071
        0.66343594 0.015264499 0.8180747 0.6670087 0.0152625255 0.8180781
        0.6703305 0.015263592 0.81808126 0.67341226 0.015267853 0.8180842
        0.6762653 0.015275084 0.8180869 0.67890275 0.015284577 0.81808954
        0.44608444 0.016264943 0.8175822 0.459057 0.016271845 0.81759495
        0.47196043 0.016278708 0.81761444 0.48472735 0.016285406 0.8176399
        0.49729332 0.016291842 0.81767035 0.50959766 0.016297918 0.81770414
        0.5215848 0.01630357 0.81773984 0.5332048 0.016308744 0.8177759
        0.54441434 0.016313415 0.8178111 0.55517685 0.01631757 0.8178444
        0.5654629 0.016321192 0.8178751 0.57525015 0.016324239 0.81790286
        0.58452356 0.016326616 0.8179275 0.59327525 0.016328152 0.8179488
        0.6015043 0.016328584 0.81796724 0.60921663 0.016327608 0.8179829
        0.6164246 0.01632492 0.81799614 0.62314665 0.016320331 0.81800735
        0.6294061 0.016313843 0.8180168 0.6352304 0.016305715 0.81802475
        0.64065003 0.01629643 0.8180316 0.64569616 0.01628664 0.8180375
        0.6503996 0.016277054 0.81804264 0.65478843 0.01626838 0.81804717
        0.6588862 0.016261272 0.8180512 0.6627116 0.01625632 0.8180549
        0.6662786 0.016254019 0.8180583 0.6695983 0.016254751 0.8180615
        0.67268056 0.01625868 0.81806433 0.6755362 0.01626557 0.8180671
        0.67817765 0.016274642 0.8180697 0.44608444 0.017254407 0.8175619
        0.45901543 0.017261531 0.8175746 0.4718775 0.01726862 0.817594
        0.48460346 0.017275544 0.8176193 0.49712908 0.017282197 0.81764954
        0.5093939 0.01728849 0.81768316 0.52134234 0.017294345 0.8177187
        0.53292495 0.017299712 0.8177546 0.5440983 0.017304562 0.8177897
        0.554826 0.01730888 0.81782293 0.5650788 0.017312652 0.8178536
        0.57483435 0.017315831 0.81788135 0.5840778 0.01731833 0.8179059
        0.59280115 0.01731998 0.81792736 0.60100347 0.017320527 0.8179458
        0.6086906 0.017319664 0.81796145 0.6158748 0.017317098 0.8179748
        0.6225742 0.017312633 0.8179861 0.62881184 0.017306266 0.81799555
        0.63461506 0.017298242 0.8180036 0.64001393 0.017289033 0.8180105
        0.64504 0.017279267 0.8180164 0.64972436 0.017269643 0.81802154
        0.6540958 0.017260857 0.8180261 0.658179 0.017253557 0.8180303
        0.6619933 0.017248334 0.81803393 0.6655531 0.017245708 0.81803733
        0.66886914 0.017246077 0.8180405 0.6719508 0.017249627 0.81804335
        0.6748081 0.017256107 0.8180461 0.67745256 0.017264677 0.8180486
        0.44608444 0.018243844 0.8175404 0.45897418 0.018251164 0.8175531
        0.47179514 0.018258447 0.81757236 0.4844805 0.018265568 0.81759757
        0.4969661 0.018272415 0.8176276 0.50919163 0.018278895 0.81766105
        0.52110195 0.018284932 0.8176964 0.5326475 0.018290471 0.8177322
        0.5437851 0.018295484 0.81776714 0.5544785 0.01829995 0.8178003
        0.5646985 0.018303854 0.8178309 0.574423 0.01830716 0.8178586
        0.58363706 0.018309776 0.81788313 0.59233266 0.018311534 0.81790465
        0.60050905 0.018312195 0.8179231 0.60817176 0.018311461 0.81793886
        0.6153329 0.018309034 0.8179523 0.62201035 0.018304722 0.8179636
        0.6282269 0.018298516 0.81797314 0.6340095 0.018290645 0.8179812
        0.63938797 0.018281564 0.81798816 0.64439386 0.01827188 0.8179941
        0.64905876 0.01826228 0.8179993 0.65341204 0.018253434 0.81800395
        0.65747947 0.018245984 0.81800807 0.66128117 0.018240517 0.81801176
        0.66483223 0.018237568 0.81801516 0.6681432 0.018237554 0.81801826
        0.671223 0.018240679 0.8180212 0.6740808 0.01824669 0.8180238
        0.6767275 0.018254688 0.81802636 0.44608444 0.019233258 0.81751776
        0.45893323 0.019240735 0.81753033 0.47171345 0.019248184 0.81754947
        0.4843585 0.01925547 0.81757456 0.49680436 0.019262485 0.8176045
        0.5089911 0.01926913 0.81763774 0.52086353 0.019275326 0.8176729
        0.5323724 0.019281017 0.81770855 0.5434747 0.01928617 0.8177434
        0.5541343 0.01929077 0.81777644 0.56432205 0.0192948 0.817807
        0.574016 0.019298216 0.8178347 0.58320117 0.01930094 0.81785923
        0.59186983 0.019302806 0.8178807 0.6000208 0.019303584 0.8178992
        0.6076598 0.019302983 0.8179151 0.61479867 0.01930071 0.8179285
        0.6214549 0.019296579 0.8179399 0.627651 0.019290568 0.8179495
        0.63341343 0.019282894 0.81795764 0.6387719 0.019273993 0.8179646
        0.64375776 0.019264454 0.81797063 0.6484028 0.01925493 0.81797594
        0.65273726 0.01924608 0.8179805 0.6567876 0.019238526 0.81798464
        0.6605753 0.019232847 0.81798834 0.66411597 0.01922958 0.8179918
        0.6674205 0.019229166 0.8179949 0.6704971 0.019231832 0.81799775
        0.6733543 0.019237315 0.8180004 0.6760024 0.019244673 0.8180029
        0.44608444 0.020222642 0.81749386 0.45889258 0.020230249 0.8175064
        0.47163236 0.020237828 0.81752545 0.4842374 0.02024525 0.81755036
        0.49664393 0.020252405 0.8175801 0.50879216 0.020259185 0.81761324
        0.52062714 0.020265518 0.81764823 0.53209966 0.020271339 0.81768376
        0.54316705 0.020276615 0.81771845 0.55379325 0.020281332 0.8177514
        0.5639493 0.020285469 0.817782 0.57361317 0.02028899 0.8178096
        0.58277017 0.020291813 0.81783414 0.59141237 0.020293785 0.8178556
        0.5995387 0.02029468 0.8178742 0.60715467 0.020294216 0.8178901
        0.6142719 0.020292114 0.8179036 0.6209076 0.020288184 0.81791496
        0.62708384 0.020282403 0.8179247 0.63282675 0.02027497 0.8179329
        0.6381656 0.020266298 0.81793994 0.64313155 0.020256951 0.81794596
        0.6477566 0.020247566 0.81795126 0.6520714 0.020238766 0.8179559
        0.6561036 0.020231154 0.8179601 0.6598758 0.020225296 0.8179638
        0.6634045 0.020221725 0.8179672 0.666701 0.020220902 0.8179703
        0.66977316 0.02022307 0.81797314 0.67262876 0.020227972 0.81797576
        0.6752773 0.020234624 0.81797826 0.44608444 0.021211997 0.8174688
        0.4588522 0.021219697 0.8174813 0.4715519 0.021227378 0.8175002
        0.4841172 0.021234907 0.81752497 0.49648473 0.021242168 0.8175546
        0.50859475 0.021249058 0.81758755 0.5203926 0.021255499 0.8176224
        0.5318293 0.02126143 0.81765777 0.5428622 0.021266812 0.8176924
        0.5534554 0.021271627 0.81772524 0.56358016 0.02127586 0.8177557
        0.57321453 0.021279471 0.8177833 0.5823438 0.021282384 0.81780785
        0.5909602 0.021284455 0.8178294 0.5990625 0.021285467 0.81784797
        0.6066561 0.021285148 0.8178639 0.61375237 0.02128323 0.8178774
        0.6203682 0.021279523 0.8178889 0.6265253 0.021273999 0.8178987
        0.63224924 0.021266842 0.8179069 0.6375689 0.021258445 0.817914
        0.6425152 0.021249346 0.8179201 0.64712 0.02124015 0.8179254
        0.65141463 0.021231456 0.8179301 0.65542763 0.021223838 0.8179342
        0.65918285 0.021217836 0.81793797 0.662698 0.021213984 0.81794137
        0.6659848 0.021212742 0.8179445 0.6690512 0.021214386 0.8179473
        0.671904 0.021218661 0.81795 0.6745522 0.021224547 0.81795245
        0.44608444 0.02220132 0.81744254 0.45881218 0.022209082 0.81745493
        0.471472 0.022216829 0.81747377 0.48399797 0.02222443 0.81749845
        0.4963267 0.022231769 0.81752783 0.5083989 0.02223874 0.8175607
        0.52016 0.022245266 0.81759536 0.5315612 0.022251282 0.8176306
        0.54256 0.022256749 0.81766504 0.55312073 0.022261648 0.8176979
        0.5632146 0.022265958 0.8177283 0.57281995 0.022269648 0.8177558
        0.5819221 0.022272643 0.8177804 0.59051317 0.022274807 0.81780195
        0.59859204 0.022275934 0.81782055 0.6061639 0.022275764 0.8178365
        0.6132399 0.022274042 0.8178501 0.6198365 0.022270575 0.8178616
        0.625975 0.022265336 0.8178714 0.6316806 0.02225849 0.81787974
        0.6369816 0.02225041 0.8178869 0.64190847 0.022241607 0.817893
        0.64649314 0.022232652 0.81789833 0.6507671 0.022224119 0.81790304
        0.6547599 0.022216544 0.8179072 0.6584967 0.022210449 0.81791097
        0.66199654 0.022206336 0.81791437 0.66527206 0.022204679 0.8179175
        0.66833115 0.022205774 0.8179203 0.6711802 0.022209374 0.81792295
        0.6738271 0.022214435 0.81792545 0.44608444 0.023190608 0.81741506
        0.4587724 0.023198398 0.8174274 0.4713927 0.023206178 0.8174462
        0.4838796 0.023213819 0.81747067 0.49616995 0.023221204 0.81749994
        0.50820464 0.02322823 0.8175326 0.5199293 0.023234813 0.81756717
        0.53129536 0.023240892 0.8176022 0.54226047 0.02324642 0.81763655
        0.55278903 0.023251383 0.8176693 0.56285256 0.023255756 0.8176997
        0.5724294 0.023259513 0.8177272 0.5815049 0.023262579 0.81775177
        0.59007126 0.023264831 0.8177733 0.59812725 0.02326607 0.81779194
        0.60567796 0.023266051 0.817808 0.61273426 0.02326453 0.8178216
        0.61931235 0.02326132 0.81783324 0.62543297 0.023256388 0.8178431
        0.63112074 0.023249887 0.8178514 0.63640356 0.023242163 0.8178586
        0.64131147 0.023233699 0.8178647 0.645876 0.023225041 0.81787014
        0.65012896 0.02321672 0.81787485 0.65410066 0.023209244 0.817879
        0.6578176 0.023203095 0.8178828 0.6613004 0.023198757 0.8178862
        0.66456294 0.023196694 0.8178893 0.6676132 0.023197219 0.81789213
        0.67045724 0.023200108 0.8178948 0.673102 0.02320429 0.8178972
        0.44608444 0.024179868 0.8173864 0.45873293 0.024187643 0.8173987
        0.47131398 0.02419542 0.8174173 0.4837621 0.024203066 0.8174417
        0.4960144 0.024210466 0.81747085 0.5080119 0.024217516 0.81750333
        0.51970047 0.02422413 0.8175377 0.5310317 0.024230244 0.81757265
        0.5419635 0.024235817 0.8176069 0.55246043 0.024240823 0.8176396
        0.562494 0.024245244 0.8176698 0.5720427 0.024249053 0.8176974
        0.58109206 0.02425218 0.8177219 0.58963424 0.02425451 0.8177435
        0.59766793 0.024255859 0.8177622 0.6051981 0.024255995 0.8177782
        0.6122353 0.02425468 0.81779194 0.6187954 0.02425174 0.81780356
        0.6248988 0.024247136 0.81781346 0.63056946 0.024241008 0.8178219
        0.63583463 0.024233678 0.8178291 0.64072394 0.024225596 0.8178353
        0.6452685 0.024217278 0.81784064 0.6495003 0.024209224 0.8178454
        0.65345013 0.0242019 0.8178496 0.6571459 0.024195753 0.8178534
        0.66061 0.024191229 0.8178568 0.6638576 0.024188774 0.8178599
        0.6668975 0.024188718 0.81786275 0.6697352 0.024190856 0.8178654
        0.67237693 0.02419411 0.8178678 0.44608444 0.025169088 0.8173565
        0.45869374 0.025176816 0.81736875 0.47123584 0.025184551 0.8173873
        0.48364547 0.025192168 0.8174116 0.49586 0.025199551 0.81744057
        0.50782067 0.025206594 0.8174729 0.5194735 0.02521321 0.81750715
        0.5307703 0.025219336 0.81754196 0.54166913 0.025224928 0.81757605
        0.55213475 0.025229957 0.81760865 0.5621388 0.025234409 0.8176389
        0.57165986 0.025238255 0.81766635 0.5806836 0.025241433 0.8176909
        0.58920205 0.025243834 0.8177125 0.5972139 0.025245287 0.81773126
        0.60472405 0.025245573 0.81774735 0.6117428 0.025244473 0.8177611
        0.6182856 0.025241815 0.8177728 0.6243723 0.025237558 0.8177827
        0.63002646 0.025231827 0.81779116 0.63527465 0.02522492 0.81779844
        0.64014584 0.025217261 0.81780463 0.64467084 0.02520933 0.81781006
        0.6488813 0.02520159 0.81781477 0.6528087 0.025194477 0.817819
        0.6564821 0.025188386 0.81782275 0.65992564 0.025183722 0.81782615
        0.66315633 0.025180906 0.8178293 0.666184 0.025180265 0.8178322
        0.6690141 0.02518162 0.8178348 0.67165184 0.025183892 0.81783724
        0.44608444 0.026158273 0.8173255 0.45865482 0.026165914 0.81733763
        0.47115827 0.026173573 0.8173561 0.48352972 0.02618112 0.81738025
        0.4957068 0.026188448 0.8174091 0.5076309 0.026195453 0.8174412
        0.5192483 0.026202044 0.8174754 0.5305111 0.026208157 0.81751
        0.5413773 0.02621374 0.81754404 0.551812 0.026218774 0.8175765
        0.56178695 0.026223239 0.8176067 0.57128084 0.02622711 0.81763417
        0.5802793 0.026230324 0.8176587 0.5887745 0.026232785 0.8176803
        0.59676516 0.026234334 0.8176991 0.6042558 0.026234774 0.8177152
        0.61125666 0.026233885 0.81772906 0.6177827 0.02623152 0.8177408
        0.6238534 0.026227627 0.81775075 0.6294916 0.026222313 0.8177592
        0.6347234 0.026215864 0.81776655 0.6395771 0.026208661 0.81777275
        0.64408284 0.026201157 0.8177782 0.64827216 0.026193783 0.81778294
        0.6521767 0.026186936 0.8177872 0.65582657 0.02618096 0.817791
        0.65924776 0.026176209 0.8177944 0.66245955 0.026173066 0.8177975
        0.6654731 0.026171848 0.81780034 0.668294 0.02617239 0.817803
        0.67092675 0.026173634 0.81780547 0.44608444 0.02714742 0.81729317
        0.45861617 0.027154932 0.8173053 0.47108126 0.027162474 0.8173237
        0.48341483 0.027169922 0.8173477 0.49555475 0.027177159 0.81737643
        0.5074426 0.027184088 0.81740844 0.51902497 0.027190624 0.81744236
        0.53025395 0.027196689 0.8174769 0.541088 0.027202247 0.81751084
        0.55149215 0.027207265 0.8175432 0.5614383 0.027211722 0.81757337
        0.57090545 0.027215596 0.8176008 0.5798791 0.027218837 0.81762534
        0.5883516 0.02722135 0.817647 0.59632146 0.027222993 0.81766576
        0.6037932 0.027223574 0.81768197 0.6107766 0.027222905 0.8176958
        0.6172865 0.027220834 0.8177076 0.6233418 0.027217314 0.8177176
        0.6289648 0.027212441 0.81772614 0.63418084 0.027206467 0.81773347
        0.63901764 0.027199756 0.8177397 0.6435047 0.027192721 0.8177452
        0.647673 0.027185759 0.81775 0.65155435 0.027179224 0.81775415
        0.65517974 0.027173428 0.81775796 0.658577 0.02716866 0.81776136
        0.66176766 0.027165238 0.8177645 0.66476494 0.027163459 0.8177673
        0.66757506 0.027163168 0.81777 0.67020166 0.02716334 0.8177725
        0.44608444 0.028136527 0.8172597 0.45857784 0.028143868 0.8172718
        0.47100484 0.028151253 0.81729007 0.4833008 0.028158559 0.817314
        0.49540383 0.02816567 0.8173425 0.5072558 0.028172493 0.8173744
        0.5188034 0.028178936 0.81740826 0.52999896 0.02818493 0.81744266
        0.5408011 0.028190434 0.81747645 0.5511751 0.02819541 0.81750876
        0.561093 0.02819984 0.8175388 0.5705337 0.028203705 0.8175663
        0.57948303 0.028206954 0.8175908 0.5879332 0.028209506 0.8176124
        0.5958828 0.02821123 0.81763124 0.603336 0.028211955 0.8176475
        0.61030257 0.0282115 0.8176614 0.61679685 0.028209727 0.8176732
        0.6228373 0.02820659 0.8176833 0.6284457 0.028202174 0.81769186
        0.6336467 0.028196706 0.8176992 0.63846725 0.028190514 0.8177055
        0.6429362 0.028183976 0.81771094 0.647084 0.02817747 0.81771576
        0.6509422 0.028171305 0.81772 0.6545423 0.028165746 0.81772375
        0.657914 0.028161028 0.81772715 0.66108125 0.028157396 0.8177303
        0.6640599 0.028155088 0.8177331 0.66685724 0.028153956 0.8177358
        0.66947657 0.028153004 0.81773835 0.44608444 0.02912559 0.8172251
        0.45853975 0.02913272 0.81723714 0.47092894 0.029139902 0.8172553
        0.48318762 0.029147023 0.8172791 0.49525407 0.029153973 0.8173075
        0.5070704 0.02916065 0.81733924 0.5185836 0.02916697 0.8173729
        0.5297461 0.029172864 0.8174072 0.54051673 0.02917828 0.8174409
        0.5508608 0.02918319 0.8174731 0.5607508 0.029187579 0.81750315
        0.5701655 0.02919141 0.8175305 0.5790909 0.029194653 0.81755507
        0.58751917 0.029197233 0.8175767 0.59544885 0.02919903 0.8175956
        0.6028841 0.029199889 0.8176119 0.6098344 0.029199645 0.81762576
        0.6163136 0.029198172 0.8176377 0.6223398 0.029195426 0.8176478
        0.6279342 0.029191475 0.8176564 0.63312083 0.029186526 0.8176638
        0.6379259 0.029180877 0.8176701 0.6423775 0.029174877 0.8176756
        0.6465053 0.029168863 0.81768036 0.6503405 0.029163113 0.8176846
        0.65391487 0.029157858 0.8176884 0.65725946 0.029153265 0.81769174
        0.660401 0.029149499 0.8176949 0.66335833 0.02914672 0.81769776
        0.6661409 0.029144747 0.8177004 0.66875154 0.029142622 0.81770295
        0.44608444 0.030114613 0.8171893 0.45850196 0.030121483 0.81720126
        0.47085357 0.030128418 0.8172193 0.48307526 0.030135313 0.817243
        0.49510545 0.030142058 0.8172713 0.5068865 0.030148553 0.8173029
        0.5183655 0.030154714 0.8173364 0.52949524 0.030160472 0.8173706
        0.5402347 0.030165777 0.81740415 0.5505493 0.030170595 0.8174363
        0.5604117 0.030174905 0.81746626 0.5698008 0.03017869 0.8174937
        0.5787026 0.030181913 0.8175182 0.58710945 0.030184504 0.8175399
        0.59501976 0.030186359 0.81755877 0.60243744 0.030187342 0.81757504
        0.60937184 0.030187307 0.81758904 0.6158365 0.030186132 0.81760097
        0.621849 0.030183775 0.8176111 0.6274301 0.030180302 0.8176198
        0.6326031 0.030175885 0.8176272 0.6373934 0.030170804 0.81763357
        0.6418285 0.030165365 0.81763905 0.645937 0.030159874 0.8176438
        0.64974964 0.030154588 0.817648 0.6532981 0.030149695 0.8176518
        0.6566143 0.030145308 0.81765515 0.65972775 0.030141499 0.81765825
        0.66266096 0.030138325 0.81766117 0.66542614 0.030135531 0.81766385
        0.66802645 0.030132197 0.8176664 0.44608444 0.031103592 0.8171522
        0.4584644 0.031110153 0.8171642 0.47077882 0.031116797 0.8171822
        0.4829637 0.031123415 0.8172058 0.49495792 0.031129908 0.81723386
        0.5067039 0.031136183 0.8172654 0.51814914 0.03114215 0.81729877
        0.52924645 0.031147735 0.8173328 0.539955 0.031152895 0.81736624
        0.5502406 0.031157592 0.8173983 0.56007564 0.031161806 0.81742823
        0.56943953 0.031165522 0.8174556 0.5783182 0.0311687 0.81748015
        0.58670396 0.031171285 0.8175018 0.59459525 0.031173185 0.81752074
        0.6019959 0.031174282 0.8175371 0.60891485 0.031174444 0.81755114
        0.6153655 0.031173563 0.81756306 0.6213649 0.031171596 0.8175733
        0.6269333 0.0311686 0.817582 0.6320933 0.031164732 0.8175894
        0.6368697 0.031160228 0.8175958 0.64128906 0.031155374 0.8176013
        0.64537925 0.031150438 0.8176061 0.64917 0.031145656 0.81761026
        0.65269256 0.03114118 0.817614 0.6559795 0.03113708 0.8176174
        0.6590627 0.03113334 0.81762046 0.6619685 0.031129869 0.8176234
        0.66471326 0.031126304 0.81762606 0.66730136 0.031121729 0.8176287
        0.44608444 0.032092527 0.81711394 0.45842716 0.03209872 0.81712586
        0.47070456 0.03210502 0.8171438 0.482853 0.032111317 0.8171673
        0.4948115 0.032117516 0.8171953 0.50652283 0.032123517 0.81722665
        0.5179345 0.032129247 0.81725985 0.5289997 0.032134622 0.8172938
        0.53967774 0.032139607 0.8173272 0.5499345 0.032144148 0.81735915
        0.5597427 0.032148246 0.8173891 0.56908166 0.03215186 0.81741637
        0.57793754 0.032154974 0.81744087 0.58630264 0.032157537 0.8174626
        0.5941753 0.032159466 0.8174816 0.6015593 0.03216066 0.81749797
        0.6084633 0.032161005 0.817512 0.61490035 0.03216041 0.817524
        0.6208872 0.03215882 0.81753427 0.6264435 0.032156307 0.81754297
        0.6315913 0.03215299 0.8175504 0.6363547 0.03214908 0.8175568
        0.6407592 0.032144826 0.81756234 0.6448321 0.03214047 0.81756717
        0.6486019 0.03213622 0.81757134 0.6520991 0.032132212 0.8175751
        0.6553563 0.032128476 0.81757843 0.65840703 0.032124918 0.81758153
        0.66128206 0.032121293 0.8175844 0.6640028 0.032117046 0.8175871
        0.66657627 0.032111213 0.8175897 0.44608444 0.033081412 0.81707454
        0.45839015 0.03308719 0.8170864 0.47063082 0.033093087 0.8171043
        0.4827431 0.033099007 0.81712765 0.4946662 0.033104856 0.81715554
        0.50634307 0.033110544 0.8171867 0.51772153 0.033115983 0.81721985
        0.52875495 0.033121113 0.81725365 0.5394028 0.033125874 0.81728697
        0.54963106 0.033130232 0.81731886 0.5594127 0.03313417 0.81734866
        0.56872714 0.03313766 0.81737596 0.5775606 0.033140685 0.8174005
        0.5859054 0.0331432 0.8174222 0.5937598 0.03314514 0.8174412
        0.6011275 0.033146415 0.8174577 0.608017 0.03314693 0.8174718
        0.61444104 0.033146597 0.81748384 0.62041587 0.03314539 0.8174941
        0.6259607 0.033143345 0.81750286 0.63109696 0.033140577 0.8175103
        0.6358481 0.03313727 0.81751674 0.64023894 0.033133626 0.8175223
        0.6442955 0.03312987 0.81752706 0.64804554 0.03312618 0.8175312
        0.6515183 0.033122674 0.817535 0.65474576 0.033119377 0.8175383
        0.65776247 0.03311612 0.81754136 0.660603 0.033112507 0.81754416
        0.66329527 0.033107728 0.8175469 0.6658512 0.033100646 0.8175496
        0.44608444 0.03407025 0.8170339 0.4583534 0.034075547 0.81704575
        0.47055766 0.03408098 0.8170635 0.482634 0.034086462 0.8170868
        0.49452198 0.034091905 0.8171146 0.5061647 0.034097217 0.81714565
        0.5175103 0.034102324 0.81717867 0.5285122 0.034107152 0.81721234
        0.53913015 0.034111656 0.81724554 0.5493303 0.03411579 0.8172774
        0.5590857 0.034119535 0.8173072 0.568376 0.03412287 0.8173344
        0.57718736 0.03412577 0.817359 0.58551216 0.03412821 0.8173807
        0.59334874 0.034130134 0.81739974 0.6007006 0.034131467 0.81741625
        0.607576 0.034132127 0.8174303 0.61398745 0.034132045 0.8174425
        0.6199508 0.0341312 0.8174528 0.6254847 0.034129612 0.81746155
        0.6306102 0.03412739 0.81746906 0.63535 0.034124672 0.81747544
        0.63972807 0.034121647 0.817481 0.6437697 0.0341185 0.8174858
        0.64750123 0.03411539 0.81749 0.6509509 0.03411242 0.81749374
        0.65414923 0.03410961 0.817497 0.6571308 0.034106776 0.81750005
        0.6599332 0.034103375 0.81750286 0.6625918 0.03409828 0.81750554
        0.6651261 0.03409003 0.8175082 0.44608444 0.035059035 0.81699204
        0.45831692 0.03506378 0.81700385 0.470485 0.03506868 0.8170216
        0.48252574 0.035073657 0.8170448 0.49437886 0.035078626 0.81707245
        0.50598776 0.035083514 0.8171034 0.5173007 0.035088226 0.8171363
        0.52827144 0.035092704 0.81716985 0.5388598 0.03509689 0.817203
        0.54903215 0.03510075 0.8172347 0.5587617 0.03510426 0.81726444
        0.5680281 0.0351074 0.81729174 0.57681775 0.03511015 0.81731623
        0.585123 0.03511248 0.81733805 0.59294206 0.035114355 0.81735706
        0.60027844 0.035115715 0.81737363 0.6071402 0.035116497 0.81738776
        0.61353946 0.03511664 0.8174 0.6194918 0.03511613 0.81741035
        0.62501544 0.03511498 0.8174191 0.6301309 0.035113283 0.8174267
        0.63486016 0.03511115 0.8174331 0.63922656 0.035108745 0.8174386
        0.6432545 0.035106212 0.81744343 0.6469692 0.035103686 0.8174476
        0.65039736 0.035101272 0.8174513 0.65356797 0.03509898 0.8174545
        0.6565141 0.03509666 0.8174575 0.65927523 0.035093687 0.8174603
        0.66189396 0.03508859 0.817463 0.664401 0.03507936 0.8174657
        0.44608444 0.03604777 0.816949 0.45828074 0.03605188 0.8169608
        0.4704129 0.03605617 0.8169785 0.48241827 0.036060564 0.81700164
        0.49423683 0.03606499 0.8170292 0.5058122 0.036069367 0.81705993
        0.5170929 0.03607362 0.8170928 0.5280327 0.036077686 0.8171262
        0.5385918 0.0360815 0.81715924 0.5487367 0.03608504 0.81719095
        0.5584406 0.03608826 0.8172206 0.5676836 0.03609116 0.81724787
        0.5764518 0.03609371 0.8172724 0.5847378 0.036095902 0.8172942
        0.5925397 0.036097687 0.8173133 0.59986097 0.03609904 0.8173299
        0.6067095 0.036099903 0.8173441 0.613097 0.03610024 0.8173563
        0.6190389 0.036100026 0.8173667 0.6245529 0.036099296 0.81737554
        0.62965894 0.036098097 0.8173831 0.6343786 0.036096532 0.81738955
        0.63873446 0.03609473 0.8173951 0.64275 0.0360928 0.81739986
        0.64644957 0.036090862 0.81740403 0.64985824 0.036088996 0.8174077
        0.6530031 0.03608725 0.81741095 0.6559149 0.036085494 0.8174139
        0.6586323 0.036083154 0.8174166 0.6612039 0.036078468 0.81741923
        0.6636759 0.03606864 0.817422 0.44608444 0.03703646 0.81690484
        0.4582448 0.037039842 0.8169166 0.47034132 0.037043422 0.8169342
        0.4823116 0.037047144 0.81695724 0.49409592 0.037050944 0.8169847
        0.50563806 0.037054732 0.81701535 0.5168867 0.03705845 0.817048
        0.527796 0.03706203 0.81708145 0.5383261 0.03706541 0.81711435
        0.54844385 0.037068553 0.817146 0.5581226 0.037071437 0.8171757
        0.5673423 0.037074037 0.81720287 0.57608944 0.037076343 0.8172274
        0.58435655 0.037078332 0.81724924 0.59214175 0.037079994 0.8172684
        0.59944826 0.03708129 0.817285 0.60628384 0.03708219 0.8172993
        0.61266017 0.037082676 0.8173115 0.6185921 0.037082728 0.8173219
        0.624097 0.037082363 0.81733084 0.6291944 0.03708163 0.8173384
        0.63390523 0.037080605 0.81734484 0.6382516 0.037079375 0.81735045
        0.6422562 0.037078034 0.8173552 0.64594233 0.03707667 0.8173594
        0.6493338 0.037075356 0.817363 0.65245557 0.037074126 0.81736624
        0.6553355 0.03707295 0.8173691 0.6580085 0.03707138 0.8173718
        0.66052556 0.037067603 0.81737435 0.6629508 0.03705787 0.81737703
        0.44608444 0.038025085 0.81685936 0.4582091 0.03802764 0.81687117
        0.47027028 0.038030412 0.81688875 0.4822058 0.038033366 0.81691164
        0.49395612 0.03803644 0.81693906 0.5054653 0.038039554 0.81696963
        0.5166822 0.038042646 0.81700224 0.52756125 0.038045656 0.81703544
        0.53806275 0.03804852 0.81706834 0.5481537 0.038051203 0.8170999
        0.5578075 0.038053676 0.81712955 0.5670044 0.038055915 0.8171568
        0.5757308 0.038057912 0.81718135 0.58397937 0.038059656 0.81720316
        0.5917481 0.03806113 0.81722236 0.5990402 0.03806232 0.817239
        0.60586333 0.03806321 0.81725335 0.6122288 0.038063787 0.8172656
        0.61815125 0.038064048 0.81727606 0.62364763 0.038064007 0.817285
        0.6287371 0.038063694 0.8172926 0.6334401 0.03806316 0.81729907
        0.63777804 0.038062472 0.8173047 0.64177305 0.038061693 0.81730944
        0.6454475 0.038060877 0.8173136 0.64882416 0.038060084 0.81731725
        0.65192604 0.038059358 0.81732047 0.65477777 0.038058706 0.81732327
        0.6574087 0.038057916 0.81732583 0.6598647 0.03805552 0.81732833
        0.6622258 0.038047034 0.8173309 0.44608444 0.03901366 0.81681275
        0.45817366 0.03901527 0.8168245 0.47019976 0.03901713 0.8168421
        0.48210078 0.039019212 0.8168649 0.4938174 0.039021455 0.81689227
        0.5052939 0.039023798 0.8169227 0.5164795 0.03902618 0.8169552
        0.52732855 0.039028525 0.81698835 0.53780174 0.039030794 0.8170212
        0.54786617 0.03903294 0.8170527 0.5574954 0.039034933 0.8170823
        0.56666976 0.03903674 0.8171095 0.5753758 0.039038368 0.8171341
        0.58360606 0.0390398 0.81715596 0.5913587 0.03904103 0.8171752
        0.59863687 0.039042063 0.81719184 0.6054478 0.039042883 0.81720626
        0.6118029 0.039043497 0.8172186 0.6177163 0.039043907 0.8172291
        0.62320477 0.03904413 0.8172381 0.6282869 0.039044183 0.8172457
        0.6329828 0.039044093 0.8172522 0.6373134 0.039043907 0.8172578
        0.6413002 0.03904365 0.8172626 0.6449648 0.039043356 0.81726676
        0.648329 0.039043054 0.81727034 0.6514144 0.039042782 0.81727356
        0.6542427 0.03904257 0.81727636 0.6568374 0.039042395 0.81727886
        0.659231 0.03904156 0.8172812 0.6615007 0.039036147 0.8172836
        0.44608444 0.040002175 0.81676495 0.4581385 0.040002752 0.81677675
        0.47012976 0.04000361 0.8167943 0.48199654 0.040004726 0.8168171
        0.4936797 0.040006056 0.8168443 0.5051239 0.040007547 0.8168747
        0.5162783 0.040009134 0.81690705 0.52709776 0.040010754 0.8169402
        0.53754294 0.04001236 0.8169729 0.54758114 0.040013902 0.8170044
        0.5571861 0.040015347 0.817034 0.56633824 0.04001668 0.8170612
        0.5750241 0.040017884 0.8170858 0.58323646 0.040018957 0.8171077
        0.5909734 0.0400199 0.8171269 0.59823775 0.040020723 0.8171437
        0.605037 0.04002143 0.8171581 0.61138195 0.040022034 0.8171705
        0.61728674 0.040022552 0.81718105 0.62276775 0.04002299 0.81719005
        0.62784326 0.040023368 0.81719774 0.63253284 0.04002369 0.81720424
        0.63685703 0.04002396 0.81720984 0.6408368 0.040024195 0.8172146
        0.6444932 0.0400244 0.8172188 0.64784724 0.040024575 0.8172224
        0.6509193 0.04002473 0.8172256 0.65372944 0.04002487 0.8172284
        0.6562968 0.040024992 0.8172309 0.65863967 0.0400251 0.8172331
        0.6607756 0.0400252 0.8172351
        <InformationKey name="L2_NORM_RANGE" location="vtkDataArray" length="2">
          <Value index="0">
            0.93150224412
          </Value>
          <Value index="1">
            1.0701969392
          </Value>
        </InformationKey>
      </DataArray>
    </Points>
  </Piece>
  </StructuredGrid>
</VTKFile>
