<?xml version="1.0"?>
<VTKFile type="StructuredGrid" version="0.1" byte_order="LittleEndian" header_type="UInt32" compressor="vtkZLibDataCompressor">
  <StructuredGrid WholeExtent="0 30 0 40 0 0">
  <Piece Extent="0 30 0 40 0 0">
    <PointData>
      <DataArray type="Float32" Name="orthogonality" format="ascii" RangeMin="0" RangeMax="0.2107224315404892">
        0.19262534 0.1975062 0.20155932 0.20479447 0.20726459 0.20903763
        0.21017553 0.21072243 0.21069962 0.21010363 0.2089048 0.20704588
        0.20444188 0.20098408 0.1965526 0.19103926 0.18437737 0.17656577
        0.16767198 0.15780813 0.14708933 0.13559635 0.12335956 0.110368885
        0.09659998 0.08204335 0.06672591 0.05072163 0.034152206 0.017180618
        0 0.1855151 0.19006938 0.19406368 0.19755132 0.20049912
        0.20288476 0.20469388 0.20591483 0.20653266 0.2065229 0.20584558
        0.20444031 0.2022238 0.19909255 0.19493464 0.18965165 0.18318692
        0.17554775 0.16680723 0.15707994 0.14648157 0.13509311 0.12294574
        0.11003102 0.096326835 0.081825964 0.06655744 0.05059703 0.034068022
        0.017134972 7.941205e-06 0.18127327 0.18491986 0.18832387 0.19163157
        0.19470653 0.19742858 0.19969925 0.20144078 0.20259024 0.20309098
        0.20288329 0.20189634 0.20004317 0.19722185 0.19332592 0.18826528
        0.1819925 0.17452292 0.1659347 0.15634432 0.14586756 0.13458502
        0.12252839 0.1096907 0.096052006 0.08160742 0.06638816 0.05047187
        0.033983447 0.017089056 1.6050211e-05 0.17830811 0.18160738 0.18461211
        0.18763062 0.1905651 0.19330281 0.19572672 0.19772503 0.19919617
        0.20004809 0.2001928 0.19953941 0.19798876 0.19543357 0.191768
        0.186907 0.18081042 0.17350031 0.16505882 0.15560322 0.14524801
        0.13407242 0.122107826 0.10934832 0.09577595 0.08138819 0.06621851
        0.0503465 0.033898756 0.017043058 2.4232837e-05 0.17607254 0.17921144
        0.1819784 0.18476863 0.18752272 0.19015971 0.19257887 0.1946666
        0.1963049 0.1973774 0.19777054 0.19737111 0.1960634 0.19373031
        0.19026278 0.1855781 0.17964156 0.17248061 0.1641802 0.15485708
        0.14462331 0.13355559 0.12168423 0.10900397 0.09549872 0.08116832
        0.06604854 0.050221007 0.033814035 0.01699708 3.2370728e-05 0.17431477
        0.17736937 0.1799913 0.1826197 0.18521607 0.18772551 0.19007091
        0.19215268 0.19385386 0.19504751 0.19560249 0.1953861 0.19426554
        0.19211183 0.18881036 0.1842787 0.17848606 0.17146403 0.16329907
        0.15410617 0.14399363 0.13303462 0.12125763 0.108657666 0.09522032
        0.08094781 0.06587827 0.05009541 0.03372934 0.016951205 4.035696e-05
        0.17289601 0.17590223 0.1784316 0.18094663 0.18341783 0.18580635
        0.18805483 0.19008149 0.19177967 0.1930226 0.19367027 0.19357592
        0.19259179 0.190577 0.18741046 0.18300886 0.17734417 0.17045091
        0.16241585 0.15335089 0.14335932 0.13250977 0.12082822 0.10830951
        0.09494081 0.080726705 0.065707736 0.04996977 0.033644743 0.016905513
        4.8100745e-05 0.17173079 0.17470744 0.17717515 0.17960964 0.18198414
        0.18426819 0.18641806 0.18836775 0.19002387 0.19126625 0.19195332
        0.19192997 0.19103715 0.18912368 0.18606229 0.18176843 0.17621608
        0.16944169 0.16153109 0.15259178 0.14272086 0.1319814 0.12039624
        0.10795967 0.09466033 0.080505095 0.06553701 0.04984415 0.033560306
        0.016860072 5.552612e-05 0.17076235 0.17372018 0.1761453 0.17852134
        0.18082123 0.18301812 0.18507656 0.1869425 0.18853518 0.18974386
        0.19043024 0.19043614 0.18959525 0.18774873 0.18476442 0.1805569
        0.17510182 0.16843672 0.16064534 0.15182945 0.14207877 0.13144995
        0.119962 0.10760838 0.09437899 0.08028308 0.065366186 0.04971862
        0.033476096 0.016814949 6.2569736e-05 0.16995111 0.17289662 0.17529145
        0.17762408 0.1798659 0.18199086 0.18396789 0.18575104 0.18726997
        0.18842371 0.18907999 0.1890815 0.1882587 0.18644811 0.18351474
        0.17937332 0.1740012 0.16743632 0.15975912 0.15106449 0.14143363
        0.13091585 0.11952582 0.10725583 0.094096966 0.08006078 0.06519534
        0.04959325 0.03339218 0.0167702 6.917872e-05 0.16926837 0.17220572
        0.17457843 0.17687811 0.1790741 0.18113962 0.18304536 0.18475027
        0.18619177 0.18727757 0.18788251 0.18785289 0.1870193 0.18521701
        0.18231063 0.17821641 0.17291382 0.16644062 0.15887293 0.15029748
        0.14078595 0.13037953 0.119088024 0.10690228 0.09381441 0.07983829
        0.06502455 0.049468108 0.033308607 0.01672588 7.5308984e-05 0.16869265
        0.17162462 0.17398089 0.17625506 0.17841429 0.18043031 0.18227385
        0.18390636 0.18527041 0.18628073 0.18681914 0.18673721 0.18586847
        0.18405002 0.18114884 0.17708448 0.17183903 0.16544966 0.15798716
        0.14952898 0.14013627 0.12984145 0.118648954 0.10654794 0.09353148
        0.07961573 0.06485389 0.049343254 0.033225432 0.016682023 8.092375e-05
        0.16820757 0.17113611 0.17347997 0.17573398 0.17786321 0.17983754
        0.18162665 0.18319264 0.18448107 0.18541177 0.18587281 0.18572176
        0.18479729 0.18294123 0.1800257 0.17597547 0.17077596 0.16446339
        0.15710218 0.14875951 0.13948515 0.12930204 0.11820892 0.10619304
        0.09324833 0.07939319 0.064683445 0.04921874 0.0331427 0.016638672
        8.599248e-05 0.16780044 0.17072698 0.17306136 0.17529915 0.17740348
        0.17934214 0.18108314 0.18258797 0.18380329 0.18465222 0.185028
        0.18479437 0.18379676 0.18188438 0.17893717 0.17488708 0.16972359
        0.16348158 0.1562183 0.1479896 0.13883308 0.12876174 0.117768265
        0.105837815 0.09296512 0.07917079 0.06451329 0.049094625 0.03306045
        0.016595857 9.048993e-05 0.16746128 0.17038688 0.17271398 0.1749385
        0.17702173 0.17892937 0.18062733 0.18207547 0.1832202 0.18398623
        0.18427071 0.18394345 0.18285792 0.18087295 0.17787889 0.17381674
        0.1686807 0.16250399 0.15533577 0.1472197 0.13818057 0.12822096
        0.11732729 0.10548248 0.092681974 0.078948624 0.064343475 0.048970953
        0.032978717 0.016553609 9.4395495e-05 0.16718215 0.17010768 0.17242916
        0.17464264 0.17670766 0.17858781 0.18024659 0.18164162 0.18271777
        0.18340003 0.18358825 0.18315804 0.18197183 0.1799002 0.17684625
        0.17276168 0.16764598 0.16153027 0.15445481 0.14645028 0.13752809
        0.12768012 0.11688632 0.10512726 0.09239906 0.07872678 0.06417407
        0.04884777 0.03289754 0.016511949 9.769258e-05 0.1669568 0.16988295
        0.17220013 0.17440425 0.17645319 0.17830847 0.17993094 0.18127537
        0.18228427 0.18288165 0.1829691 0.18242766 0.18112968 0.17895931
        0.17583448 0.171719 0.166618 0.16056003 0.1535756 0.14568175
        0.13687612 0.12713964 0.11644564 0.10477235 0.092116505 0.07850535
        0.064005144 0.04872511 0.032816935 0.016470896 0.00010036819 0.16678022
        0.16970764 0.17202152 0.17421755 0.17625202 0.17808424 0.1796723
        0.18096767 0.18190973 0.18242055 0.18240261 0.18174231 0.18032274
        0.17804334 0.17483865 0.1706857 0.16559531 0.15959282 0.1526983
        0.14491457 0.13622512 0.1265999 0.11600556 0.104417965 0.09183445
        0.078284435 0.063836746 0.04860302 0.032736942 0.016430467 0.00010241252
        0.16664857 0.16957778 0.1718892 0.1740781 0.17609917 0.1779095
        0.17946416 0.18071099 0.18158554 0.18200724 0.18187888 0.18109232
        0.17954235 0.17714527 0.17385377 0.1696587 0.1645764 0.15862824
        0.15182309 0.14414911 0.13557555 0.12606128 0.11556637 0.1040643
        0.09155302 0.07806409 0.06366893 0.048481524 0.03265757 0.01639068
        0.00010381873 0.16655883 0.16949035 0.17179997 0.17398243 0.17599076
        0.17777973 0.17930119 0.1804989 0.18130408 0.181633 0.18138847
        0.1804682 0.17877984 0.17625809 0.17287481 0.16863497 0.1635598
        0.15766585 0.15095012 0.1433858 0.13492784 0.12552416 0.11512835
        0.10371156 0.09127235 0.07784442 0.063501745 0.04836066 0.03257884
        0.016351538 0.000104582665 0.16650885 0.16944318 0.1717515 0.17392796
        0.17592384 0.17769139 0.17917894 0.18032582 0.18105848 0.1812896
        0.18092218 0.17986055 0.17802656 0.17537472 0.17189676 0.16761148
        0.16254404 0.15670525 0.15007956 0.14262503 0.13428243 0.124988906
        0.11469178 0.103359915 0.09099255 0.07762549 0.063335225 0.04824045
        0.032500774 0.016313052 0.00010470273 0.1664972 0.16943479 0.17174223
        0.17391291 0.1758962 0.17764162 0.17909364 0.18018673 0.18084218
        0.18096898 0.18047082 0.17925985 0.17727377 0.17448808 0.17091468
        0.16658528 0.16152778 0.15574607 0.1492116 0.1418672 0.13363972
        0.12445589 0.11425691 0.10300956 0.09071373 0.07740737 0.06316943
        0.04812092 0.03242338 0.016275229 0.000104179824 0.16652311 0.16946444
        0.17177129 0.17393617 0.17590633 0.1776282 0.17904203 0.18007693
        0.18064873 0.18066297 0.18002498 0.17865638 0.1765126 0.17359117
        0.16992372 0.16555361 0.16050975 0.15478805 0.14834647 0.14111274
        0.13300017 0.123925455 0.11382401 0.10266066 0.09043602 0.077190116
        0.06300439 0.04800209 0.032346666 0.016238067 0.00010301722 0.16658658
        0.16953209 0.1718385 0.1739973 0.17595327 0.17764936 0.17902108
        0.17999169 0.18047146 0.18036298 0.1795747 0.17804003 0.17573406
        0.172677 0.16891927 0.16451387 0.15948884 0.15383098 0.14748439
        0.14036204 0.13236417 0.12339794 0.11339333 0.10231339 0.09015951
        0.07697381 0.062840134 0.047883973 0.032270636 0.016201569 0.00010122064
        0.16668823 0.1696384 0.1719444 0.17409648 0.1760366 0.1777037
        0.17902786 0.17992611 0.18030313 0.18005961 0.17910933 0.1774002
        0.17492896 0.17173868 0.16789688 0.16346367 0.15846412 0.15287471
        0.14662567 0.13961552 0.13173212 0.12287367 0.11296511 0.10196791
        0.08988431 0.0767585 0.0626767 0.04776659 0.0321953 0.01616573
        9.8798286e-05 0.16682954 0.1697848 0.1720902 0.17423452 0.17615636
        0.17778993 0.17905925 0.17987461 0.18013547 0.1797423 0.17861718
        0.17672569 0.17408803 0.17076959 0.16685249 0.16240093 0.15743479
        0.15191928 0.14577062 0.13887362 0.13110444 0.12235298 0.11253957
        0.10162436 0.08961051 0.07654423 0.06251411 0.047649946 0.032120656
        0.016130544 9.576095e-05 0.16701286 0.16997361 0.172278 0.17441295
        0.17631301 0.17790687 0.1791116 0.17983052 0.17995869 0.1793989
        0.17808527 0.17600456 0.17320186 0.16976334 0.16578239 0.16132393
        0.15640037 0.15096475 0.14491966 0.13813679 0.13048153 0.12183616
        0.11211693 0.1012829 0.08933819 0.07633107 0.06235239 0.04753405
        0.032046698 0.016096 9.212227e-05 0.16724162 0.17020822 0.17251077
        0.17463396 0.17650734 0.178053 0.17918031 0.17978546 0.17976081
        0.17901509 0.17749907 0.17522427 0.17226112 0.16871397 0.16468339
        0.1602313 0.15536053 0.15001139 0.14407319 0.13740547 0.12986377
        0.12132353 0.11169741 0.10094365 0.08906743 0.076119035 0.06219155
        0.047418896 0.031973418 0.016062086 8.789893e-05 0.16752055 0.17049322
        0.17279263 0.17490049 0.17674027 0.17822623 0.17925908 0.17972852
        0.17952694 0.17857394 0.17684238 0.17437162 0.17125663 0.16761608
        0.16355282 0.15912211 0.15431525 0.14905956 0.1432317 0.13668014
        0.12925152 0.12081536 0.1112812 0.10060673 0.08879829 0.07590818
        0.062031604 0.047304492 0.031900804 0.016028786 8.311115e-05 0.16785611
        0.17083485 0.17312898 0.1752163 0.17701268 0.17842306 0.17933895
        0.17964503 0.17923817 0.17805527 0.17609714 0.17343295 0.17017971
        0.16646501 0.16238876 0.1579959 0.15326478 0.14810975 0.14239575
        0.13596125 0.1286452 0.12031192 0.11086848 0.10027226 0.08853085
        0.07569851 0.06187256 0.04719082 0.03182884 0.015996076 7.778313e-05
        0.168257 0.17124142 0.17352684 0.17558588 0.17732482 0.17863765
        0.17940678 0.17951503 0.17887042 0.17743525 0.17524359 0.17239453
        0.16902237 0.16525704 0.16118996 0.15685268 0.15220961 0.14716257
        0.14156587 0.13524927 0.12804513 0.119813465 0.1104594 0.09994033
        0.08826515 0.07549006 0.06171441 0.047077868 0.031757504 0.015963929
        7.1943854e-05 0.16873504 0.17172405 0.17399533 0.17601433 0.17767534
        0.17885993 0.17944287 0.17931107 0.17839319 0.17668593 0.17426051
        0.17124304 0.1677778 0.16398959 0.15995607 0.155693 0.15115051
        0.14621876 0.14074269 0.13454469 0.12745164 0.11932022 0.11005412
        0.099611014 0.08800122 0.07528282 0.061557144 0.04696561 0.03168676
        0.015932312 6.562803e-05 0.16930649 0.1722977 0.174546 0.17650683
        0.17805944 0.17907248 0.17941742 0.17899534 0.17776808 0.17577538
        0.17312604 0.16996627 0.16644081 0.16266142 0.1586876 0.15451789
        0.15008853 0.14527918 0.13992685 0.13384794 0.12686507 0.11883239
        0.10965275 0.09928438 0.08773908 0.07507679 0.061400734 0.04685401
        0.031616572 0.015901184 5.8877493e-05 0.16999426 0.17298287 0.17519344
        0.17706713 0.17846514 0.17924519 0.17928526 0.17851639 0.17694797
        0.17466837 0.17181875 0.16855402 0.16500822 0.16127276 0.15738599
        0.1533289 0.14902492 0.14434475 0.13911898 0.13315946 0.12628569
        0.118350126 0.109255366 0.09896046 0.08747872 0.07487194 0.06124514
        0.04674302 0.031546887 0.015870491 5.1743173e-05 0.17083173 0.17380819
        0.17595524 0.17769375 0.17886557 0.17932597 0.17897835 0.17780538
        0.17587692 0.17332809 0.17031945 0.1669992 0.16347934 0.15982547
        0.15605351 0.15212795 0.14796108 0.14341639 0.13831972 0.13247964
        0.12571369 0.11787355 0.10886201 0.098639235 0.08722011 0.07466822
        0.061090294 0.046632577 0.031477634 0.015840165 4.428796e-05 0.1718698
        0.17481434 0.17685013 0.17837036 0.17920353 0.17922533 0.1783961
        0.17677371 0.17449227 0.17171924 0.16861334 0.16529877 0.16185626
        0.15832295 0.15469325 0.15091729 0.14689851 0.14249505 0.13752954
        0.13180871 0.12514922 0.11740267 0.10847266 0.09832064 0.08696316
        0.07446553 0.060936105 0.046522576 0.031408723 0.01581012 3.6591206e-05
        0.17319179 0.17605986 0.17788811 0.17904001 0.17936006 0.1787924
        0.17739525 0.17531396 0.17272988 0.16981249 0.16669229 0.16345447
        0.16014373 0.15676977 0.15330863 0.1496992 0.14583853 0.14158139
        0.13674878 0.13114677 0.124592185 0.11693736 0.10808713 0.09800449
        0.0867077 0.07426369 0.060782406 0.04641287 0.031340014 0.015780237
        2.8756027e-05 0.17494984 0.17762287 0.17902964 0.17953831 0.17909421
        0.17778315 0.17578526 0.17330813 0.17053287 0.1675893 0.16455615
        0.16147228 0.15834808 0.15517071 0.15190265 0.14847523 0.14478175
        0.14067547 0.13597713 0.13049337 0.1240421 0.11647713 0.10770497
        0.09769038 0.08645333 0.074062385 0.06062891 0.046303213 0.0312713
        0.015750337 2.0922396e-05 0.17747933 0.17955163 0.18002713 0.17942959
        0.1779468 0.17583606 0.17334147 0.17064604 0.16786188 0.165044
        0.16221061 0.15935913 0.15647416 0.15352815 0.15047574 0.1472446
        0.14372674 0.13977554 0.13521282 0.12984683 0.12349745 0.11602064
        0.10732502 0.097377315 0.08619925 0.07386091 0.06047504 0.046193127
        0.031202195 0.015720133 1.3292271e-05 0.18179686 0.18141122 0.17991161
        0.1777207 0.17518017 0.1725202 0.169865 0.16726063 0.16470726
        0.162184 0.15966369 0.15711893 0.15452185 0.15183923 0.14902359
        0.14600238 0.14266852 0.13887694 0.13445164 0.12920345 0.12295504
        0.11556519 0.10694501 0.0970634 0.085943855 0.07365797 0.06031973
        0.046081763 0.03113204 0.01568914 6.1764035e-06 0.19262534 0.18520555
        0.17932151 0.17472033 0.17109427 0.16814552 0.16562721 0.16335636
        0.16120684 0.15909481 0.15696463 0.15477754 0.15250245 0.15010624
        0.14754303 0.14474232 0.14159936 0.1379717 0.13368618 0.12855689
        0.122409865 0.11510702 0.10656227 0.096746795 0.0856859 0.07345267
        0.06016233 0.045968592 0.031060375 0.015656922 6.11e-14
      </DataArray>
      <DataArray type="Float32" Name="aspect_ratio" format="ascii" RangeMin="1.0018985271453857" RangeMax="12.43986988067627">
        2.9879258 2.4970245 2.1186354 1.7992929 1.5295761 1.3016357
        1.1089118 1.0571892 1.237636 1.4465855 1.6877726 1.9651544
        2.2828255 2.6448896 3.0552719 3.5174534 4.0341034 4.6065907
        5.234386 5.914377 6.6401787 7.401506 8.183737 8.967778
        9.730362 10.4449005 11.082935 11.61616 12.018813 12.270149
        12.43987 2.9646356 2.484141 2.1116805 1.7959146 1.5282778
        1.3014951 1.1093762 1.056354 1.2363352 1.4447984 1.6854635
        1.962272 2.2793043 2.6406553 3.050255 3.5116076 4.0274224
        4.599118 5.2262044 5.905586 6.6308618 7.391717 8.173494
        8.957076 9.719194 10.433274 11.070886 11.603749 12.006132
        12.257309 12.426925 2.9577663 2.479122 2.1080945 1.7936704
        1.5271282 1.3011435 1.1095506 1.0558121 1.2353492 1.443325
        1.6834539 1.9596683 2.2760384 2.636655 3.0454547 3.505965
        4.020936 4.5918326 5.2182026 5.8969636 6.6217027 7.3820715
        8.16338 8.946488 9.708128 10.421737 11.058912 11.591403
        11.993504 12.244511 12.414008 2.9560616 2.4773533 2.1065352
        1.7924976 1.5264139 1.3008672 1.1096328 1.0554335 1.2345846
        1.4421054 1.6817116 1.9573321 2.2730339 2.6329067 3.0408983
        3.500562 4.0146875 4.5847855 5.210438 5.888574 6.6127667
        7.3726363 8.1534605 8.936081 9.697223 10.410343 11.047061
        11.579157 11.980951 12.231765 12.401122 2.9564745 2.477253
        2.1062438 1.7921743 1.5261848 1.3008065 1.1097614 1.055102
        1.2339364 1.4410528 1.6801684 1.9552128 2.270253 2.6293838
        3.0365677 3.4953866 4.0086713 4.577975 5.2029114 5.88042
        6.604059 7.3634186 8.1437435 8.9258585 9.686485 10.3990965
        11.0353365 11.567014 11.968478 12.219072 12.388266 2.9579268
        2.4780853 2.1067426 1.7924588 1.5263698 1.3009865 1.1099975
        1.054747 1.2333279 1.4400935 1.6787591 1.9532543 2.2676492
        2.6260476 3.0324304 3.4904113 4.0028625 4.571379 5.1956043
        5.872485 6.595564 7.3544016 8.134214 8.915806 9.675901
        10.387984 11.023726 11.554966 11.956079 12.206431 12.375439
        2.959952 2.479477 2.1077485 1.7931696 1.526881 1.3013871
        1.1103604 1.0543317 1.2327081 1.4391716 1.6774287 1.9514066
        2.2651784 2.6228595 3.0284529 3.4856074 3.997237 4.564977
        5.1884975 5.8647504 6.587263 7.345568 8.124854 8.905908
        9.665454 10.376993 11.01222 11.543003 11.943745 12.193838
        12.362641 2.9623191 2.4812222 2.1090899 1.7941815 1.5276415
        1.3019753 1.1108475 1.0538398 1.2320467 1.4382474 1.6761341
        1.9496269 2.262801 2.6197839 3.0246046 3.480948 3.9917707
        4.5587473 5.1815715 5.857199 6.5791407 7.3369026 8.115648
        8.89615 9.655132 10.366111 11.000807 11.5311165 11.931472
        12.181289 12.349874 2.9649007 2.4832006 2.1106603 1.7954085
        1.5285921 1.3027178 1.1114478 1.0532675 1.2313267 1.4372942
        1.6748426 1.9478805 2.2604828 2.6167898 3.020857 3.4764087
        3.9864435 4.5526724 5.174811 5.849816 6.5711827 7.328392
        8.106584 8.8865185 9.644922 10.355327 10.989478 11.5193
        11.919254 12.168782 12.337134 2.967622 2.4853373 2.112391
        1.7967921 1.5296879 1.3035858 1.1121477 1.052617 1.2305402
        1.4362944 1.6735296 1.9461392 2.258195 2.6138494 3.0171862
        3.471968 3.9812365 4.5467367 5.1682014 5.842589 6.5633774
        7.320025 8.097651 8.877004 9.634815 10.344632 10.978226
        11.507548 11.907088 12.156316 12.324425 2.9704368 2.4875848
        2.114236 1.7982916 1.5308956 1.3045557 1.1129335 1.0518938
        1.2296845 1.4352373 1.6721776 1.9443808 2.255913 2.6109388
        3.0135696 3.467607 3.9761336 4.5409255 5.1617317 5.835507
        6.5557146 7.3117914 8.088839 8.867597 9.624803 10.33402
        10.967043 11.495854 11.894972 12.143887 12.311745 2.9733148
        2.4899108 2.1161652 1.7998784 1.5321908 1.3056087 1.1137935
        1.0511042 1.2287604 1.4341167 1.6707735 1.9425871 2.2536168
        2.6080372 3.0099878 3.4633086 3.9711206 4.535228 5.155391
        5.828561 6.548186 7.3036838 8.08014 8.858291 9.614878
        10.3234825 10.955926 11.484216 11.882899 12.131495 12.299093
        2.9762366 2.492294 2.1181567 1.801532 1.5335554 1.3067304
        1.1147172 1.0502545 1.22777 1.4329292 1.6693084 1.9407445
        2.2512891 2.605127 3.0064242 3.4590583 3.9661849 4.5296326
        5.1491704 5.8217425 6.5407834 7.295694 8.0715475 8.849078
        9.605034 10.313016 10.944868 11.472629 11.870871 12.11914
        12.286471 2.979188 2.494719 2.1201952 1.803238 1.534976
        1.3079094 1.1156967 1.04935 1.226716 1.4316732 1.6677758
        1.9388419 2.248916 2.6021926 3.0028644 3.4548428 3.9613159
        4.5241313 5.1430616 5.815045 6.5335007 7.2878165 8.063057
        8.839953 9.595267 10.302615 10.933867 11.461089 11.858882
        12.106817 12.273878 2.9821599 2.4971755 2.12227 1.8049858
        1.5364429 1.3091372 1.1167252 1.048396 1.2256012 1.4303479
        1.6661706 1.9368703 2.2464857 2.5992217 2.9992957 3.4506516
        3.956504 4.518715 5.1370583 5.808461 6.526332 7.2800455
        8.054661 8.830913 9.585571 10.292275 10.922918 11.4495945
        11.846932 12.094529 12.261314 2.9851456 2.4996552 2.1243742
        1.8067677 1.5379486 1.3104076 1.1177981 1.0473958 1.2244276
        1.428953 1.664489 1.9348226 2.2439885 2.596203 2.995708
        3.4464755 3.951742 4.513378 5.1311536 5.801986 6.5192714
        7.272376 8.046355 8.82195 9.575943 10.281993 10.91202
        11.438143 11.83502 12.0822735 12.248778 2.98814 2.5021534
        2.1265016 1.8085785 1.5394882 1.3117161 1.1189115 1.0463523
        1.2231971 1.4274882 1.662728 1.9326925 2.2414162 2.593128
        2.9920928 3.442307 3.947023 4.5081143 5.1253433 5.795615
        6.512315 7.264803 8.038136 8.813062 9.566379 10.271766
        10.901167 11.426732 11.823143 12.070049 12.236272 2.9911401
        2.504666 2.1286488 1.8104144 1.5410584 1.3130594 1.1200633
        1.0452673 1.2219104 1.4259524 1.6608841 1.930475 2.2387621
        2.5899894 2.9884434 3.4381404 3.9423423 4.502919 5.119622
        5.7893434 6.505457 7.257322 8.029998 8.804243 9.556873
        10.261588 10.890359 11.4153595 11.8113 12.057857 12.223794
        2.9941435 2.5071907 2.1308131 1.8122734 1.5426569 1.3144363
        1.1212523 1.0441415 1.2205673 1.4243443 1.6589546 1.9281652
        2.2360208 2.5867815 2.9847546 3.4339712 3.9376955 4.497789
        5.1139865 5.7831664 6.4986944 7.249929 8.021937 8.795492
        9.547425 10.25146 10.879592 11.404023 11.79949 12.045694
        12.211345 2.9971483 2.5097258 2.1329937 1.8141541 1.544283
        1.315846 1.1224785 1.0429748 1.219167 1.4226614 1.6569356
        1.9257588 2.2331872 2.5835004 2.9810233 3.4297967 3.9330807
        4.4927206 5.1084332 5.7770805 6.492023 7.2426205 8.013951
        8.786804 9.538031 10.241377 10.868864 11.392721 11.787711
        12.033562 12.198924 3.0001535 2.5122702 2.1351898 1.8160566
        1.5459371 1.3172891 1.1237429 1.0417658 1.2177072 1.4209008
        1.6548234 1.9232516 2.2302582 2.580143 2.9772475 3.4256155
        3.9284956 4.4877124 5.1029587 5.7710824 6.4854383 7.235392
        8.006036 8.778175 9.528686 10.231337 10.858173 11.381453
        11.775963 12.021458 12.186531 3.0031583 2.5148242 2.1374018
        1.8179818 1.5476203 1.3187677 1.1250477 1.0405121 1.2161845
        1.4190582 1.6526134 1.9206396 2.2272305 2.5767083 2.9734273
        3.421428 3.9239402 4.482762 5.097561 5.7651687 6.478937
        7.2282405 7.998187 8.769604 9.519388 10.221335 10.847518
        11.370215 11.764244 12.009382 12.174167 3.006163 2.517388
        2.1396313 1.8199317 1.5493354 1.3202846 1.1263964 1.0392102
        1.2145945 1.4171286 1.6503006 1.917919 2.2241027 2.5731964
        2.9695635 3.417235 3.9194145 4.4778686 5.0922375 5.7593365
        6.4725156 7.2211614 7.990401 8.761085 9.510136 10.211373
        10.836894 11.359008 11.752554 11.9973345 12.161831 3.0091672
        2.5199633 2.1418803 1.8219094 1.5510861 1.3218443 1.1277937
        1.0378553 1.212931 1.4151053 1.6478796 1.9150864 2.2208738
        2.569609 2.9656591 3.4130387 3.9149199 4.473032 5.086986
        5.753582 6.4661703 7.214151 7.982674 8.752615 9.500924
        10.201445 10.826302 11.347828 11.74089 11.985314 12.149523
        3.0121717 2.522552 2.1441522 1.8239193 1.5528779 1.3234531
        1.1292464 1.036441 1.2111868 1.4129812 1.6453443 1.9121387
        2.2175446 2.565949 2.9617186 3.4088435 3.910458 4.4682517
        5.081805 5.7479024 6.459897 7.2072053 7.9750023 8.744192
        9.491751 10.191548 10.815737 11.336674 11.729252 11.973321
        12.137242 3.015178 2.5251575 2.1464517 1.8259676 1.5547183
        1.3251193 1.1307627 1.034959 1.2093524 1.4107472 1.6426884
        1.9090738 2.2141168 2.5622218 2.9577472 3.4046535 3.9060316
        4.463528 5.0766926 5.7422943 6.453692 7.2003207 7.9673824
        8.735811 9.482611 10.181682 10.805198 11.325544 11.717638
        11.961353 12.12499 3.0181878 2.527784 2.1487856 1.8280625
        1.5566169 1.3268534 1.1323538 1.0333991 1.2074169 1.4083937
        1.6399059 1.9058907 2.2105944 2.5584333 2.9537523 3.4004743
        3.901643 4.4588614 5.0716457 5.7367544 6.447551 7.1934915
        7.959809 8.727468 9.473503 10.171841 10.794682 11.314437
        11.706047 11.94941 12.112766 3.0212033 2.5304382 2.1511624
        1.8302155 1.558587 1.3286699 1.1340337 1.031749 1.2053673
        1.4059101 1.6369913 1.9025898 2.2069829 2.5545928 2.949742
        3.396312 3.897296 4.454251 5.0666633 5.7312784 6.4414687
        7.1867137 7.9522777 8.719158 9.464422 10.162022 10.784186
        11.30335 11.694478 11.937492 12.10057 3.0242286 2.533128
        2.1535943 1.8324416 1.560646 1.3305874 1.1358204 1.029993
        1.2031889 1.4032854 1.6339399 1.899174 2.2032905 2.55071
        2.945726 3.392173 3.892993 4.449697 5.061742 5.7258625
        6.4354405 7.1799817 7.944783 8.710878 9.455364 10.152223
        10.773708 11.292281 11.682929 11.925598 12.0884 3.0272694
        2.535866 2.156098 1.8347615 1.5628178 1.3326303 1.1377368
        1.0281128 1.2008648 1.4005088 1.6307493 1.8956488 2.1995282
        2.546797 2.9417143 3.3880644 3.888737 4.445199 5.0568786
        5.720501 6.4294605 7.1732893 7.9373198 8.702621 9.446323
        10.142438 10.763244 11.281226 11.671398 11.913726 12.076259
        3.0303335 2.5386689 2.158697 1.8372043 1.5651344 1.3348312
        1.1398121 1.0260861 1.198377 1.3975706 1.6274204 1.8920234
        2.1957092 2.542868 2.9377177 3.3839922 3.88453 4.4407554
        5.0520687 5.7151885 6.4235215 7.1666293 7.92988 8.694381
        9.437295 10.132662 10.752789 11.270184 11.6598835 11.9018755
        12.064144 3.0334327 2.5415616 2.1614249 1.8398106 1.5676403
        1.3372337 1.142083 1.0238874 1.1957073 1.3944644 1.6239581
        1.8883111 2.19185 2.5389373 2.933747 3.3799624 3.8803735
        4.4363637 5.047307 5.7099175 6.4176164 7.1599936 7.9224567
        8.686151 9.428271 10.12289 10.742338 11.25915 11.648382
        11.890045 12.052056 3.0365853 2.5445807 2.1643314 1.8426393
        1.570398 1.3398955 1.1445955 1.0214882 1.192839 1.3911879
        1.6203732 1.88453 2.1879697 2.5350208 2.9298124 3.37598
        3.8762667 4.4320188 5.042587 5.7046795 6.411734 7.1533723
        7.9150395 8.67792 9.419246 10.113115 10.731887 11.248118
        11.63689 11.878233 12.039996 3.039819 2.5477827 2.167492
        1.8457781 1.5734965 1.3428946 1.1474061 1.0188587 1.1897596
        1.3877469 1.6166841 1.8807026 2.184089 2.5311337 2.9259229
        3.372047 3.8722072 4.4277143 5.0378976 5.699463 6.4058633
        7.146753 7.9076166 8.669679 9.410206 10.103327 10.721426
        11.237083 11.625404 11.866437 12.027963 3.04318 2.551258
        2.1710253 1.8493608 1.5770645 1.3463342 1.1505805 1.0159717
        1.1864661 1.3841579 1.6129168 1.8768559 2.1802292 2.5272896
        2.9220839 3.3681626 3.8681886 4.4234405 5.033227 5.6942525
        6.399987 7.1401186 7.9001718 8.661411 9.401138 10.0935135
        10.710945 11.226039 11.613919 11.854655 12.015957 3.0467465
        2.555161 2.17513 1.8535994 1.5812894 1.3503475 1.1541897
        1.0128098 1.1829699 1.3804504 1.6091057 1.8730191 2.1764104
        2.5234985 2.9182966 3.3643208 3.8641992 4.4191804 5.0285554
        5.6890273 6.3940845 7.1334476 7.8926835 8.653096 9.392025
        10.083658 10.700431 11.214972 11.602427 11.842882 12.003977
        3.0506644 2.5597727 2.1801558 1.8588389 1.5864406 1.3550942
        1.1582954 1.0093763 1.1793046 1.3766682 1.6052904 1.8692201
        2.172647 2.519763 2.9145539 3.3605065 3.8602183 4.41491
        5.0238547 5.6837564 6.3881226 7.1267076 7.8851204 8.644706
        9.382838 10.073736 10.689862 11.203866 11.590915 11.831113
        11.992023 3.0552516 2.5656683 2.186765 1.8656483 1.5928825
        1.3607333 1.1629215 1.0057106 1.1755296 1.3728675 1.6015103
        1.8654789 2.1689415 2.5160713 2.9108338 3.35669 3.8562088
        4.4105854 5.019078 5.678391 6.382051 7.119848 7.8774314
        8.636189 9.373532 10.063708 10.679205 11.192696 11.579366
        11.819338 11.980096 3.0614126 2.574207 2.19629 1.8749219
        1.6010172 1.3673385 1.1680036 1.0019025 1.1717281 1.3691049
        1.5977924 1.861796 2.165274 2.5123882 2.9070883 3.3528125
        3.8521044 4.4061346 5.0141463 5.672847 6.3757834 7.112781
        7.8695326 8.627467 9.364031 10.053505 10.668402 11.181415
        11.567749 11.807541 11.968196 3.0729284 2.589284 2.211334
        1.8877077 1.6109643 1.374698 1.1733128 1.0018985 1.1680048
        1.3654354 1.5941513 1.8581568 2.161608 2.5086608 2.9032514
        3.3487978 3.8478186 4.401462 5.0089583 5.6670184 6.3692107
        7.105397 7.861314 8.618432 9.354238 10.043039 10.657376
        11.169964 11.556023 11.795701 11.956321 3.11185 2.6180875
        2.2322366 1.9023902 1.6211348 1.3817462 1.1782446 1.0053977
        1.1645786 1.362018 1.5907114 1.8546675 2.1580434 2.5049887
        2.8994267 3.344756 3.8434696 4.3966947 5.003649 5.6610475
        6.362481 7.0978475 7.8529267 8.609233 9.34429 10.032436
        10.646236 11.158427 11.544246 11.783849 11.944473
      </DataArray>
      <DataArray type="Float32" Name="jacobian" format="ascii" RangeMin="0.0011352027067914605" RangeMax="0.043121859431266785">
        0.0011822853 0.0014057799 0.0016482667 0.0019326586 0.0022658412 0.0026556905
        0.0031111732 0.0036424254 0.0042608036 0.0049788775 0.005810353 0.006769876
        0.007872676 0.00913399 0.010568209 0.012187679 0.014001174 0.016012063
        0.01821629 0.020600308 0.023139102 0.025794487 0.028513944 0.031230379
        0.033863287 0.036321722 0.038509235 0.040330652 0.041700017 0.042548776
        0.04312186 0.0011932357 0.0014170301 0.001659562 0.0019437106 0.0022764374
        0.002665676 0.0031204247 0.0036508278 0.0042682257 0.0049851537 0.0058152652
        0.0067731384 0.007873932 0.009132828 0.010564199 0.012180449 0.01399049
        0.015997874 0.018198721 0.020579588 0.02311546 0.025768075 0.028484823
        0.031198552 0.033828773 0.036284607 0.038469724 0.040289085 0.04165685
        0.042504575 0.043076985 0.0011969701 0.0014227972 0.0016670946 0.0019524583
        0.002285853 0.0026752767 0.003129812 0.0036596763 0.004276256 0.0049921
        0.005820845 0.0067770295 0.00787576 0.009132176 0.010560646 0.012173633
        0.013980181 0.015984023 0.018181449 0.020559112 0.023092002 0.025741788
        0.028455773 0.03116676 0.033794265 0.036247488 0.038430218 0.040247537
        0.04161373 0.04246045 0.043032214 0.0011983204 0.0014256225 0.0016714775
        0.0019582973 0.0022928743 0.002683093 0.0031379913 0.0036677902 0.004283902
        0.004998898 0.005826421 0.0067809937 0.0078776935 0.0091316365 0.010557201
        0.012166919 0.013969966 0.01597025 0.018164225 0.020538637 0.023068488
        0.025715388 0.028426565 0.031134777 0.033759557 0.036210183 0.038390554
        0.04020588 0.041570567 0.04241635 0.042987544 0.0011986431 0.0014269477
        0.0016739642 0.0019620557 0.0022978648 0.00268912 0.0031447303 0.003674838
        0.004290819 0.005005237 0.005831732 0.006784819 0.007879564 0.009131076
        0.0105537595 0.012160225 0.013959781 0.015956508 0.01814701 0.020518135
        0.023044895 0.025688855 0.028397176 0.031102583 0.033724632 0.036172677
        0.038350724 0.040164106 0.04152735 0.042372275 0.04294298 0.0011984353
        0.0014274141 0.0016752634 0.0019643656 0.0023012727 0.002693582 0.0031500584
        0.0036807153 0.0042968364 0.00501093 0.0058366065 0.0067883665 0.007881266
        0.009130422 0.010550277 0.01215353 0.013949625 0.015942806 0.018129833
        0.020497644 0.023021271 0.025662242 0.028367661 0.031070232 0.03368954
        0.036135007 0.03831076 0.04012225 0.041484103 0.04232824 0.042898513
        0.0011979195 0.0014273473 0.001675784 0.0019656573 0.002303477 0.0026967498
        0.003154114 0.0036854418 0.0043018903 0.0050158706 0.005840929 0.0067915297
        0.007882715 0.009129614 0.010546718 0.0121468175 0.013939503 0.015929174
        0.018112734 0.020477215 0.022997672 0.025635606 0.028338082 0.031037787
        0.033654336 0.036097232 0.038270704 0.04008033 0.041440852 0.042284247
        0.042854153 0.00119721 0.0014269294 0.0016757726 0.0019662194 0.0023047673
        0.0026988694 0.0031570662 0.0036890993 0.0043059858 0.0050200108 0.0058446247
        0.006794229 0.007883841 0.009128598 0.010543046 0.012140076 0.013929416
        0.015915625 0.018095741 0.020456886 0.022974145 0.025609 0.02830849
        0.031005295 0.033619065 0.036059387 0.0382306 0.040038392 0.04139761
        0.04224031 0.042809892 0.001196372 0.0014262696 0.0016753848 0.0019662473
        0.002305359 0.0027001472 0.0031590818 0.0036917953 0.004309167 0.005023343
        0.0058476515 0.0067964084 0.007884586 0.009127326 0.010539227 0.012133285
        0.013919365 0.015902173 0.01807888 0.020436691 0.022950727 0.025582466
        0.02827893 0.030972801 0.033583775 0.036021516 0.038190473 0.039996453
        0.041354395 0.04219644 0.042765737 0.001195445 0.0014254375 0.0016747233
        0.0019658755 0.002305411 0.0027007477 0.0031603102 0.0036936428 0.0043115006
        0.0050258865 0.0058499933 0.0067980294 0.007884905 0.009125756 0.010535231
        0.012126427 0.013909343 0.015888825 0.018062167 0.020416657 0.022927454
        0.02555604 0.028249439 0.03094034 0.033548493 0.03598365 0.038150355
        0.039954532 0.041311227 0.042152643 0.042721678 0.0011944546 0.0014244792
        0.0016738578 0.0019651996 0.0023050408 0.0027008012 0.003160878 0.0036947487
        0.0043130596 0.0050276774 0.005851652 0.0067990697 0.007884764 0.0091238525
        0.010531029 0.012119483 0.013899342 0.015875584 0.018045614 0.0203968
        0.022904348 0.025529752 0.028220044 0.030907946 0.03351325 0.035945803
        0.03811026 0.039912645 0.04126811 0.042108923 0.042677723 0.0011934179
        0.0014234262 0.0016728368 0.0019642878 0.002304336 0.0027004099 0.0031608923
        0.0036952104 0.00431392 0.0050287615 0.005852643 0.0067995214 0.00788414
        0.0091215875 0.010526594 0.012112436 0.0138893565 0.015862452 0.018029232
        0.020377139 0.022881426 0.025503622 0.028190773 0.030875636 0.033478074
        0.03590801 0.03807021 0.039870813 0.041225057 0.042065285 0.04263387
        0.0011923467 0.0014223008 0.0016716955 0.0019631907 0.0023033633 0.002699654
        0.0031604404 0.003695113 0.004314153 0.0050291875 0.00585299 0.0067993845
        0.007883018 0.00911894 0.0105219055 0.01210527 0.013879377 0.015849428
        0.018013025 0.020357683 0.02285871 0.025477668 0.028161643 0.030843437
        0.033442978 0.03587028 0.038030222 0.03982904 0.04118208 0.042021733
        0.042590115 0.0011912494 0.0014211193 0.0016704595 0.0019619458 0.0023021733
        0.0026985973 0.0031595943 0.0036945299 0.004313824 0.005029006 0.005852722
        0.006798668 0.007881391 0.009115894 0.010516949 0.012097973 0.013869398
        0.015836513 0.017996999 0.020338442 0.022836206 0.025451906 0.028132673
        0.030811364 0.033407982 0.035832636 0.037990306 0.039787345 0.041139178
        0.04197827 0.042546462 0.0011901318 0.0014198933 0.0016691479 0.0019605812
        0.0023008054 0.0026972892 0.0031584126 0.0036935236 0.004312993 0.005028264
        0.00585187 0.0067973854 0.007879258 0.009112442 0.010511712 0.012090538
        0.0138594145 0.015823705 0.017981157 0.020319423 0.022813931 0.02542635
        0.028103875 0.03077943 0.0333731 0.035795085 0.03795048 0.03974573
        0.041096363 0.0419349 0.04250291 0.0011889986 0.001418632 0.001667775
        0.0019591188 0.0022992897 0.0026957698 0.0031569437 0.0036921466 0.0043117106
        0.0050270064 0.0058504664 0.0067955544 0.007876625 0.00910858 0.01050619
        0.012082956 0.013849423 0.015811004 0.017965503 0.020300632 0.022791887
        0.02540101 0.028075263 0.03074765 0.03333834 0.03575764 0.03791074
        0.039704207 0.04105364 0.041891627 0.042459458 0.001187853 0.0014173418
        0.0016663518 0.001957575 0.00229765 0.0026940703 0.003155226 0.0036904432
        0.004310022 0.005025273 0.0058485423 0.006793195 0.007873501 0.00910431
        0.010500381 0.012075229 0.013839425 0.015798414 0.01795004 0.020282075
        0.022770084 0.025375893 0.028046846 0.030716034 0.03330372 0.03572031
        0.03787111 0.03966278 0.041011013 0.041848447 0.042416103 0.0011866975
        0.0014160279 0.0016648868 0.0019559632 0.0022959053 0.0026922163 0.003153291
        0.0036884495 0.004307966 0.005023101 0.005846127 0.006790327 0.007869897
        0.009099638 0.010494288 0.012067357 0.01382942 0.015785933 0.01793477
        0.020263752 0.022748526 0.025351007 0.028018631 0.03068459 0.033269245
        0.03568311 0.037831593 0.039621454 0.04096848 0.04180537 0.04237285
        0.0011855339 0.001414694 0.0016633865 0.0019542929 0.0022940699 0.0026902272
        0.0031511644 0.0036861955 0.004305574 0.00502052 0.0058432478 0.0067869727
        0.007865831 0.009094577 0.010487922 0.012059349 0.013819415 0.015773568
        0.017919695 0.02024567 0.02272722 0.025326354 0.027990626 0.030653326
        0.033234924 0.035646044 0.03779219 0.03958024 0.040926058 0.041762393
        0.042329695 0.0011843636 0.0014133431 0.0016618556 0.0019525723 0.0022921548
        0.002688119 0.003148866 0.0036837053 0.0043028733 0.0050175586 0.0058399304
        0.006783155 0.007861321 0.009089143 0.010481293 0.012051214 0.013809418
        0.015761323 0.01790482 0.02022783 0.022706164 0.025301946 0.02796284
        0.030622251 0.033200767 0.035609115 0.037752915 0.03953914 0.04088374
        0.041719515 0.04228664 0.0011831875 0.0014119772 0.0016602979 0.0019508068
        0.002290169 0.0026859033 0.0031464114 0.0036809975 0.004299885 0.0050142384
        0.005836197 0.006778895 0.007856388 0.009083356 0.010474422 0.0120429685
        0.01379944 0.015749205 0.017890148 0.020210236 0.022685366 0.02527778
        0.027935272 0.03059137 0.033166777 0.03557233 0.03771377 0.039498158
        0.040841527 0.041676745 0.04224368 0.0011820059 0.0014105978 0.0016587159
        0.0019490008 0.0022881187 0.002683589 0.003143812 0.0036780867 0.0042966255
        0.005010579 0.0058320696 0.006774216 0.007851057 0.009077241 0.010467332
        0.01203463 0.013789494 0.015737223 0.017875684 0.02019289 0.022664826
        0.025253866 0.027907932 0.03056069 0.033132963 0.035535708 0.037674762
        0.039457295 0.04079943 0.04163408 0.04220082 0.0011808194 0.0014092056
        0.0016571112 0.0019471569 0.0022860079 0.0026811818 0.0031410758 0.0036749826
        0.0042931074 0.0050065946 0.005827566 0.0067691416 0.007845355 0.009070826
        0.010460049 0.012026222 0.013779595 0.015725385 0.017861435 0.020175794
        0.02264455 0.025230203 0.027880823 0.030530216 0.03309933 0.035499237
        0.037635893 0.039416563 0.04075745 0.041591518 0.04215806 0.0011796276
        0.0014078009 0.0016554848 0.0019452766 0.002283839 0.0026786851 0.003138207
        0.003671691 0.0042893393 0.005002299 0.005822705 0.0067636976 0.007839316
        0.009064147 0.010452607 0.0120177725 0.0137697635 0.015713705 0.017847408
        0.020158954 0.022624537 0.025206793 0.027853949 0.030499952 0.03306588
        0.03546294 0.037597176 0.039375965 0.040715586 0.041549064 0.042115394
        0.0011784304 0.0014063835 0.0016538362 0.0019433601 0.002281612 0.0026760995
        0.0031352066 0.0036682144 0.0042853253 0.004997701 0.005817505 0.0067579118
        0.007832973 0.009057243 0.0104450425 0.012009309 0.01376002 0.015702195
        0.017833605 0.020142373 0.022604791 0.025183644 0.027827317 0.030469906
        0.03303263 0.035426807 0.037558608 0.0393355 0.04067385 0.04150672
        0.042072825 0.0011772269 0.001404952 0.0016521644 0.0019414057 0.0022793256
        0.0026734225 0.003132072 0.0036645506 0.0042810673 0.004992809 0.0058119856
        0.006751816 0.007826371 0.009050162 0.010437398 0.012000867 0.013750388
        0.01569087 0.017820038 0.020126054 0.022585316 0.02516076 0.027800929
        0.03044008 0.03299958 0.035390858 0.0375202 0.039295178 0.04063223
        0.041464485 0.042030353 0.001176016 0.0014035051 0.0016504673 0.0019394106
        0.0022769752 0.0026706487 0.003128797 0.0036606942 0.0042765643 0.004987633
        0.0058061685 0.006745447 0.007819555 0.009042951 0.01042972 0.0119924825
        0.013740894 0.015679745 0.017806716 0.020110004 0.022566117 0.02513814
        0.02777479 0.030410487 0.032966733 0.03535509 0.03748196 0.039255
        0.04059074 0.04142236 0.04198798 0.0011747959 0.0014020399 0.001648741
        0.0019373697 0.0022745542 0.0026677693 0.0031253714 0.003656637 0.0042718137
        0.004982182 0.005800082 0.00673885 0.007812583 0.00903567 0.010422061
        0.0119841965 0.013731566 0.01566884 0.017793648 0.020094229 0.022547197
        0.025115794 0.027748909 0.030381128 0.0329341 0.03531952 0.037443887
        0.039214972 0.040549386 0.04138035 0.0419457 0.0011735643 0.0014005525
        0.0016469803 0.0019352754 0.002272052 0.002664771 0.0031217807 0.003652366
        0.0042668134 0.0049764705 0.00579376 0.0067320783 0.0078055174 0.009028384
        0.010414475 0.011976051 0.013722433 0.015658168 0.017780846 0.020078737
        0.022528565 0.025093729 0.027723294 0.030352017 0.032901693 0.03528415
        0.037405998 0.039175108 0.040508166 0.041338455 0.04190352 0.0011723177
        0.0013990373 0.0016451771 0.0019331167 0.002269454 0.0026616356 0.0031180056
        0.0036478688 0.0042615635 0.0049705207 0.005787251 0.0067251986 0.0077984342
        0.009021163 0.010407022 0.011968092 0.013713527 0.015647756 0.017768325
        0.020063538 0.022510227 0.02507195 0.027697954 0.03032316 0.032869525
        0.03524899 0.037368298 0.039135404 0.040467087 0.04129668 0.04186143
        0.0011710511 0.0013974862 0.0016433204 0.0019308781 0.0022667397 0.0026583388
        0.0031140232 0.0036431307 0.0042560706 0.0049643675 0.0057806154 0.00671829
        0.007791417 0.009014084 0.010399766 0.011960366 0.013704879 0.015637625
        0.0177561 0.020048644 0.022492196 0.025050474 0.027672902 0.030294577
        0.032837603 0.035214063 0.0373308 0.03909588 0.040426157 0.041255023
        0.041819435 0.0011697577 0.0013958878 0.001641394 0.0019285375 0.0022638808
        0.0026548496 0.0031098067 0.0036381423 0.004250353 0.004958064 0.005773936
        0.00671145 0.0077845617 0.009007232 0.010392774 0.011952924 0.013696528
        0.0156278 0.017744191 0.020034071 0.022474488 0.025029315 0.027648153
        0.03026628 0.03280595 0.035179373 0.037293516 0.03905654 0.04038538
        0.04121349 0.041777536 0.001168427 0.0013942249 0.001639374 0.0019260631
        0.002260839 0.0026511287 0.003105329 0.0036329045 0.004244453 0.00495169
        0.0057673194 0.006704793 0.0077779754 0.009000695 0.010386114 0.011945817
        0.013688512 0.01561831 0.01773262 0.020019842 0.022457123 0.025008492
        0.027623734 0.030238293 0.032774583 0.035144947 0.037256468 0.039017398
        0.04034477 0.041172087 0.041735727 0.0011670438 0.001392472 0.0016372253
        0.0019234099 0.0022575634 0.0026471314 0.0031005705 0.0036274414 0.0042384444
        0.0049453625 0.005760902 0.0066984533 0.0077717756 0.00899457 0.010379863
        0.011939104 0.013680876 0.015609194 0.017721422 0.020005984 0.022440128
        0.024988038 0.02759967 0.030210648 0.032743536 0.035110813 0.037219673
        0.038978476 0.040304337 0.04113082 0.041694015 0.0011655836 0.001390589
        0.0016348944 0.0019205125 0.0022539883 0.0026428136 0.0030955344 0.00362182
        0.0042324546 0.0049392446 0.0057548545 0.0066925855 0.0077660894 0.008988956
        0.010374098 0.011932847 0.013673672 0.015600496 0.017710635 0.019992542
        0.02242355 0.024967995 0.027576009 0.030183386 0.032712847 0.035077006
        0.03718317 0.0389398 0.0402641 0.041089695 0.041652396 0.001164006
        0.0013885106 0.001632297 0.0019172779 0.0022500362 0.0026381493 0.003090276
        0.00361618 0.0042266827 0.0049335565 0.0057493825 0.0066873627 0.0077610556
        0.008983963 0.010368908 0.011927121 0.013666968 0.015592279 0.017700326
        0.019979572 0.022407446 0.024948424 0.02755281 0.03015657 0.03268258
        0.035043582 0.037147 0.038901404 0.040224083 0.041048728 0.04161087
        0.0011622376 0.0013861236 0.0016292986 0.0019135806 0.0022456413 0.0026331788
        0.0030849564 0.0036107781 0.0042214263 0.004928583 0.005744728 0.0066829775
        0.0077568255 0.008979715 0.0103644 0.011922026 0.013660857 0.015584636
        0.017690582 0.019967172 0.022391915 0.024929425 0.027530173 0.030130295
        0.032652818 0.035010617 0.037111234 0.038863342 0.04018432 0.041007936
        0.041569434 0.0011601265 0.0013832183 0.001625687 0.0019092849 0.0022408227
        0.0026281083 0.0030799326 0.0036060386 0.0042170966 0.0049246745 0.005741169
        0.00667965 0.00775358 0.00897637 0.010360723 0.011917706 0.013655487
        0.015577719 0.017681563 0.019955503 0.02237712 0.024911162 0.027508263
        0.030104721 0.032623712 0.03497825 0.037075985 0.038825706 0.04014488
        0.04096735 0.04152809 0.0011572593 0.0013793845 0.0016211787 0.0019043786
        0.00223589 0.0026234966 0.0030758693 0.0036025988 0.0042142277 0.00492225
        0.005739033 0.006677647 0.0077515556 0.008974155 0.010358107 0.011914401
        0.013651109 0.015571788 0.017673539 0.019944843 0.022363348 0.024893925
        0.027487364 0.030080123 0.032595523 0.03494671 0.037041456 0.03878865
        0.040105868 0.040927023 0.041486837 0.0011519989 0.0013739058 0.0016156945
        0.001899451 0.0022318657 0.0026204833 0.0030737857 0.0036012556 0.004213403
        0.0049217343 0.005738652 0.006677255 0.0077510253 0.00897335 0.0103568435
        0.011912419 0.013648049 0.015567187 0.01766687 0.019935567 0.02235098
        0.024878098 0.027467854 0.030056862 0.03256859 0.0349163 0.037007898
        0.03875238 0.04006742 0.040887028 0.041445676 0.0011352027 0.0013622041
        0.001608135 0.001895077 0.002229785 0.0026199499 0.0030742234 0.0036022435
        0.004214643 0.004923021 0.005739842 0.006678246 0.007751728 0.00897366
        0.010356608 0.011911402 0.013645911 0.015563485 0.01766109 0.019927172
        0.022339491 0.02486314 0.027449198 0.030034423 0.03254242 0.034886587
        0.03697494 0.0387166 0.04002934 0.040847264 0.041404605
      </DataArray>
    </PointData>
    <CellData>
    </CellData>
    <Points>
      <DataArray type="Float32" Name="Points" NumberOfComponents="3" format="ascii" RangeMin="1.1961527089985646" RangeMax="1.3784466071505594">
        0.8714548 0.035134107 0.8186046 0.8720563 0.03513403 0.8186028
        0.8727638 0.035133936 0.81860065 0.8735957 0.035133824 0.81859803
        0.8745733 0.03513369 0.8185949 0.8757213 0.035133526 0.8185911
        0.8770683 0.03513333 0.81858647 0.8786474 0.03513309 0.81858087
        0.8804965 0.035132796 0.8185741 0.88265914 0.03513244 0.81856585
        0.88518465 0.035132017 0.81855595 0.88812876 0.03513151 0.8185441
        0.89155394 0.035130914 0.81853026 0.89552945 0.035130233 0.8185143
        0.90013105 0.035129465 0.81849647 0.9054406 0.035128627 0.8184769
        0.9115447 0.035127714 0.81845564 0.9185328 0.035126735 0.8184328
        0.92649466 0.0351257 0.8184087 0.9355166 0.03512462 0.8183835
        0.9456766 0.035123497 0.8183574 0.9570388 0.035122335 0.81833035
        0.9696469 0.03512112 0.818302 0.98351705 0.035119798 0.8182712
        0.9986314 0.035118297 0.8182363 1.0149318 0.035116497 0.8181943
        1.0323163 0.035114236 0.81814164 1.0506377 0.035111308 0.8180734
        1.0697062 0.035107482 0.8179843 1.0892948 0.035102528 0.8178688
        1.1091502 0.03509622 0.8177219 0.8716915 0.036338948 0.81855124
        0.87229705 0.036335126 0.81854963 0.8730082 0.03633181 0.81854755
        0.87384313 0.03632897 0.8185451 0.87482315 0.036326583 0.818542
        0.875973 0.036324613 0.81853825 0.8773213 0.036323044 0.8185336
        0.8789011 0.036321837 0.81852806 0.88075036 0.036320973 0.81852126
        0.8829124 0.03632043 0.818513 0.88543665 0.03632018 0.8185031
        0.88837874 0.036320202 0.8184912 0.89180106 0.036320467 0.81847733
        0.8957726 0.036320932 0.81846136 0.90036905 0.036321566 0.81844354
        0.9056721 0.036322303 0.8184239 0.9117682 0.036323063 0.81840265
        0.91874695 0.036323752 0.8183799 0.926698 0.036324304 0.81835574
        0.935708 0.036324635 0.8183306 0.94585496 0.036324725 0.81830454
        0.95720315 0.036324542 0.81827754 0.9697963 0.036324088 0.8182491
        0.9836506 0.03632333 0.81821835 0.9987482 0.036322225 0.8181834
        1.0150309 0.036320668 0.81814146 1.0323968 0.036318522 0.81808877
        1.0506989 0.036315583 0.8180206 1.0697473 0.036311634 0.81793153
        1.0893155 0.03630644 0.81781614 1.1091502 0.0362998 0.8176694
        0.8719283 0.037543707 0.81849617 0.8725353 0.037537474 0.8184946
        0.8732482 0.037531722 0.81849265 0.87408525 0.03752656 0.81849027
        0.87506735 0.037522063 0.8184872 0.87621903 0.03751827 0.8184836
        0.8775689 0.0375152 0.818479 0.87914973 0.037512857 0.8184734
        0.8809995 0.037511226 0.81846666 0.88316154 0.037510287 0.8184584
        0.885685 0.03751001 0.8184484 0.8886255 0.03751036 0.8184365
        0.89204526 0.037511297 0.8184226 0.8960132 0.037512742 0.81840664
        0.90060484 0.03751461 0.8183888 0.9059016 0.03751677 0.8183692
        0.91199005 0.03751906 0.818348 0.9189596 0.0375213 0.81832516
        0.9269002 0.03752331 0.8183011 0.9358984 0.037524965 0.81827587
        0.94603246 0.037526175 0.8182498 0.95736676 0.037526906 0.8182228
        0.96994513 0.037527155 0.8181945 0.9837837 0.037526917 0.81816375
        0.9988646 0.037526164 0.8181288 1.0151297 0.037524827 0.81808686
        1.0324771 0.037522767 0.8180341 1.0507599 0.037519805 0.817966
        1.0697883 0.03751572 0.81787694 1.0893362 0.03751028 0.81776166
        1.1091502 0.03750329 0.81761503 0.872165 0.03874838 0.81843936
        0.8727725 0.038740415 0.8184378 0.87348634 0.0387328 0.818436
        0.8743245 0.03872574 0.81843364 0.875308 0.038719397 0.81843066
        0.87646115 0.038713906 0.818427 0.8778124 0.038709354 0.81842256
        0.87939435 0.038705807 0.818417 0.8812449 0.038703293 0.8184102
        0.88340706 0.038701814 0.81840193 0.88593006 0.03870136 0.818392
        0.8888693 0.038701877 0.81838006 0.89228684 0.038703322 0.8183661
        0.89625144 0.038705587 0.81835014 0.90083843 0.03870854 0.8183323
        0.9061293 0.038711984 0.81831276 0.9122103 0.03871567 0.8182915
        0.9191709 0.038719326 0.8182687 0.9271012 0.038722698 0.81824464
        0.9360878 0.038725577 0.8182195 0.94620913 0.038727827 0.81819344
        0.9575297 0.038729403 0.8181665 0.9700934 0.0387303 0.81813806
        0.9839164 0.03873054 0.81810737 0.99898064 0.03873011 0.81807244
        1.0152282 0.03872896 0.8180305 1.0325572 0.038726967 0.8179777
        1.0508207 0.038723968 0.8179096 1.0698293 0.038719732 0.8178206
        1.0893568 0.038714036 0.8177054 1.1091502 0.0387067 0.817559
        0.8724018 0.039952975 0.8183807 0.87300926 0.03994368 0.8183793
        0.8737234 0.039934598 0.8183775 0.8745621 0.03992599 0.8183752
        0.8755464 0.03991807 0.8183723 0.8767006 0.039911047 0.81836873
        0.8780529 0.03990511 0.81836426 0.8796359 0.03990037 0.8183587
        0.8814871 0.039896928 0.8183519 0.8836495 0.03989482 0.8183437
        0.88617224 0.039894067 0.8183337 0.8891104 0.039894633 0.8183218
        0.89252585 0.039896447 0.8183078 0.89648736 0.039899398 0.8182919
        0.90107006 0.039903298 0.8182741 0.90635514 0.03990789 0.8182545
        0.91242886 0.039912846 0.81823325 0.9193808 0.03991781 0.8182104
        0.92730093 0.039922435 0.8181864 0.93627614 0.03992644 0.81816125
        0.94638497 0.039929654 0.8181352 0.957692 0.039932005 0.81810826
        0.9702411 0.039933503 0.8180799 0.9840486 0.039934177 0.8180492
        0.99909633 0.03993404 0.81801426 1.0153265 0.039933052 0.8179723
        1.0326371 0.039931115 0.8179196 1.0508815 0.039928056 0.8178514
        1.0698701 0.039923664 0.8177625 1.0893773 0.039917715 0.8176474
        1.1091502 0.039910033 0.8175011 0.8726385 0.041157473 0.8183203
        0.8732458 0.04114713 0.8183189 0.87395984 0.04113688 0.8183171
        0.8747987 0.041126985 0.8183149 0.8757834 0.041117724 0.8183121
        0.87693816 0.04110937 0.81830853 0.8782912 0.041102156 0.8183041
        0.8798749 0.041096285 0.81829864 0.8817266 0.041091908 0.8182919
        0.8838894 0.041089132 0.8182837 0.8864118 0.041088 0.81827366
        0.889349 0.041088507 0.81826174 0.8927626 0.04109059 0.8182478
        0.8967212 0.041094102 0.8182319 0.90129966 0.041098826 0.818214
        0.9065792 0.041104447 0.81819445 0.9126459 0.041110557 0.8181732
        0.9195892 0.041116707 0.8181504 0.9274995 0.04112248 0.8181264
        0.9364635 0.041127525 0.8181013 0.94655997 0.04113163 0.81807524
        0.9578536 0.0411347 0.8180483 0.97038835 0.041136745 0.81802
        0.9841804 0.041137815 0.81798923 0.9992117 0.041137937 0.8179543
        1.0154245 0.04113709 0.81791234 1.0327168 0.04113519 0.81785965
        1.050942 0.041132066 0.8177915 1.0699109 0.04112751 0.81770265
        1.0893978 0.041121304 0.8175876 1.1091502 0.041113276 0.81744146
        0.8728753 0.04236189 0.8182581 0.87348217 0.04235069 0.8182568
        0.874196 0.042339478 0.81825507 0.87503475 0.042328525 0.8182529
        0.8760195 0.042318128 0.8182501 0.87717444 0.042308606 0.8182466
        0.8785278 0.042300243 0.81824225 0.88011193 0.042293318 0.81823677
        0.88196415 0.042288043 0.81823003 0.88412696 0.042284578 0.8182218
        0.8866491 0.04228303 0.81821185 0.8895854 0.042283405 0.81819993
        0.89299726 0.04228565 0.8181859 0.896953 0.042289626 0.81817
        0.9015274 0.04229507 0.81815225 0.90680146 0.042301606 0.8181327
        0.9128613 0.04230875 0.8181114 0.91979635 0.042315993 0.81808865
        0.9276968 0.042322814 0.81806463 0.9366498 0.042328812 0.8180395
        0.94673413 0.04233373 0.8180135 0.95801455 0.042337455 0.81798655
        0.9705349 0.042340007 0.8179583 0.9843117 0.042341433 0.81792754
        0.9993267 0.042341787 0.8178926 1.0155221 0.042341065 0.81785065
        1.0327963 0.042339183 0.81779796 1.0510024 0.042335983 0.81772983
        1.0699515 0.042331263 0.81764096 1.0894182 0.042324796 0.81752604
        1.1091502 0.042316433 0.8173801 0.87311196 0.0435662 0.8181941
        0.8737185 0.04355431 0.81819284 0.8744319 0.043542307 0.8181912
        0.8752703 0.04353046 0.818189 0.87625486 0.043519102 0.81818634
        0.8774098 0.043508563 0.8181829 0.87876326 0.043499187 0.81817853
        0.88034755 0.043491293 0.8181731 0.8821999 0.043485172 0.8181664
        0.8843627 0.043481033 0.81815815 0.88688445 0.04347903 0.8181482
        0.88981974 0.043479223 0.8181363 0.8932299 0.04348157 0.8181224
        0.89718294 0.043485917 0.8181064 0.90175337 0.043491982 0.8180886
        0.9070221 0.043499332 0.81806904 0.9130752 0.04350742 0.8180478
        0.92000204 0.043515638 0.81802505 0.927893 0.043523412 0.81800103
        0.9368351 0.04353028 0.81797594 0.9469074 0.04353594 0.81795
        0.9581747 0.04354026 0.817923 0.970681 0.043543268 0.8178948
        0.98444253 0.04354502 0.81786406 0.9994414 0.043545578 0.8178291
        1.0156195 0.04354496 0.8177871 1.0328754 0.043543085 0.8177344
        1.0510626 0.043539807 0.81766635 1.0699921 0.043534912 0.81757754
        1.0894386 0.04352819 0.81746274 1.1091502 0.043519493 0.8173169
        0.8733487 0.04477042 0.81812835 0.8739548 0.04475795 0.81812716
        0.87466764 0.044745285 0.8181255 0.8755057 0.044732694 0.8181234
        0.8764898 0.044720516 0.8181207 0.87764454 0.044709094 0.8181173
        0.8789978 0.044698823 0.818113 0.880582 0.04469006 0.8181076
        0.88243425 0.044683147 0.8181009 0.8845969 0.044678364 0.8180927
        0.8871181 0.04467591 0.81808275 0.8900524 0.044675883 0.8180709
        0.8934608 0.044678275 0.81805694 0.89741105 0.044682924 0.818041
        0.90197766 0.044689514 0.81802326 0.90724117 0.044697586 0.81800365
        0.9132876 0.04470651 0.81798244 0.9202064 0.044715617 0.8179597
        0.92808795 0.04472426 0.8179357 0.9370194 0.04473191 0.8179106
        0.9470799 0.04473824 0.8178847 0.9583342 0.04474311 0.8178578
        0.9708265 0.044746518 0.8178295 0.984573 0.044748556 0.8177988
        0.99955565 0.0447493 0.81776386 1.0157167 0.04474877 0.8177219
        1.0329545 0.044746894 0.8176692 1.0511227 0.044743523 0.81760114
        1.0700326 0.044738468 0.8175124 1.089459 0.044731494 0.81739765
        1.1091502 0.04472246 0.817252 0.87358546 0.045974538 0.8180608
        0.874191 0.045961592 0.8180596 0.8749033 0.045948368 0.818058
        0.8757408 0.045935147 0.818056 0.8767244 0.04592227 0.81805336
        0.87787867 0.045910094 0.81804997 0.87923163 0.045899034 0.8180457
        0.8808155 0.045889493 0.8180403 0.8826674 0.04588186 0.8180337
        0.88482964 0.04587647 0.81802547 0.88735026 0.04587357 0.8180156
        0.8902834 0.045873314 0.8180037 0.89369 0.0458757 0.81798977
        0.89763755 0.045880586 0.8179738 0.9022002 0.04588764 0.8179561
        0.9074586 0.045896336 0.81793654 0.9134985 0.045906007 0.8179153
        0.92040944 0.04591591 0.8178926 0.9282817 0.045925327 0.81786853
        0.9372027 0.045933686 0.8178435 0.9472515 0.045940615 0.81781757
        0.95849305 0.04594597 0.81779075 0.9709714 0.04594975 0.81776243
        0.98470294 0.04595204 0.8177318 0.9996696 0.045952946 0.8176968
        1.0158136 0.045952484 0.81765485 1.0330333 0.04595059 0.81760216
        1.0511826 0.045947134 0.81753415 1.0700729 0.045941904 0.81744546
        1.0894792 0.04593468 0.8173308 1.1091502 0.04592533 0.8171852
        0.8738222 0.04717856 0.8179915 0.87442714 0.047165204 0.81799036
        0.87513894 0.047151517 0.81798875 0.8759758 0.047137763 0.8179868
        0.87695885 0.04712428 0.81798416 0.8781125 0.047111463 0.8179808
        0.87946486 0.047099717 0.8179766 0.88104826 0.04708949 0.8179713
        0.8828997 0.047081206 0.8179646 0.8850613 0.047075253 0.8179565
        0.88758105 0.04707193 0.81794655 0.890513 0.04707143 0.8179347
        0.8939177 0.047073796 0.81792074 0.89786243 0.047078867 0.8179049
        0.9024213 0.047086313 0.8178871 0.90767455 0.047095563 0.81786764
        0.91370803 0.047105897 0.81784636 0.92061114 0.0471165 0.81782365
        0.9284743 0.047126602 0.8177997 0.93738496 0.04713559 0.81777465
        0.94742227 0.04714306 0.8177487 0.9586511 0.047148842 0.8177219
        0.97111577 0.047152944 0.81769365 0.98483247 0.047155462 0.81766295
        0.99978316 0.0471565 0.817628 1.0159101 0.04715609 0.81758606
        1.0331119 0.04715418 0.8175334 1.0512425 0.04715063 0.81746536
        1.0701132 0.047145233 0.8173767 1.0894995 0.047137767 0.8172621
        1.1091502 0.047128104 0.81711674 0.87405896 0.04838247 0.8179204
        0.8746633 0.04836878 0.8179193 0.8753745 0.0483547 0.81791776
        0.8762107 0.048340496 0.8179158 0.87719303 0.048326515 0.8179132
        0.878346 0.048313133 0.8179099 0.8796977 0.0483008 0.81790566
        0.8812804 0.048289966 0.8179004 0.88313115 0.048281107 0.8178938
        0.885292 0.04827464 0.81788564 0.88781077 0.048270926 0.81787574
        0.8907413 0.048270192 0.8178639 0.894144 0.0482725 0.81785
        0.8980859 0.04827773 0.81783414 0.9026408 0.0482855 0.8178164
        0.907889 0.048295233 0.8177969 0.9139161 0.04830614 0.81777567
        0.92081153 0.048317365 0.81775296 0.92866576 0.048328076 0.817729
        0.9375662 0.048337616 0.817704 0.9475922 0.04834555 0.81767815
        0.95880854 0.04835171 0.8176513 0.9712596 0.048356097 0.8176231
        0.9849615 0.048358813 0.8175924 0.9998964 0.04835996 0.81755745
        1.0160065 0.04835959 0.8175155 1.0331904 0.048357654 0.8174628
        1.0513021 0.048354004 0.8173948 1.0701534 0.04834844 0.8173062
        1.0895197 0.04834074 0.8171917 1.1091502 0.048330776 0.81704646
        0.8742957 0.049586277 0.81784755 0.8748995 0.0495723 0.8178464
        0.87561 0.049557894 0.8178449 0.87644553 0.049543317 0.817843
        0.8774271 0.049528904 0.8178404 0.8785793 0.04951505 0.8178371
        0.8799302 0.049502205 0.817833 0.8815121 0.049490847 0.8178277
        0.883362 0.04948148 0.81782115 0.8855219 0.04947456 0.817813
        0.88803947 0.049470488 0.81780314 0.89096844 0.04946953 0.8177913
        0.89436895 0.049471784 0.8177774 0.8983079 0.049477126 0.81776154
        0.902859 0.049485184 0.81774384 0.90810204 0.04949533 0.81772435
        0.9141228 0.04950674 0.81770325 0.9210107 0.049518496 0.8176805
        0.9288561 0.04952973 0.8176566 0.9377465 0.049539745 0.81763154
        0.94776124 0.04954809 0.8176057 0.9589653 0.04955457 0.8175789
        0.9714028 0.0495592 0.81755066 0.98509014 0.04956208 0.81752
        1.0000093 0.049563322 0.8174851 1.0161024 0.049562976 0.8174432
        1.0332685 0.049561 0.81739044 1.0513616 0.049557254 0.8173225
        1.0701934 0.049551528 0.8172339 1.0895399 0.049543597 0.81711954
        1.1091502 0.04953334 0.81697446 0.87453246 0.05078997 0.8177729
        0.87513566 0.050775766 0.8177718 0.8758455 0.05076108 0.81777036
        0.87668025 0.050746188 0.8177684 0.8776611 0.050731417 0.8177659
        0.87881243 0.050717168 0.8177627 0.8801624 0.050703883 0.8177585
        0.8817434 0.05069208 0.81775326 0.88359225 0.050682273 0.8177467
        0.885751 0.050674956 0.8177386 0.8882672 0.050670564 0.8177287
        0.8911945 0.050669402 0.8177169 0.89459276 0.050671596 0.81770307
        0.8985287 0.050677035 0.8176873 0.9030757 0.050685328 0.8176696
        0.9083137 0.05069582 0.8176501 0.91432816 0.050707657 0.8176289
        0.92120856 0.050719872 0.8176063 0.92904526 0.05073155 0.8175823
        0.9379258 0.050741974 0.81755733 0.9479295 0.050750658 0.8175315
        0.95912135 0.050757416 0.81750476 0.9715455 0.050762244 0.8174766
        0.9852183 0.050765257 0.81744593 1.0001218 0.050766572 0.817411
        1.0161983 0.05076624 0.81736904 1.0333465 0.050764225 0.81731635
        1.0514208 0.050760377 0.8172484 1.0702333 0.05075449 0.8171599
        1.08956 0.05074634 0.81704557 1.1091502 0.050735798 0.8169007
        0.87476915 0.05199355 0.8176965 0.87537175 0.05197915 0.81769544
        0.876081 0.051964246 0.81769395 0.876915 0.051949095 0.8176921
        0.877895 0.05193403 0.8176896 0.8790454 0.051919445 0.8176864
        0.88039446 0.0519058 0.8176822 0.88197434 0.051893618 0.81767696
        0.8838221 0.05188343 0.81767046 0.88597953 0.05187577 0.81766236
        0.88849425 0.05187111 0.8176525 0.8914196 0.05186977 0.8176407
        0.89481544 0.051871907 0.8176269 0.89874816 0.05187742 0.8176111
        0.9032911 0.05188591 0.81759346 0.908524 0.0518967 0.817574
        0.9145322 0.051908888 0.81755286 0.92140514 0.051921483 0.8175302
        0.9292333 0.05193353 0.8175064 0.93810415 0.051944282 0.8174814
        0.94809693 0.051953256 0.8174556 0.95927674 0.05196023 0.8174288
        0.9716876 0.05196523 0.81740063 0.985346 0.051968344 0.81737
        1.0002339 0.05196971 0.8173351 1.0162938 0.051969383 0.81729317
        1.0334243 0.051967315 0.8172405 1.05148 0.051963367 0.81717247
        1.0702733 0.051957328 0.8170841 1.08958 0.051948957 0.8169699
        1.1091502 0.051938143 0.81682515 0.8750059 0.05319702 0.8176183
        0.8756079 0.053182464 0.8176173 0.8763164 0.053167377 0.8176158
        0.8771497 0.053152014 0.81761396 0.8781288 0.05313671 0.81761146
        0.8792783 0.05312185 0.81760824 0.88062626 0.053107906 0.8176041
        0.882205 0.053095415 0.81759894 0.8840515 0.053084917 0.81759244
        0.8862075 0.05307698 0.81758434 0.8887205 0.053072076 0.8175745
        0.8916438 0.05307059 0.81756276 0.89503706 0.05307268 0.81754893
        0.8989665 0.053078257 0.8175332 0.9035052 0.053086914 0.81751555
        0.9087329 0.053097937 0.8174961 0.9147349 0.053110424 0.817475
        0.9216006 0.053123314 0.81745243 0.92942023 0.053135656 0.8174285
        0.9382815 0.053146675 0.8174037 0.9482635 0.053155866 0.81737787
        0.9594314 0.053163014 0.8173511 0.97182924 0.053168125 0.81732297
        0.98547333 0.053171333 0.81729233 1.0003457 0.05317273 0.8172574
        1.0163889 0.05317239 0.8172155 1.0335019 0.053170267 0.8171628
        1.0515391 0.05316622 0.81709486 1.070313 0.053160023 0.8170065
        1.0896001 0.053151455 0.8168924 1.1091502 0.05314038 0.8167478
        0.87524265 0.05440037 0.8175384 0.87584406 0.054385692 0.8175373
        0.8765519 0.054370455 0.8175359 0.87738436 0.05435493 0.817534
        0.8783626 0.05433943 0.8175316 0.8795111 0.054324355 0.81752837
        0.88085794 0.054310184 0.8175243 0.8824355 0.054297436 0.8175191
        0.88428056 0.054286692 0.81751263 0.88643503 0.054278523 0.8175046
        0.8889462 0.054273438 0.81749475 0.8918672 0.054271843 0.81748295
        0.89525765 0.0542739 0.8174692 0.89918363 0.05427952 0.8174535
        0.90371805 0.054288317 0.8174359 0.90894055 0.054299533 0.81741655
        0.91493636 0.054312233 0.8173954 0.9217947 0.05432536 0.81737286
        0.9296061 0.054337922 0.81734896 0.93845785 0.054349132 0.8173241
        0.9484293 0.054358482 0.81729835 0.9595854 0.05436576 0.81727165
        0.97197026 0.054370962 0.8172435 0.9856001 0.05437421 0.81721294
        1.0004572 0.054375626 0.817178 1.0164839 0.05437527 0.8171361
        1.0335792 0.05437309 0.8170834 1.051598 0.054368936 0.81701547
        1.0703527 0.0543626 0.81692713 1.08962 0.054353822 0.8168132
        1.1091502 0.0543425 0.8166687 0.8754794 0.055603594 0.8174566
        0.8760802 0.05558883 0.8174556 0.87678736 0.055573482 0.8174542
        0.877619 0.05555783 0.8174523 0.87859637 0.055542186 0.8174499
        0.8797438 0.05552695 0.8174467 0.8810895 0.055512592 0.81744266
        0.8826657 0.055499665 0.81743747 0.88450927 0.05548873 0.81743103
        0.886662 0.05548039 0.817423 0.8891712 0.055475168 0.81741315
        0.89208984 0.055473488 0.8174014 0.8954773 0.055475526 0.81738764
        0.89939964 0.055481203 0.81737196 0.9039297 0.05549009 0.81735444
        0.9091469 0.055501454 0.81733507 0.9151365 0.055514317 0.81731397
        0.9219877 0.055527605 0.81729144 0.9297908 0.055540316 0.8172676
        0.93863326 0.055551652 0.8172428 0.9485943 0.055561103 0.81721705
        0.95973873 0.055568457 0.8171904 0.97211075 0.055573713 0.81716233
        0.98572654 0.055576984 0.8171317 1.0005683 0.055578392 0.8170968
        1.0165786 0.055578005 0.81705487 1.0336564 0.05557576 0.81700224
        1.0516567 0.055571508 0.8169343 1.0703923 0.055565022 0.816846
        1.0896399 0.05555606 0.8167321 1.1091502 0.0555445 0.8165878
        0.87571615 0.056806706 0.8173731 0.87631637 0.056791864 0.8173721
        0.8770228 0.056776445 0.8173707 0.8778537 0.05676071 0.81736887
        0.8788301 0.05674496 0.8173664 0.87997645 0.056729615 0.81736326
        0.88132095 0.056715127 0.8173592 0.88289577 0.056702062 0.8173541
        0.8847378 0.056691002 0.8173476 0.8868887 0.056682542 0.8173396
        0.88939565 0.056677245 0.81732976 0.8923117 0.05667552 0.817318
        0.89569604 0.056677554 0.8173043 0.89961463 0.056683283 0.81728864
        0.9041402 0.056692246 0.8172711 0.90935206 0.056703705 0.8172518
        0.9153354 0.056716666 0.8172308 0.92217946 0.056730043 0.81720823
        0.9299745 0.056742836 0.8171845 0.9388078 0.056754224 0.81715965
        0.9487584 0.056763723 0.817134 0.95989144 0.056771103 0.8171074
        0.9722507 0.056776382 0.8170793 0.9858525 0.05677964 0.8170488
        1.000679 0.056781035 0.81701386 1.0166728 0.0567806 0.81697196
        1.0337332 0.056778282 0.81691927 1.0517153 0.05677393 0.8168514
        1.0704317 0.056767307 0.81676316 1.0896598 0.056758173 0.8166493
        1.1091502 0.05674639 0.8165052 0.8759529 0.058009684 0.8172878
        0.87655246 0.057994805 0.8172868 0.87725824 0.05797934 0.8172854
        0.8780883 0.05796355 0.8172836 0.8790638 0.05794774 0.8172812
        0.8802091 0.057932325 0.8172781 0.8815523 0.057917763 0.817274
        0.88312566 0.057904627 0.8172689 0.88496596 0.057893492 0.8172624
        0.8871149 0.05788498 0.8172544 0.8896195 0.05787965 0.8172446
        0.8925328 0.057877906 0.8172329 0.8959139 0.057879973 0.8172192
        0.8998285 0.057885736 0.8172035 0.90434945 0.05789476 0.8171861
        0.9095559 0.05790627 0.8171668 0.91553307 0.057919264 0.81714576
        0.9223701 0.057932664 0.8171233 0.93015707 0.057945456 0.8170996
        0.9389813 0.057956852 0.81707484 0.9489218 0.057966337 0.8170492
        0.96004343 0.057973698 0.8170226 0.97239006 0.057978947 0.81699455
        0.985978 0.057982188 0.816964 1.0007895 0.05798354 0.8169291
        1.016767 0.057983045 0.8168872 1.03381 0.05798066 0.81683457
        1.0517737 0.05797621 0.81676674 1.0704712 0.057969455 0.8166785
        1.0896796 0.05796014 0.81656474 1.1091502 0.057948142 0.8164208
        0.8761896 0.059212532 0.81720066 0.8767886 0.059197642 0.8171997
        0.8774937 0.059182167 0.8171984 0.8783229 0.05916635 0.81719655
        0.87929744 0.059150517 0.81719416 0.8804416 0.059135076 0.81719106
        0.88178355 0.0591205 0.817187 0.88335544 0.059107333 0.8171819
        0.88519394 0.059096195 0.8171754 0.8873408 0.059087675 0.8171674
        0.8898429 0.05908236 0.8171576 0.89275324 0.059080657 0.81714594
        0.8961308 0.059082754 0.81713223 0.90004134 0.059088565 0.8171166
        0.9045575 0.059097618 0.8170992 0.90975857 0.05910913 0.81707996
        0.9157295 0.059122104 0.81705904 0.92255956 0.05913546 0.81703657
        0.9303386 0.059148185 0.81701285 0.9391539 0.05915951 0.81698817
        0.9490844 0.05916893 0.8169626 0.96019477 0.059176233 0.8169361
        0.97252893 0.059181426 0.816908 0.9861031 0.05918461 0.8168775
        1.0008996 0.059185907 0.8168426 1.0168608 0.059185352 0.8168007
        1.0338866 0.05918289 0.8167481 1.051832 0.059178334 0.81668025
        1.0705104 0.059171457 0.8165921 1.0896994 0.059161983 0.81647843
        1.1091502 0.059149776 0.81633455 0.87642634 0.060415253 0.81711185
        0.87702477 0.06040037 0.8171109 0.8777291 0.060384903 0.8171095
        0.8785575 0.060369097 0.81710774 0.8795311 0.06035329 0.81710535
        0.8806741 0.060337868 0.81710225 0.8820147 0.060323313 0.8170982
        0.883585 0.060310192 0.8170931 0.88542163 0.06029909 0.81708664
        0.88756627 0.06029063 0.8170786 0.8900658 0.060285375 0.8170688
        0.892973 0.06028374 0.81705713 0.89634687 0.06028591 0.81704354
        0.9002532 0.06029176 0.8170279 0.9047645 0.060300812 0.8170106
        0.90996 0.060312286 0.8169913 0.9159248 0.060325176 0.8169704
        0.92274785 0.060338415 0.81694806 0.9305191 0.060351014 0.8169244
        0.93932563 0.06036221 0.8168998 0.9492462 0.060371507 0.8168742
        0.96034545 0.0603787 0.8168477 0.9726673 0.060383804 0.8168197
        0.9862278 0.06038691 0.8167892 1.0010092 0.060388133 0.81675434
        1.0169544 0.060387507 0.81671244 1.033963 0.06038495 0.8166598
        1.0518901 0.060380306 0.816592 1.0705496 0.060373306 0.8165039
        1.0897192 0.060363676 0.81639034 1.1091502 0.060351282 0.8162467
        0.8766631 0.061617836 0.81702125 0.8772609 0.061602987 0.81702024
        0.87796456 0.061587557 0.8170189 0.8787921 0.061571795 0.81701714
        0.8797647 0.06155605 0.81701475 0.8809066 0.061540693 0.81701165
        0.8822458 0.061526213 0.81700766 0.88381445 0.061513174 0.8170025
        0.88564914 0.061502177 0.81699604 0.8877914 0.061493836 0.816988
        0.8902881 0.0614887 0.8169783 0.893192 0.061487176 0.8169666
        0.89656204 0.061489422 0.816953 0.90046394 0.061495308 0.81693745
        0.9049702 0.06150434 0.81692004 0.9101602 0.06151573 0.8169009
        0.91611886 0.061528478 0.81688005 0.922935 0.06154154 0.81685776
        0.9306986 0.061553936 0.81683415 0.93949646 0.061564934 0.81680954
        0.9494073 0.06157406 0.816784 0.96049553 0.061581112 0.8167576
        0.9728051 0.061586086 0.81672966 0.986352 0.061589085 0.81669915
        1.0011187 0.061590217 0.81666434 1.0170478 0.0615895 0.81662244
        1.034039 0.06158687 0.8165698 1.0519481 0.061582126 0.816502
        1.0705887 0.061575007 0.81641394 1.0897388 0.06156523 0.8163005
        1.1091502 0.06155265 0.8161569 0.87689984 0.06282029 0.8169288
        0.877497 0.062805496 0.81692785 0.8782 0.06279012 0.81692654
        0.8790267 0.06277445 0.8169248 0.87999827 0.06275879 0.81692237
        0.881139 0.06274354 0.81691927 0.88247675 0.062729195 0.8169152
        0.8840437 0.0627163 0.81691015 0.88587636 0.062705465 0.81690365
        0.8880161 0.06269729 0.81689566 0.8905099 0.06269232 0.8168858
        0.89341027 0.06269094 0.8168742 0.8967763 0.0626933 0.8168606
        0.9006736 0.06269922 0.8168452 0.90517485 0.06270821 0.81682783
        0.9103592 0.06271946 0.8168087 0.9163117 0.062731996 0.8167879
        0.92312104 0.062744804 0.8167656 0.93087703 0.06275695 0.8167421
        0.9396664 0.06276769 0.81671757 0.94956756 0.06277659 0.8166921
        0.96064496 0.06278344 0.8166657 0.97294235 0.062788256 0.81663775
        0.9864758 0.06279113 0.8166073 1.0012277 0.06279216 0.81657255
        1.0171407 0.06279135 0.81653064 1.034115 0.06278862 0.816478
        1.052006 0.06278378 0.81641024 1.0706278 0.06277654 0.81632227
        1.0897585 0.06276664 0.81620884 1.1091502 0.0627539 0.81606543
        0.8771365 0.0640226 0.8168347 0.8777332 0.06400788 0.8168337
        0.8784354 0.063992605 0.81683236 0.8792613 0.06397704 0.8168306
        0.88023186 0.063961506 0.8168282 0.8813713 0.063946426 0.8168251
        0.88270766 0.06393226 0.81682104 0.8842728 0.06391957 0.816816
        0.8861033 0.06390895 0.8168095 0.88824046 0.06390101 0.8168015
        0.8907311 0.06389626 0.8167917 0.8936278 0.06389507 0.81678003
        0.89698964 0.06389754 0.8167665 0.9008822 0.06390348 0.816751
        0.9053783 0.063912384 0.8167337 0.91055703 0.063923456 0.81671464
        0.91650337 0.063935734 0.8166939 0.923306 0.06394823 0.8166717
        0.9310545 0.06396004 0.81664824 0.9398354 0.06397047 0.8166238
        0.94972706 0.06397908 0.8165984 0.9607938 0.0639857 0.81657207
        0.97307914 0.06399033 0.8165442 0.9865992 0.063993044 0.8165138
        1.0013365 0.063993946 0.8164789 1.0172336 0.06399304 0.816437
        1.0341907 0.06399022 0.81638443 1.0520637 0.06398527 0.8163167
        1.0706667 0.063977934 0.81622875 1.0897781 0.0639679 0.81611544
        1.1091502 0.063955 0.8159722 0.8773733 0.065224774 0.8167387
        0.8779693 0.06521015 0.8167378 0.8786708 0.065195 0.81673646
        0.87949586 0.06517958 0.8167347 0.8804654 0.06516423 0.8167323
        0.8816036 0.06514934 0.8167291 0.88293844 0.065135404 0.81672513
        0.8845017 0.06512298 0.81671995 0.8863299 0.06511265 0.81671345
        0.88846433 0.065105006 0.8167054 0.89095163 0.06510053 0.8166957
        0.89384454 0.06509955 0.816684 0.89720196 0.06510215 0.8166705
        0.9010897 0.06510811 0.8166551 0.9055805 0.06511689 0.8166378
        0.9107536 0.06512772 0.8166188 0.91669387 0.06513968 0.8165982
        0.9234898 0.065151796 0.81657606 0.93123096 0.06516321 0.81655264
        0.9400036 0.06517327 0.81652826 0.94988585 0.065181546 0.8165029
        0.960942 0.06518789 0.81647664 0.9732154 0.06519229 0.8164488
        0.98672223 0.06519483 0.8164184 1.0014448 0.06519559 0.8163836
        1.0173261 0.06519457 0.81634176 1.0342662 0.06519165 0.8162892
        1.0521213 0.06518661 0.8162214 1.0707055 0.06517917 0.8161335
        1.0897976 0.06516902 0.8160203 1.1091502 0.06515597 0.81587714
        0.87761 0.0664268 0.816641 0.8782055 0.0664123 0.81664
        0.87890625 0.06639731 0.81663877 0.87973046 0.06638207 0.816637
        0.8806989 0.06636693 0.81663454 0.8818358 0.06635231 0.81663144
        0.88316905 0.066338666 0.8166274 0.8847304 0.066326566 0.8166222
        0.88655615 0.06631658 0.8166157 0.8886877 0.066309296 0.81660765
        0.8911715 0.06630514 0.8165979 0.8940604 0.06630441 0.81658626
        0.89741325 0.06630714 0.8165727 0.901296 0.06631309 0.81655735
        0.9057815 0.06632172 0.8165401 0.910949 0.066332266 0.81652117
        0.9168832 0.06634383 0.8165006 0.92367256 0.0663555 0.81647855
        0.93140644 0.06636645 0.81645525 0.9401709 0.06637607 0.8164309
        0.9500439 0.066383965 0.81640565 0.96108955 0.06638999 0.8163794
        0.9733511 0.066394135 0.81635165 0.98684484 0.066396475 0.81632125
        1.0015528 0.066397086 0.8162865 1.0174184 0.06639594 0.8162446
        1.0343416 0.06639291 0.8161921 1.0521786 0.06638777 0.8161243
        1.0707443 0.06638024 0.81603646 1.0898172 0.06636997 0.8159234
        1.1091502 0.06635679 0.8157804 0.8778468 0.06762868 0.8165415
        0.8784416 0.06761434 0.81654054 0.8791417 0.06759953 0.8165392
        0.87996495 0.067584515 0.81653744 0.88093233 0.06756964 0.81653506
        0.882068 0.06755532 0.8165319 0.88339955 0.06754204 0.81652784
        0.8849588 0.06753034 0.8165226 0.88678205 0.06752078 0.8165161
        0.8889105 0.0675139 0.81650805 0.8913906 0.06751011 0.8164983
        0.89427525 0.06750966 0.81648666 0.8976235 0.06751253 0.8164731
        0.9015012 0.06751845 0.8164578 0.9059813 0.067526884 0.81644064
        0.9111431 0.06753708 0.8164218 0.91707134 0.06754818 0.81640124
        0.9238543 0.067559324 0.81637925 0.93158096 0.067569755 0.81635606
        0.94033736 0.06757888 0.8163318 0.9502013 0.067586355 0.81630665
        0.96123654 0.06759201 0.8162804 0.9734864 0.06759588 0.8162527
        0.986967 0.067598 0.81622237 1.0016606 0.06759843 0.8161876
        1.0175104 0.06759714 0.8161458 1.0344167 0.06759401 0.8160932
        1.052236 0.067588784 0.8160255 1.0707829 0.06758115 0.8159377
        1.0898366 0.06757078 0.8158247 1.1091502 0.067557484 0.8156818
        0.8780835 0.06883041 0.8164402 0.8786777 0.06881625 0.8164393
        0.87937707 0.068801664 0.81643796 0.88019943 0.06878691 0.8164362
        0.88116574 0.06877237 0.8164337 0.88229996 0.06875842 0.81643057
        0.8836298 0.06874557 0.81642646 0.8851869 0.06873434 0.8164212
        0.8870075 0.06872527 0.81641465 0.88913256 0.068718866 0.8164066
        0.8916089 0.06871549 0.8163968 0.89448917 0.068715334 0.8163852
        0.8978325 0.06871834 0.81637174 0.9017051 0.06872419 0.8163564
        0.90617985 0.068732366 0.8163394 0.91133606 0.068742156 0.81632054
        0.9172583 0.06875273 0.81630003 0.9240349 0.068763286 0.81627816
        0.9317545 0.06877313 0.8162551 0.94050306 0.06878171 0.81623095
        0.950358 0.06878869 0.8162058 0.9613829 0.06879396 0.8161797
        0.9736212 0.06879751 0.816152 0.9870888 0.06879938 0.8161217
        1.001768 0.06879962 0.81608695 1.0176021 0.0687982 0.81604517
        1.0344917 0.06879494 0.8159926 1.0522931 0.06878962 0.81592494
        1.0708214 0.0687819 0.81583714 1.089856 0.06877144 0.8157242
        1.1091502 0.06875802 0.81558156 0.8783202 0.070031986 0.81633717
        0.8789139 0.070018046 0.8163362 0.87961245 0.070003726 0.8163349
        0.8804339 0.0699893 0.8163331 0.8813991 0.06997513 0.8163306
        0.8825318 0.06996162 0.81632745 0.8838598 0.06994928 0.8163233
        0.8854146 0.0699386 0.81631804 0.8872323 0.06993009 0.8163115
        0.88935393 0.069924235 0.8163034 0.8918262 0.06992131 0.81629354
        0.8947019 0.06992145 0.8162819 0.89804035 0.06992456 0.8162685
        0.90190774 0.06993032 0.81625324 0.90637714 0.0699382 0.8162362
        0.91152775 0.06994749 0.8162175 0.91744417 0.069957465 0.81619716
        0.9242145 0.069967374 0.81617534 0.9319272 0.06997657 0.81615233
        0.94066787 0.06998454 0.8161282 0.9505139 0.06999099 0.8161032
        0.9615288 0.06999582 0.8160772 0.97375554 0.069999024 0.8160495
        0.98721015 0.070000626 0.8160193 1.001875 0.07000066 0.81598455
        1.0176936 0.069999084 0.8159427 1.0345664 0.069995716 0.8158902
        1.05235 0.06999029 0.8158226 1.0708599 0.06998248 0.8157348
        1.0898753 0.06997193 0.815622 1.1091502 0.069958396 0.8154794
        0.87855697 0.07123341 0.8162324 0.87915 0.071219735 0.8162314
        0.8798478 0.07120572 0.81623006 0.88066834 0.071191676 0.8162282
        0.88163227 0.07117795 0.8162257 0.8827635 0.07116497 0.81622255
        0.8840895 0.071153216 0.8162183 0.8856419 0.07114317 0.816213
        0.8874565 0.07113531 0.8162064 0.8895744 0.071130045 0.8161982
        0.89204246 0.0711276 0.81618845 0.89491343 0.07112806 0.8161768
        0.8982469 0.07113125 0.8161634 0.9021091 0.07113686 0.8161482
        0.90657306 0.07114435 0.8161313 0.9117182 0.071153104 0.81611264
        0.9176289 0.07116241 0.8160924 0.924393 0.07117159 0.8160707
        0.9320989 0.07118005 0.8160477 0.94083196 0.07118738 0.81602377
        0.95066917 0.07119326 0.81599885 0.961674 0.071197614 0.81597286
        0.97388935 0.07120042 0.81594527 0.98733115 0.07120174 0.81591505
        1.0019819 0.071201555 0.81588036 1.017785 0.071199805 0.8158386
        1.0346409 0.07119631 0.81578606 1.0524069 0.07119079 0.8157184
        1.0708982 0.07118289 0.8156308 1.0898947 0.07117226 0.81551796
        1.1091502 0.07115863 0.81537557 0.8787937 0.07243468 0.8161258
        0.87938607 0.072421305 0.8161248 0.88008314 0.07240766 0.8161234
        0.8809027 0.072394066 0.8161216 0.8818654 0.072380885 0.8161191
        0.88299495 0.07236852 0.8161158 0.8843188 0.07235744 0.81611156
        0.8858685 0.07234813 0.8161062 0.8876798 0.072341 0.8160995
        0.8897939 0.07233638 0.81609136 0.89225745 0.07233444 0.8160815
        0.89512366 0.07233518 0.81606984 0.898452 0.072338425 0.8160565
        0.902309 0.07234382 0.81604135 0.90676767 0.07235086 0.81602454
        0.9119074 0.07235898 0.81600595 0.91781247 0.07236754 0.8159858
        0.9245705 0.07237592 0.8159642 0.93226975 0.07238362 0.8159414
        0.9409952 0.07239021 0.81591755 0.9508238 0.07239549 0.8158927
        0.9618187 0.07239932 0.81586677 0.9740227 0.072401725 0.8158393
        0.9874518 0.072402716 0.81580913 1.0020883 0.0724023 0.81577444
        1.0178759 0.07240037 0.81573266 1.0347153 0.07239675 0.81568015
        1.0524637 0.07239112 0.81561255 1.0709364 0.07238314 0.81552494
        1.089914 0.07237243 0.8154122 1.1091502 0.07235872 0.81526995
        0.87903047 0.07363578 0.81601745 0.87962216 0.07362277 0.81601644
        0.8803184 0.073609576 0.816015 0.8811369 0.073596515 0.8160131
        0.8820982 0.07358395 0.8160106 0.88322604 0.073572315 0.8160072
        0.8845476 0.07356204 0.8160029 0.88609433 0.07355356 0.81599754
        0.8879021 0.07354724 0.8159908 0.8900121 0.07354331 0.8159825
        0.8924711 0.07354188 0.8159727 0.89533234 0.07354288 0.8159611
        0.89865565 0.073546104 0.8159478 0.9025075 0.0735512 0.8159327
        0.90696096 0.07355773 0.81591594 0.91209537 0.07356513 0.81589746
        0.9179949 0.07357287 0.81587744 0.92474705 0.07358039 0.815856
        0.93243974 0.07358724 0.8158333 0.94115776 0.073593065 0.8158095
        0.95097774 0.07359766 0.81578475 0.9619628 0.07360095 0.81575894
        0.9741556 0.07360291 0.8157315 0.987572 0.07360357 0.81570137
        1.0021945 0.07360289 0.81566674 1.0179667 0.07360078 0.81562495
        1.0347896 0.07359701 0.81557244 1.0525203 0.073591284 0.8155049
        1.0709747 0.07358322 0.8154173 1.0899332 0.073572434 0.8153047
        1.1091502 0.073558636 0.81516254 0.87926716 0.07483673 0.8159073
        0.87985826 0.07482415 0.8159063 0.8805536 0.07481149 0.81590486
        0.881371 0.07479906 0.8159029 0.8823308 0.07478726 0.81590027
        0.88345665 0.07477647 0.81589687 0.88477564 0.07476712 0.8158925
        0.8863192 0.07475959 0.815887 0.88812315 0.07475413 0.8158802
        0.8902288 0.07475093 0.81587195 0.8926831 0.074749984 0.81586206
        0.89553946 0.07475119 0.8158505 0.8988577 0.07475433 0.8158372
        0.9027045 0.07475905 0.8158222 0.9071529 0.07476495 0.81580555
        0.9122821 0.07477157 0.81578714 0.91817623 0.0747784 0.8157672
        0.9249226 0.07478499 0.8157459 0.93260884 0.074790925 0.8157233
        0.9413195 0.07479593 0.8156997 0.9511311 0.07479981 0.815675
        0.9621064 0.0748025 0.81564933 0.97428805 0.074804 0.815622
        0.9876919 0.07480429 0.8155919 1.0023004 0.074803345 0.8155573
        1.0180572 0.07480103 0.8155155 1.0348635 0.074797116 0.815463
        1.0525767 0.074791275 0.8153955 1.0710129 0.07478313 0.8153079
        1.0899523 0.074772276 0.8151954 1.1091502 0.0747584 0.8150534
        0.8795039 0.076037504 0.8157954 0.8800943 0.076025456 0.81579435
        0.88078874 0.07601343 0.81579286 0.88160485 0.07600178 0.81579083
        0.88256294 0.07599088 0.81578815 0.88368654 0.0759811 0.81578463
        0.88500273 0.075972825 0.8157802 0.8865428 0.075966336 0.8157747
        0.8883427 0.07596181 0.81576777 0.89044386 0.07595933 0.8157594
        0.8928934 0.07595884 0.8157495 0.8957448 0.07596018 0.81573796
        0.8990581 0.075963125 0.81572473 0.9028999 0.07596738 0.8157098
        0.9073434 0.075972565 0.81569326 0.9124676 0.07597829 0.815675
        0.9183565 0.075984135 0.81565523 0.92509717 0.075989716 0.8156341
        0.9327771 0.075994685 0.8156116 0.9414806 0.075998805 0.81558806
        0.9512838 0.07600193 0.81556356 0.96224946 0.076004 0.8155379
        0.9744201 0.07600499 0.81551063 0.9878114 0.0760049 0.8154806
        1.0024059 0.076003656 0.815446 1.0181475 0.07600112 0.8154043
        1.0349373 0.075997055 0.81535184 1.052633 0.0759911 0.81528425
        1.0710508 0.075982876 0.81519675 1.0899715 0.07597195 0.81508434
        1.1091502 0.075958006 0.8149425 0.87974066 0.07723811 0.81568176
        0.88033026 0.07722671 0.8156806 0.88102365 0.07721549 0.8156791
        0.8818383 0.077204786 0.815677 0.8827945 0.07719498 0.8156742
        0.88391554 0.077186406 0.8156706 0.8852285 0.07717935 0.8156661
        0.8867647 0.07717399 0.81566036 0.88856035 0.07717045 0.81565344
        0.8906569 0.07716865 0.8156451 0.89310163 0.077168524 0.81563514
        0.8959483 0.0771699 0.8156236 0.89925677 0.07717255 0.81561047
        0.9030938 0.0771762 0.8155956 0.9075325 0.077180564 0.8155792
        0.91265184 0.0771853 0.81556106 0.91853565 0.077190086 0.81554145
        0.9252708 0.07719458 0.81552035 0.93294454 0.07719852 0.81549805
        0.9416409 0.07720172 0.8154747 0.9514359 0.077204034 0.81545025
        0.96239203 0.077205434 0.81542474 0.9745516 0.0772059 0.8153975
        0.9879305 0.0772054 0.8153675 1.0025111 0.07720384 0.815333
        1.0182376 0.07720107 0.8152913 1.0350109 0.07719683 0.8152389
        1.0526892 0.077190764 0.81517136 1.0710887 0.07718245 0.81508386
        1.0899906 0.07717146 0.8149715 1.1091502 0.07715744 0.8148298
        0.8799774 0.07843856 0.8155663 0.8805661 0.07842798 0.8155651
        0.8812583 0.07841776 0.8155635 0.88207126 0.078408256 0.8155613
        0.88302505 0.07839979 0.8155584 0.8841431 0.078392625 0.8155547
        0.88545245 0.07838695 0.81554997 0.8869845 0.07838281 0.8155442
        0.8887757 0.07838019 0.8155372 0.8908676 0.07837902 0.8155288
        0.89330775 0.07837915 0.81551886 0.8961497 0.078380406 0.81550735
        0.89945364 0.07838262 0.81549424 0.9032861 0.078385554 0.8154796
        0.90772027 0.07838899 0.81546324 0.9128349 0.07839264 0.8154453
        0.91871375 0.07839626 0.8154258 0.92544353 0.0783996 0.8154049
        0.9331112 0.07840245 0.8153828 0.9418006 0.07840466 0.8153595
        0.95158744 0.07840613 0.8153352 0.96253407 0.078406826 0.81530976
        0.9746828 0.07840673 0.81528264 0.98804927 0.07840578 0.8152527
        1.0026162 0.0784039 0.8152182 1.0183274 0.07840088 0.81517655
        1.0350844 0.078396454 0.8151241 1.0527452 0.07839026 0.8150566
        1.0711266 0.07838185 0.8149692 1.0900097 0.07837079 0.81485695
        1.1091502 0.07835672 0.8147153 0.8802141 0.079638824 0.8154491
        0.8808018 0.07962934 0.8154478 0.88149244 0.07962045 0.815446
        0.8823032 0.079612486 0.8154437 0.8832541 0.07960568 0.81544065
        0.8843686 0.07960017 0.81543684 0.8856739 0.07959597 0.815432
        0.88720167 0.07959304 0.8154261 0.8889883 0.07959128 0.815419
        0.89107573 0.07959058 0.8154106 0.8935114 0.0795908 0.81540066
        0.896349 0.07959178 0.8153892 0.8996486 0.0795934 0.8153762
        0.90347683 0.07959548 0.8153616 0.9079066 0.07959785 0.8153455
        0.91301674 0.07960033 0.81532764 0.91889083 0.0796027 0.81530833
        0.9256154 0.07960481 0.81528765 0.9332771 0.0796065 0.8152656
        0.94195956 0.07960767 0.81524247 0.9517384 0.07960825 0.8152183
        0.9626757 0.079608195 0.81519306 0.9748135 0.079607494 0.81516594
        0.9881677 0.07960608 0.8151361 1.0027208 0.079603836 0.8151017
        1.018417 0.079600565 0.81506 1.0351577 0.07959594 0.8150076
        1.0528011 0.079589605 0.81494015 1.0711644 0.0795811 0.81485283
        1.0900288 0.07956996 0.8147406 1.1091502 0.07955582 0.81459916
        0.88045084 0.08083892 0.8153301 0.8810371 0.08083097 0.81532866
        0.88172555 0.08082394 0.81532675 0.8825333 0.08081802 0.8153242
        0.8834806 0.08081323 0.81532097 0.884591 0.08080954 0.815317
        0.885892 0.08080685 0.815312 0.8874154 0.080805026 0.815306
        0.88919777 0.080803946 0.8152989 0.891281 0.0808035 0.81529045
        0.8937126 0.08080359 0.81528056 0.8965462 0.0808041 0.81526923
        0.8998417 0.08080495 0.81525636 0.9036659 0.080806024 0.81524193
        0.90809155 0.08080722 0.81522584 0.9131974 0.080808386 0.8152082
        0.9190669 0.08080944 0.81518906 0.9257863 0.08081024 0.8151685
        0.93344223 0.0808107 0.8151467 0.9421179 0.08081077 0.81512374
        0.95188886 0.0808104 0.8150997 0.9628168 0.08080957 0.8150745
        0.9749439 0.08080824 0.8150475 0.98828584 0.08080632 0.8150177
        1.0028253 0.08080369 0.8149833 1.0185063 0.08080012 0.8149417
        1.0352308 0.080795296 0.8148893 1.0528569 0.080788806 0.8148219
        1.0712019 0.080780186 0.81473464 1.0900477 0.08076896 0.81462246
        1.1091502 0.08075475 0.81448114 0.8806876 0.08203883 0.8152093
        0.88127136 0.08203338 0.81520766 0.88195634 0.08202912 0.8152055
        0.88276 0.08202585 0.8152027 0.8837029 0.08202337 0.81519926
        0.8848089 0.08202151 0.8151951 0.8861057 0.08202014 0.81519
        0.8876251 0.08201915 0.815184 0.88940364 0.08201845 0.8151768
        0.8914832 0.08201798 0.8151684 0.89391106 0.082017675 0.81515855
        0.89674103 0.082017496 0.8151473 0.90003294 0.08201738 0.8151345
        0.90385336 0.08201728 0.8151202 0.9082752 0.082017146 0.81510437
        0.9133769 0.082016915 0.8150869 0.919242 0.08201653 0.81506795
        0.9259564 0.08201594 0.81504756 0.9336066 0.08201512 0.8150259
        0.9422757 0.08201403 0.81500316 0.9520387 0.08201267 0.81497926
        0.9629574 0.082011 0.81495416 0.9750738 0.08200899 0.8149273
        0.98840356 0.08200654 0.81489754 1.0029293 0.0820035 0.8148632
        1.0185955 0.081999615 0.8148216 1.0353037 0.08199453 0.8147693
        1.0529126 0.081987865 0.81470186 1.0712396 0.08197911 0.8146146
        1.0900667 0.08196779 0.81450254 1.1091502 0.081953496 0.8143614
        0.8809243 0.08323857 0.81508684 0.8815018 0.08323835 0.81508464
        0.88218117 0.08323808 0.8150821 0.8829799 0.08323777 0.815079
        0.8839185 0.083237395 0.81507534 0.88502073 0.083236955 0.815071
        0.88631403 0.083236426 0.81506586 0.88783014 0.08323581 0.8150598
        0.8896056 0.08323508 0.8150526 0.89168197 0.08323422 0.8150443
        0.8941068 0.08323323 0.81503457 0.89693356 0.08323209 0.8150234
        0.9002222 0.08323081 0.8150108 0.9040392 0.08322936 0.8149967
        0.90845746 0.08322776 0.81498104 0.9135554 0.083226 0.81496376
        0.9194161 0.08322409 0.814945 0.92612576 0.083222024 0.81492484
        0.93377036 0.08321983 0.8149034 0.9424328 0.083217524 0.8148807
        0.952188 0.0832151 0.814857 0.9630976 0.08321255 0.81483203
        0.9752034 0.08320981 0.81480527 0.98852104 0.08320679 0.81477565
        1.0030333 0.083203286 0.8147413 1.0186844 0.08319904 0.81469977
        1.0353764 0.0831937 0.8146475 1.0529681 0.08318682 0.8145801
        1.071277 0.08317792 0.8144929 1.0900855 0.08316648 0.81438094
        1.1091502 0.08315208 0.8142399
        <InformationKey name="L2_NORM_RANGE" location="vtkDataArray" length="2">
          <Value index="0">
            1.196152709
          </Value>
          <Value index="1">
            1.3784466072
          </Value>
        </InformationKey>
      </DataArray>
    </Points>
  </Piece>
  </StructuredGrid>
</VTKFile>
