<?xml version="1.0"?>
<VTKFile type="StructuredGrid" version="0.1" byte_order="LittleEndian" header_type="UInt32" compressor="vtkZLibDataCompressor">
  <StructuredGrid WholeExtent="0 30 0 40 0 0">
  <Piece Extent="0 30 0 40 0 0">
    <PointData>
      <DataArray type="Float32" Name="orthogonality" format="ascii" RangeMin="0" RangeMax="0.30944687128067017">
        0 0.015927212 0.031741247 0.047331393 0.062591635 0.07742267
        0.091733545 0.10544303 0.11848056 0.13078716 0.1423163 0.15303488
        0.16292474 0.1719841 0.18022947 0.18769677 0.19444199 0.2005404
        0.20608443 0.21118031 0.21594407 0.22049767 0.22496651 0.2294797
        0.23417446 0.23920844 0.24478754 0.25123525 0.25921145 0.27061495
        0.292981 6.5001507e-07 0.015985211 0.031858478 0.047508866 0.06283042
        0.077724025 0.092098996 0.10587436 0.11897987 0.13135685 0.14295912
        0.15375404 0.163724 0.17286807 0.18120381 0.18876864 0.19562046
        0.20183693 0.2075133 0.21275906 0.21769387 0.22244376 0.22713877
        0.23191328 0.23691076 0.24229611 0.24828205 0.2551855 0.26354957
        0.27433497 0.2900484 1.1307351e-06 0.016043838 0.031976804 0.04768793
        0.06307133 0.078028105 0.09246785 0.10630988 0.119484276 0.1319327
        0.14360934 0.15448204 0.16453375 0.17376433 0.18219239 0.18985677
        0.19681716 0.2031534 0.20896333 0.21435934 0.21946427 0.22440758
        0.22932287 0.23434803 0.23962955 0.24533316 0.25166386 0.2588967
        0.26739022 0.27737382 0.28816563 1.4070727e-06 0.016103318 0.032096658
        0.04786924 0.06331528 0.078336135 0.0928417 0.10675164 0.119996406
        0.13251804 0.14427115 0.15522406 0.1653603 0.17468052 0.18320428
        0.19097167 0.19804393 0.20450276 0.2104481 0.21599464 0.22126757
        0.22639851 0.23152266 0.2367782 0.24230863 0.2482685 0.25482973
        0.2621719 0.27038816 0.27910015 0.2868532 1.4939932e-06 0.016163116
        0.032216966 0.048051167 0.063560076 0.07864531 0.09321711 0.10719553
        0.12051138 0.13310716 0.14493792 0.15597247 0.16619495 0.17560665
        0.18422803 0.19210021 0.19928569 0.20586762 0.21194749 0.21764158
        0.22307639 0.2283843 0.23369992 0.239158 0.24489266 0.2510357
        0.2577055 0.26496023 0.27264974 0.28008503 0.28587797 1.4233941e-06
        0.016223049 0.03233739 0.04823322 0.063805036 0.07895477 0.09359303
        0.10764026 0.12102772 0.13369834 0.14560765 0.15672497 0.167035
        0.17653964 0.18526006 0.19323821 0.20053752 0.20724212 0.21345448
        0.21929163 0.22488031 0.23035206 0.23583855 0.24146739 0.24735722
        0.25360763 0.2602722 0.26728922 0.27433723 0.28064582 0.28511935
        1.2297164e-06 0.016283073 0.032457884 0.048415326 0.06405009 0.07926444
        0.09396935 0.108085714 0.121545255 0.13429138 0.14628011 0.15748128
        0.1678801 0.17747904 0.18629982 0.19438495 0.20179844 0.20862493
        0.21496722 0.22094217 0.22667566 0.23229672 0.23793171 0.2436976
        0.24969248 0.25597775 0.26254022 0.26921892 0.2755996 0.28096244
        0.28451076 9.443912e-07 0.016343197 0.03257849 0.04859757 0.06429536
        0.07957445 0.094346255 0.10853212 0.12206426 0.1348866 0.14695567
        0.15824182 0.16873074 0.17842536 0.18734778 0.19554089 0.20306885
        0.2100163 0.21648563 0.22259273 0.2284613 0.2342163 0.23997651
        0.24584517 0.25189632 0.25815094 0.26453495 0.27081716 0.27655515
        0.28113878 0.2840129 5.942573e-07 0.016403446 0.032699283 0.048780084
        0.06454101 0.07988504 0.09472403 0.108979814 0.122585125 0.13548444
        0.14763482 0.15900713 0.16958751 0.17937925 0.18840472 0.1967068
        0.20434949 0.21141684 0.21801017 0.22424342 0.23023692 0.23611
        0.24197178 0.2479095 0.2539712 0.2601387 0.2662883 0.27214816
        0.2772923 0.28123602 0.28360125 2.0160407e-07 0.016463844 0.03282033
        0.048962966 0.0647872 0.0801964 0.095102906 0.10942907 0.123108186
        0.13608529 0.14831802 0.15977773 0.170451 0.1803414 0.18947129
        0.19788337 0.20564103 0.21282718 0.21954131 0.22589447 0.2320025
        0.23797753 0.24391744 0.24989182 0.25592253 0.2619565 0.26783377
        0.27326766 0.2778754 0.28129092 0.2832594 2.1522779e-07 0.01652441
        0.032941688 0.04914632 0.06503406 0.0805087 0.095483094 0.10988014
        0.12363373 0.13668948 0.14900564 0.16055405 0.17132168 0.18131223
        0.190548 0.19907114 0.20694396 0.21424775 0.22107938 0.22754608
        0.23375805 0.23981898 0.24581413 0.25179482 0.25775805 0.26362178
        0.26920357 0.27422208 0.2783508 0.281326 0.28297603 6.411502e-07
        0.016585158 0.033063404 0.049330212 0.06528168 0.08082207 0.09586474
        0.11033321 0.12416196 0.13729726 0.14969793 0.16133636 0.17219983
        0.18229213 0.19163524 0.20027044 0.20825866 0.21567884 0.22262459
        0.22919837 0.2355037 0.24163473 0.24766326 0.2536224 0.25948682
        0.26515257 0.27042732 0.2750493 0.2787519 0.2813554 0.28274298
        1.063708e-06 0.0166461 0.033185508 0.0495147 0.06553015 0.0811366
        0.09624798 0.110788405 0.12469303 0.13790879 0.15039511 0.16212489
        0.17308572 0.18328135 0.19273323 0.20148157 0.20958534 0.21712066
        0.22417708 0.2308515 0.23723975 0.24342555 0.2494669 0.2553795
        0.26111898 0.2665668 0.27153143 0.2757797 0.27910298 0.28138825
        0.2825542 1.4725796e-06 0.016707242 0.033308025 0.04969982 0.06577951
        0.08145235 0.09663286 0.11124581 0.12522705 0.13852417 0.15109727
        0.16291976 0.17397946 0.18428 0.19384211 0.20270461 0.2109241
        0.2185733 0.22573699 0.23250565 0.23896664 0.24519265 0.25122777
        0.2570718 0.26266524 0.26788184 0.2725392 0.27643773 0.2794219
        0.28143063 0.28240526 1.8591985e-06 0.016768586 0.03343097 0.049885597
        0.066029795 0.08176937 0.09701946 0.111705504 0.12576406 0.13914348
        0.15180449 0.16372102 0.17488112 0.18528815 0.19496197 0.20393965
        0.21227504 0.22003686 0.22730446 0.23416115 0.24068512 0.24693762
        0.25294927 0.25870577 0.26413658 0.2691139 0.2734708 0.27704304
        0.2797221 0.28148678 0.28229266 2.21647e-06 0.016830139 0.033554357
        0.05007205 0.06628104 0.082087696 0.097407795 0.1121675 0.12630412
        0.13976674 0.1525168 0.16452871 0.1757907 0.1863058 0.19609278
        0.20518668 0.21363817 0.22151142 0.22887968 0.23581848 0.24239619
        0.24866252 0.25463533 0.26028833 0.26554397 0.2702782 0.2743438
        0.27761167 0.2800139 0.28155977 0.28221384 2.5385662e-06 0.016891897
        0.03367819 0.0502592 0.06653325 0.08240733 0.097797886 0.11263182
        0.12684722 0.14039396 0.15323418 0.16534281 0.17670819 0.18733293
        0.19723454 0.20644571 0.21501352 0.22299707 0.23046294 0.23747821
        0.24410114 0.25036985 0.25629035 0.2618268 0.26689827 0.27138874
        0.27517337 0.27815673 0.2803054 0.28165206 0.28216693 2.8207762e-06
        0.016953863 0.033802472 0.05044704 0.066786446 0.0827283 0.09818975
        0.113098465 0.12739336 0.14102511 0.1539566 0.16616325 0.17763354
        0.18836948 0.19838716 0.20771667 0.21640109 0.22449397 0.23205462
        0.23914121 0.24580154 0.25206244 0.25791922 0.26332873 0.26821005
        0.27245852 0.27597296 0.27868927 0.2806033 0.28176567 0.28215045
        3.0593983e-06 0.017016035 0.033927202 0.050635576 0.067040615 0.08305058
        0.09858336 0.11356743 0.12794252 0.14166018 0.15468402 0.16699
        0.17856663 0.18941534 0.19955057 0.20899951 0.21780093 0.22600229
        0.2336552 0.24080844 0.24749926 0.25374353 0.25952715 0.26480183
        0.2694896 0.2734995 0.27675435 0.27921873 0.2809132 0.28190246
        0.28216347 3.251662e-06 0.017078413 0.034052387 0.050824814 0.06729577
        0.08337418 0.09897872 0.11403867 0.12849465 0.14229909 0.15541637
        0.16782294 0.1795074 0.19047041 0.20072466 0.21029422 0.21921308
        0.2275223 0.23526528 0.24248113 0.24919643 0.2554167 0.2611196
        0.2662539 0.27074686 0.27452278 0.2775281 0.2797534 0.2812401
        0.28206423 0.2822054 3.395673e-06 0.017140992 0.03417802 0.051014744
        0.06755188 0.08369909 0.09937581 0.114512175 0.12904973 0.14294179
        0.15615354 0.16866198 0.1804557 0.19153456 0.20190933 0.2116007
        0.22063763 0.22905432 0.23688559 0.24416062 0.25089544 0.25708574
        0.26270238 0.26769277 0.27199143 0.27553877 0.2783039 0.2803007
        0.28158858 0.28225276 0.28227594 3.4903742e-06 0.017203772 0.034304097
        0.05120536 0.067808956 0.084025286 0.09977459 0.1149879 0.12960769
        0.1435882 0.15689547 0.16950701 0.18141139 0.19260764 0.20310447
        0.21291895 0.22207469 0.23059872 0.23851696 0.24584849 0.25259894
        0.25875482 0.26428133 0.2691263 0.27323264 0.2765573 0.27909067
        0.28086764 0.281963 0.28247 0.28237516 3.5355179e-06 0.017266754
        0.034430616 0.051396657 0.068066984 0.084352754 0.10017505 0.11546581
        0.13016847 0.14423825 0.15764204 0.17035787 0.18237433 0.19368953
        0.20430994 0.21424891 0.22352439 0.23215593 0.24016033 0.24754645
        0.25430974 0.26042825 0.26586255 0.2705623 0.2744796 0.27758774
        0.27989697 0.28146085 0.28236774 0.2827181 0.2825033 3.5316498e-06
        0.017329933 0.034557573 0.05158863 0.06832595 0.08468147 0.10057715
        0.11594585 0.13073201 0.14489184 0.15839311 0.17121445 0.18334438
        0.19478004 0.20552565 0.21559055 0.22498691 0.23372649 0.24181676
        0.24925636 0.25603086 0.26211047 0.2674523 0.27200854 0.27574122
        0.27863923 0.28073105 0.2820869 0.28280723 0.28299946 0.28266102
        3.4800976e-06 0.017393308 0.034684967 0.051781267 0.068585835 0.08501142
        0.100980856 0.11642797 0.13129824 0.1455489 0.15914859 0.17207657
        0.18432134 0.19587903 0.20675145 0.21694389 0.22646244 0.23531093
        0.24348737 0.25098023 0.25776547 0.26380622 0.2690568 0.2734729
        0.27702633 0.27972072 0.28160113 0.2827525 0.28328624 0.28331676
        0.28284913 3.3829638e-06 0.017456878 0.034812782 0.051974557 0.06884662
        0.08534257 0.10138613 0.11691213 0.13186708 0.14620928 0.15990834
        0.1729441 0.18530504 0.19698629 0.20798722 0.2183089 0.2279512
        0.2369099 0.24517344 0.2527202 0.25951695 0.26552024 0.2706825
        0.27496314 0.27834365 0.28084117 0.2825155 0.28346464 0.28381
        0.28367317 0.2830688 3.2431253e-06 0.017520642 0.034941025 0.05216849
        0.06910829 0.0856749 0.10179293 0.117398255 0.13243845 0.14687291
        0.16067222 0.17381686 0.18629532 0.19810167 0.20923284 0.21968557
        0.22945346 0.23852405 0.24687624 0.25447848 0.2612887 0.26725748
        0.27233583 0.27648714 0.27970198 0.28200966 0.2834828 0.28423074
        0.28438416 0.2840723 0.2833215 3.0642316e-06 0.0175846 0.035069678
        0.052363053 0.069370836 0.08600836 0.10220122 0.11788629 0.13301226
        0.14753966 0.16144007 0.17469467 0.18729195 0.19922498 0.21048817
        0.22107391 0.23096946 0.24015409 0.24859717 0.2562574 0.26308426
        0.26902294 0.2740233 0.2780528 0.2811102 0.2832355 0.284512
        0.28505892 0.28501529 0.2845185 0.28360906 2.8507027e-06 0.017648749
        0.035198744 0.052558236 0.06963423 0.086342946 0.10261095 0.118376166
        0.13358843 0.14820942 0.16221176 0.17557734 0.18829472 0.200356
        0.21175306 0.22247393 0.2324995 0.24180076 0.25033766 0.25805935
        0.2649073 0.27082163 0.2757515 0.27966812 0.28257743 0.2845283
        0.28561285 0.28595814 0.28571078 0.28501683 0.2839337 2.607725e-06
        0.017713089 0.035328213 0.052754022 0.06989844 0.08667861 0.10302207
        0.11886782 0.13416687 0.14888206 0.16298713 0.17646469 0.18930344
        0.20149453 0.21302736 0.22388564 0.23404384 0.2434648 0.25209913
        0.25988674 0.26676142 0.27265868 0.27752706 0.28134114 0.28411287
        0.2858982 0.28679577 0.28693846 0.28647938 0.28557342 0.2842981
        2.3412392e-06 0.01777762 0.035458073 0.0529504 0.07016345 0.087015316
        0.10343453 0.119361185 0.13474746 0.14955744 0.16376597 0.1773565
        0.19031787 0.20264032 0.21431088 0.22530898 0.23560277 0.24514697
        0.2538831 0.2617421 0.26865035 0.27453923 0.2793567 0.28308004
        0.28572613 0.28735593 0.2880722 0.28801134 0.2873313 0.28619567
        0.28470558 2.0579134e-06 0.017842337 0.03558832 0.05314735 0.070429236
        0.08735302 0.10384827 0.119856164 0.13533011 0.15023543 0.16454813
        0.17825253 0.19133773 0.20379314 0.21560347 0.22674395 0.23717654
        0.24684803 0.25569102 0.26362777 0.2705778 0.2764684 0.28124696
        0.2848931 0.2874271 0.28891286 0.28945476 0.28918993 0.28827876
        0.2868927 0.2851601 1.7650949e-06 0.017907243 0.03571894 0.053344846
        0.07069576 0.08769169 0.104263216 0.12035268 0.13591468 0.15091585
        0.16533339 0.17915255 0.19236276 0.20495269 0.21690486 0.22819045
        0.23876537 0.24856868 0.2575243 0.2655462 0.27254733 0.2784512
        0.28320462 0.2867887 0.2892259 0.29058108 0.29095733 0.29048932
        0.2893365 0.28767598 0.28566658 1.4707214e-06 0.017972333 0.035849918
        0.053542864 0.07096298 0.08803125 0.1046793 0.12085061 0.13650104
        0.15159851 0.16612151 0.18005627 0.19339262 0.20611863 0.2182148
        0.22964837 0.24036942 0.2503096 0.25938433 0.26749977 0.27456254
        0.2804927 0.2852362 0.28877524 0.2911331 0.2923735 0.29259542
        0.29192713 0.2905225 0.28855997 0.28623116 1.1831684e-06 0.018037597
        0.035981227 0.053741366 0.07123084 0.088371634 0.10509642 0.121349834
        0.137089 0.1522832 0.16691221 0.18096335 0.19442692 0.20729057
        0.21953288 0.23111746 0.24198878 0.25207123 0.26127237 0.2694906
        0.27662677 0.28259754 0.28734815 0.2908611 0.29315943 0.29430377
        0.2943861 0.29352382 0.29185882 0.2895635 0.28686163 9.1098786e-07
        0.018103022 0.036112837 0.053940296 0.071499266 0.08871273 0.10551443
        0.12185016 0.13767835 0.15296964 0.16770516 0.18187338 0.19546522
        0.208468 0.22085865 0.23259735 0.24362329 0.253854 0.2631894
        0.27152064 0.2787431 0.28477028 0.28954655 0.2930544 0.29531562
        0.29638618 0.2963481 0.29530317 0.29337293 0.29071158 0.28756806
        6.624668e-07 0.01816859 0.036244698 0.05413957 0.07176814 0.08905439
        0.105933145 0.122351356 0.13826878 0.15365744 0.1684999 0.18278581
        0.19650684 0.20965023 0.22219141 0.23408745 0.2452726 0.25565794
        0.2651361 0.27359146 0.28091413 0.28701484 0.29183698 0.29536286
        0.2976123 0.29863536 0.2985018 0.2972926 0.29509905 0.29203838
        0.288364 4.4487112e-07 0.018234257 0.03637672 0.054339062 0.07203728
        0.08939639 0.106352255 0.122853056 0.13885984 0.15434606 0.16929574
        0.18369985 0.19755092 0.21083626 0.22353011 0.23558675 0.24693589
        0.25748253 0.26711252 0.27570385 0.28314173 0.28933427 0.29422408
        0.29779315 0.30005923 0.3010657 0.3008684 0.29952323 0.29707998
        0.29359195 0.28926814 2.631458e-07 0.018299954 0.03650876 0.054538548
        0.072306395 0.089738324 0.1067713 0.123354666 0.13945082 0.15503466
        0.17009172 0.18461435 0.19859612 0.21202457 0.22487311 0.23709357
        0.24861155 0.25932646 0.26911777 0.2778575 0.28542644 0.29173017
        0.29671082 0.30035028 0.3026644 0.3036902 0.3034691 0.3020293
        0.2993689 0.29544246 0.29030764 1.17635174e-07 0.018365562 0.036640573
        0.054737657 0.07257497 0.09007957 0.10718947 0.123855226 0.14004056
        0.15572187 0.1708862 0.18552741 0.19964024 0.21321274 0.22621773
        0.23860502 0.2502966 0.26118675 0.27114913 0.28005016 0.28776643
        0.29420143 0.29929715 0.30303583 0.3054323 0.30651832 0.30632246
        0.30484602 0.30203035 0.29769614 0.2915235 0 0.018431017
        0.03677205 0.054936226 0.07284281 0.09041983 0.10760641 0.124354266
        0.14062847 0.15640688 0.17167814 0.1864376 0.20068124 0.21439771
        0.22755943 0.24011444 0.2519813 0.2630495 0.27318725 0.28225556
        0.29012704 0.29670343 0.3019266 0.30577973 0.30827722 0.30944687
        0.30930626 0.30783272 0.30491567 0.3002473 0.292981
      </DataArray>
      <DataArray type="Float32" Name="aspect_ratio" format="ascii" RangeMin="1.2993277311325073" RangeMax="8.478708267211914">
        7.9630804 7.9209685 7.8566275 7.750887 7.6060295 7.425118
        7.211852 6.9704075 6.7052646 6.421046 6.122359 5.813662
        5.499151 5.1826744 4.8676715 4.5571423 4.2536306 3.9592369
        3.675637 3.4041162 3.1456063 2.9007258 2.6698217 2.453007
        2.2501976 2.0611463 1.885472 1.722683 1.5721797 1.4331927
        1.2993277 7.975086 7.9328814 7.8684034 7.7624483 7.617302
        7.436033 7.222347 6.980427 6.7147613 6.429981 6.1307044
        5.8213983 5.5062714 5.189185 4.8735933 4.5625095 4.258494
        3.9636588 3.6796927 3.4078887 3.1491842 2.904202 2.6732905
        2.4565673 2.25396 2.0652466 1.8901085 1.7282125 1.5794431
        1.4447722 1.3175912 7.987135 7.9448357 7.880219 7.774047
        7.6286097 7.446981 7.2328734 6.990477 6.724288 6.4389462
        6.139078 5.829163 5.513421 5.195726 4.879547 4.5679135
        4.263399 3.968132 3.6838114 3.41174 3.1528618 2.9078028
        2.6769156 2.4603243 2.2579694 2.0696602 1.8951453 1.7342358
        1.5870696 1.4544703 1.3297409 7.9992266 7.9568315 7.892075
        7.7856846 7.6399546 7.457965 7.243435 7.0005603 6.7338467
        6.4479423 6.147483 5.8369584 5.5206013 5.202299 4.8855357
        4.5733557 4.2683487 3.972658 3.6879945 3.4156709 3.1566377
        2.9115257 2.680692 2.4642663 2.2622035 2.0743413 1.9004791
        1.7404978 1.5945057 1.4626981 1.3383874 8.011362 7.9688735
        7.903978 7.79737 7.651349 7.4690003 7.254049 7.0106983
        6.743462 6.456997 6.155948 5.8448167 5.527847 5.20894
        4.8915954 4.5788736 4.273381 3.9772751 3.6922803 3.419719
        3.160549 2.9154053 2.6846488 2.4684157 2.2666707 2.0792694
        1.9060308 1.7468162 1.6015345 1.4697691 1.3449517 8.023541
        7.980962 7.9159293 7.809107 7.6627975 7.4800916 7.2647214
        7.0208983 6.7531424 6.466119 6.164483 5.8527474 5.535168
        5.21566 4.8977385 4.5844803 4.278508 3.9819956 3.6966798
        3.423894 3.1646023 2.9194448 2.6887848 2.4727616 2.271344
        2.0843892 1.9116986 1.7530446 1.608078 1.4759326 1.3502262
        8.035764 7.993097 7.9279304 7.820895 7.6742997 7.49124
        7.2754545 7.031161 6.762888 6.4753094 6.1730905 5.8607535
        5.5425673 5.2224617 4.903967 4.590177 4.283732 3.9868197
        3.7011926 3.428193 3.168793 2.9236352 2.6930847 2.477279
        2.276182 2.0896347 1.9173875 1.759084 1.6141298 1.4813807
        1.3546644 8.048031 8.005278 7.9399796 7.832734 7.6858554
        7.5024443 7.286246 7.041485 6.772698 6.4845676 6.181768
        5.868833 5.5500436 5.2293434 4.9102798 4.595962 4.289049
        3.9917443 3.7058134 3.4326098 3.1731105 2.9279618 2.6975267
        2.481936 2.2811387 2.0949411 1.9230195 1.7648758 1.619717
        1.4862596 1.3585342 8.060342 8.017506 7.952077 7.8446236
        7.6974635 7.5137033 7.297095 7.0518694 6.7825713 6.4938917
        6.1905146 5.876984 5.5575943 5.2363033 4.9166737 4.6018333
        4.294457 3.996765 3.7105365 3.437135 3.1775436 2.9324086
        2.7020879 2.4867 2.286169 2.100252 1.9285363 1.7703907
        1.6248807 1.4906799 1.3619986 8.072696 8.0297785 7.964222
        7.8565626 7.7091227 7.5250163 7.3079996 7.0623116 6.7925053
        6.5032797 6.199328 5.8852057 5.565219 5.24334 4.9231477
        4.6077876 4.2999516 4.001877 3.7153554 3.4417605 3.1820796
        2.9369578 2.7067444 2.4915392 2.2912314 2.1055186 1.9338968
        1.7756199 1.6296649 1.4947252 1.3651606 8.085095 8.042098
        7.976414 7.86855 7.720833 7.5363812 7.318959 7.072812
        6.8025 6.5127306 6.2082076 5.893496 5.572915 5.2504516
        4.9297004 4.6138234 4.305531 4.0070763 3.7202644 3.4464777
        3.1867068 2.9415932 2.7114735 2.4964232 2.296289 2.1107032
        1.9390744 1.7805662 1.634112 1.4984595 1.3680872 8.097538
        8.054462 7.9886537 7.880586 7.732593 7.5477986 7.3299727
        7.083369 6.812554 6.522244 6.2171526 5.901855 5.580683
        5.257638 4.93633 4.619939 4.3111925 4.012359 3.725258
        3.4512784 3.1914134 2.9462984 2.7162533 2.5013237 2.3013096
        2.115776 1.9440532 1.78524 1.6382594 1.5019308 1.3708237
        8.110026 8.066874 8.00094 7.89267 7.744403 7.5592675
        7.3410406 7.0939817 6.8226666 6.5318193 6.2261624 5.910282
        5.5885224 5.2648983 4.9430366 4.626134 4.3169346 4.0177236
        3.7303312 3.456155 3.1961884 2.9510574 2.7210627 2.506216
        2.3062663 2.120715 1.9488251 1.7896549 1.6421398 1.5051767
        1.3734016 8.122559 8.0793295 8.013273 7.9048023 7.7562623
        7.570788 7.352162 7.1046515 6.8328385 6.541457 6.2352376
        5.918778 5.596433 5.2722335 4.94982 4.6324067 4.3227553
        4.023165 3.735479 3.4611 3.2010205 2.9558554 2.7258828
        2.5110772 2.3111367 2.1255033 1.9533875 1.7938251 1.6457806
        1.5082256 1.3758429 8.135137 8.091832 8.025653 7.916983
        7.7681713 7.58236 7.363337 7.115377 6.8430696 6.551157
        6.2443786 5.927343 5.604417 5.2796435 4.956681 4.638758
        4.328654 4.028682 3.740697 3.4661064 3.2058992 2.960678
        2.7306952 2.5158873 2.3159025 2.13013 1.9577411 1.7977655
        1.6492046 1.5110996 1.3781637 8.147759 8.104382 8.03808
        7.9292116 7.7801304 7.593983 7.3745656 7.1261587 6.85336
        6.5609193 6.2535853 5.935977 5.612473 5.2871294 4.9636188
        4.6451874 4.3346295 4.0342727 3.7459807 3.4711668 3.2108145
        2.965512 2.7354844 2.5206294 2.320549 2.1345873 1.9618887
        1.8014889 1.6524304 1.5138159 1.3803755 8.160427 8.116977
        8.050554 7.9414883 7.792139 7.6056585 7.3858485 7.136997
        6.8637104 6.570745 6.2628593 5.944682 5.6206026 5.2946916
        4.970635 4.6516953 4.3406806 4.039933 3.7513263 3.4762745
        3.215757 2.9703445 2.7402353 2.5252886 2.325064 2.1388698
        1.9658341 1.8050072 1.655473 1.516387 1.3824862 8.1731415
        8.129618 8.063076 7.9538136 7.8041973 7.6173854 7.3971853
        7.147893 6.8741207 6.580634 6.272201 5.9534583 5.6288075
        5.3023314 4.9777303 4.6582813 4.346807 4.045663 3.7567294
        3.4814236 3.2207174 2.9751644 2.7449346 2.529852 2.3294384
        2.1429744 1.9695817 1.8083302 1.6583439 1.5188227 1.3845017
        8.185901 8.142305 8.0756445 7.9661875 7.8163056 7.629164
        7.408577 7.158846 6.884592 6.590588 6.2816105 5.9623065
        5.6370883 5.3100495 4.9849052 4.6649456 4.3530083 4.051459
        3.7621863 3.4866078 3.2256873 2.9799607 2.7495708 2.5343087
        2.3336644 2.1468992 1.9731354 1.8114662 1.6610522 1.5211296
        1.3864251 8.198707 8.155041 8.088261 7.97861 7.8284645
        7.6409955 7.420023 7.169857 6.8951244 6.6006074 6.2910895
        5.9712286 5.645446 5.3178473 4.992161 4.6716895 4.3592834
        4.05732 3.7676935 3.4918218 3.2306592 2.9847243 2.754134
        2.5386498 2.3377366 2.150643 1.9764986 1.8144213 1.6636043
        1.5233123 1.3882585 8.211559 8.167823 8.100925 7.991081
        7.840674 7.652879 7.4315248 7.180926 6.905719 6.610692
        6.3006387 5.9802246 5.6538815 5.325726 4.9994974 4.6785126
        4.3656325 4.0632443 3.7732482 3.49706 3.235626 2.9894464
        2.758615 2.5428674 2.3416502 2.1542053 1.9796743 1.8172001
        1.6660041 1.5253733 1.3900017 8.224459 8.180652 8.113637
        8.003602 7.852934 7.664816 7.4430814 7.192054 6.916375
        6.6208434 6.310259 5.989296 5.6623964 5.3336864 5.006917
        4.6854157 4.3720555 4.069231 3.778847 3.5023184 3.240581
        2.9941196 2.7630062 2.5469558 2.3454015 2.1575856 1.9826643
        1.8198054 1.6682538 1.5273129 1.3916532 8.237404 8.193528
        8.126397 8.016171 7.865245 7.6768055 7.4546943 7.2032404
        6.927095 6.631062 6.319951 5.998444 5.6709914 5.34173
        5.01442 4.6924 4.378552 4.0752783 3.7844877 3.5075922
        3.2455192 2.9987376 2.7673013 2.5509095 2.3489873 2.1607828
        1.9854696 1.8222382 1.6703537 1.5291297 1.3932104 8.250398
        8.206452 8.139206 8.02879 7.8776064 7.6888485 7.466363
        7.214487 6.937878 6.641349 6.3297157 6.0076694 5.6796684
        5.3498583 5.022008 4.6994653 4.385122 4.0813856 3.7901683
        3.5128787 3.2504356 3.003295 2.771495 2.5547245 2.3524058
        2.1637967 1.9880899 1.8244982 1.6723019 1.530821 1.3946688
        8.263437 8.219424 8.152062 8.041459 7.89002 7.7009454
        7.4780884 7.2257934 6.9487257 6.6517043 6.3395543 6.0169735
        5.6884284 5.358072 5.0296817 4.7066135 4.3917656 4.0875525
        3.7958868 3.5181744 3.2553265 3.007787 2.7755835 2.5583975
        2.3556545 2.1666255 1.9905244 1.8265833 1.6740949 1.5323818
        1.3960226 8.2765255 8.232444 8.164968 8.054177 7.902485
        7.7130957 7.4898705 7.23716 6.9596376 6.6621294 6.3494678
        6.0263577 5.6972723 5.366372 5.037442 4.713845 4.398484
        4.093779 3.801642 3.5234773 3.2601886 3.0122108 2.7795634
        2.5619261 2.3587317 2.1692684 1.9927706 1.8284897 1.6757276
        1.5338055 1.3972641 8.289661 8.245512 8.177922 8.066946
        7.9150014 7.7253003 7.50171 7.248588 6.970615 6.6726246
        6.3594565 6.035822 5.7062016 5.374761 5.045292 4.7211614
        4.405278 4.1000643 3.8074334 3.528786 3.26502 3.0165637
        2.7834327 2.5653086 2.3616364 2.171723 1.9948254 1.8302124
        1.6771926 1.5350837 1.398384 8.302845 8.258629 8.190925
        8.079764 7.92757 7.73756 7.513607 7.2600775 6.981658
        6.683191 6.3695216 6.0453687 5.7152176 5.38324 5.0532312
        4.7285633 4.4121485 4.10641 3.8132608 3.5340996 3.2698193
        3.0208445 2.78719 2.5685441 2.364367 2.1739874 1.9966847
        1.8317444 1.6784807 1.5362054 1.3993703 8.316077 8.271793
        8.203977 8.092633 7.9401903 7.749873 7.525562 7.2716284
        6.9927673 6.6938286 6.379664 6.054998 5.7243214 5.39181
        5.0612626 4.7360535 4.4190965 4.112816 3.8191247 3.5394177
        3.2745864 3.0250528 2.7908351 2.5716324 2.3669229 2.176059
        1.9983433 1.8330775 1.6795806 1.5371577 1.4002087 8.329358
        8.2850065 8.217078 8.105553 7.9528637 7.7622423 7.537575
        7.2832413 7.003944 6.7045383 6.3898845 6.0647116 5.733515
        5.4004726 5.069387 4.7436323 4.4261236 4.119284 3.8250258
        3.5447416 3.2793214 3.029189 2.794369 2.574574 2.3693037
        2.1779354 1.9997953 1.8342017 1.6804786 1.5379244 1.4008815
        8.342688 8.298269 8.230229 8.118523 7.9655895 7.774666
        7.5496464 7.294917 7.0151877 6.7153215 6.400184 6.07451
        5.7427983 5.40923 5.077606 4.7513027 4.4332323 4.1258163
        3.830966 3.5500727 3.2840264 3.033255 2.7977931 2.5773704
        2.3715093 2.1796138 2.0010343 1.8351057 1.6811584 1.538486
        1.4013673 8.356066 8.311581 8.24343 8.131544 7.978368
        7.7871456 7.5617766 7.306656 7.0264993 6.7261786 6.410564
        6.0843954 5.7521744 5.4180837 5.0859227 4.759066 4.440424
        4.132415 3.8369474 3.555413 3.2887037 3.0372539 2.8011107
        2.580024 2.3735409 2.181092 2.0020528 1.8357762 1.6816012
        1.5388193 1.4016393 8.3694935 8.324942 8.2566805 8.144616
        7.9911995 7.7996807 7.5739665 7.318458 7.03788 6.7371097
        6.421025 6.094368 5.7616444 5.4270353 5.094339 4.766926
        4.447702 4.139083 3.8429735 3.5607662 3.293357 3.0411892
        2.8043258 2.5825381 2.3753994 2.182368 2.0028436 1.836199
        1.6817847 1.5388958 1.4016644 8.382971 8.338351 8.26998
        8.15774 8.004085 7.8122725 7.586216 7.3303246 7.04933
        6.748117 6.4315677 6.10443 5.7712097 5.4360867 5.1028566
        4.774884 4.4550695 4.145823 3.8490477 3.5661366 3.2979908
        3.0450664 2.8074436 2.5849175 2.3770883 2.183441 2.0034
        1.8363588 1.6816838 1.5386814 1.4014006 8.396497 8.351811
        8.283331 8.170915 8.017024 7.8249207 7.598526 7.342256
        7.0608506 6.7592006 6.442194 6.1145825 5.7808723 5.445241
        5.1114793 4.7829447 4.46253 4.1526403 3.8551753 3.5715294
        3.3026116 3.048892 2.810471 2.5871687 2.3786118 2.1843114
        2.0037158 1.8362395 1.6812694 1.5381341 1.4007944 8.410073
        8.365321 8.296732 8.184142 8.030018 7.837627 7.6108975
        7.354254 7.0724425 6.770362 6.4529057 6.124828 5.7906346
        5.4545007 5.1202097 4.791111 4.470089 4.15954 3.861362
        3.5769513 3.3072267 3.0526743 2.813417 2.5893 2.3799765
        2.1849823 2.0037866 1.8358252 1.6805094 1.5372026 1.3997755
        8.4237 8.378881 8.3101845 8.197422 8.043066 7.850391
        7.623331 7.3663187 7.0841074 6.7816033 6.4637046 6.1351686
        5.8005 5.4638696 5.1290526 4.799389 4.4777513 4.166529
        3.8676155 3.582411 3.3118455 3.0564234 2.8162918 2.591322
        2.381192 2.1854594 2.0036116 1.8351022 1.6793687 1.5358233
        1.3982503 8.437377 8.392491 8.3236885 8.210756 8.056171
        7.863215 7.635829 7.378453 7.095848 6.7929273 6.474594
        6.1456075 5.810472 5.473352 5.1380134 4.8077836 4.4855247
        4.1736155 3.8739452 3.587919 3.3164797 3.0601525 2.8191094
        2.5932486 2.3822715 2.185753 2.0031943 1.8340607 1.6778114
        1.533917 1.3960896 8.451103 8.406153 8.337245 8.224145
        8.069335 7.8761015 7.648394 7.3906593 7.107668 6.804338
        6.4855785 6.156151 5.820557 5.4829545 5.1470995 4.816305
        4.493419 4.18081 3.8803632 3.593489 3.3211446 3.0638778
        2.8218877 2.5950987 2.3832333 2.1858807 2.0025473 1.8326994
        1.6758046 1.5313838 1.3931097 8.464881 8.419866 8.350856
        8.237592 8.082561 7.8890543 7.661031 7.4029446 7.119573
        6.8158426 6.496666 6.1668067 5.8307643 5.492688 5.1563225
        4.8249655 4.5014486 4.188129 3.8868876 3.59914 3.3258605
        3.0676215 2.8246503 2.5968971 2.3841043 2.1858685 2.0016937
        1.8310318 1.6733274 1.5280975 1.3890394 8.478708 8.43363
        8.36452 8.251094 8.095844 7.902071 7.673736 7.4153037
        7.1315594 6.827436 6.5078516 6.177571 5.8410892 5.5025496
        5.165681 4.8337655 4.5096173 4.1955805 3.8935308 3.6048908
        3.3306525 3.071415 2.8274353 2.5986893 2.3849366 2.1857774
        2.0007024 1.8291289 1.670427 1.5239377 1.3834623
      </DataArray>
      <DataArray type="Float32" Name="jacobian" format="ascii" RangeMin="0.0044723195023834705" RangeMax="0.02790329046547413">
        0.026206369 0.026071198 0.025870323 0.025540397 0.02508812 0.024522407
        0.023854038 0.023095258 0.02225932 0.021360038 0.020411348 0.019426906
        0.018419746 0.017402003 0.016384693 0.015377584 0.014389107 0.013426346
        0.012495065 0.011599783 0.010743871 0.009929675 0.009158629 0.008431392
        0.0077479538 0.007107737 0.0065096733 0.005952226 0.0054332647 0.0049492335
        0.0044723195 0.026245879 0.02611049 0.025909241 0.025578666 0.025125477
        0.024558606 0.023888847 0.02312847 0.022290753 0.021389538 0.02043879
        0.019452201 0.018442845 0.017422903 0.016403444 0.015394287 0.014403919
        0.013439473 0.012506756 0.011610321 0.01075356 0.0099388305 0.009167579
        0.0084404815 0.0077575655 0.0071183527 0.0065220012 0.005967567 0.0054547437
        0.0049868533 0.0045394218 0.026285531 0.02614993 0.025948312 0.025617097
        0.025163006 0.024594983 0.023923846 0.02316188 0.022322392 0.02141925
        0.02046645 0.019477721 0.018466178 0.017444048 0.01642245 0.015411263
        0.014419029 0.013452931 0.012518825 0.011621297 0.010763767 0.0099486075
        0.0091772815 0.008450488 0.007768311 0.007130388 0.0065361387 0.0059851785
        0.005478251 0.005018648 0.0045840023 0.026325325 0.026189517 0.02598754
        0.02565569 0.025200706 0.02463154 0.023959031 0.023195485 0.022354234
        0.021449171 0.020494327 0.019503463 0.018489739 0.017465428 0.016441705
        0.015428502 0.014434422 0.0134667065 0.012531256 0.011632697 0.010774475
        0.009958985 0.009187712 0.008461383 0.0077801407 0.007143741 0.006551818
        0.006004312 0.005502044 0.00504647 0.004615708 0.026365262 0.026229244
        0.026026903 0.025694422 0.025238542 0.024668233 0.023994353 0.02322923
        0.022386216 0.021479236 0.020522349 0.019529354 0.018513454 0.017486969
        0.01646113 0.015445928 0.014450028 0.013480725 0.0125439735 0.01164444
        0.010785602 0.009969877 0.00919877 0.008473039 0.0077928784 0.007158129
        0.0065685385 0.0060240612 0.005524963 0.0050707036 0.004639758 0.026405344
        0.026269106 0.026066398 0.025733279 0.025276503 0.02470505 0.024029799
        0.023263095 0.02241832 0.021509424 0.020550497 0.019555375 0.018537303
        0.01750865 0.016480707 0.015463522 0.01446582 0.013494961 0.01255695
        0.011656495 0.010797108 0.009981229 0.009210384 0.008485353 0.0078063607
        0.007173282 0.006585848 0.0060437713 0.005546501 0.0050919354 0.004659052
        0.02644557 0.026309105 0.026106024 0.025772264 0.025314588 0.02474199
        0.024065364 0.023297083 0.022450546 0.021539735 0.02057877 0.019581527
        0.018561289 0.017530477 0.016500438 0.015481284 0.0144818025 0.013509414
        0.012570179 0.01166885 0.010808971 0.009993006 0.009222494 0.008498226
        0.007820429 0.007188946 0.0066033695 0.0060630133 0.005566505 0.005110724
        0.004675248 0.026485939 0.026349243 0.026145784 0.02581138 0.0253528
        0.024779057 0.024101058 0.023331197 0.022482902 0.02157018 0.02060718
        0.01960782 0.018585421 0.01755246 0.016520334 0.015499225 0.014497982
        0.013524089 0.012583661 0.011681497 0.010821173 0.010005172 0.009235041
        0.008511563 0.007834929 0.00720489 0.0066208066 0.0060815313 0.005584999
        0.005127536 0.004689325 0.026526453 0.026389519 0.02618568 0.02585063
        0.025391147 0.024816254 0.024136884 0.023365447 0.022515398 0.021600766
        0.020635739 0.019634264 0.018609714 0.017574608 0.01654041 0.015517359
        0.014514371 0.013538993 0.012597398 0.011694429 0.010833695 0.010017691
        0.009247961 0.008525261 0.007849711 0.0072209113 0.006637938 0.0060991887
        0.005602087 0.005142741 0.004701881 0.02656711 0.026429936 0.026225712
        0.025890015 0.025429629 0.02485359 0.024172852 0.023399841 0.022548039
        0.021631503 0.020664455 0.019660875 0.01863418 0.017596941 0.01656068
        0.0155356955 0.014530976 0.013554132 0.01261139 0.011707639 0.010846515
        0.010030523 0.009261191 0.008539222 0.007864636 0.007236841 0.006654606
        0.006115929 0.005617898 0.0051566237 0.004713293 0.026607916 0.026470497
        0.026265888 0.025929542 0.025468253 0.024891071 0.024208963 0.023434386
        0.022580836 0.021662403 0.02069334 0.019687662 0.01865883 0.017619466
        0.01658115 0.0155542465 0.014547809 0.01356951 0.012625635 0.011721114
        0.010859609 0.010043624 0.009274661 0.00855335 0.007879579 0.007252541
        0.0066707046 0.0061317454 0.005632564 0.0051694023 0.0047238097 0.026648866
        0.0265112 0.026306204 0.025969211 0.02550702 0.024928698 0.024245227
        0.023469085 0.022613794 0.021693472 0.0207224 0.019714633 0.018683674
        0.017642196 0.016601836 0.015573022 0.014564874 0.013585129 0.012640127
        0.0117348395 0.010872947 0.01005695 0.009288304 0.008567551 0.0078944275
        0.0072679003 0.0066861655 0.006146657 0.005646203 0.0051812436 0.004733598
        0.026689963 0.02655205 0.026346665 0.026009025 0.025545936 0.024966476
        0.024281645 0.023503944 0.022646919 0.021724716 0.020751644 0.0197418
        0.018708723 0.01766514 0.016622745 0.015592029 0.014582178 0.01360099
        0.012654861 0.011748801 0.010886502 0.010070453 0.009302053 0.008581741
        0.007909086 0.007282835 0.006700949 0.006160698 0.005658921 0.005192275
        0.004742774 0.026731208 0.026593043 0.026387272 0.026048986 0.025585001
        0.025004407 0.024318224 0.02353897 0.022680217 0.02175614 0.020781081
        0.019769168 0.018733984 0.017688308 0.016643886 0.015611275 0.014599724
        0.013617094 0.012669831 0.011762979 0.010900244 0.010084087 0.009315846
        0.00859584 0.007923471 0.00729728 0.006715035 0.006173909 0.0056708045
        0.0052025956 0.0047514224 0.026772602 0.026634185 0.026428027 0.026089098
        0.02562422 0.025042497 0.024354963 0.023574164 0.022713695 0.021787753
        0.020810716 0.019796744 0.018759467 0.017711706 0.016665267 0.015630767
        0.014617517 0.013633438 0.012685026 0.011777357 0.01091414 0.010097807
        0.00932962 0.008609778 0.007937514 0.0073111868 0.0067284163 0.0061863307
        0.005681927 0.005212279 0.0047596013 0.026814142 0.026675476 0.02646893
        0.026129361 0.025663592 0.025080744 0.02439187 0.023609532 0.022747353
        0.021819558 0.020840554 0.019824537 0.018785177 0.017735343 0.016686896
        0.015650509 0.014635557 0.013650021 0.0127004385 0.011791916 0.0109281605
        0.0101115685 0.0093433205 0.008623492 0.007951158 0.007324521 0.0067410935
        0.006198 0.0056923465 0.005221383 0.004767355 0.026855834 0.026716916
        0.026509985 0.026169777 0.025703121 0.025119154 0.024428943 0.023645075
        0.022781197 0.021851562 0.020870602 0.019852553 0.018811122 0.017759226
        0.016708776 0.015670508 0.01465385 0.013666839 0.012716059 0.011806636
        0.010942275 0.010125328 0.0093568945 0.008636927 0.007964358 0.0073372573
        0.0067530717 0.00620895 0.0057021105 0.0052299513 0.004774714 0.026897674
        0.026758507 0.026551193 0.026210347 0.02574281 0.025157727 0.024466187
        0.023680799 0.022815231 0.021883765 0.020900864 0.019880798 0.01883731
        0.017783364 0.01673092 0.015690768 0.014672396 0.013683891 0.012731877
        0.0118215 0.010956455 0.010139049 0.009370296 0.008650036 0.007977073
        0.007349378 0.0067643584 0.006219209 0.005711254 0.0052380143 0.0047816983
        0.026939668 0.026800249 0.02659255 0.026251072 0.025782658 0.025196467
        0.024503605 0.023716705 0.02284946 0.021916175 0.020931348 0.019909276
        0.018863745 0.01780776 0.016753329 0.015711294 0.014691198 0.013701174
        0.012747885 0.011836491 0.0109706735 0.010152694 0.009383484 0.008662778
        0.007989274 0.0073608696 0.0067749606 0.0062287985 0.005719804 0.005245594
        0.004788323 0.026981812 0.026842143 0.026634065 0.026291955 0.025822667
        0.025235374 0.024541201 0.023752797 0.022883885 0.021948798 0.020962056
        0.019937996 0.018890437 0.017832424 0.016776012 0.015732093 0.014710258
        0.013718687 0.012764073 0.01185159 0.010984905 0.01016623 0.009396422
        0.008675119 0.008000936 0.0073717227 0.0067848843 0.0062377346 0.0057277787
        0.005252704 0.004794593 0.027024109 0.026884193 0.026675735 0.026332999
        0.025862843 0.025274452 0.024578974 0.023789078 0.022918511 0.021981634
        0.020992996 0.019966964 0.018917391 0.017857362 0.016798975 0.015753169
        0.014729579 0.013736427 0.012780434 0.011866786 0.010999128 0.01017963
        0.0094090765 0.00868703 0.00801204 0.00738193 0.006794133 0.0062460275
        0.005735188 0.005259351 0.004800509 0.027066559 0.026926396 0.02671756
        0.0263742 0.025903182 0.025313703 0.024616927 0.023825552 0.022953343
        0.022014689 0.021024171 0.019996183 0.018944612 0.01788258 0.016822224
        0.015774526 0.014749163 0.013754393 0.012796963 0.011882063 0.0110133225
        0.010192867 0.009421422 0.008698487 0.008022567 0.0073914845 0.006802709
        0.006253682 0.0057420353 0.005265534 0.004806067 0.027109163 0.026968757
        0.026759544 0.026415566 0.025943689 0.025353126 0.024655065 0.023862218
        0.02298838 0.022047969 0.021055587 0.02002566 0.018972108 0.017908085
        0.016845766 0.015796172 0.014769014 0.0137725845 0.012813653 0.01189741
        0.011027472 0.010205922 0.009433437 0.00870947 0.008032506 0.0074003795
        0.00681061 0.0062606977 0.005748317 0.005271246 0.0048112553 0.027151924
        0.027011272 0.026801689 0.026457094 0.025984364 0.025392728 0.024693387
        0.023899082 0.023023631 0.022081474 0.021087246 0.0200554 0.018999886
        0.017933886 0.01686961 0.01581811 0.014789135 0.013791003 0.0128305
        0.01191282 0.011041561 0.010218776 0.009445103 0.008719965 0.008041845
        0.007408609 0.006817831 0.006267068 0.0057540243 0.0052764746 0.0048160586
        0.027194839 0.027053947 0.026843993 0.026498785 0.02602521 0.025432507
        0.024731899 0.023936147 0.023059096 0.022115212 0.021119157 0.020085411
        0.01902795 0.017959988 0.01689376 0.01584035 0.014809532 0.01380965
        0.012847503 0.011928285 0.011055579 0.010231416 0.009456405 0.008729959
        0.008050576 0.0074161664 0.0068243654 0.0062727816 0.0057591405 0.0052811997
        0.004820455 0.02723791 0.02709678 0.02688646 0.026540644 0.026066227
        0.025472464 0.024770599 0.023973413 0.023094779 0.022149185 0.021151323
        0.020115696 0.019056309 0.017986396 0.016918223 0.015862895 0.01483021
        0.013828528 0.01286466 0.011943799 0.01106952 0.010243833 0.0094673345
        0.008739444 0.008058691 0.0074230433 0.0068302006 0.0062778215 0.005763643
        0.005285396 0.004824416 0.02728114 0.027139774 0.026929088 0.02658267
        0.026107417 0.025512604 0.02480949 0.024010886 0.023130681 0.022183398
        0.021183748 0.020146262 0.019084968 0.018013122 0.01694301 0.015885754
        0.014851174 0.013847641 0.012881973 0.011959364 0.011083379 0.01025602
        0.009477886 0.008748416 0.008066186 0.007429231 0.006835323 0.0062821656
        0.0057675024 0.0052890293 0.004827907 0.02732453 0.027182927 0.02697188
        0.026624864 0.026148783 0.025552928 0.024848577 0.024048565 0.023166807
        0.022217851 0.021216437 0.020177115 0.019113932 0.01804017 0.016968124
        0.015908936 0.014872432 0.013866994 0.012899444 0.011974978 0.0110971555
        0.010267978 0.009488058 0.008756871 0.008073055 0.007434721 0.0068397145
        0.006285786 0.0057706824 0.0052920594 0.004830884 0.027368076 0.027226243
        0.027014839 0.026667228 0.026190326 0.025593437 0.02488786 0.024086453
        0.02320316 0.022252554 0.021249393 0.020208258 0.01914321 0.018067548
        0.016993577 0.015932446 0.014893991 0.013886594 0.012917082 0.011990647
        0.011110852 0.010279707 0.009497853 0.008764812 0.008079297 0.0074395044
        0.0068433555 0.006288651 0.005773139 0.0052944347 0.0048332936 0.027411781
        0.027269723 0.027057962 0.026709763 0.026232047 0.025634132 0.024927342
        0.024124555 0.023239745 0.022287505 0.021282624 0.020239698 0.019172808
        0.018095262 0.017019374 0.015956296 0.014915859 0.013906451 0.0129348915
        0.012006376 0.011124474 0.010291215 0.009507276 0.008772244 0.008084913
        0.0074435715 0.0068462235 0.0062907212 0.0057748198 0.0052960957 0.004835072
        0.027455648 0.027313367 0.027101254 0.02675247 0.026273947 0.025675016
        0.024967022 0.024162872 0.02327656 0.02232271 0.021316132 0.02027144
        0.019202732 0.018123321 0.017045526 0.015980491 0.014938048 0.013926573
        0.012952883 0.012022176 0.011138032 0.010302511 0.009516339 0.008779174
        0.008089904 0.007446914 0.0068482943 0.0062919534 0.005775663 0.0052969684
        0.0048361383 0.027499678 0.027357174 0.027144713 0.026795352 0.026316026
        0.02571609 0.025006905 0.024201406 0.023313612 0.022358172 0.021349918
        0.020303488 0.019232986 0.018151734 0.01707204 0.016005047 0.014960568
        0.013946972 0.012971069 0.0120380595 0.011151542 0.0103136115 0.009525055
        0.008785615 0.008094276 0.0074495254 0.0068495413 0.006292299 0.0057755965
        0.0052969647 0.0048363954 0.027543867 0.027401147 0.027188344 0.026838409
        0.026358288 0.025757354 0.025046993 0.024240158 0.0233509 0.022393892
        0.021383991 0.020335848 0.01926358 0.018180504 0.017098924 0.016029967
        0.01498343 0.01396766 0.012989463 0.012054042 0.011165018 0.010324534
        0.009533444 0.008791584 0.008098039 0.007451401 0.0068499404 0.0062917043
        0.0057745376 0.005295979 0.0048357206 0.02758822 0.027445287 0.027232144
        0.026881639 0.026400734 0.02579881 0.025087284 0.02427913 0.023388427
        0.022429874 0.021418352 0.020368524 0.019294515 0.01820964 0.01712619
        0.016055267 0.0150066465 0.013988653 0.013008081 0.012070142 0.011178483
        0.010335301 0.009541531 0.008797102 0.008101207 0.00745254 0.0068494664
        0.0062901126 0.0057723895 0.0052938806 0.0048339604 0.027632736 0.027489595
        0.027276114 0.026925046 0.02644336 0.025840461 0.02512778 0.024318323
        0.023426196 0.022466121 0.021453 0.020401517 0.019325798 0.01823915
        0.017153844 0.016080957 0.01503023 0.0140099665 0.013026943 0.01208638
        0.01119196 0.010345941 0.009549343 0.008802196 0.0081038 0.0074529485
        0.0068480987 0.0062874644 0.0057690437 0.005290513 0.0048309183 0.027677415
        0.027534071 0.027320256 0.02696863 0.026486171 0.025882304 0.02516848
        0.024357736 0.023464203 0.022502631 0.021487944 0.020434834 0.019357432
        0.018269036 0.017181894 0.016107045 0.015054195 0.014031615 0.013046068
        0.012102782 0.011205479 0.010356484 0.009556913 0.008806898 0.008105843
        0.0074526374 0.0068458226 0.0062837 0.0057643764 0.0052856803 0.0048263376
        0.02772226 0.027578715 0.02736457 0.027012391 0.026529165 0.025924336
        0.025209384 0.02439737 0.023502452 0.022539405 0.021523176 0.020468472
        0.01938942 0.018299304 0.017210344 0.016133541 0.015078554 0.014053618
        0.013065477 0.0121193705 0.011219066 0.010366964 0.009564278 0.008811247
        0.008107372 0.0074516283 0.0068426323 0.006278765 0.0057582515 0.0052791387
        0.004819874 0.027767269 0.027623527 0.027409054 0.027056323 0.02657234
        0.025966559 0.02525049 0.024437219 0.023540935 0.022576438 0.021558696
        0.020502428 0.01942176 0.018329956 0.017239202 0.01616045 0.015103316
        0.014075987 0.013085188 0.012136172 0.011232753 0.010377418 0.00957148
        0.008815283 0.008108426 0.0074499534 0.006838537 0.006272614 0.0057505225
        0.0052705784 0.004811055 0.027812444 0.027668506 0.027453708 0.027100429
        0.026615687 0.026008964 0.02529179 0.024477277 0.023579646 0.022613725
        0.021594498 0.020536697 0.019454446 0.018360985 0.017268462 0.01618778
        0.01512849 0.014098736 0.013105222 0.01215321 0.011246572 0.010387882
        0.009578559 0.008819056 0.008109055 0.0074476576 0.0068335617 0.0062652244
        0.005741044 0.005259601 0.004799207 0.027857784 0.02771365 0.027498525
        0.027144698 0.026659202 0.026051542 0.025333269 0.024517529 0.02361857
        0.022651244 0.021630563 0.020571262 0.019487463 0.01839238 0.017298117
        0.016215518 0.015154072 0.01412187 0.013125588 0.012170504 0.011260548
        0.010398388 0.0095855575 0.008822613 0.008109314 0.007444799 0.006827758
        0.006256607 0.0057296925 0.00524568 0.0047833365 0.02790329 0.027758963
        0.027543508 0.027189136 0.026702892 0.0260943 0.025374942 0.02455799
        0.02365772 0.022689018 0.02166691 0.020606147 0.019520838 0.018424174
        0.017328206 0.016243717 0.015180125 0.014145463 0.013146378 0.012188163
        0.011274811 0.010409091 0.009592653 0.00882616 0.008109437 0.007441644
        0.006821426 0.006247081 0.0057167117 0.005228443 0.004761913
      </DataArray>
    </PointData>
    <CellData>
    </CellData>
    <Points>
      <DataArray type="Float32" Name="Points" NumberOfComponents="3" format="ascii" RangeMin="0.8098527442332144" RangeMax="0.9361340895977444">
        0.4671739 -0.054038677 0.65931016 0.47721797 -0.054066334 0.65964764
        0.48721552 -0.054092687 0.6599691 0.4971153 -0.05411761 0.6602732
        0.50686806 -0.05414101 0.6605587 0.5164275 -0.05416281 0.6608247
        0.52575105 -0.05418297 0.66107064 0.5348007 -0.05420145 0.6612961
        0.5435433 -0.05421825 0.6615011 0.5519511 -0.0542334 0.6616859
        0.56000173 -0.05424693 0.661851 0.5676783 -0.0542589 0.6619971
        0.57496893 -0.0542694 0.6621252 0.5818671 -0.054278508 0.6622363
        0.58837056 -0.05428633 0.66233176 0.5944812 -0.054292973 0.66241276
        0.6002047 -0.054298546 0.6624808 0.6055497 -0.05430316 0.66253704
        0.61052734 -0.054306924 0.662583 0.61515105 -0.054309938 0.66261977
        0.6194356 -0.054312304 0.6626486 0.62339723 -0.054314118 0.66267073
        0.62705266 -0.054315455 0.66268706 0.6304192 -0.054316394 0.6626985
        0.63351434 -0.054317005 0.662706 0.6363554 -0.054317348 0.6627102
        0.6389594 -0.054317474 0.6627117 0.64134294 -0.054317426 0.66271114
        0.64352196 -0.054317247 0.66270894 0.6455118 -0.054316964 0.6627055
        0.647327 -0.054316603 0.6627011 0.4671739 -0.053093053 0.659387
        0.4772331 -0.053120263 0.65972495 0.4872457 -0.05314617 0.66004694
        0.4971604 -0.053170647 0.66035146 0.5069278 -0.053193595 0.6606374
        0.5165015 -0.053214937 0.66090375 0.52583885 -0.053234626 0.6611499
        0.5349018 -0.053252626 0.66137564 0.5436572 -0.053268943 0.66158086
        0.55207705 -0.053283595 0.66176575 0.5601391 -0.053296607 0.6619309
        0.56782633 -0.053308055 0.66207707 0.57512695 -0.053317998 0.6622051
        0.5820343 -0.053326536 0.6623162 0.58854616 -0.053333756 0.6624116
        0.5946645 -0.05333978 0.6624925 0.60039496 -0.0533447 0.6625604
        0.6057463 -0.053348646 0.66261655 0.6107299 -0.05335174 0.6626623
        0.615359 -0.05335409 0.6626989 0.6196487 -0.053355817 0.66272765
        0.62361526 -0.053357024 0.6627496 0.6272755 -0.053357836 0.66276574
        0.63064706 -0.05335835 0.662777 0.6337474 -0.053358685 0.6627843
        0.63659394 -0.053358935 0.6627882 0.6392041 -0.05335922 0.6627896
        0.64159465 -0.053359684 0.66278875 0.64378226 -0.053360537 0.66278625
        0.6457839 -0.053362194 0.66278243 0.64761925 -0.05336605 0.6627774
        0.4671739 -0.05214732 0.65946245 0.47724828 -0.05217408 0.659801
        0.48727605 -0.05219954 0.66012347 0.49720564 -0.05222357 0.66042846
        0.5069877 -0.052246068 0.66071475 0.51657575 -0.052266948 0.6609814
        0.525927 -0.052286174 0.6612279 0.53500336 -0.052303705 0.66145384
        0.5437715 -0.05231954 0.6616592 0.5522036 -0.052333705 0.66184425
        0.5602771 -0.05234622 0.6620095 0.56797504 -0.052357145 0.6621557
        0.5752857 -0.052366555 0.6622837 0.58220226 -0.052374527 0.6623948
        0.5887226 -0.05238117 0.66249007 0.59484875 -0.052386586 0.6625709
        0.60058635 -0.05239088 0.66263866 0.60594416 -0.052394193 0.6626947
        0.61093366 -0.05239664 0.66274023 0.6155684 -0.052398358 0.6627767
        0.6198634 -0.05239948 0.66280526 0.6238351 -0.05240014 0.662827
        0.62750053 -0.052400474 0.6628429 0.63087726 -0.052400637 0.6628541
        0.6339831 -0.052400764 0.66286117 0.6368356 -0.052401025 0.6628649
        0.63945234 -0.052401595 0.662866 0.6418506 -0.052402727 0.66286486
        0.6440476 -0.052404795 0.6628621 0.64606136 -0.052408513 0.6628579
        0.6479114 -0.05241539 0.66285247 0.4671739 -0.051201485 0.65953654
        0.47726354 -0.051227793 0.65987563 0.48730645 -0.05125281 0.6601986
        0.4972511 -0.051276382 0.660504 0.5070479 -0.051298425 0.66079074
        0.51665026 -0.05131885 0.6610577 0.5260155 -0.051337615 0.6613045
        0.5351053 -0.05135469 0.6615307 0.5438863 -0.05137006 0.6617362
        0.5523306 -0.051383734 0.6619214 0.5604157 -0.05139576 0.6620867
        0.5681245 -0.05140618 0.66223294 0.5754452 -0.051415063 0.66236097
        0.58237106 -0.0514225 0.66247195 0.58889997 -0.051428575 0.6625672
        0.595034 -0.051433396 0.6626479 0.60077876 -0.051437095 0.66271555
        0.60614324 -0.051439792 0.6627714 0.6111389 -0.051441625 0.6628168
        0.6157793 -0.05144274 0.66285306 0.62007976 -0.051443294 0.6628815
        0.6240568 -0.051443446 0.662903 0.62772757 -0.05144337 0.6629188
        0.63110983 -0.051443238 0.6629297 0.6342215 -0.05144324 0.66293657
        0.6370804 -0.051443595 0.6629401 0.63970417 -0.051444553 0.6629409
        0.6421106 -0.051446456 0.66293955 0.6443172 -0.05144982 0.66293645
        0.64634216 -0.05145545 0.6629319 0.6482037 -0.05146462 0.6629261
        0.4671739 -0.050255537 0.6596093 0.47727883 -0.05028139 0.65994895
        0.487337 -0.05030596 0.66027236 0.49729666 -0.05032908 0.66057825
        0.5071083 -0.050350677 0.6608653 0.51672506 -0.050370652 0.6611327
        0.52610433 -0.050388966 0.66137975 0.5352076 -0.050405577 0.66160613
        0.5440016 -0.050420478 0.6618119 0.55245817 -0.05043369 0.66199714
        0.56055486 -0.05044523 0.66216254 0.56827456 -0.05045516 0.6623088
        0.57560545 -0.050463535 0.6624368 0.58254075 -0.050470438 0.66254777
        0.5890783 -0.050475974 0.6626429 0.59522027 -0.05048023 0.66272354
        0.60097235 -0.05048335 0.662791 0.60634357 -0.050485454 0.6628467
        0.6113454 -0.0504867 0.662892 0.6159917 -0.050487254 0.66292804
        0.62029785 -0.050487276 0.66295624 0.6242804 -0.050486967 0.66297764
        0.62795675 -0.050486516 0.6629932 0.6313448 -0.05048615 0.6630039
        0.63446254 -0.0504861 0.66301054 0.6373281 -0.050486624 0.6630138
        0.63995934 -0.050488047 0.6630144 0.6423741 -0.050490797 0.6630128
        0.64459014 -0.05049544 0.6630094 0.64662516 -0.050502766 0.66300446
        0.64849585 -0.050513744 0.6629983 0.4671739 -0.04930949 0.6596807
        0.4772942 -0.049334887 0.6600209 0.48736763 -0.049358997 0.66034484
        0.4973424 -0.049381677 0.6606511 0.5071688 -0.04940282 0.6609386
        0.51680017 -0.04942235 0.6612063 0.5261935 -0.04944021 0.66145366
        0.5353104 -0.049456373 0.6616803 0.54411733 -0.049470823 0.66188616
        0.5525863 -0.04948357 0.6620716 0.5606947 -0.049494643 0.66223705
        0.56842536 -0.049504086 0.6623833 0.5757665 -0.049511965 0.66251135
        0.5827113 -0.04951836 0.6626222 0.5892576 -0.04952337 0.6627172
        0.5954076 -0.049527083 0.6627978 0.6011671 -0.049529646 0.6628651
        0.60654515 -0.04953119 0.66292065 0.6115534 -0.04953188 0.6629657
        0.6162057 -0.049531896 0.66300166 0.6205176 -0.04953143 0.6630297
        0.6245059 -0.049530696 0.66305083 0.628188 -0.04952993 0.6630662
        0.6315821 -0.049529377 0.66307664 0.6347062 -0.04952933 0.6630831
        0.63757867 -0.049530085 0.6630861 0.6402175 -0.049532037 0.6630865
        0.6426406 -0.049535643 0.66308457 0.6448657 -0.049541507 0.6630808
        0.6469097 -0.049550325 0.6630756 0.6487881 -0.049562763 0.6630691
        0.4671739 -0.048363343 0.65975076 0.4773096 -0.048388284 0.66009146
        0.48739836 -0.04841194 0.6604159 0.49738833 -0.048434168 0.6607227
        0.5072297 -0.048454862 0.6610105 0.51687557 -0.048473943 0.6612786
        0.526283 -0.048491366 0.6615262 0.5354135 -0.04850708 0.66175306
        0.54423356 -0.048521083 0.6619591 0.552715 -0.04853338 0.66214466
        0.5608351 -0.048543993 0.6623102 0.5685769 -0.04855297 0.66245645
        0.5759283 -0.048560377 0.6625845 0.58288264 -0.048566278 0.6626953
        0.58943784 -0.048570774 0.66279024 0.595596 -0.048573967 0.66287065
        0.601363 -0.048575997 0.6629378 0.606748 -0.048577007 0.6629932
        0.6117627 -0.04857717 0.66303813 0.6164212 -0.048576683 0.6630739
        0.6207391 -0.04857576 0.6631017 0.62473327 -0.04857465 0.6631226
        0.62842137 -0.04857361 0.66313773 0.63182163 -0.04857293 0.66314805
        0.63495237 -0.048572928 0.6631542 0.63783187 -0.04857397 0.66315705
        0.6404784 -0.04857647 0.66315705 0.6429097 -0.048580933 0.6631549
        0.6451432 -0.048587926 0.66315085 0.64719534 -0.048598025 0.6631453
        0.6490803 -0.04861169 0.66313857 0.4671739 -0.047417093 0.6598194
        0.47732508 -0.047441572 0.66016066 0.48742923 -0.047464777 0.6604856
        0.4974344 -0.04748656 0.6607928 0.5072907 -0.047506806 0.6610811
        0.51695126 -0.047525454 0.6613495 0.5263729 -0.04754243 0.6615974
        0.5355171 -0.047557704 0.66182446 0.54435027 -0.047571268 0.66203076
        0.5528442 -0.04758312 0.66221637 0.5609762 -0.047593296 0.66238195
        0.56872904 -0.047601823 0.6625283 0.57609093 -0.04760876 0.66265625
        0.58305496 -0.047614183 0.66276705 0.5896191 -0.04761819 0.6628619
        0.5957855 -0.047620885 0.6629421 0.6015601 -0.04762241 0.66300917
        0.60695213 -0.04762291 0.66306436 0.6119735 -0.04762258 0.6631091
        0.6166383 -0.047621626 0.66314465 0.62096226 -0.047620285 0.66317225
        0.6249625 -0.047618832 0.663193 0.62865674 -0.04761756 0.66320795
        0.6320634 -0.047616795 0.66321796 0.6352008 -0.047616888 0.6632239
        0.6380875 -0.047618248 0.6632265 0.64074165 -0.047621317 0.66322625
        0.6431809 -0.047626596 0.66322374 0.6454224 -0.047634616 0.66321945
        0.64748174 -0.047645826 0.6632136 0.6493725 -0.047660507 0.6632066
        0.4671739 -0.046470746 0.6598867 0.4773406 -0.046494763 0.66022855
        0.4874602 -0.04651751 0.660554 0.4974807 -0.04653885 0.6608616
        0.507352 -0.04655866 0.6611503 0.51702726 -0.046576858 0.66141903
        0.52646315 -0.0465934 0.66166717 0.5356211 -0.046608247 0.6618945
        0.5444675 -0.046621386 0.662101 0.552974 -0.046632808 0.6622867
        0.56111795 -0.046642542 0.6624524 0.568882 -0.04665063 0.66259867
        0.5762543 -0.046657123 0.66272664 0.5832281 -0.046662092 0.6628374
        0.58980125 -0.046665635 0.6629321 0.59597605 -0.04666785 0.6630122
        0.6017584 -0.04666889 0.66307914 0.6071576 -0.046668913 0.66313416
        0.6121857 -0.046668116 0.6631787 0.61685693 -0.046666726 0.663214
        0.62118715 -0.04666501 0.66324145 0.6251936 -0.04666325 0.66326195
        0.62889415 -0.04666179 0.6632767 0.63230723 -0.04666097 0.66328645
        0.6354515 -0.0466612 0.66329217 0.6383454 -0.046662893 0.66329443
        0.64100707 -0.046666525 0.663294 0.643454 -0.04667258 0.6632912
        0.64570284 -0.046681516 0.6632866 0.6477687 -0.04669368 0.6632805
        0.6496647 -0.04670923 0.6632732 0.4671739 -0.045524303 0.65995276
        0.4773562 -0.045547854 0.66029507 0.4874913 -0.045570157 0.660621
        0.49752712 -0.04559104 0.66092914 0.50741357 -0.04561041 0.66121817
        0.5171035 -0.04562818 0.6614872 0.52655375 -0.04564429 0.6617357
        0.53572553 -0.04565872 0.6619632 0.54458517 -0.045671433 0.6621698
        0.55310434 -0.045682434 0.6623557 0.5612603 -0.045691755 0.6625214
        0.56903565 -0.045699414 0.6626678 0.5764185 -0.045705475 0.66279566
        0.58340216 -0.045710012 0.66290635 0.5899845 -0.0457131 0.663001
        0.5961677 -0.045714866 0.663081 0.60195786 -0.04571545 0.6631477
        0.6073644 -0.045715023 0.6632025 0.6123994 -0.045713793 0.6632469
        0.6170771 -0.045711998 0.66328204 0.62141377 -0.045709934 0.6633092
        0.6254265 -0.045707908 0.66332954 0.62913346 -0.04570629 0.66334397
        0.63255316 -0.045705456 0.66335356 0.63570434 -0.045705836 0.663359
        0.63860536 -0.045707878 0.6633611 0.6412744 -0.045712054 0.6633603
        0.6437286 -0.04571883 0.66335726 0.6459843 -0.045728587 0.6633524
        0.6480561 -0.04574158 0.663346 0.64995694 -0.045757856 0.6633385
        0.4671739 -0.044577766 0.6600173 0.47737184 -0.044600856 0.6603602
        0.4875225 -0.044622697 0.6606867 0.4975737 -0.04464314 0.6609952
        0.50747526 -0.044662073 0.6612846 0.51718 -0.044679414 0.66155404
        0.52664465 -0.0446951 0.6618028 0.5358303 -0.04470911 0.6620306
        0.54470336 -0.044721413 0.66223735 0.5532353 -0.04473201 0.6624233
        0.5614033 -0.044740923 0.66258913 0.56918997 -0.044748172 0.6627355
        0.57658356 -0.04475382 0.6628634 0.58357716 -0.04475794 0.66297394
        0.59016865 -0.044760607 0.6630685 0.59636045 -0.04476194 0.66314834
        0.6021586 -0.044762097 0.6632149 0.60757256 -0.044761244 0.6632696
        0.6126145 -0.044759605 0.66331375 0.6172989 -0.04475745 0.6633487
        0.62164205 -0.044755068 0.6633756 0.6256612 -0.044752814 0.66339564
        0.6293747 -0.044751067 0.6634099 0.6328011 -0.04475025 0.6634192
        0.63595915 -0.044750806 0.66342443 0.63886726 -0.044753194 0.66342616
        0.6415434 -0.04475789 0.6634252 0.6440046 -0.044765316 0.66342187
        0.64626664 -0.044775795 0.66341674 0.6483439 -0.044789497 0.66341007
        0.6502491 -0.044806387 0.6634023 0.4671739 -0.043631136 0.66008055
        0.47738752 -0.043653764 0.66042405 0.48755383 -0.04367515 0.660751
        0.4976205 -0.043695148 0.66106 0.50753725 -0.04371365 0.6613498
        0.51725686 -0.04373056 0.66161954 0.52673596 -0.043745834 0.6618686
        0.5359356 -0.04375943 0.66209656 0.54482204 -0.043771334 0.6623035
        0.5533667 -0.043781534 0.6624896 0.56154686 -0.04379005 0.6626555
        0.5693451 -0.04379691 0.66280186 0.5767494 -0.04380217 0.66292965
        0.58375305 -0.043805886 0.66304016 0.5903539 -0.043808155 0.66313463
        0.59655434 -0.04380909 0.6632143 0.60236055 -0.043808833 0.6632807
        0.607782 -0.04380759 0.6633352 0.6128311 -0.04380558 0.6633792
        0.6175223 -0.04380308 0.6634139 0.621872 -0.04380042 0.6634406
        0.62589777 -0.043797962 0.66346043 0.6296178 -0.043796126 0.66347444
        0.6330509 -0.04379534 0.66348344 0.6362158 -0.043796077 0.6634884
        0.6391309 -0.043798808 0.66348994 0.6418139 -0.043803986 0.6634886
        0.6442817 -0.043812 0.66348505 0.64654964 -0.043823116 0.6634796
        0.648632 -0.043837417 0.6634727 0.65054137 -0.04385483 0.6634647
        0.4671739 -0.042684417 0.6601425 0.47740328 -0.042706575 0.66048646
        0.48758525 -0.04272751 0.6608139 0.49766743 -0.042747073 0.66112334
        0.5075995 -0.042765133 0.6614136 0.51733404 -0.04278163 0.6616837
        0.52682763 -0.042796493 0.66193295 0.5360413 -0.042809684 0.66216123
        0.5449412 -0.042821195 0.6623683 0.5534988 -0.04283101 0.6625545
        0.56169116 -0.042839147 0.66272044 0.5695009 -0.042845637 0.6628668
        0.5769161 -0.042850513 0.6629946 0.58392984 -0.04285386 0.6631051
        0.5905402 -0.04285574 0.66319937 0.59674937 -0.0428563 0.66327894
        0.60256374 -0.04285567 0.66334516 0.6079929 -0.04285406 0.66339946
        0.61304915 -0.042851705 0.6634432 0.6177473 -0.042848904 0.66347766
        0.6221037 -0.042845994 0.6635042 0.62613606 -0.042843364 0.66352373
        0.6298627 -0.042841453 0.6635375 0.63330257 -0.042840723 0.6635463
        0.63647425 -0.042841654 0.663551 0.63939613 -0.042844705 0.6635522
        0.6420858 -0.04285033 0.6635507 0.64455974 -0.04285887 0.6635468
        0.6468333 -0.042870525 0.66354114 0.64892036 -0.04288534 0.66353405
        0.65083355 -0.04290318 0.6635258 0.4671739 -0.041737616 0.66020304
        0.47741908 -0.041759305 0.6605476 0.4876168 -0.04177979 0.6608755
        0.49771455 -0.041798905 0.6611854 0.50766194 -0.041816536 0.661476
        0.5174115 -0.041832615 0.66174644 0.5269196 -0.041847073 0.66199607
        0.5361474 -0.041859876 0.6622245 0.5450609 -0.041871008 0.6624317
        0.5536314 -0.041880447 0.6626181 0.5618361 -0.04188822 0.6627841
        0.5696575 -0.041894346 0.6629304 0.57708365 -0.041898865 0.6630582
        0.58410764 -0.04190185 0.66316855 0.5907275 -0.041903384 0.6632627
        0.5969456 -0.041903585 0.6633422 0.60276824 -0.04190261 0.6634082
        0.60820514 -0.04190066 0.66346234 0.61326873 -0.041897994 0.66350585
        0.61797386 -0.041894916 0.6635401 0.6223371 -0.04189179 0.66356635
        0.6263761 -0.041889023 0.6635857 0.6301095 -0.041887064 0.6635992
        0.633556 -0.041886393 0.6636077 0.63673437 -0.041887507 0.6636121
        0.63966286 -0.04189087 0.6636131 0.64235884 -0.041896895 0.6636113
        0.6448387 -0.04190589 0.6636072 0.64711744 -0.041918017 0.6636013
        0.6492089 -0.041933253 0.6635939 0.6511257 -0.04195145 0.6635855
        0.4671739 -0.040790725 0.66026217 0.47743496 -0.040811945 0.66060734
        0.48764846 -0.040831972 0.66093576 0.49776185 -0.040850647 0.66124606
        0.5077246 -0.040867858 0.6615371 0.5174892 -0.040883522 0.6618079
        0.527012 -0.040897585 0.66205776 0.536254 -0.04091 0.6622864
        0.54518104 -0.04092076 0.6624938 0.55376464 -0.040929843 0.66268027
        0.56198174 -0.04093726 0.6628463 0.56981486 -0.040943045 0.6629927
        0.57725203 -0.04094723 0.66312045 0.58428633 -0.040949877 0.6632307
        0.59091586 -0.040951077 0.6633248 0.597143 -0.04095095 0.66340405
        0.60297406 -0.040949658 0.6634699 0.60841876 -0.040947404 0.6635238
        0.6134898 -0.040944453 0.6635671 0.6182021 -0.040941134 0.66360116
        0.6225721 -0.04093781 0.66362715 0.6266179 -0.040934924 0.6636462
        0.630358 -0.04093294 0.66365945 0.6338111 -0.040932346 0.66366774
        0.6369961 -0.040933643 0.6636719 0.63993096 -0.040937286 0.6636726
        0.6426331 -0.040943667 0.66367054 0.6451185 -0.04095306 0.6636661
        0.6474021 -0.040965572 0.66366 0.6494977 -0.040981155 0.66365236
        0.651418 -0.040999636 0.6636437 0.4671739 -0.039843753 0.66032004
        0.47745088 -0.0398645 0.6606657 0.48768023 -0.039884076 0.6609946
        0.49780932 -0.03990231 0.6613054 0.50778747 -0.0399191 0.6615968
        0.5175672 -0.03993436 0.6618679 0.52710474 -0.039948028 0.6621181
        0.536361 -0.03996007 0.66234696 0.54530174 -0.03997046 0.66255456
        0.55389845 -0.039979197 0.6627411 0.56212807 -0.039986283 0.6629072
        0.569973 -0.03999174 0.66305363 0.5774213 -0.039995603 0.6631813
        0.58446604 -0.03999794 0.66329145 0.59110534 -0.03999883 0.6633854
        0.59734154 -0.0399984 0.66346455 0.6031811 -0.039996818 0.66353023
        0.6086339 -0.03999429 0.6635839 0.61371243 -0.03999109 0.66362697
        0.61843187 -0.03998755 0.66366076 0.62280893 -0.039984066 0.6636865
        0.62686145 -0.039981086 0.66370535 0.6306082 -0.039979085 0.66371834
        0.63406795 -0.03997857 0.66372633 0.6372593 -0.03998004 0.6637302
        0.6402004 -0.039983936 0.6637306 0.6429083 -0.039990626 0.6637283
        0.6453989 -0.04000035 0.6637237 0.64768714 -0.040013183 0.66371727
        0.64978665 -0.04002904 0.6637094 0.65171015 -0.040047735 0.6637006
        0.4671739 -0.038896695 0.6603765 0.47746685 -0.03891697 0.6607227
        0.48771212 -0.038936093 0.6610521 0.49785694 -0.038953897 0.66136336
        0.50785065 -0.03897026 0.6616552 0.51764554 -0.038985115 0.6619266
        0.52719784 -0.038998403 0.662177 0.5364684 -0.039010078 0.6624062
        0.545423 -0.03902012 0.6626139 0.55403286 -0.039028525 0.6628006
        0.56227505 -0.039035287 0.6629668 0.5701319 -0.039040428 0.6631132
        0.5775914 -0.039043996 0.6632408 0.58464676 -0.03904604 0.6633509
        0.5912959 -0.03904665 0.6634447 0.59754133 -0.03904595 0.6635236
        0.60338956 -0.039044097 0.6635892 0.60885036 -0.03904132 0.66364264
        0.6139366 -0.0390379 0.66368544 0.6186633 -0.03903418 0.663719
        0.62304735 -0.03903056 0.6637445 0.6271067 -0.03902751 0.66376305
        0.6308601 -0.039025508 0.6637758 0.63432634 -0.039025076 0.66378355
        0.637524 -0.039026696 0.6637871 0.64047104 -0.039030816 0.6637873
        0.6431844 -0.039037775 0.6637847 0.64568007 -0.039047766 0.6637798
        0.6479726 -0.039060846 0.6637731 0.6500758 -0.03907691 0.66376513
        0.6520024 -0.039095752 0.663756 0.4671739 -0.037949555 0.66043156
        0.47748291 -0.037969366 0.6607784 0.48774412 -0.037988033 0.6611083
        0.49790478 -0.0380054 0.66142 0.507914 -0.03802135 0.6617122
        0.51772416 -0.038035806 0.66198397 0.52729136 -0.038048714 0.6622347
        0.5365763 -0.038060036 0.662464 0.5455447 -0.038069736 0.662672
        0.55416787 -0.038077816 0.6628588 0.5624227 -0.038084272 0.6630249
        0.5702916 -0.038089123 0.6631713 0.5777624 -0.038092412 0.6632989
        0.58482844 -0.038094185 0.66340894 0.5914876 -0.03809454 0.66350263
        0.5977424 -0.038093586 0.6635814 0.6035993 -0.038091503 0.6636467
        0.60906833 -0.03808851 0.6636999 0.6141623 -0.0380849 0.6637426
        0.6188964 -0.03808102 0.66377586 0.6232875 -0.038077295 0.66380113
        0.62735367 -0.038074184 0.66381943 0.63111365 -0.0380722 0.66383183
        0.6345863 -0.038071845 0.66383934 0.6377901 -0.03807361 0.6638426
        0.64074284 -0.03807792 0.66384256 0.6434615 -0.03808509 0.6638397
        0.64596176 -0.038095295 0.6638345 0.6482584 -0.038108557 0.66382766
        0.65036505 -0.038124762 0.6638194 0.6522946 -0.03814369 0.6638101
        0.4671739 -0.03700234 0.6604854 0.47749898 -0.03702168 0.6608327
        0.48777625 -0.037039895 0.66116315 0.49795276 -0.037056826 0.6614753
        0.50797766 -0.037072364 0.66176784 0.51780313 -0.037086427 0.66204
        0.52738523 -0.037098967 0.662291 0.5366846 -0.037109934 0.6625205
        0.54566693 -0.03711931 0.6627286 0.5543035 -0.037127078 0.6629155
        0.5625711 -0.037133243 0.66308177 0.5704521 -0.037137825 0.66322815
        0.5779344 -0.03714085 0.6633557 0.5850111 -0.037142377 0.6634656
        0.59168035 -0.037142497 0.66355914 0.5979446 -0.03714133 0.66363776
        0.6038104 -0.037139043 0.66370285 0.6092878 -0.03713586 0.66375595
        0.61438966 -0.037132088 0.6637983 0.61913115 -0.037128083 0.6638313
        0.6235294 -0.03712427 0.6638563 0.62760234 -0.037121125 0.6638743
        0.6313689 -0.037119158 0.6638865 0.63484776 -0.037118882 0.66389364
        0.6380575 -0.03712077 0.66389674 0.64101577 -0.03712524 0.6638964
        0.6437394 -0.037132572 0.6638932 0.6462441 -0.037142932 0.66388786
        0.64854455 -0.037156314 0.6638807 0.65065444 -0.037172597 0.66387224
        0.65258676 -0.037191555 0.66386276 0.4671739 -0.03605505 0.6605377
        0.47751516 -0.036073916 0.6608856 0.4878085 -0.03609168 0.6612166
        0.49800095 -0.036108177 0.6615292 0.5080415 -0.036123306 0.6618222
        0.51788235 -0.036136985 0.6620946 0.52747947 -0.036149155 0.66234595
        0.53679335 -0.036159787 0.66257566 0.5457897 -0.036168844 0.6627839
        0.5544397 -0.036176316 0.6629709 0.5627202 -0.036182206 0.6631372
        0.5706133 -0.036186527 0.6632836 0.5781072 -0.036189318 0.6634111
        0.5851948 -0.036190625 0.66352093 0.5918743 -0.036190536 0.66361433
        0.59814817 -0.036189176 0.6636928 0.604023 -0.03618671 0.6637577
        0.60950875 -0.036183376 0.6638105 0.61461854 -0.03617947 0.66385263
        0.61936754 -0.03617537 0.6638854 0.62377286 -0.036171492 0.6639101
        0.6278527 -0.03616833 0.66392785 0.6316257 -0.03616639 0.6639397
        0.63511074 -0.036166184 0.6639466 0.63832617 -0.03616818 0.6639494
        0.6412898 -0.03617277 0.6639488 0.6440181 -0.03618022 0.6639454
        0.646527 -0.036190674 0.6639398 0.648831 -0.036204115 0.6639324
        0.650944 -0.036220413 0.6639237 0.652879 -0.036239345 0.663914
        0.4671739 -0.035107687 0.66058874 0.47753137 -0.03512608 0.66093725
        0.48784086 -0.03514339 0.6612687 0.4980493 -0.03515946 0.66158175
        0.50810564 -0.03517418 0.6618751 0.5179619 -0.035187475 0.66214794
        0.52757406 -0.035199292 0.6623995 0.53690255 -0.03520959 0.6626295
        0.54591304 -0.035218336 0.66283786 0.5545766 -0.03522553 0.66302496
        0.56286997 -0.035231158 0.6631913 0.57077545 -0.03523525 0.6633377
        0.5782809 -0.03523782 0.66346514 0.58537954 -0.035238925 0.6635748
        0.5920694 -0.035238657 0.6636681 0.59835297 -0.03523713 0.6637464
        0.60423684 -0.035234522 0.6638111 0.6097312 -0.035231065 0.66386366
        0.61484903 -0.035227057 0.66390556 0.6196056 -0.035222884 0.66393805
        0.62401813 -0.03521897 0.6639625 0.6281047 -0.035215802 0.66398
        0.63188416 -0.035213895 0.6639916 0.6353752 -0.035213754 0.6639982
        0.6385962 -0.035215832 0.6640007 0.6415648 -0.035220508 0.6639998
        0.64429766 -0.03522803 0.66399616 0.6468104 -0.035238523 0.66399026
        0.64911777 -0.035251964 0.6639827 0.6512337 -0.035268217 0.66397375
        0.6531712 -0.03528706 0.6639639 0.4671739 -0.03416025 0.66063845
        0.47754765 -0.034178168 0.66098744 0.48787335 -0.03419503 0.66131943
        0.49809784 -0.03421067 0.6616329 0.50817 -0.034224987 0.66192675
        0.5180418 -0.034237906 0.66219985 0.5276691 -0.034249373 0.6624517
        0.5370122 -0.034259345 0.66268194 0.5460369 -0.0342678 0.6628905
        0.5547141 -0.03427472 0.66307765 0.56302047 -0.03428011 0.66324407
        0.57093835 -0.034283977 0.6633904 0.5784556 -0.03428635 0.66351783
        0.5855654 -0.03428729 0.6636274 0.59226567 -0.034286864 0.66372055
        0.5985591 -0.034285203 0.66379863 0.6044522 -0.03428248 0.6638631
        0.6099552 -0.034278926 0.66391546 0.61508113 -0.03427485 0.6639571
        0.6198454 -0.03427063 0.66398937 0.6242651 -0.0342667 0.66401356
        0.6283584 -0.034263544 0.66403073 0.63214415 -0.034261677 0.664042
        0.6356411 -0.034261588 0.6640484 0.63886744 -0.03426373 0.6640506
        0.6418409 -0.034268454 0.6640494 0.6445779 -0.034276 0.6640455
        0.64709437 -0.03428648 0.6640394 0.6494049 -0.034299858 0.6640315
        0.65152353 -0.034316007 0.6640224 0.65346336 -0.034334708 0.6640124
        0.4671739 -0.033212744 0.66068673 0.47756398 -0.03323019 0.6610363
        0.48790595 -0.033246595 0.6613688 0.49814656 -0.03326181 0.6616828
        0.5082346 -0.033275727 0.66197693 0.518122 -0.033288274 0.6622504
        0.52776444 -0.0332994 0.6625025 0.53712237 -0.033309057 0.662733
        0.5461613 -0.03331723 0.66294175 0.5548522 -0.033323895 0.66312903
        0.5631717 -0.03332906 0.66329545 0.5711021 -0.033332724 0.66344184
        0.5786312 -0.033334926 0.66356915 0.58575225 -0.033335708 0.66367865
        0.5924631 -0.03333516 0.6637716 0.59876645 -0.03333339 0.66384953
        0.604669 -0.033330582 0.66391385 0.61018074 -0.03332697 0.6639659
        0.6153149 -0.033322852 0.6640073 0.62008685 -0.033318613 0.6640393
        0.62451375 -0.033314686 0.66406316 0.6286138 -0.03331156 0.66408
        0.6324058 -0.03330973 0.66409105 0.6359084 -0.033309694 0.66409713
        0.63913995 -0.03331187 0.66409904 0.6421179 -0.03331661 0.6640976
        0.644859 -0.033324137 0.66409343 0.64737886 -0.033334542 0.66408706
        0.64969236 -0.033347808 0.66407895 0.6518135 -0.03336379 0.66406965
        0.65375555 -0.03338229 0.66405946 0.4671739 -0.032265164 0.6607337
        0.47758037 -0.032282136 0.6610838 0.48793867 -0.032298096 0.6614168
        0.49819547 -0.032312885 0.66173124 0.50829947 -0.032326408 0.66202587
        0.5182025 -0.03233859 0.66229963 0.5278602 -0.032349378 0.66255206
        0.537233 -0.03235873 0.66278267 0.5462862 -0.03236663 0.6629916
        0.55499095 -0.032373056 0.663179 0.5633236 -0.032378007 0.66334546
        0.57126665 -0.03238149 0.66349185 0.57880783 -0.03238354 0.6636191
        0.5859402 -0.032384202 0.6637285 0.59266174 -0.03238355 0.66382134
        0.5989752 -0.032381706 0.66389906 0.6048872 -0.032378845 0.6639631
        0.6104078 -0.032375198 0.664015 0.6155503 -0.03237107 0.66405606
        0.62033004 -0.032366842 0.66408783 0.62476414 -0.032362945 0.6641114
        0.62887096 -0.032359853 0.664128 0.6326691 -0.032358073 0.6641387
        0.63617724 -0.03235807 0.66414446 0.6394137 -0.032360263 0.6641461
        0.64239603 -0.03236498 0.6641444 0.6451408 -0.032372434 0.66414
        0.6476639 -0.03238272 0.66413337 0.6499801 -0.032395802 0.664125
        0.6521036 -0.03241156 0.6641155 0.6540478 -0.0324298 0.6641051
        0.4671739 -0.031317525 0.6607793 0.47759682 -0.03133402 0.66113
        0.4879715 -0.031349525 0.6614635 0.49824452 -0.031363893 0.6617784
        0.50836456 -0.031377025 0.6620734 0.5182833 -0.031388845 0.6623475
        0.52795637 -0.031399306 0.6626002 0.53734404 -0.031408366 0.66283107
        0.5464117 -0.031416003 0.6630401 0.5551303 -0.0314222 0.6632276
        0.5634763 -0.031426962 0.66339415 0.5714321 -0.03143028 0.6635405
        0.57898533 -0.0314322 0.6636677 0.5861292 -0.03143276 0.663777
        0.59286165 -0.031432036 0.6638697 0.5991853 -0.031430148 0.66394717
        0.60510683 -0.031427264 0.664011 0.61063653 -0.031423617 0.6640627
        0.6157874 -0.031419512 0.6641035 0.62057495 -0.03141532 0.664135
        0.62501633 -0.03141147 0.6641582 0.62912977 -0.031408437 0.66417456
        0.632934 -0.0314067 0.6641849 0.63644755 -0.031406723 0.6641904
        0.6396888 -0.03140891 0.6641917 0.6426752 -0.03141357 0.6641898
        0.6454235 -0.031420905 0.6641851 0.6479495 -0.03143101 0.6641782
        0.6502682 -0.031443857 0.6641697 0.6523939 -0.03145933 0.66416
        0.65433997 -0.03147725 0.6641494 0.4671739 -0.030369818 0.6608235
        0.47761333 -0.030385839 0.66117483 0.48800448 -0.030400895 0.66150886
        0.49829382 -0.030414838 0.66182417 0.50842994 -0.030427583 0.66211957
        0.5183644 -0.030439045 0.66239405 0.5280529 -0.030449186 0.662647
        0.53745556 -0.030457964 0.6628781 0.54653776 -0.030465355 0.6630873
        0.5552703 -0.030471342 0.6632749 0.5636298 -0.030475918 0.6634415
        0.5715984 -0.030479101 0.6635878 0.57916385 -0.03048091 0.66371495
        0.58631927 -0.030481394 0.6638241 0.5930627 -0.030480627 0.66391665
        0.59939677 -0.030478721 0.66399395 0.605328 -0.030475847 0.6640576
        0.6108668 -0.030472236 0.664109 0.61602616 -0.03046818 0.6641495
        0.6208216 -0.030464051 0.6641807 0.62527025 -0.030460274 0.66420364
        0.6293903 -0.030457305 0.6642197 0.63320047 -0.030455617 0.66422975
        0.63671935 -0.030455658 0.66423494 0.6399651 -0.03045781 0.664236
        0.6429554 -0.030462379 0.6642338 0.64570695 -0.030469554 0.6642288
        0.6482357 -0.030479427 0.6642217 0.6505567 -0.030491976 0.66421294
        0.65268433 -0.030507103 0.66420305 0.65463215 -0.030524638 0.66419226
        0.4671739 -0.029422047 0.66086644 0.4776299 -0.029437592 0.6612182
        0.48803756 -0.029452197 0.6615528 0.4983433 -0.029465728 0.6618686
        0.5084955 -0.02947808 0.66216433 0.5184459 -0.029489195 0.66243917
        0.52814984 -0.029499024 0.6626924 0.53756756 -0.029507527 0.66292375
        0.54666436 -0.02951468 0.6631331 0.555411 -0.029520467 0.6633208
        0.563784 -0.02952489 0.6634874 0.57176554 -0.02952795 0.6636337
        0.5793434 -0.029529676 0.6637608 0.58651054 -0.02953011 0.66386986
        0.59326506 -0.029529322 0.66396224 0.59960955 -0.029527433 0.6640394
        0.6055507 -0.0295246 0.6641028 0.6110987 -0.029521054 0.66415393
        0.61626667 -0.029517079 0.66419417 0.6210701 -0.029513048 0.66422504
        0.625526 -0.029509358 0.66424775 0.6296526 -0.029506471 0.6642634
        0.6334686 -0.029504834 0.6642732 0.63699263 -0.02950488 0.6642781
        0.64024276 -0.029506981 0.66427886 0.64323676 -0.02951142 0.66427636
        0.64599127 -0.029518386 0.6642711 0.6485225 -0.02952797 0.6642638
        0.6508455 -0.029540164 0.66425484 0.65297496 -0.02955488 0.6642447
        0.6549244 -0.029571963 0.6642338 0.4671739 -0.02847422 0.6609079
        0.47764656 -0.028489288 0.6612603 0.4880708 -0.028503444 0.6615954
        0.4983929 -0.028516553 0.66191167 0.5085614 -0.028528528 0.66220784
        0.5185277 -0.028539298 0.662483 0.5282472 -0.028548822 0.6627365
        0.5376801 -0.028557057 0.66296804 0.5467915 -0.028563986 0.6631776
        0.5555523 -0.028569592 0.66336536 0.563939 -0.028573869 0.663532
        0.57193357 -0.028576829 0.6636783 0.57952386 -0.02857849 0.6638053
        0.5867029 -0.0285789 0.66391426 0.59346867 -0.028578127 0.6640065
        0.59982383 -0.028576285 0.6640834 0.60577494 -0.028573526 0.6641466
        0.6113323 -0.028570078 0.6641975 0.61650896 -0.02856622 0.6642375
        0.62132037 -0.028562304 0.664268 0.62578356 -0.028558733 0.66429037
        0.6299167 -0.028555937 0.6643058 0.6337385 -0.028554354 0.6643153
        0.6372674 -0.028554399 0.6643198 0.64052176 -0.028556423 0.66432035
        0.64351916 -0.028560702 0.6643175 0.6462765 -0.028567415 0.66431206
        0.6488099 -0.028576657 0.66430444 0.6511348 -0.028588431 0.66429526
        0.6532658 -0.028602665 0.66428494 0.6552166 -0.028619234 0.66427386
        0.4671739 -0.02752633 0.6609481 0.47766325 -0.027540922 0.661301
        0.48810413 -0.027554628 0.66163665 0.49844274 -0.027567323 0.66195333
        0.5086275 -0.02757892 0.6622499 0.51860976 -0.027589353 0.6625254
        0.5283449 -0.027598577 0.6627792 0.53779304 -0.027606558 0.66301095
        0.5469192 -0.027613275 0.66322064 0.55569434 -0.027618712 0.6634086
        0.56409466 -0.027622866 0.66357523 0.5721024 -0.027625741 0.6637215
        0.5797053 -0.027627366 0.66384846 0.58689636 -0.027627781 0.6639573
        0.5936735 -0.027627047 0.6640493 0.6000395 -0.027625281 0.6641261
        0.6060007 -0.027622633 0.66418904 0.61156756 -0.027619315 0.66423965
        0.616753 -0.027615603 0.6642794 0.62157243 -0.027611839 0.6643096
        0.62604296 -0.027608404 0.6643317 0.6301827 -0.027605714 0.66434675
        0.6340101 -0.027604192 0.66435593 0.63754386 -0.027604226 0.6643602
        0.6408022 -0.027606152 0.6643604 0.64380276 -0.027610233 0.6643573
        0.64656264 -0.02761665 0.6643515 0.64909804 -0.027625496 0.6643437
        0.65142447 -0.027636785 0.66433436 0.65355676 -0.02765047 0.66432387
        0.65550876 -0.027666448 0.66431254 0.4671739 -0.026578385 0.6609869
        0.47768 -0.026592497 0.6613404 0.48813757 -0.026605757 0.6616765
        0.49849275 -0.026618041 0.6619937 0.5086939 -0.02662926 0.6622907
        0.5186922 -0.02663936 0.66256654 0.5284431 -0.026648294 0.66282064
        0.53790647 -0.02665603 0.6630526 0.54704756 -0.026662549 0.6632624
        0.555837 -0.02666783 0.6634504 0.5642511 -0.026671877 0.66361713
        0.5722722 -0.026674693 0.6637634 0.5798878 -0.0266763 0.66389024
        0.58709097 -0.026676744 0.66399896 0.5938797 -0.026676085 0.6640909
        0.60025656 -0.026674429 0.6641674 0.6062281 -0.02667192 0.6642301
        0.6118045 -0.026668768 0.6642805 0.61699885 -0.026665239 0.6643199
        0.6218264 -0.026661651 0.66434985 0.62630427 -0.026658373 0.6643716
        0.6304504 -0.026655808 0.66438633 0.6342835 -0.026654348 0.6643952
        0.6378219 -0.026654365 0.66439915 0.6410841 -0.026656179 0.664399
        0.6440877 -0.02666003 0.66439563 0.6468498 -0.026666105 0.66438967
        0.6493869 -0.026674494 0.66438156 0.6517147 -0.026685238 0.66437197
        0.653848 -0.026698299 0.6643613 0.65580094 -0.02671361 0.6643498
        0.4671739 -0.025630387 0.66102433 0.47769684 -0.025644021 0.66137844
        0.48817116 -0.02565683 0.66171503 0.498543 -0.025668701 0.6620327
        0.5087605 -0.025679553 0.66233003 0.5187749 -0.025689324 0.66260624
        0.5285416 -0.025697976 0.66286063 0.5380204 -0.02570548 0.66309285
        0.5471764 -0.025711805 0.66330284 0.55598027 -0.025716951 0.66349095
        0.5644084 -0.02572091 0.66365767 0.5724429 -0.025723688 0.66380394
        0.58007133 -0.025725303 0.6639307 0.5872868 -0.025725802 0.6640393
        0.5940872 -0.025725242 0.66413105 0.6004751 -0.025723727 0.66420734
        0.60645705 -0.025721397 0.6642698 0.6120432 -0.025718445 0.66431993
        0.6172465 -0.02571513 0.66435903 0.6220823 -0.025711749 0.6643887
        0.62656754 -0.025708655 0.66441005 0.63072014 -0.02570623 0.66442454
        0.6345587 -0.02570484 0.66443306 0.6381017 -0.025704835 0.6644367
        0.6413675 -0.025706511 0.6644363 0.64437383 -0.025710108 0.66443264
        0.647138 -0.025715793 0.6644263 0.64967656 -0.025723673 0.66441804
        0.6520054 -0.025733797 0.66440827 0.6541395 -0.025746163 0.6643973
        0.6560931 -0.02576072 0.6643857 0.4671739 -0.024682336 0.6610604
        0.47771373 -0.024695488 0.6614151 0.48820487 -0.024707852 0.6617522
        0.49859336 -0.024719315 0.6620703 0.5088274 -0.024729794 0.6623681
        0.518858 -0.024739247 0.6626447 0.52864057 -0.024747627 0.6628993
        0.5381348 -0.024754902 0.6631317 0.5473059 -0.024761055 0.6633419
        0.55612427 -0.024766076 0.66353005 0.5645665 -0.024769964 0.6636968
        0.57261443 -0.02477272 0.66384304 0.58025587 -0.02477437 0.66396976
        0.5874837 -0.024774952 0.66407824 0.5942959 -0.024774527 0.6641698
        0.6006951 -0.024773186 0.66424596 0.6066876 -0.024771068 0.66430813
        0.6122836 -0.02476835 0.66435796 0.6174961 -0.024765281 0.6643968
        0.62234014 -0.024762142 0.66442615 0.6268327 -0.02475926 0.6644472
        0.6309918 -0.024756987 0.6644613 0.6348358 -0.024755675 0.6644695
        0.6383832 -0.024755642 0.6644728 0.64165246 -0.02475717 0.6644721
        0.6446614 -0.024760477 0.66446817 0.64742744 -0.024765734 0.6644617
        0.64996713 -0.024773045 0.66445315 0.6522967 -0.02478248 0.6644431
        0.6544313 -0.024794064 0.664432 0.65638536 -0.024807781 0.6644202
        0.4671739 -0.023734232 0.6610951 0.47773066 -0.023746906 0.6614504
        0.48823872 -0.023758821 0.66178805 0.49864396 -0.023769874 0.6621066
        0.5088945 -0.023779996 0.6624048 0.51894146 -0.02378913 0.6626817
        0.5287399 -0.023797242 0.6629366 0.53824973 -0.023804305 0.6631692
        0.5474359 -0.023810295 0.66337955 0.556269 -0.023815209 0.66356784
        0.5647253 -0.023819039 0.6637346 0.5727869 -0.023821801 0.6638809
        0.5804414 -0.02382351 0.6640075 0.58768183 -0.023824202 0.66411585
        0.594506 -0.023823937 0.6642072 0.60091656 -0.023822805 0.66428316
        0.6069198 -0.023820931 0.66434515 0.6125258 -0.02381849 0.6643947
        0.6177475 -0.023815703 0.6644332 0.6225999 -0.023812832 0.6644622
        0.62709993 -0.02381019 0.664483 0.63126546 -0.023808094 0.6644967
        0.63511485 -0.023806864 0.6645046 0.6386666 -0.023806805 0.66450757
        0.64193916 -0.023808168 0.66450655 0.6449505 -0.02381116 0.6645023
        0.6477181 -0.02381594 0.6644955 0.6502587 -0.023822626 0.66448677
        0.65258867 -0.023831302 0.6644765 0.6547234 -0.023842016 0.66446525
        0.65667754 -0.023854794 0.66445327 0.4671739 -0.022786079 0.66112846
        0.47774768 -0.022798272 0.6614843 0.48827267 -0.022809742 0.6618225
        0.49869475 -0.022820389 0.6621415 0.5089619 -0.022830151 0.6624401
        0.5190252 -0.022838974 0.66271734 0.5288397 -0.022846827 0.66297257
        0.5383651 -0.022853686 0.66320544 0.5475665 -0.02285953 0.66341585
        0.5564143 -0.02286435 0.66360426 0.5648849 -0.022868147 0.6637711
        0.5729603 -0.022870928 0.6639173 0.58062804 -0.022872722 0.66404384
        0.58788115 -0.022873554 0.6641521 0.5947175 -0.022873484 0.66424334
        0.60113955 -0.022872591 0.66431904 0.60715365 -0.022871003 0.6643807
        0.61276984 -0.02286887 0.66442996 0.6180008 -0.022866398 0.6644682
        0.62286174 -0.022863835 0.6644969 0.6273693 -0.022861458 0.66451734
        0.6315412 -0.022859557 0.66453075 0.63539594 -0.022858426 0.6645383
        0.63895196 -0.022858338 0.66454095 0.6422277 -0.022859523 0.66453964
        0.6452412 -0.022862175 0.6645351 0.6480101 -0.022866441 0.664528
        0.6505513 -0.022872446 0.664519 0.6528814 -0.022880282 0.6645086
        0.6550159 -0.022890033 0.6644971 0.6569697 -0.02290176 0.6644849
        0.4671739 -0.02183788 0.66116047 0.47776476 -0.021849591 0.6615169
        0.48830676 -0.021860613 0.6618556 0.49874574 -0.021870859 0.66217506
        0.50902957 -0.021880262 0.6624741 0.51910925 -0.021888785 0.6627517
        0.52893984 -0.021896388 0.66300714 0.538481 -0.02190305 0.66324025
        0.54769766 -0.021908758 0.66345084 0.5565604 -0.0219135 0.6636393
        0.56504536 -0.02191728 0.66380626 0.5731346 -0.021920111 0.6639524
        0.58081573 -0.021922005 0.6640789 0.5880817 -0.02192301 0.66418695
        0.59493035 -0.021923164 0.66427803 0.601364 -0.021922551 0.6643535
        0.6073892 -0.02192128 0.664415 0.61301565 -0.021919494 0.66446394
        0.61825615 -0.021917379 0.6645019 0.6231256 -0.021915155 0.6645302
        0.6276407 -0.021913072 0.6645503 0.6318191 -0.02191139 0.6645634
        0.6356791 -0.021910375 0.66457057 0.6392393 -0.021910261 0.6645729
        0.6425181 -0.021911258 0.6645713 0.6455336 -0.021913545 0.66456646
        0.64830357 -0.021917257 0.6645591 0.65084517 -0.021922521 0.6645499
        0.65317494 -0.021929441 0.6645392 0.65530884 -0.021938125 0.66452754
        0.6572619 -0.021948686 0.6645152 0.4671739 -0.020889638 0.6611911
        0.47778186 -0.020900864 0.66154814 0.48834097 -0.020911438 0.66188735
        0.4987969 -0.020921282 0.6622073 0.5090975 -0.020930337 0.6625067
        0.5191937 -0.02093856 0.66278464 0.52904046 -0.020945923 0.6630404
        0.5385974 -0.020952402 0.6632737 0.54782945 -0.020957984 0.66348445
        0.5567071 -0.020962669 0.66367304 0.5652066 -0.02096645 0.66383994
        0.57330984 -0.020969344 0.66398615 0.5810045 -0.020971376 0.6641125
        0.5882834 -0.02097257 0.6642205 0.5951445 -0.020972986 0.66431135
        0.60159004 -0.020972682 0.66438663 0.60762644 -0.02097177 0.66444784
        0.61326337 -0.020970367 0.66449654 0.61851346 -0.020968646 0.66453415
        0.6233916 -0.020966798 0.66456217 0.6279143 -0.020965043 0.6645819
        0.6320992 -0.020963607 0.66459465 0.6359646 -0.02096272 0.6646015
        0.6395289 -0.020962587 0.66460353 0.6428106 -0.020963393 0.66460156
        0.64582795 -0.020965295 0.6645964 0.64859873 -0.020968417 0.6645888
        0.65114033 -0.020972883 0.6645793 0.6534695 -0.020978805 0.6645684
        0.6556023 -0.020986315 0.66455656 0.6575541 -0.02099557 0.6645441
        0.4671739 -0.01994135 0.66122043 0.4777991 -0.01995209 0.661578
        0.48837534 -0.01996222 0.66191775 0.4988483 -0.019971665 0.6622382
        0.5091657 -0.019980371 0.662538 0.51927847 -0.019988304 0.6628162
        0.5291414 -0.019995434 0.6630723 0.5387143 -0.02000174 0.66330576
        0.54796183 -0.020007212 0.66351676 0.55685455 -0.020011848 0.6637054
        0.5653686 -0.020015651 0.66387236 0.573486 -0.020018637 0.6640185
        0.5811943 -0.020020824 0.6641448 0.5884864 -0.020022245 0.6642527
        0.5953601 -0.020022947 0.66434336 0.60181767 -0.020022996 0.66441846
        0.6078654 -0.020022476 0.6644794 0.613513 -0.020021502 0.6645277
        0.61877286 -0.020020215 0.664565 0.6236598 -0.02001878 0.66459274
        0.6281902 -0.020017385 0.6646121 0.6323816 -0.020016221 0.6646245
        0.6362523 -0.020015482 0.664631 0.63982064 -0.020015342 0.6646326
        0.6431052 -0.020015955 0.6646304 0.64612424 -0.020017454 0.664625
        0.64889574 -0.020019956 0.6646171 0.6514371 -0.020023564 0.66460735
        0.6537652 -0.020028405 0.66459626 0.65589637 -0.02003462 0.6645842
        0.6578463 -0.020042418 0.6645716 0.4671739 -0.018993022 0.6612483
        0.47781634 -0.019003276 0.6616065 0.48840982 -0.019012962 0.6619468
        0.49889985 -0.019022008 0.6622676 0.50923413 -0.019030372 0.66256785
        0.5193636 -0.019038018 0.6628465 0.5292429 -0.019044923 0.66310287
        0.5388317 -0.019051066 0.6633366 0.5480948 -0.019056441 0.6635477
        0.55700266 -0.01906105 0.6637364 0.56553143 -0.019064892 0.6639034
        0.5736631 -0.019067988 0.6640495 0.5813852 -0.019070357 0.66417575
        0.5886906 -0.019072033 0.6642835 0.59557706 -0.01907306 0.664374
        0.60204685 -0.019073492 0.66444886 0.60810614 -0.019073408 0.66450953
        0.6137645 -0.0190729 0.66455764 0.6190343 -0.019072087 0.6645946
        0.6239302 -0.019071108 0.66462195 0.6284684 -0.01907011 0.66464096
        0.6326664 -0.01906925 0.664653 0.6365424 -0.01906868 0.66465914
        0.6401148 -0.019068545 0.66466045 0.64340216 -0.019068966 0.6646579
        0.6464228 -0.019070053 0.6646521 0.6491948 -0.019071901 0.66464394
        0.65173554 -0.019074606 0.6646339 0.6540622 -0.019078279 0.6646226
        0.65619123 -0.019083073 0.6646104 0.65813845 -0.019089224 0.6645977
        0.4671739 -0.018044656 0.66127485 0.47783366 -0.018054422 0.6616336
        0.48844442 -0.018063659 0.66197443 0.4989516 -0.018072313 0.66229576
        0.50930285 -0.018080339 0.6625964 0.519449 -0.018087707 0.6628754
        0.52934474 -0.018094392 0.663132 0.5389496 -0.018100385 0.66336596
        0.5482284 -0.018105676 0.6635772 0.5571515 -0.01811027 0.6637661
        0.5656951 -0.018114174 0.6639331 0.57384115 -0.018117402 0.6640792
        0.5815772 -0.018119982 0.6642054 0.588896 -0.018121943 0.66431296
        0.5957954 -0.018123323 0.66440326 0.6022776 -0.01812418 0.6644779
        0.6083486 -0.018124567 0.6645383 0.61401796 -0.01812457 0.66458607
        0.61929786 -0.018124275 0.6646228 0.62420285 -0.01812379 0.6646498
        0.628749 -0.01812323 0.66466844 0.6329537 -0.018122707 0.66468006
        0.63683504 -0.018122336 0.6646859 0.6404115 -0.018122222 0.66468686
        0.6437016 -0.018122459 0.66468394 0.64672375 -0.018123128 0.66467786
        0.649496 -0.018124297 0.6646694 0.652036 -0.01812605 0.66465914
        0.6543608 -0.018128475 0.66464764 0.656487 -0.018131709 0.66463524
        0.65843064 -0.018136 0.6646223 0.4671739 -0.017096253 0.66130006
        0.47785106 -0.017105531 0.6616594 0.48847914 -0.017114323 0.6620007
        0.49900356 -0.017122582 0.6623226 0.5093719 -0.017130272 0.6626236
        0.51953477 -0.017137367 0.6629029 0.52944696 -0.017143847 0.66315985
        0.539068 -0.0171497 0.66339403 0.54836255 -0.01715492 0.66360545
        0.55730104 -0.017159518 0.6637944 0.56585956 -0.017163498 0.6639614
        0.5740201 -0.017166886 0.6641075 0.5817702 -0.0171697 0.6642336
        0.5891027 -0.017171975 0.66434103 0.5960152 -0.017173747 0.6644312
        0.6025099 -0.01717506 0.6645056 0.6085929 -0.017175965 0.66456574
        0.6142734 -0.017176518 0.66461325 0.61956364 -0.017176788 0.66464955
        0.6244778 -0.017176844 0.66467625 0.6290321 -0.01717676 0.66469455
        0.63324356 -0.01717661 0.6647058 0.6371304 -0.01717647 0.66471124
        0.6407109 -0.0171764 0.6647119 0.64400375 -0.017176468 0.66470855
        0.6470273 -0.017176716 0.66470224 0.64979976 -0.017177194 0.6646935
        0.6523387 -0.017177954 0.664683 0.65466124 -0.017179051 0.6646712
        0.65678394 -0.017180584 0.66465867 0.6587228 -0.017182743 0.6646456
        0.4671739 -0.016147813 0.6613239 0.47786853 -0.0161566 0.66168386
        0.488514 -0.01616495 0.6620257 0.4990557 -0.016172819 0.662348
        0.50944114 -0.01618018 0.66264945 0.5196209 -0.016187008 0.6629291
        0.52954966 -0.016193287 0.6631863 0.5391869 -0.016199011 0.66342074
        0.5484973 -0.016204178 0.6636323 0.55745125 -0.016208794 0.66382134
        0.56602484 -0.016212873 0.6639884 0.57420003 -0.01621644 0.66413444
        0.5819644 -0.016219517 0.6642605 0.5893106 -0.016222136 0.6643678
        0.5962364 -0.016224334 0.66445774 0.6027439 -0.016226145 0.66453195
        0.608839 -0.016227607 0.66459185 0.61453086 -0.01622876 0.664639
        0.61983156 -0.016229639 0.664675 0.62475514 -0.01623028 0.6647013
        0.62931764 -0.01623072 0.6647193 0.63353604 -0.016230986 0.6647302
        0.6374284 -0.016231108 0.6647352 0.6410131 -0.016231114 0.66473544
        0.6443087 -0.016231027 0.66473186 0.6473337 -0.016230863 0.6647252
        0.65010625 -0.016230643 0.6647161 0.652644 -0.01623038 0.66470534
        0.65496397 -0.016230088 0.6646934 0.65708244 -0.016229777 0.66468066
        0.659015 -0.016229454 0.6646675
        <InformationKey name="L2_NORM_RANGE" location="vtkDataArray" length="2">
          <Value index="0">
            0.80985274423
          </Value>
          <Value index="1">
            0.9361340896
          </Value>
        </InformationKey>
      </DataArray>
    </Points>
  </Piece>
  </StructuredGrid>
</VTKFile>
