<?xml version="1.0"?>
<VTKFile type="StructuredGrid" version="0.1" byte_order="LittleEndian" header_type="UInt32" compressor="vtkZLibDataCompressor">
  <StructuredGrid WholeExtent="0 30 0 40 0 0">
  <Piece Extent="0 30 0 40 0 0">
    <PointData>
      <DataArray type="Float32" Name="orthogonality" format="ascii" RangeMin="0" RangeMax="0.0572383850812912">
        0.05652029 0.055840578 0.05524537 0.05471577 0.05422835 0.053759545
        0.053288214 0.052796252 0.052268125 0.05169 0.051048983 0.050332494
        0.049527686 0.04862077 0.04759612 0.046435166 0.0451155 0.043610603
        0.04189077 0.0399254 0.037686203 0.035150547 0.032304093 0.029142378
        0.025671482 0.021908164 0.017879756 0.013623842 0.009187491 0.0046258518
        0 0.055078637 0.05509675 0.054964207 0.054722577 0.054400597
        0.0540173 0.05358239 0.053098142 0.052561622 0.051966485 0.05130417
        0.05056456 0.049736205 0.048806097 0.04775905 0.04657681 0.045237213
        0.043713972 0.041977577 0.039997563 0.03774567 0.035199188 0.032343596
        0.029174196 0.025696807 0.021927938 0.017894706 0.013634506 0.009194265
        0.0046290387 2.4057238e-07 0.05439059 0.05464583 0.054713935 0.054651283
        0.05446733 0.054177936 0.053798933 0.053342007 0.052813187 0.052213166
        0.05153834 0.05078189 0.049934443 0.0489843 0.047917105 0.04671517
        0.045356747 0.0438159 0.042063423 0.040069047 0.03780463 0.035247415
        0.032382745 0.029205704 0.02572186 0.021947479 0.017909456 0.013645006
        0.009200907 0.004632124 5.5463937e-07 0.053951416 0.054277357 0.05443953
        0.05449075 0.054420274 0.054228194 0.05392237 0.053513635 0.053011548
        0.05242191 0.051746026 0.050981004 0.05012035 0.049154337 0.048069928
        0.04685033 0.04547446 0.043916885 0.042148825 0.040140342 0.037863474
        0.03529553 0.03242176 0.029237054 0.025746746 0.021966858 0.017924061
        0.013655383 0.009207452 0.004635136 9.1684404e-07 0.05363271 0.05398652
        0.054194465 0.05431263 0.054322127 0.054211494 0.053977925 0.053625572
        0.053161982 0.05259445 0.051927477 0.051161695 0.05029366 0.049316008
        0.048217405 0.046982255 0.045590356 0.04401696 0.042233836 0.040211495
        0.037922274 0.035343602 0.0324607 0.029268302 0.025771515 0.02198612
        0.017938562 0.013665672 0.009213928 0.004638102 1.30565e-06 0.053386457
        0.05375333 0.053985603 0.05414369 0.05420715 0.05415896 0.053988345
        0.053691823 0.053271897 0.052734125 0.05208392 0.051324237 0.050454304
        0.04946916 0.048359398 0.047110856 0.04570439 0.044116106 0.042318463
        0.04028253 0.03798105 0.03539166 0.0324996 0.02929948 0.025796201
        0.022005297 0.017952984 0.013675898 0.009220359 0.004641039 1.7062487e-06
        0.05318925 0.05356286 0.053809084 0.053991914 0.054091796 0.05408991
        0.053970873 0.053725027 0.053349156 0.052845147 0.05221727 0.051469315
        0.050602403 0.04961372 0.04849579 0.047236014 0.045816474 0.04421426
        0.042402655 0.040353417 0.038039785 0.035439692 0.032538462 0.029330604
        0.025820818 0.022024402 0.017967343 0.013686075 0.009226758 0.0046439595
        2.1080843e-06 0.05302771 0.053404953 0.053659648 0.053858444 0.053983323
        0.054015517 0.053937506 0.05373547 0.05340114 0.05293205 0.052329928
        0.051598005 0.05073833 0.049749736 0.04862651 0.04735763 0.045926508
        0.044311337 0.04248636 0.040424112 0.03809846 0.035487697 0.032577284
        0.02936167 0.02584537 0.022043444 0.017981648 0.013696212 0.009233134
        0.004646873 2.5032698e-06 0.052893415 0.05327263 0.053532686 0.053742163
        0.053884573 0.05394197 0.053896207 0.05373101 0.053434245 0.052999265
        0.052424543 0.05171168 0.05086269 0.049877398 0.048751555 0.047475643
        0.046034414 0.04440727 0.042569503 0.040494572 0.038157035 0.03553565
        0.032616057 0.029392678 0.025869858 0.022062428 0.017995907 0.013706318
        0.009239495 0.004649786 2.8857028e-06 0.052780695 0.053160958 0.053424504
        0.05364134 0.053796325 0.053872563 0.05385209 0.05371743 0.053453762
        0.053050864 0.052503813 0.0518119 0.050976254 0.049997035 0.04887103
        0.047590032 0.046140138 0.044501983 0.04265203 0.04056474 0.038215473
        0.03558352 0.03265476 0.029423617 0.025894282 0.022081355 0.01801012
        0.013716395 0.0092458455 0.004652703 3.2505443e-06 0.05268558 0.05306634
        0.053332213 0.05355426 0.053718448 0.05380895 0.053808387 0.05369887
        0.053463887 0.05309042 0.052570347 0.051900323 0.05107995 0.05010909
        0.0489851 0.047700837 0.046243638 0.044595424 0.04273387 0.040634558
        0.038273733 0.03563128 0.032693375 0.02945448 0.025918636 0.022100223
        0.018024292 0.013726449 0.00925219 0.0046556294 3.5938929e-06 0.052605182
        0.05298611 0.053253565 0.05347938 0.053650443 0.053751897 0.0537671
        0.053678263 0.053467914 0.05312097 0.052626558 0.051978607 0.051174793
        0.0502141 0.04909401 0.047808133 0.046344914 0.044687543 0.042814977
        0.040703982 0.03833177 0.0356789 0.03273189 0.029485255 0.025942916
        0.022119032 0.018038422 0.01373648 0.00925853 0.0046585673 3.912568e-06
        0.052537356 0.052918267 0.053186804 0.0534154 0.05359169 0.05370167
        0.053729467 0.053657662 0.053468365 0.05314507 0.052674614 0.05204837
        0.051261827 0.05031268 0.049198065 0.047912035 0.046443984 0.04477831
        0.042895295 0.040772952 0.03838954 0.035726346 0.032770272 0.029515928
        0.025967114 0.02213778 0.01805251 0.01374649 0.00926487 0.0046615195
        4.2039574e-06 0.05248048 0.052861266 0.053130556 0.053361244 0.05354158
        0.053658284 0.053696238 0.053638518 0.053467184 0.053164814 0.052716453
        0.05211114 0.051342133 0.05040549 0.049297627 0.04801271 0.046540886
        0.044867706 0.04297478 0.040841423 0.038447004 0.035773586 0.03280851
        0.029546484 0.025991222 0.022156462 0.018066559 0.01375648 0.009271209
        0.0046644886 4.465912e-06 0.052433323 0.05281393 0.053083748 0.053316046
        0.053499557 0.053621642 0.053667862 0.053621855 0.05346586 0.05318193
        0.052753758 0.052168354 0.051416762 0.05049322 0.04939309 0.04811035
        0.046635687 0.044955723 0.043053392 0.040909346 0.038504113 0.03582059
        0.03284657 0.02957691 0.026015231 0.022175075 0.01808056 0.013766451
        0.009277551 0.004667476 4.696663e-06 0.052394945 0.052775342 0.053045545
        0.0532791 0.05346516 0.05359161 0.05364462 0.05360842 0.053465556
        0.053197853 0.052788008 0.05222132 0.051486745 0.05057659 0.049484894
        0.04820517 0.04672847 0.045042366 0.043131094 0.040976677 0.038560826
        0.035867315 0.032884434 0.029607192 0.026039135 0.022193614 0.01809452
        0.013776401 0.009283895 0.004670482 4.8947663e-06 0.052364632 0.052744817
        0.05301531 0.053249877 0.05343801 0.053568043 0.053626705 0.053598773
        0.05346719 0.05321376 0.05282048 0.052271247 0.051553074 0.050656304
        0.049573477 0.048297416 0.04681933 0.045127645 0.04320786 0.041043367
        0.0386171 0.035913736 0.032922074 0.029637309 0.026062923 0.022212073
        0.018108428 0.013786331 0.009290242 0.0046735085 5.0590556e-06 0.052341856
        0.052721847 0.052992567 0.05322797 0.05341782 0.053550847 0.05361425
        0.053593352 0.053471513 0.05323065 0.052852318 0.05231924 0.05161669
        0.05073307 0.04965931 0.04838735 0.04690838 0.04521158 0.04328366
        0.041109376 0.03867289 0.03595981 0.032959465 0.029667249 0.026086584
        0.022230446 0.018122286 0.013796239 0.009296591 0.0046765557 5.18861e-06
        0.052326243 0.05270606 0.05297698 0.05321309 0.053404402 0.05353996
        0.053607404 0.053592533 0.053479157 0.05324939 0.052884515 0.05236631
        0.05167849 0.050807588 0.049742863 0.04847523 0.046995737 0.0452942
        0.043358475 0.041174658 0.03872816 0.036005504 0.032996587 0.029696994
        0.026110107 0.022248728 0.018136092 0.013806124 0.009302943 0.0046796235
        5.28273e-06 0.052317552 0.05269723 0.052968334 0.053205073 0.053397648
        0.05353539 0.053606313 0.053596664 0.053490687 0.05327075 0.05291798
        0.052413397 0.051739328 0.050880533 0.049824595 0.048561335 0.04708153
        0.04537553 0.04343228 0.04123918 0.03878286 0.036050785 0.03303341
        0.029726524 0.026133483 0.022266915 0.018149838 0.013815984 0.0093092965
        0.0046827127 5.3409176e-06 0.05231566 0.05269524 0.05296654 0.05320385
        0.05339755 0.053537212 0.053611178 0.053606104 0.053506643 0.05329544
        0.05295355 0.052461375 0.051800005 0.050952554 0.049904972 0.04864594
        0.04716589 0.045455605 0.043505058 0.041302897 0.038836956 0.03609562
        0.033069905 0.029755825 0.026156701 0.022284996 0.018163525 0.013825818
        0.009315652 0.004685823 5.3628673e-06 0.052320566 0.05270009 0.052971605
        0.05320947 0.053404193 0.053545576 0.053622246 0.053621225 0.053527553
        0.05332414 0.05299202 0.052511074 0.051861297 0.051024284 0.04998444
        0.04872931 0.047248933 0.04553446 0.04357679 0.041365772 0.038890403
        0.036139973 0.033106048 0.029784879 0.026179748 0.022302968 0.018177146
        0.013835623 0.009322006 0.0046889535 5.3484587e-06 0.052332375 0.052711897
        0.052983653 0.053222068 0.053417765 0.053560723 0.05363984 0.05364246
        0.05355397 0.053357527 0.053034157 0.052563287 0.051923934 0.05109632
        0.050063424 0.04881171 0.047330793 0.045612127 0.043647453 0.041427765
        0.038943157 0.0361838 0.033141818 0.029813666 0.026202615 0.022320822
        0.018190699 0.013845397 0.00932836 0.004692104 5.2977516e-06 0.052351303
        0.052730877 0.05300293 0.053241912 0.053438555 0.053583004 0.053664375
        0.053670313 0.053586498 0.053396307 0.05308073 0.052618787 0.05198862
        0.05116924 0.05014233 0.048893377 0.04741158 0.045688625 0.043717034
        0.041488834 0.038995177 0.036227077 0.033177186 0.02984217 0.02622529
        0.02233855 0.018204179 0.013855137 0.0093347095 0.004695274 5.210994e-06
        0.052377697 0.052757386 0.0530298 0.05326939 0.05346699 0.053612877
        0.05369638 0.053705383 0.053625822 0.053441226 0.053132523 0.05267833
        0.052056033 0.051243573 0.050221536 0.04897454 0.047491398 0.045763988
        0.043785505 0.04154894 0.03904642 0.036269765 0.03321212 0.029870374
        0.026247758 0.022356147 0.018217579 0.013864839 0.009341055 0.0046984614
        5.0886256e-06 0.05241204 0.05279192 0.053064775 0.05330504 0.053503633
        0.053650957 0.05373651 0.053748395 0.053672723 0.053493105 0.05319035
        0.05274269 0.05212682 0.05131983 0.05030139 0.0490554 0.047570333
        0.04583822 0.04385284 0.04160804 0.03909685 0.036311828 0.033246603
        0.029898256 0.026270011 0.022373604 0.018230896 0.013874503 0.009347393
        0.004701665 4.9312907e-06 0.052454975 0.05283513 0.053108532 0.05334957
        0.053549226 0.053698026 0.053785615 0.053800236 0.053728115 0.053552855
        0.053255077 0.052812614 0.052201606 0.05139847 0.050382193 0.04913613
        0.04764846 0.04591133 0.043919012 0.041666094 0.03914642 0.036353234
        0.033280604 0.0299258 0.026292035 0.022390913 0.018244127 0.0138841225
        0.009353722 0.0047048847 4.739857e-06 0.052507337 0.05288787 0.053161953
        0.05340389 0.053604733 0.053755097 0.053844735 0.053861983 0.053793076
        0.053621504 0.053327616 0.05288887 0.052280977 0.051479906 0.050464213
        0.049216863 0.04772583 0.04598332 0.043983985 0.041723054 0.039195083
        0.03639394 0.033314094 0.02995299 0.026313819 0.022408066 0.018257262
        0.013893694 0.00936004 0.004708117 4.51544e-06 0.05257021 0.052951247
        0.05322618 0.053469196 0.053671394 0.053823452 0.0539152 0.053934973
        0.053868897 0.05370022 0.053408954 0.052972224 0.052365478 0.0515645
        0.050547656 0.04929771 0.04780247 0.04605416 0.044047713 0.04177887
        0.039242804 0.036433917 0.03334705 0.029979805 0.02633535 0.022425054
        0.018270299 0.013903215 0.009366341 0.0047113607 4.259435e-06 0.05264497
        0.053026672 0.053302694 0.05354702 0.053750798 0.053904753 0.053998694
        0.05402085 0.0539571 0.05379032 0.053500134 0.053063426 0.0524556
        0.05165254 0.050632678 0.049378727 0.047878385 0.046123825 0.044110153
        0.041833498 0.03928953 0.03647313 0.03337945 0.030006224 0.026356611
        0.02244187 0.01828323 0.01391268 0.009372625 0.0047146124 3.973559e-06
        0.052733414 0.053115983 0.053393405 0.053639367 0.05384504 0.054001138
        0.05409736 0.054121666 0.054059517 0.05389329 0.05360225 0.053163193
        0.052551765 0.05174424 0.050719365 0.049459934 0.04795355 0.04619227
        0.04417125 0.04188688 0.03933522 0.036511537 0.033411257 0.030032234
        0.026377598 0.022458503 0.018296048 0.013922083 0.009378886 0.00471787
        3.6599067e-06 0.052837867 0.053221587 0.05350084 0.053748883 0.053956877
        0.05411542 0.054213945 0.05423996 0.054178298 0.054010786 0.053716417
        0.053272177 0.05265429 0.051839717 0.05080773 0.049541295 0.048027907
        0.046259433 0.044230945 0.041938964 0.039379828 0.036549106 0.033442453
        0.030057812 0.02639829 0.022474946 0.018308748 0.013931422 0.00938512
        0.00472113 3.321022e-06 0.05296143 0.053346694 0.053628396 0.05387915
        0.05409001 0.054251313 0.054352008 0.054378867 0.054315966 0.054144587
        0.05384372 0.053390924 0.052763365 0.051938977 0.050897703 0.049622722
        0.048101377 0.046325233 0.044289168 0.04198969 0.0394233 0.0365858
        0.03347301 0.030082941 0.026418678 0.022491187 0.018321322 0.013940687
        0.009391324 0.004724388 2.9599955e-06 0.053108305 0.05349569 0.053780757
        0.054035105 0.054249533 0.054413844 0.05451616 0.054542262 0.054475393
        0.054296553 0.053985152 0.053519804 0.052879017 0.0520419 0.05098913
        0.049704075 0.048173837 0.046389583 0.044345845 0.042039 0.039465602
        0.036621585 0.0335029 0.030107602 0.026438747 0.022507219 0.018333761
        0.013949876 0.00939749 0.0047276397 2.5805937e-06 0.053284384 0.05367479
        0.053964622 0.054223828 0.05444263 0.05460985 0.054712366 0.054734793
        0.05465975 0.054468468 0.05414146 0.053658944 0.05300106 0.05214821
        0.051081754 0.049785152 0.048245147 0.04645237 0.04440089 0.042086825
        0.039506674 0.036656424 0.033532098 0.030131776 0.026458483 0.022523027
        0.01834606 0.013958978 0.009403612 0.00473088 2.1874396e-06 0.05349829
        0.0538932 0.054190025 0.054455865 0.054679707 0.054848757 0.05494827
        0.05496188 0.054872267 0.054661848 0.054313034 0.05380813 0.05312908
        0.052257486 0.051175237 0.049865704 0.048315126 0.04651347 0.04445422
        0.042133108 0.039546475 0.036690284 0.033560578 0.030155445 0.026477873
        0.022538604 0.018358205 0.013967987 0.009409686 0.0047341012 1.7862728e-06
        0.05376342 0.054165456 0.054472987 0.0547477 0.05497624 0.0551435
        0.055233326 0.05522938 0.055115856 0.05487759 0.05449967 0.053966727
        0.053262368 0.05236913 0.051269133 0.049945425 0.04838358 0.046572756
        0.04450574 0.04217778 0.039584957 0.03672313 0.033588316 0.030178592
        0.026496904 0.022553938 0.01837019 0.013976894 0.0094157 0.0047372966
        1.3843318e-06 0.054102473 0.05451685 0.054841295 0.055126525 0.05535552
        0.055511344 0.05557837 0.05554279 0.055392366 0.055115547 0.05470039
        0.054133587 0.053399935 0.052482396 0.051362924 0.050023984 0.048450287
        0.04663009 0.04455537 0.04222079 0.03962208 0.036754932 0.033615295
        0.030201199 0.026515562 0.022569017 0.018382005 0.01398569 0.009421647
        0.004740456 9.909464e-07 0.054559626 0.05499836 0.05534849 0.05563894
        0.055851668 0.055973195 0.05599368 0.055905476 0.055701528 0.055374004
        0.054913227 0.054307032 0.053540517 0.05259641 0.05145605 0.050101027
        0.048515048 0.04668535 0.04460303 0.04226209 0.03965782 0.036785677
        0.0336415 0.03022326 0.02653384 0.022583837 0.018393641 0.013994365
        0.009427514 0.0047435686 6.184285e-07 0.055242535 0.05574028 0.05610804
        0.056362092 0.056507368 0.056547366 0.056483645 0.05631543 0.056039307
        0.05564896 0.055134967 0.054484718 0.05368252 0.052710142 0.051547866
        0.050176173 0.048577633 0.046738405 0.04464865 0.042301636 0.03969215
        0.03681535 0.03366692 0.030244764 0.02655173 0.022598386 0.01840509
        0.014002907 0.009433289 0.004746619 2.8293437e-07 0.05652029 0.05686695
        0.057098713 0.057219997 0.057238385 0.057160974 0.056992028 0.056732014
        0.05637749 0.055921327 0.05535292 0.05465834 0.053820617 0.052820284
        0.051636454 0.05024844 0.04863768 0.04678927 0.044692427 0.04233968
        0.039725296 0.03684412 0.033691667 0.030265775 0.026569258 0.022612667
        0.018416338 0.014011301 0.009438954 0.00474959 6.01e-14
      </DataArray>
      <DataArray type="Float32" Name="aspect_ratio" format="ascii" RangeMin="1.0227785110473633" RangeMax="11.701672554016113">
        3.0112348 2.530113 2.1561897 1.8382726 1.5680635 1.3384632
        1.1434085 1.0227785 1.1947136 1.3936554 1.6231301 1.8868579
        2.1886544 2.5322819 2.9212377 3.3584719 3.8460233 4.3845787
        4.9729595 5.6075673 6.2818284 6.985714 7.705419 8.423319
        9.118304 9.766595 10.343049 10.822917 11.183882 11.408136
        11.5601225 3.0075827 2.5270143 2.1536696 1.836302 1.5665528
        1.3373132 1.1425323 1.0234808 1.1954528 1.3944379 1.623963
        1.8877491 2.1896126 2.5333169 2.922361 3.359697 3.847368
        4.3860617 4.9746017 5.6093884 6.283845 6.987938 7.7078557
        8.425965 9.12115 9.769625 10.346238 10.826234 11.187291
        11.411598 11.563617 3.0058556 2.5249927 2.1516879 1.8345672
        1.5651271 1.3361828 1.1416521 1.0241947 1.1962067 1.3952354
        1.62481 1.8886524 2.1905806 2.5343592 2.9234893 3.3609257
        3.8487134 4.3875437 4.976241 5.6112046 6.285856 6.990155
        7.710284 8.428603 9.123989 9.772648 10.3494215 10.829548
        11.190699 11.41506 11.567114 3.0045927 2.5235968 2.1502616
        1.8332186 1.5639322 1.3351749 1.1408308 1.0248824 1.1969466
        1.3960267 1.6256546 1.8895552 2.1915483 2.5354004 2.924615
        3.3621495 3.8500519 4.3890166 4.9778686 5.613007 6.287851
        6.992355 7.712695 8.431224 9.126811 9.775655 10.3525915
        10.83285 11.1941 11.41852 11.570612 3.0034935 2.5224626
        2.1491256 1.8321242 1.5629246 1.3342875 1.1400785 1.0255333
        1.1976631 1.3968045 1.6264925 1.8904551 2.192515 2.5364408
        2.9257395 3.3633714 3.851387 4.390484 4.979489 5.614801
        6.2898355 6.994543 7.7150936 8.433832 9.129621 9.778651
        10.355752 10.836147 11.197498 11.421979 11.574114 3.00247
        2.5214608 2.1481512 1.8311907 1.5620538 1.3335013 1.1393925
        1.026144 1.1983508 1.3975637 1.6273198 1.8913502 2.1934803
        2.537482 2.9268656 3.3645942 3.8527226 4.3919506 4.981107
        5.616591 6.291815 6.996725 7.7174845 8.436432 9.132422
        9.78164 10.358907 10.839439 11.200893 11.425438 11.577617
        3.0014877 2.5205345 2.147273 1.8303611 1.56128 1.332795
        1.1387647 1.0267156 1.1990075 1.3983009 1.6281334 1.8922379
        2.1944427 2.5385234 2.9279933 3.3658197 3.854061 4.3934197
        4.9827266 5.618381 6.2937927 6.9989038 7.7198715 8.439028
        9.135221 9.784625 10.362058 10.84273 11.204288 11.428897
        11.581122 3.0005298 2.5196548 2.1464565 1.8296009 1.5605754
        1.3321501 1.1381856 1.0272514 1.1996332 1.3990141 1.6289304
        1.8931158 2.1954007 2.5395641 2.929123 3.3670483 3.8554025
        4.3948917 4.984349 5.6201725 6.295771 7.0010824 7.722257
        8.441621 9.138015 9.787608 10.365208 10.846018 11.207681
        11.432358 11.58463 2.9995873 2.5188055 2.145681 1.8288885
        1.5599208 1.3315521 1.1376464 1.0277556 1.2002295 1.3997028
        1.6297092 1.8939818 2.1963525 2.5406027 2.9302533 3.3682797
        3.856748 4.3963685 4.9859753 5.6219673 6.297752 7.0032616
        7.7246428 8.444214 9.140809 9.790589 10.368356 10.849305
        11.211075 11.43582 11.5881405 2.998655 2.5179775 2.1449337
        1.8282102 1.559303 1.3309903 1.1371393 1.0282327 1.2007989
        1.4003675 1.6304688 1.8948343 2.197296 2.541638 2.9313838
        3.3695138 3.858098 4.3978496 4.987606 5.6237664 6.2997355
        7.005443 7.7270293 8.446807 9.143602 9.79357 10.371504
        10.852593 11.21447 11.439282 11.591653 2.99773 2.517164
        2.144207 1.8275568 1.5587127 1.3304565 1.1366584 1.0286869
        1.2013441 1.4010093 1.6312091 1.8956722 2.1982303 2.5426683
        2.9325137 3.37075 3.8594518 4.399336 4.989242 5.6255703
        6.3017235 7.0076275 7.7294183 8.449401 9.146396 9.796551
        10.374652 10.855883 11.217866 11.442747 11.595167 2.9968095
        2.516361 2.1434956 1.826922 1.5581434 1.3299444 1.1361984
        1.0291218 1.201868 1.40163 1.6319306 1.8964951 2.199154
        2.543693 2.9336417 3.3719876 3.8608093 4.4008274 4.990884
        5.6273794 6.303716 7.0098157 7.7318096 8.451997 9.149191
        9.799533 10.377801 10.859172 11.221264 11.446214 11.598684
        2.9958925 2.515566 2.142795 1.8263012 1.5575901 1.3294497
        1.1357555 1.0295403 1.2023735 1.4022315 1.6326338 1.8973027
        2.2000666 2.5447109 2.9347672 3.3732262 3.8621702 4.402324
        4.992532 5.6291947 6.3057137 7.0120087 7.7342043 8.454596
        9.151988 9.802516 10.380952 10.862463 11.224663 11.449682
        11.602203 2.994978 2.5147774 2.1421034 1.8256913 1.5570496
        1.3289686 1.1353266 1.0299454 1.2028627 1.4028153 1.6333199
        1.8980954 2.2009676 2.5457213 2.9358892 3.374465 3.8635345
        4.4038258 4.9941854 5.6310163 6.3077173 7.014206 7.736603
        8.457196 9.154787 9.805501 10.384103 10.865756 11.228063
        11.453154 11.605725 2.994065 2.513993 2.1414185 1.82509
        1.5565192 1.3284986 1.1349092 1.030339 1.203338 1.4033836
        1.63399 1.8988734 2.2018569 2.5467238 2.9370074 3.3757036
        3.8649018 4.4053326 4.9958453 5.6328435 6.3097267 7.0164084
        7.7390056 8.459802 9.157589 9.808489 10.387257 10.86905
        11.231465 11.456626 11.609249 2.9931536 2.5132122 2.1407385
        1.8244956 1.5559968 1.3280376 1.1345011 1.030723 1.2038013
        1.4039378 1.6346455 1.8996376 2.2027345 2.547718 2.9381213
        3.3769417 3.8662715 4.406844 4.9975114 5.634678 6.3117423
        7.018616 7.741413 8.462409 9.160394 9.811478 10.390412
        10.872346 11.23487 11.4601 11.612775 2.992243 2.5124342
        2.140063 1.8239064 1.5554808 1.327584 1.1341009 1.0310988
        1.2042542 1.4044797 1.6352875 1.9003886 2.2036006 2.548704
        2.9392304 3.3781788 3.8676436 4.4083605 4.9991837 5.636519
        6.3137646 7.02083 7.743825 8.465022 9.163201 9.81447
        10.393571 10.875644 11.2382765 11.463577 11.616303 2.9913332
        2.5116584 2.1393907 1.8233216 1.5549703 1.3271364 1.1337072
        1.0314678 1.204698 1.4050107 1.6359173 1.9011273 2.204456
        2.5496814 2.9403348 3.379415 3.8690178 4.4098816 5.0008626
        5.638367 6.3157935 7.02305 7.746242 8.467638 9.166013
        9.817465 10.39673 10.878944 11.241685 11.467056 11.619834
        2.9904237 2.5108843 2.138721 1.8227406 1.5544641 1.3266939
        1.1333191 1.031831 1.2051339 1.4055319 1.6365361 1.9018546
        2.205301 2.5506508 2.9414344 3.3806498 3.8703942 4.4114075
        5.0025477 5.640222 6.317829 7.025276 7.748665 8.470259
        9.168827 9.820463 10.399894 10.882247 11.245095 11.470538
        11.623366 2.9895148 2.5101118 2.138054 1.8221624 1.5539615
        1.3262557 1.1329356 1.0321892 1.2055632 1.4060446 1.6371449
        1.9025714 2.2061362 2.5516126 2.9425292 3.3818836 3.8717728
        4.412938 5.004239 5.642084 6.3198724 7.0275083 7.751093
        8.472884 9.171646 9.823463 10.403059 10.885552 11.248508
        11.474021 11.626902 2.9886065 2.5093405 2.1373885 1.8215866
        1.553462 1.3258209 1.1325562 1.0325432 1.2059865 1.4065497
        1.6377448 1.9032788 2.2069623 2.5525672 2.9436197 3.3831162
        3.8731534 4.4144735 5.005937 5.6439533 6.3219223 7.0297475
        7.7535267 8.475514 9.174469 9.826468 10.406228 10.888861
        11.2519245 11.477508 11.630439 2.9876983 2.5085704 2.1367245
        1.8210131 1.5529652 1.3253894 1.1321802 1.0328934 1.2064046
        1.4070481 1.6383367 1.9039775 2.2077804 2.5535152 2.9447062
        3.3843482 3.8745365 4.4160137 5.0076413 5.64583 6.32398
        7.0319934 7.7559667 8.478149 9.177296 9.829476 10.4094
        10.892171 11.2553425 11.480996 11.633979 2.9867904 2.5078013
        2.1360621 1.8204414 1.5524706 1.3249604 1.1318072 1.0332404
        1.2068183 1.4075407 1.6389215 1.9046687 2.2085912 2.5544574
        2.9457893 3.3855796 3.8759222 4.417559 5.0093527 5.6477146
        6.3260446 7.0342464 7.758413 8.48079 9.180127 9.832488
        10.412575 10.895484 11.258762 11.484487 11.637521 2.9858832
        2.507033 2.135401 1.8198712 1.5519779 1.3245337 1.1314368
        1.0335847 1.2072281 1.4080281 1.6395003 1.9053532 2.2093956
        2.555395 2.9468699 3.3868113 3.8773108 4.41911 5.0110707
        5.649606 6.3281174 7.036506 7.760865 8.483437 9.182963
        9.835505 10.415753 10.898801 11.262186 11.48798 11.641066
        2.9849768 2.506266 2.134741 1.8193024 1.551487 1.3241091
        1.1310687 1.0339265 1.2076344 1.4085112 1.6400738 1.9060321
        2.210195 2.5563283 2.9479487 3.3880434 3.8787026 4.420666
        5.012796 5.651506 6.330198 7.0387735 7.763324 8.486088
        9.185804 9.838524 10.418935 10.902121 11.265612 11.491475
        11.644612 2.984071 2.5055 2.1340823 1.8187352 1.5509976
        1.3236862 1.1307027 1.0342662 1.2080379 1.4089904 1.6406429
        1.9067065 2.2109902 2.5572588 2.9490263 3.3892772 3.8800986
        4.4222283 5.0145283 5.653414 6.332286 7.0410485 7.7657895
        8.488746 9.18865 9.841548 10.422121 10.905443 11.269041
        11.494973 11.648161 2.9831665 2.5047355 2.133425 1.8181694
        1.5505099 1.3232653 1.1303387 1.0346041 1.2084388 1.4094666
        1.6412086 1.9073775 2.2117827 2.5581877 2.9501045 3.3905134
        3.8814988 4.4237967 5.0162687 5.6553297 6.3343825 7.0433307
        7.768262 8.491409 9.191501 9.844577 10.42531 10.90877
        11.272472 11.498474 11.651712 2.9822633 2.5039725 2.132769
        1.817605 1.5500238 1.3228459 1.1299763 1.0349402 1.2088376
        1.4099405 1.6417719 1.9080464 2.2125738 2.5591166 2.951184
        3.3917527 3.882904 4.4253716 5.0180163 5.6572537 6.336488
        7.0456214 7.7707415 8.49408 9.194358 9.84761 10.428504
        10.912099 11.2759075 11.501978 11.655266 2.9813623 2.5032117
        2.1321151 1.8170424 1.5495393 1.3224283 1.1296155 1.0352751
        1.209235 1.4104128 1.642334 1.9087147 2.2133653 2.560047
        2.9522662 3.3929965 3.8843153 4.4269543 5.019773 5.659187
        6.338601 7.0479198 7.7732286 8.496756 9.19722 9.850649
        10.431702 10.915432 11.2793455 11.505484 11.658822 2.9804645
        2.5024536 2.1314633 1.8164818 1.5490568 1.3220124 1.1292564
        1.0356088 1.2096313 1.4108846 1.6428963 1.909384 2.2141588
        2.5609803 2.9533527 3.3942459 3.8857334 4.4285445 5.021538
        5.661129 6.3407235 7.0502267 7.7757235 8.499439 9.2000885
        9.853693 10.434904 10.918769 11.282786 11.508993 11.66238
        2.9795704 2.5016992 2.1308148 1.8159238 1.5485765 1.3215984
        1.1288985 1.0359418 1.2100275 1.411357 1.6434603 1.9100564
        2.2149563 2.5619187 2.9544451 3.3955019 3.8871593 4.430144
        5.023312 5.6630807 6.3428555 7.0525427 7.7782264 8.50213
        9.202963 9.856743 10.438111 10.922111 11.286231 11.512505
        11.66594 2.978682 2.50095 2.13017 1.8153691 1.5480988
        1.3211863 1.1285418 1.0362748 1.2104245 1.4118317 1.6440281
        1.9107338 2.2157602 2.5628643 2.9555454 3.3967662 3.888594
        4.431752 5.025096 5.665042 6.3449974 7.0548677 7.780738
        8.504828 9.205845 9.859798 10.441324 10.925456 11.28968
        11.516019 11.669503 2.9778018 2.5002081 2.1295314 1.814819
        1.5476242 1.3207761 1.1281859 1.0366085 1.210824 1.4123107
        1.6446022 1.9114192 2.216573 2.5638194 2.956655 3.3980403
        3.8900385 4.4333706 5.0268908 5.667014 6.3471494 7.057203
        7.7832584 8.507535 9.2087345 9.86286 10.444542 10.928807
        11.293132 11.519537 11.673069 2.9769335 2.4994764 2.1289005
        1.8142745 1.5471536 1.3203677 1.1278297 1.0369443 1.211228
        1.4127969 1.6451856 1.9121156 2.2173975 2.5647862 2.9577765
        3.3993258 3.8914945 4.4350004 5.0286965 5.6689973 6.3493123
        7.059548 7.7857885 8.510251 9.211632 9.86593 10.447767
        10.932162 11.296588 11.523058 11.676636 2.976083 2.4987602
        2.128281 1.813738 1.5466874 1.3199604 1.1274717 1.0372845
        1.2116395 1.4132937 1.6457821 1.9128264 2.218237 2.5657678
        2.958912 3.4006245 3.8929632 4.436643 5.0305147 5.6709933
        6.351487 7.061905 7.7883296 8.512977 9.214538 9.869006
        10.450998 10.935524 11.300049 11.526582 11.680205 2.9752605
        2.498067 2.1276784 1.8132118 1.5462254 1.3195522 1.1271088
        1.0376328 1.2120633 1.4138061 1.6463964 1.9135559 2.2190948
        2.5667667 2.9600637 3.4019384 3.8944461 4.4382997 5.0323467
        5.6730022 6.3536754 7.0642743 7.790883 8.515714 9.217455
        9.872092 10.454237 10.938891 11.303515 11.530109 11.683778
        2.9744847 2.4974098 2.1270995 1.8126981 1.5457658 1.3191383
        1.1267353 1.0379949 1.2125055 1.41434 1.6470339 1.9143088
        2.2199752 2.5677867 2.9612346 3.40327 3.8959458 4.439972
        5.034194 5.6750264 6.355878 7.0666585 7.79345 8.518463
        9.220383 9.875189 10.457485 10.942267 11.306987 11.533642
        11.687352 2.9737928 2.4968116 2.1265547 1.8121964 1.5453011
        1.3187087 1.1263413 1.0383797 1.2129745 1.4149033 1.647701
        1.9150903 2.2208822 2.568831 2.9624279 3.4046223 3.8974648
        4.4416623 5.0360594 5.677068 6.3580985 7.069059 7.7960324
        8.521228 9.223325 9.878298 10.460744 10.945651 11.310465
        11.537178 11.690928 2.9732757 2.4963121 2.1260517 1.8116943
        1.5448105 1.3182422 1.1259097 1.0387999 1.2134819 1.4155049
        1.6484052 1.9159062 2.2218208 2.569904 2.963647 3.4059982
        3.8990061 4.4433746 5.037946 5.679131 6.360339 7.07148
        7.7986345 8.524011 9.226283 9.881422 10.464015 10.949045
        11.313951 11.540719 11.694508 2.9732132 2.495967 2.1255667
        1.8111407 1.5442436 1.3177003 1.1254153 1.0392718 1.2140396
        1.4161538 1.6491524 1.916761 2.222794 2.571008 2.9648943
        3.4074001 3.9005718 4.4451103 5.0398555 5.6812167 6.362602
        7.073922 7.801258 8.5268135 9.22926 9.8845625 10.4673
        10.952451 11.317445 11.544265 11.698089 2.9748092 2.4962668
        2.125251 1.8105645 1.5435983 1.3170794 1.1248583 1.0397927
        1.2146428 1.4168438 1.6499361 1.9176478 2.2237957 2.5721369
        2.9661634 3.4088218 3.9021554 4.4468627 5.0417805 5.6833167
        6.364879 7.0763783 7.803894 8.529628 9.232248 9.8877125
        10.470594 10.955863 11.320945 11.547815 11.701673
      </DataArray>
      <DataArray type="Float32" Name="jacobian" format="ascii" RangeMin="0.0011936117662116885" RangeMax="0.041991449892520905">
        0.0011936118 0.0014225689 0.0016709911 0.0019614396 0.0023006422 0.002696246
        0.0031568785 0.0036921916 0.004312869 0.005030587 0.005857898 0.0068080155
        0.007894461 0.009130538 0.0105286 0.012099047 0.013849065 0.015781049
        0.01789078 0.02016542 0.022581505 0.025103185 0.027681079 0.030252106
        0.032740723 0.03506185 0.037125573 0.038843412 0.040135622 0.04093855
        0.041483495 0.0011951576 0.0014236519 0.0016717131 0.001961906 0.0023009502
        0.002696479 0.0031571062 0.0036924714 0.004313251 0.005031115 0.0058586136
        0.0068089585 0.007895673 0.009132064 0.0105304895 0.0121013615 0.0138518745
        0.015784437 0.017894834 0.020170227 0.022587141 0.025109712 0.027688527
        0.03026048 0.032749996 0.035071965 0.03713644 0.038854916 0.040147614
        0.040950865 0.041496035 0.0011958894 0.001424323 0.0016723259 0.0019624515
        0.0023014357 0.0026969267 0.0031575502 0.0036929525 0.0043138117 0.0050317994
        0.005859465 0.00681002 0.007896989 0.009133681 0.01053246 0.012103749
        0.013854753 0.015787888 0.01789895 0.020175096 0.02259284 0.025116296
        0.027696032 0.030268906 0.032759316 0.035082124 0.037147343 0.03886645
        0.040159628 0.04096319 0.04150858 0.0011964206 0.0014249193 0.0016729562
        0.001963098 0.0023020857 0.0026975775 0.003158212 0.0036936477 0.004314573
        0.005032666 0.0058604786 0.0068112253 0.007898431 0.009135413 0.010534537
        0.012106236 0.013857727 0.015791435 0.01790316 0.02018006 0.022598634
        0.025122978 0.027703632 0.030277424 0.032768726 0.035092358 0.037158314
        0.038878035 0.040171683 0.040975545 0.04152114 0.0011968791 0.0014254584
        0.0016735594 0.0019637598 0.0023027975 0.0026983325 0.003159009 0.0036944952
        0.004315491 0.0050336826 0.0058616316 0.0068125566 0.0078999875 0.009137246
        0.010536705 0.012108807 0.01386078 0.01579506 0.017907448 0.0201851
        0.022604506 0.025129737 0.027711306 0.030286016 0.0327782 0.035102654
        0.03716934 0.038889665 0.040183768 0.04098792 0.0415337 0.001197303
        0.001425962 0.0016741358 0.0019644122 0.002303526 0.0026991344 0.0031598823
        0.0036954419 0.0043165213 0.005034817 0.0058628987 0.0068139937 0.00790164
        0.0091391625 0.010538948 0.012111446 0.013863895 0.015798742 0.017911794
        0.0201902 0.022610437 0.025136555 0.02771904 0.030294662 0.03278773
        0.035113 0.037180405 0.038901325 0.04019588 0.041000307 0.041546274
        0.0011977074 0.0014264436 0.0016746919 0.001965051 0.0023042534 0.002699954
        0.003160795 0.0036964498 0.0043176296 0.005036039 0.005864256 0.0068155183
        0.007903372 0.009141152 0.010541255 0.012114141 0.013867063 0.015802475
        0.01791619 0.020195348 0.022616416 0.025143422 0.02772682 0.030303355
        0.0327973 0.03512338 0.037191503 0.038913015 0.040208012 0.04101271
        0.041558854 0.0011981 0.0014269109 0.0016752338 0.0019656776 0.0023049745
        0.0027007775 0.0031617265 0.0036974933 0.00431879 0.0050373245 0.005865684
        0.006817114 0.007905171 0.009143203 0.010543616 0.012116886 0.013870276
        0.01580625 0.017920624 0.020200538 0.022622436 0.025150327 0.02773464
        0.030312084 0.032806903 0.035133794 0.03720263 0.03892473 0.04022016
        0.04102513 0.041571442 0.001198485 0.0014273686 0.0016757656 0.0019662946
        0.0023056883 0.002701599 0.003162665 0.003698556 0.0043199826 0.005038655
        0.0058671646 0.006818766 0.0079070255 0.009145305 0.010546024 0.012119672
        0.013873527 0.015810063 0.017925097 0.020205764 0.022628494 0.02515727
        0.027742494 0.030320846 0.032816537 0.035144236 0.03721378 0.038936462
        0.040232327 0.041037556 0.041584037 0.0011988648 0.0014278196 0.0016762903
        0.0019669044 0.0023063954 0.0027024164 0.0031636045 0.0036996275 0.0043211943
        0.0050400146 0.005868683 0.0068204603 0.0079089245 0.009147449 0.010548471
        0.012122495 0.013876812 0.015813908 0.017929602 0.020211022 0.022634583
        0.025164245 0.027750378 0.030329637 0.0328262 0.0351547 0.037224952
        0.038948216 0.04024451 0.041049995 0.041596644 0.0011992408 0.0014282659
        0.0016768096 0.001967508 0.0023070967 0.0027032285 0.0031645414 0.0037007013
        0.004322415 0.005041392 0.005870227 0.0068221865 0.007910858 0.009149629
        0.010550951 0.012125349 0.013880127 0.015817782 0.017934136 0.02021631
        0.022640701 0.025171248 0.027758293 0.030338455 0.032835886 0.035165187
        0.037236143 0.038959984 0.0402567 0.041062444 0.041609254 0.0011996143
        0.0014287088 0.001677325 0.0019681077 0.002307793 0.002704036 0.0031654742
        0.0037017737 0.0043236394 0.0050427783 0.0058717863 0.006823933 0.007912816
        0.009151834 0.010553458 0.012128228 0.013883469 0.015821684 0.0179387
        0.020221626 0.02264685 0.02517828 0.027766233 0.030347299 0.032845594
        0.035175696 0.037247352 0.038971767 0.04026891 0.041074906 0.041621875
        0.0011999857 0.0014291491 0.0016778375 0.0019687035 0.0023084849 0.0027048383
        0.0031664022 0.003702842 0.004324862 0.005044167 0.0058733528 0.006825692
        0.007914789 0.009154058 0.010555984 0.01213113 0.013886833 0.01582561
        0.017943287 0.02022697 0.022653025 0.02518534 0.027774198 0.030356165
        0.032855324 0.035186224 0.037258577 0.038983565 0.04028113 0.041087378
        0.041634504 0.0012003557 0.0014295874 0.0016783475 0.0019692963 0.0023091733
        0.0027056362 0.0031673247 0.0037039043 0.004326079 0.0050455527 0.0058749197
        0.0068274555 0.007916771 0.009156293 0.010558526 0.012134049 0.013890217
        0.01582956 0.017947901 0.02023234 0.022659227 0.025192423 0.027782189
        0.030365054 0.032865074 0.035196766 0.037269816 0.038995378 0.04029336
        0.041099858 0.04164714 0.0012007247 0.0014300242 0.0016788555 0.0019698867
        0.0023098583 0.0027064297 0.0031682414 0.00370496 0.004327289 0.0050469316
        0.0058764815 0.0068292166 0.007918755 0.009158534 0.010561077 0.012136981
        0.013893619 0.015833529 0.017952537 0.020237736 0.022665454 0.02519953
        0.027790202 0.030373964 0.032874845 0.035207327 0.037281074 0.0390072
        0.0403056 0.04111235 0.041659784 0.0012010927 0.0014304596 0.001679362
        0.0019704748 0.0023105403 0.0027072185 0.003169152 0.0037060077 0.0043284893
        0.0050483 0.0058780336 0.00683097 0.007920733 0.009160774 0.010563632
        0.012139922 0.013897034 0.015837517 0.017957198 0.020243155 0.022671705
        0.025206665 0.027798237 0.030382894 0.03288463 0.035217907 0.037292343
        0.039019037 0.040317852 0.041124847 0.04167244 0.0012014603 0.0014308939
        0.0016798669 0.0019710609 0.002311219 0.002708003 0.003170056 0.0037070464
        0.0043296786 0.005049655 0.0058795717 0.00683271 0.007922701 0.009163007
        0.010566185 0.012142869 0.013900462 0.015841521 0.017961876 0.020248597
        0.02267798 0.025213819 0.027806293 0.030391844 0.03289444 0.035228502
        0.03730363 0.039030887 0.040330116 0.041137356 0.0416851 0.0012018271
        0.0014313273 0.0016803705 0.0019716448 0.0023118944 0.0027087824 0.0031709531
        0.0037080755 0.004330855 0.005050995 0.005881092 0.0068344325 0.007924654
        0.00916523 0.010568734 0.012145817 0.013903899 0.015845543 0.017966578
        0.020254064 0.02268428 0.025221 0.027814372 0.030400813 0.03290426
        0.035239108 0.037314925 0.03904275 0.04034239 0.041149873 0.04169777
        0.0012021936 0.0014317599 0.0016808728 0.0019722264 0.0023125666 0.0027095568
        0.0031718425 0.003709094 0.0043320167 0.0050523165 0.005882592 0.0068361326
        0.007926585 0.009167437 0.010571274 0.012148766 0.013907343 0.015849577
        0.017971298 0.020259552 0.022690604 0.0252282 0.02782247 0.0304098
        0.0329141 0.035249732 0.037326235 0.039054617 0.040354673 0.041162398
        0.041710448 0.0012025596 0.0014321916 0.0016813736 0.001972806 0.002313235
        0.0027103256 0.0031727236 0.0037101 0.004333162 0.005053617 0.005884067
        0.0068378076 0.007928493 0.009169624 0.0105738025 0.012151711 0.013910794
        0.015853627 0.017976036 0.020265063 0.02269695 0.025235424 0.02783059
        0.030418806 0.03292395 0.03526037 0.037337556 0.0390665 0.040366966
        0.041174933 0.041723132 0.0012029252 0.0014326224 0.0016818728 0.0019733827
        0.0023138993 0.002711088 0.0031735948 0.0037110923 0.004334289 0.0050548944
        0.0058855144 0.0068394523 0.007930373 0.009171789 0.010576315 0.01215465
        0.013914248 0.01585769 0.017980795 0.020270595 0.022703318 0.02524267
        0.027838727 0.030427828 0.03293382 0.035271015 0.03734889 0.039078392
        0.040379267 0.04118748 0.041735828 0.0012032907 0.0014330522 0.0016823702
        0.0019739566 0.002314559 0.0027118428 0.0031744554 0.0037120692 0.004335395
        0.005056145 0.0058869314 0.0068410644 0.007932221 0.009173925 0.010578809
        0.012157582 0.013917706 0.015861763 0.017985571 0.02027615 0.022709709
        0.025249936 0.027846886 0.030436866 0.032943703 0.035281677 0.037360232
        0.039090294 0.04039158 0.04120003 0.041748527 0.0012036556 0.001433481
        0.0016828658 0.0019745273 0.0023152132 0.0027125892 0.0031753033 0.0037130287
        0.0043364777 0.0050573666 0.0058883135 0.0068426393 0.007934032 0.009176033
        0.010581283 0.012160505 0.013921165 0.015865847 0.017990366 0.020281726
        0.022716124 0.025257224 0.027855063 0.030445922 0.0329536 0.03529235
        0.037371587 0.039102208 0.0404039 0.041212592 0.041761238 0.0012040201
        0.0014339085 0.0016833589 0.0019750937 0.0023158607 0.002713326 0.0031761369
        0.003713968 0.0043375334 0.0050585545 0.0058896574 0.0068441737 0.007935806
        0.009178109 0.010583735 0.012163417 0.013924626 0.015869945 0.017995179
        0.020287324 0.022722559 0.025264533 0.027863257 0.030454993 0.03296351
        0.035303034 0.03738295 0.039114125 0.04041623 0.04122516 0.04177396
        0.001204384 0.0014343346 0.0016838493 0.0019756556 0.0023165008 0.002714051
        0.0031769536 0.003714884 0.0043385588 0.005059705 0.005890959 0.0068456642
        0.007937538 0.009180149 0.010586164 0.0121663185 0.013928088 0.015874052
        0.018000009 0.020292941 0.022729015 0.025271863 0.02787147 0.03046408
        0.032973435 0.03531373 0.037394322 0.039126057 0.040428564 0.041237738
        0.041786686 0.0012047475 0.0014347589 0.0016843363 0.0019762116 0.0023171317
        0.0027147622 0.0031777504 0.0037157726 0.0043395497 0.0050608143 0.005892214
        0.0068471073 0.007939227 0.009182154 0.010588568 0.012169208 0.013931551
        0.01587817 0.018004855 0.02029858 0.022735495 0.02527921 0.0278797
        0.030473178 0.03298337 0.035324436 0.037405707 0.039137993 0.04044091
        0.041250326 0.041799422 0.00120511 0.0014351809 0.0016848192 0.0019767606
        0.0023177515 0.002715457 0.003178524 0.0037166302 0.0043405006 0.0050618765
        0.0058934176 0.0068484987 0.007940869 0.009184123 0.010590947 0.012172087
        0.013935015 0.015882298 0.01800972 0.02030424 0.022741994 0.025286578
        0.027887946 0.030482292 0.032993313 0.03533515 0.037417095 0.039149936
        0.040453263 0.04126292 0.041812167 0.0012054717 0.0014356002 0.001685297
        0.001977301 0.002318358 0.0027161317 0.0031792696 0.0037174511 0.0043414063
        0.0050628865 0.005894566 0.006849836 0.007942462 0.009186054 0.010593303
        0.012174955 0.01393848 0.015886439 0.018014604 0.02030992 0.022748513
        0.025293963 0.027896207 0.03049142 0.03300327 0.03534587 0.037428495
        0.03916189 0.04046562 0.04127552 0.04182492 0.0012058319 0.001436016
        0.0016857684 0.0019778307 0.002318948 0.0027167825 0.0031799818 0.0037182285
        0.0043422594 0.005063838 0.0058956533 0.0068511157 0.0079440065 0.009187946
        0.010595634 0.012177813 0.013941947 0.01589059 0.018019503 0.02031562
        0.022755051 0.025301365 0.027904483 0.030500555 0.033013236 0.0353566
        0.037439898 0.03917385 0.040477987 0.04128813 0.041837677 0.0012061904
        0.0014364275 0.0016862316 0.001978347 0.002319517 0.0027174035 0.003180654
        0.0037189554 0.004343053 0.005064724 0.0058966754 0.0068523353 0.0079455
        0.009189802 0.0105979415 0.012180661 0.0139454175 0.015894754 0.01802442
        0.02032134 0.02276161 0.025308784 0.027912771 0.030509703 0.033023205
        0.035367336 0.03745131 0.03918581 0.04049036 0.041300748 0.041850448
        0.0012065468 0.0014368331 0.0016866843 0.0019788463 0.0023200605 0.0027179876
        0.0031812775 0.0037196223 0.004343778 0.005065538 0.005897627 0.0068534925
        0.007946945 0.009191622 0.010600229 0.012183502 0.013948891 0.01589893
        0.018029353 0.020327076 0.022768183 0.025316218 0.027921071 0.03051886
        0.033033185 0.035378076 0.037462723 0.03919778 0.04050274 0.04131337
        0.04186322 0.0012068999 0.0014372311 0.0016871233 0.0019793233 0.0023205706
        0.002718526 0.0031818417 0.003720218 0.0043444247 0.0050662723 0.005898505
        0.0068545863 0.00794834 0.009193409 0.0106024975 0.012186338 0.013952371
        0.015903117 0.018034304 0.02033283 0.022774775 0.025323665 0.02792938
        0.030528022 0.03304317 0.03538882 0.037474137 0.039209753 0.04051512
        0.041325998 0.04187601 0.0012072488 0.0014376186 0.0016875439 0.001979771
        0.0023210382 0.0027190063 0.0031823337 0.0037207305 0.004344983 0.00506692
        0.0058993055 0.0068556173 0.007949688 0.009195165 0.010604749 0.012189169
        0.013955855 0.015907316 0.018039268 0.0203386 0.022781378 0.025331123
        0.027937697 0.030537188 0.033053152 0.035399567 0.03748556 0.039221726
        0.040527508 0.041338634 0.041888803 0.0012075915 0.0014379917 0.0016879395
        0.0019801797 0.0023214496 0.002719413 0.0031827367 0.0037211447 0.0043454417
        0.0050674756 0.005900027 0.0068565863 0.007950991 0.009196892 0.010606988
        0.012191999 0.013959345 0.015911527 0.018044248 0.020344384 0.022787994
        0.025338588 0.02794602 0.030546358 0.03306314 0.03541031 0.037496977
        0.039233703 0.040539898 0.041351277 0.041901603 0.0012079253 0.0014383445
        0.0016882997 0.0019805343 0.0023217862 0.0027197255 0.003183031 0.0037214449
        0.0043457905 0.0050679347 0.005900671 0.0068574967 0.007952256 0.009198598
        0.010609217 0.012194828 0.013962843 0.01591575 0.018049238 0.020350179
        0.022794617 0.025346057 0.027954342 0.030555524 0.03307312 0.03542105
        0.03750839 0.039245676 0.04055229 0.041363925 0.041914415 0.0012082453
        0.0014386666 0.0016886084 0.0019808128 0.0023220216 0.0027199166 0.0031831933
        0.0037216144 0.0043460215 0.0050682956 0.005901239 0.0068583544 0.0079534855
        0.009200282 0.010611437 0.0121976575 0.013966346 0.01591998 0.018054238
        0.02035598 0.022801245 0.025353527 0.02796266 0.030564684 0.033083092
        0.035431787 0.037519798 0.039257646 0.040564682 0.041376576 0.041927233
        0.0012085433 0.001438941 0.0016888389 0.0019809802 0.002322118 0.0027199516
        0.003183198 0.0037216386 0.00434613 0.0050685615 0.0059017385 0.0068591656
        0.007954688 0.009201953 0.010613652 0.012200488 0.0139698535 0.015924215
        0.018059243 0.020361783 0.022807868 0.025360988 0.027970968 0.03057383
        0.033093054 0.035442505 0.037531197 0.03926961 0.040577073 0.041389227
        0.04194006 0.0012088022 0.0014391349 0.0016889436 0.0019809813 0.0023220226
        0.0027197897 0.0031830205 0.0037215096 0.0043461192 0.0050687403 0.005902179
        0.0068599395 0.007955867 0.009203612 0.010615861 0.012203315 0.01397336
        0.01592845 0.018064242 0.020367578 0.02281448 0.025368435 0.027979257
        0.030582955 0.03310299 0.035453204 0.037542578 0.039281562 0.040589456
        0.041401885 0.041952893 0.0012089823 0.0014391788 0.0016888323 0.0019807273
        0.002321666 0.002719391 0.0031826473 0.0037212311 0.0043460024 0.0050688484
        0.005902574 0.006860685 0.00795703 0.009205259 0.010618064 0.012206137
        0.013976859 0.015932674 0.018069228 0.020373354 0.022821069 0.025375852
        0.027987512 0.030592047 0.033112895 0.035463873 0.037553933 0.039293494
        0.040601827 0.041414537 0.041965738 0.0012089623 0.001438892 0.0016883266
        0.0019800898 0.002320983 0.00271874 0.0031820945 0.0037208332 0.00434581
        0.0050689117 0.0059029446 0.006861418 0.007958186 0.009206903 0.010620261
        0.012208953 0.013980349 0.015936885 0.018074196 0.020379106 0.022827627
        0.025383234 0.027995728 0.030601097 0.03312276 0.03547451 0.037565257
        0.039305408 0.040614188 0.04142719 0.04197859 0.0012082272 0.0014380377
        0.0016874197 0.001979197 0.0023201588 0.0027180277 0.0031815325 0.0037204567
        0.004345656 0.0050690197 0.0059033604 0.006862194 0.00795938 0.0092085805
        0.010622487 0.012211791 0.013983857 0.01594111 0.018079171 0.02038486
        0.022834182 0.025390608 0.028003935 0.030610137 0.033132613 0.03548513
        0.037576575 0.03931731 0.04062655 0.041439846 0.04199145
      </DataArray>
    </PointData>
    <CellData>
    </CellData>
    <Points>
      <DataArray type="Float32" Name="Points" NumberOfComponents="3" format="ascii" RangeMin="1.0545591748816674" RangeMax="1.2057670222534964">
        0.8210936 -0.007018935 0.6645047 0.82157713 -0.0070189685 0.66450787
        0.8221449 -0.007019007 0.66451156 0.82281137 -0.0070190527 0.66451585
        0.8235932 -0.007019106 0.6645209 0.8245096 -0.0070191673 0.6645267
        0.82558304 -0.0070192385 0.6645335 0.8268392 -0.0070193214 0.6645413
        0.8283075 -0.0070194174 0.6645504 0.8300217 -0.007019528 0.66456085
        0.8320198 -0.0070196562 0.664573 0.8343448 -0.0070198043 0.664587
        0.8370448 -0.007019977 0.6646034 0.84017265 -0.007020179 0.66462255
        0.84378636 -0.0070204167 0.664645 0.84794813 -0.007020694 0.6646713
        0.8527238 -0.0070210183 0.66470194 0.8581808 -0.0070213936 0.6647375
        0.86438686 -0.007021826 0.6647785 0.87140644 -0.007022321 0.6648253
        0.87929755 -0.007022883 0.6648785 0.88810736 -0.007023513 0.6649381
        0.8978675 -0.0070242127 0.6650044 0.90858847 -0.007024981 0.66507715
        0.9202551 -0.0070258146 0.66515607 0.9328222 -0.007026708 0.66524065
        0.9462116 -0.0070276554 0.6653303 0.9603112 -0.007028648 0.6654243
        0.9749772 -0.007029678 0.6655218 0.9900386 -0.007030736 0.66562194
        1.0053041 -0.0070318123 0.66572386 0.8210373 -0.006023761 0.6645141
        0.82152134 -0.006023209 0.6645173 0.8220896 -0.0060227774 0.664521
        0.8227565 -0.006022453 0.66452533 0.8235388 -0.0060222195 0.66453034
        0.82445574 -0.006022068 0.6645362 0.82552963 -0.0060219886 0.6645429
        0.8267863 -0.006021974 0.6645508 0.8282552 -0.0060220216 0.66455984
        0.82996994 -0.0060221273 0.66457033 0.83196867 -0.00602229 0.6645825
        0.83429444 -0.006022507 0.66459656 0.83699524 -0.0060227793 0.6646129
        0.840124 -0.006023104 0.664632 0.8437388 -0.006023481 0.6646545
        0.84790176 -0.006023907 0.6646808 0.8526787 -0.006024378 0.6647115
        0.8581373 -0.0060248915 0.664747 0.8643451 -0.006025443 0.66478795
        0.8713666 -0.006026032 0.66483486 0.87925994 -0.006026657 0.664888
        0.8880723 -0.006027319 0.6649477 0.89783525 -0.0060280194 0.66501397
        0.9085594 -0.0060287598 0.66508675 0.92022955 -0.0060295383 0.66516566
        0.9328004 -0.0060303533 0.6652503 0.94619375 -0.006031202 0.66534
        0.9602976 -0.0060320785 0.665434 0.9749681 -0.0060329777 0.6655315
        0.9900339 -0.006033892 0.6656317 1.0053041 -0.0060348157 0.6657337
        0.82098097 -0.0050285733 0.66452205 0.8214653 -0.0050277025 0.6645252
        0.82203394 -0.005026932 0.6645289 0.8227013 -0.00502628 0.66453326
        0.823484 -0.005025755 0.66453826 0.82440144 -0.005025358 0.6645441
        0.8254759 -0.0050250846 0.6645509 0.82673305 -0.0050249295 0.6645587
        0.82820255 -0.0050248858 0.6645678 0.8299179 -0.005024948 0.6645783
        0.8319174 -0.0050251107 0.6645904 0.8342439 -0.0050253673 0.6646045
        0.83694553 -0.0050257123 0.6646209 0.84007525 -0.005026138 0.66464
        0.8436911 -0.0050266357 0.6646625 0.84785527 -0.005027194 0.66468877
        0.8526336 -0.0050277994 0.66471946 0.8580937 -0.0050284388 0.664755
        0.86430323 -0.0050290995 0.664796 0.8713267 -0.0050297733 0.66484284
        0.8792223 -0.005030454 0.664896 0.8880372 -0.005031142 0.66495574
        0.897803 -0.0050318376 0.665022 0.9085303 -0.005032544 0.6650948
        0.9202039 -0.005033263 0.66517377 0.93277854 -0.005033997 0.66525847
        0.9461759 -0.0050347433 0.6653482 0.960284 -0.0050355014 0.6654422
        0.9749589 -0.0050362665 0.66553974 0.99002934 -0.0050370353 0.66564
        1.0053041 -0.0050378046 0.665742 0.82092464 -0.004033376 0.6645284
        0.82140917 -0.0040322905 0.66453165 0.8219781 -0.004031276 0.66453534
        0.8226458 -0.0040303636 0.66453964 0.8234289 -0.004029581 0.6645447
        0.8243468 -0.004028945 0.66455054 0.82542175 -0.004028466 0.66455734
        0.8266795 -0.0040281457 0.6645652 0.8281496 -0.004027983 0.6645743
        0.8298657 -0.0040279725 0.6645848 0.8318659 -0.0040281066 0.6645969
        0.8341932 -0.0040283767 0.664611 0.8368957 -0.004028771 0.6646274
        0.8400264 -0.0040292777 0.6646465 0.8436433 -0.0040298784 0.664669
        0.8478087 -0.0040305536 0.66469526 0.85258836 -0.00403128 0.6647259
        0.85805005 -0.0040320335 0.6647615 0.86426127 -0.004032794 0.6648025
        0.8712868 -0.0040335436 0.6648494 0.8791846 -0.004034274 0.66490257
        0.8880021 -0.00403498 0.66496223 0.89777076 -0.0040356657 0.6650286
        0.9085012 -0.004036334 0.6651014 0.9201783 -0.00403699 0.6651804
        0.93275666 -0.004037638 0.6652651 0.94615805 -0.0040382803 0.66535485
        0.9602704 -0.004038917 0.6654489 0.9749497 -0.004039547 0.6655465
        0.99002475 -0.0040401686 0.66564673 1.0053041 -0.004040783 0.6657488
        0.82086825 -0.0030381712 0.6645334 0.821353 -0.0030369265 0.6645366
        0.8219222 -0.003035726 0.6645403 0.8225902 -0.0030346073 0.6645446
        0.8233737 -0.0030336063 0.66454965 0.824292 -0.0030327546 0.6645555
        0.82536745 -0.0030320757 0.6645623 0.8266258 -0.003031584 0.66457015
        0.8280965 -0.003031286 0.6645792 0.82981324 -0.0030311812 0.66458976
        0.83181417 -0.0030312648 0.6646019 0.8341423 -0.0030315262 0.664616
        0.8368457 -0.0030319504 0.6646323 0.8399774 -0.0030325188 0.66465145
        0.8435954 -0.0030332063 0.6646739 0.84776205 -0.0030339838 0.66470027
        0.85254306 -0.0030348182 0.66473097 0.8580063 -0.0030356753 0.6647665
        0.8642193 -0.0030365246 0.6648075 0.8712468 -0.0030373426 0.6648544
        0.8791469 -0.0030381142 0.66490763 0.88796693 -0.0030388338 0.66496736
        0.89773846 -0.0030395037 0.66503364 0.90847206 -0.0030401293 0.6651065
        0.92015266 -0.0030407184 0.6651855 0.9327348 -0.0030412783 0.66527027
        0.94614017 -0.0030418132 0.66536003 0.96025676 -0.0030423268 0.66545415
        0.97494054 -0.00304282 0.6655517 0.9900201 -0.0030432935 0.66565204
        1.0053041 -0.003043752 0.6657541 0.8208119 -0.0020429601 0.66453683
        0.8212968 -0.0020415909 0.66454 0.8218662 -0.0020402435 0.6645437
        0.8225345 -0.0020389573 0.66454804 0.82331836 -0.0020377736 0.6645531
        0.82423705 -0.0020367322 0.66455895 0.82531303 -0.002035868 0.66456574
        0.8265719 -0.0020352073 0.6645736 0.8280432 -0.0020347682 0.6645827
        0.8297606 -0.0020345575 0.6645932 0.8317623 -0.0020345743 0.6646054
        0.8340913 -0.002034809 0.66461945 0.83679557 -0.0020352448 0.66463584
        0.83992827 -0.002035858 0.66465497 0.8435474 -0.0020366171 0.66467744
        0.84771526 -0.002037483 0.6647038 0.8524977 -0.002038413 0.6647344
        0.8579625 -0.0020393627 0.66477 0.8641772 -0.002040292 0.664811
        0.87120676 -0.0020411697 0.6648579 0.87910914 -0.002041976 0.66491115
        0.88793176 -0.0020427026 0.6649709 0.8977061 -0.0020433515 0.6650373
        0.9084429 -0.0020439303 0.6651101 0.920127 -0.0020444493 0.66518915
        0.93271285 -0.0020449178 0.6652739 0.9461223 -0.0020453436 0.6653637
        0.96024317 -0.0020457322 0.66545784 0.97493136 -0.0020460873 0.6655555
        0.99001545 -0.0020464123 0.6656558 1.0053041 -0.002046714 0.6657579
        0.8207556 -0.0010477459 0.66453874 0.82124066 -0.0010462751 0.66454196
        0.82181025 -0.0010448083 0.66454566 0.8224788 -0.0010433843 0.66455
        0.82326293 -0.0010420465 0.664555 0.82418203 -0.00104084 0.6645609
        0.82525843 -0.0010398085 0.6645677 0.8265178 -0.0010389886 0.6645756
        0.82798976 -0.0010384085 0.6645847 0.82970786 -0.0010380852 0.66459525
        0.83171034 -0.001038024 0.6646074 0.8340401 -0.0010382183 0.6646215
        0.8367453 -0.0010386511 0.66463786 0.83987904 -0.0010392945 0.664657
        0.8434993 -0.0010401105 0.66467947 0.8476684 -0.0010410518 0.66470575
        0.8524522 -0.0010420654 0.66473645 0.85791856 -0.001043097 0.66477203
        0.86413515 -0.001044097 0.66481304 0.87116665 -0.0010450262 0.66486
        0.8790713 -0.00104586 0.6649132 0.8878965 -0.0010465876 0.66497296
        0.8976737 -0.0010472108 0.66503936 0.9084137 -0.0010477388 0.6651122
        0.9201012 -0.0010481839 0.6651913 0.9326909 -0.0010485585 0.66527605
        0.9461044 -0.001048873 0.6653659 0.9602295 -0.0010491352 0.66546005
        0.9749222 -0.0010493512 0.66555774 0.99001086 -0.0010495266 0.66565806
        1.0053041 -0.0010496717 0.66576016 0.8206993 -5.2530406e-05 0.6645392
        0.82118446 -5.097556e-05 0.6645424 0.8217543 -4.940926e-05 0.66454613
        0.82242304 -4.7869693e-05 0.6645504 0.82320744 -4.6401074e-05 0.6645555
        0.8241269 -4.505166e-05 0.6645614 0.8252037 -4.3870496e-05 0.6645682
        0.82646364 -4.2903215e-05 0.66457605 0.8279362 -4.2187676e-05 0.6645852
        0.82965493 -4.17504e-05 0.6645957 0.8316582 -4.160436e-05 0.6646079
        0.83398885 -4.1748033e-05 0.66462195 0.83669496 -4.216534e-05 0.66463834
        0.83982974 -4.282592e-05 0.6646575 0.8434511 -4.3686006e-05 0.66467994
        0.84762144 -4.469042e-05 0.6647063 0.8524067 -4.5776367e-05 0.664737
        0.85787463 -4.68794e-05 0.66477257 0.86409295 -4.7940594e-05 0.6648136
        0.87112653 -4.891331e-05 0.66486055 0.87903345 -4.976746e-05 0.6649138
        0.8878612 -5.049014e-05 0.66497356 0.89764136 -5.108269e-05 0.66503996
        0.9083845 -5.155569e-05 0.66511285 0.92007554 -5.1923824e-05 0.66519195
        0.932669 -5.2201984e-05 0.66527677 0.9460865 -5.2403087e-05 0.6653666
        0.96021587 -5.253747e-05 0.66546077 0.97491294 -5.261335e-05 0.6655585
        0.9900062 -5.263878e-05 0.6656589 1.0053041 -5.2626987e-05 0.665761
        0.82064295 0.0009426841 0.66453815 0.8211283 0.00094430987 0.66454136
        0.8216983 0.0009459602 0.66454506 0.82236725 0.0009475976 0.6645494
        0.82315195 0.0009491781 0.6645545 0.82407176 0.0009506517 0.6645603
        0.825149 0.0009519654 0.6645672 0.8264094 0.00095306704 0.66457504
        0.82788247 0.0009539103 0.66458416 0.82960194 0.0009544594 0.6645947
        0.8316059 0.00095469324 0.66460687 0.8339374 0.0009546073 0.664621
        0.8366445 0.0009542153 0.6646374 0.8397803 0.0009535487 0.6646565
        0.84340274 0.00095265615 0.664679 0.8475744 0.00095160026 0.66470534
        0.852361 0.00095045305 0.66473603 0.8578306 0.0009492887 0.6647716
        0.86405075 0.0009481756 0.6648126 0.8710863 0.0009471677 0.6648596
        0.8789956 0.0009463001 0.6649128 0.8878259 0.0009455884 0.66497266
        0.8976089 0.0009450314 0.66503906 0.9083553 0.0009446174 0.66511196
        0.9200498 0.0009443294 0.6651911 0.93264705 0.0009441502 0.66527593
        0.9460686 0.0009440643 0.6653658 0.9602022 0.0009440591 0.66546005
        0.97490376 0.0009441242 0.66555774 0.99000156 0.0009442491 0.6656582
        1.0053041 0.00094441784 0.66576034 0.82058656 0.0019378954 0.66453564
        0.8210721 0.0019395816 0.66453886 0.8216423 0.0019413034 0.66454256
        0.82231146 0.0019430246 0.66454685 0.82309645 0.0019447014 0.6645519
        0.8240166 0.0019462829 0.6645578 0.8250942 0.0019477138 0.6645646
        0.8263551 0.0019489366 0.66457254 0.8278287 0.0019498983 0.66458166
        0.82954884 0.0019505548 0.6645922 0.8315535 0.0019508766 0.6646044
        0.83388585 0.0019508528 0.6646185 0.83659387 0.0019504934 0.6646349
        0.8397307 0.0019498303 0.664654 0.84335434 0.0019489157 0.6646765
        0.84752727 0.0019478191 0.66470283 0.8523153 0.0019466213 0.6647335
        0.8577865 0.0019454057 0.6647691 0.8640084 0.0019442498 0.6648102
        0.87104607 0.0019432148 0.66485715 0.8789576 0.001942341 0.66491044
        0.8877905 0.0019416462 0.6649702 0.89757645 0.0019411298 0.6650367
        0.908326 0.0019407786 0.66510963 0.92002404 0.0019405739 0.6651888
        0.93262506 0.0019404961 0.6652736 0.94605064 0.0019405272 0.66536355
        0.96018857 0.0019406524 0.6654578 0.9748945 0.0019408591 0.6655556
        0.9899969 0.0019411348 0.66565603 1.0053041 0.0019414605 0.6657582
        0.82053024 0.0029331013 0.66453165 0.82101595 0.0029348393 0.6645348
        0.82158625 0.0029366226 0.6645385 0.8222557 0.0029384159 0.66454285
        0.8230409 0.0029401758 0.6645479 0.8239614 0.0029418513 0.6645538
        0.8250394 0.0029433852 0.6645606 0.8263007 0.002944717 0.66456854
        0.8277749 0.002945787 0.66457766 0.8294956 0.0029465447 0.6645882
        0.83150107 0.0029469524 0.6646004 0.83383423 0.0029469926 0.6646145
        0.83654314 0.0029466713 0.6646309 0.839681 0.0029460196 0.66465
        0.8433058 0.0029450923 0.66467255 0.84748 0.002943965 0.66469884
        0.85226953 0.0029427267 0.6647296 0.85774225 0.00294147 0.6647652
        0.86396605 0.0029402801 0.66480625 0.8710057 0.0029392263 0.6648532
        0.8789196 0.0029383532 0.6649065 0.88775516 0.0029376813 0.66496634
        0.8975439 0.0029372105 0.6650328 0.9082967 0.0029369262 0.66510576
        0.9199982 0.002936808 0.6651849 0.93260306 0.0029368338 0.66526985
        0.9460327 0.002936984 0.6653598 0.9601749 0.0029372405 0.66545403
        0.97488534 0.0029375895 0.66555184 0.9899923 0.002938016 0.66565233
        1.0053041 0.002938499 0.66575456 0.8204739 0.0039282995 0.6645261
        0.82095975 0.003930082 0.6645293 0.8215303 0.003931918 0.664533
        0.8221999 0.003933774 0.6645374 0.8229854 0.0039356058 0.66454244
        0.8239061 0.003937363 0.66454834 0.8249845 0.0039389874 0.66455513
        0.82624626 0.003940416 0.664563 0.827721 0.0039415844 0.6645722
        0.8294423 0.003942436 0.6645827 0.8314485 0.0039429264 0.66459495
        0.8337825 0.0039430307 0.664609 0.83649236 0.003942752 0.66462547
        0.83963126 0.003942117 0.6646446 0.8432572 0.0039411853 0.66466707
        0.8474327 0.0039400365 0.6646934 0.85222363 0.0039387676 0.6647241
        0.857698 0.003937479 0.66475976 0.8639236 0.0039362647 0.6648008
        0.87096536 0.0039352006 0.6648478 0.8788816 0.0039343354 0.6649011
        0.8877197 0.0039336924 0.6649609 0.8975114 0.003933272 0.66502744
        0.9082674 0.0039330586 0.66510046 0.9199724 0.00393303 0.6651796
        0.93258107 0.003933162 0.66526455 0.94601476 0.003933432 0.6653545
        0.9601612 0.0039338213 0.6654488 0.9748761 0.0039343135 0.66554666
        0.9899877 0.0039348914 0.66564715 1.0053041 0.003935531 0.6657494
        0.8204176 0.0049234875 0.66451913 0.82090354 0.004925309 0.6645223
        0.82147425 0.004927191 0.66452605 0.8221441 0.0049290997 0.66453034
        0.82292986 0.0049309945 0.6645354 0.82385087 0.004932823 0.6645413
        0.8249296 0.0049345265 0.66454816 0.82619184 0.0049360404 0.664556
        0.82766706 0.0049372977 0.6645652 0.82938904 0.0049382355 0.66457576
        0.83139586 0.0049388036 0.664588 0.83373064 0.0049389713 0.6646021
        0.83644146 0.004938735 0.6646185 0.8395814 0.0049381233 0.6646376
        0.8432085 0.004937194 0.6646601 0.8473853 0.0049360325 0.66468644
        0.8521777 0.004934742 0.6647172 0.8576537 0.004933431 0.66475284
        0.8638811 0.004932201 0.6647939 0.8709249 0.0049311346 0.66484094
        0.8788435 0.0049302843 0.6648942 0.8876842 0.0049296767 0.66495407
        0.8974788 0.004929311 0.6650206 0.90823805 0.004929173 0.6650936
        0.9199466 0.004929237 0.6651728 0.932559 0.0049294773 0.6652577
        0.9459968 0.00492987 0.6653477 0.96014756 0.004930393 0.6654421
        0.97486687 0.0049310285 0.66554 0.989983 0.0049317577 0.6656405
        1.0053041 0.0049325535 0.66574275 0.82036126 0.0059186644 0.66451067
        0.8208474 0.0059205177 0.6645138 0.8214182 0.0059224395 0.6645175
        0.8220883 0.0059243944 0.6645219 0.8228743 0.0059263427 0.66452694
        0.8237956 0.0059282333 0.6645328 0.8248747 0.005930006 0.66453964
        0.82613736 0.005931596 0.66454756 0.8276131 0.0059329323 0.6645567
        0.82933563 0.0059339474 0.6645673 0.8313432 0.0059345877 0.66457945
        0.8336788 0.005934816 0.6645936 0.8363905 0.0059346245 0.66461
        0.8395314 0.005934038 0.66462916 0.84315974 0.005933118 0.6646517
        0.8473378 0.0059319516 0.66467804 0.85213166 0.005930648 0.66470873
        0.8576093 0.005929324 0.6647444 0.86383855 0.0059280875 0.6647855
        0.8708844 0.0059270263 0.6648325 0.8788053 0.0059261993 0.6648858
        0.8876487 0.0059256325 0.6649457 0.8974462 0.0059253275 0.66501224
        0.90820867 0.005925268 0.66508526 0.91992074 0.005925428 0.6651645
        0.93253696 0.005925779 0.66524947 0.9459788 0.005926295 0.6653395
        0.96013385 0.0059269536 0.6654339 0.9748576 0.005927733 0.66553175
        0.9899784 0.0059286137 0.6656323 1.0053041 0.005929566 0.66573465
        0.8203049 0.0069138254 0.66450065 0.8207912 0.0069157085 0.6645038
        0.8213622 0.006917664 0.66450757 0.8220325 0.0069196587 0.66451186
        0.8228187 0.006921653 0.664517 0.82374036 0.006923596 0.6645228
        0.8248198 0.0069254288 0.6645297 0.8260829 0.0069270837 0.6645376
        0.8275591 0.0069284895 0.6645467 0.8292822 0.0069295755 0.66455734
        0.8312904 0.006930281 0.66456956 0.8336268 0.0069305664 0.6645837
        0.8363394 0.006930419 0.6646001 0.8394814 0.006929862 0.6646192
        0.84311086 0.0069289557 0.66464174 0.8472902 0.0069277915 0.6646681
        0.85208553 0.006926484 0.66469884 0.85756475 0.006925156 0.6647345
        0.8637959 0.006923922 0.66477555 0.8708439 0.006922875 0.6648226
        0.8787671 0.006922077 0.6648759 0.8876131 0.006921558 0.6649358
        0.8974136 0.0069213184 0.66500235 0.9081793 0.0069213416 0.6650755
        0.9198949 0.0069216 0.6651547 0.9325149 0.006922064 0.6652397
        0.9459608 0.006922705 0.66532975 0.96012014 0.006923499 0.6654241
        0.9748484 0.0069244234 0.66552204 0.9899737 0.0069254553 0.66562265
        1.0053041 0.006926564 0.665725 0.82024854 0.00790897 0.6644892
        0.820735 0.0079108775 0.66449237 0.8213062 0.007912861 0.6644961
        0.82197666 0.007914891 0.6645004 0.82276314 0.007916924 0.6645055
        0.8236851 0.007918912 0.6645114 0.82476485 0.007920796 0.6645182
        0.82602835 0.007922508 0.6645261 0.82750505 0.007923975 0.6645353
        0.82922876 0.007925121 0.66454583 0.8312377 0.007925886 0.66455805
        0.83357483 0.007926224 0.66457224 0.83628833 0.0079261195 0.66458863
        0.8394313 0.007925594 0.66460776 0.84306186 0.007924706 0.6646303
        0.84724253 0.007923551 0.66465664 0.85203934 0.007922248 0.6646874
        0.8575202 0.007920924 0.66472304 0.8637532 0.007919701 0.66476417
        0.87080324 0.007918677 0.6648112 0.87872887 0.007917916 0.66486454
        0.88757753 0.007917451 0.6649245 0.89738095 0.007917281 0.664991
        0.90814984 0.007917392 0.6650641 0.919869 0.007917752 0.66514343
        0.93249285 0.007918331 0.6652284 0.9459428 0.007919099 0.66531855
        0.96010643 0.00792003 0.66541296 0.97483915 0.007921099 0.6655109
        0.9899691 0.007922282 0.6656115 1.0053041 0.007923547 0.66571385
        0.8201922 0.008904097 0.6644762 0.8206788 0.008906024 0.6644794
        0.8212502 0.0089080315 0.66448313 0.8219209 0.008910089 0.6644875
        0.8227076 0.008912155 0.6644925 0.8236298 0.008914182 0.66449845
        0.82470995 0.008916109 0.66450524 0.8259738 0.008917869 0.6645132
        0.827451 0.008919386 0.66452235 0.8291753 0.008920587 0.66453296
        0.8311848 0.008921404 0.6645451 0.83352274 0.008921791 0.66455925
        0.83623713 0.008921728 0.6645757 0.8393811 0.008921233 0.6645949
        0.84301287 0.008920368 0.66461736 0.8471948 0.008919229 0.66464376
        0.851993 0.008917937 0.66467446 0.8574756 0.008916627 0.66471016
        0.8637104 0.008915423 0.6647513 0.8707626 0.008914431 0.6647983
        0.87869054 0.0089137135 0.66485167 0.88754183 0.008913308 0.6649116
        0.8973482 0.008913214 0.6649782 0.9081204 0.0089134155 0.66505134
        0.9198431 0.00891388 0.6651307 0.93247074 0.008914578 0.6652157
        0.9459248 0.008915474 0.6653058 0.96009266 0.008916542 0.6654002
        0.9748299 0.008917757 0.6654982 0.98996437 0.008919092 0.66559887
        1.0053041 0.008920512 0.66570127 0.8201359 0.009899202 0.66446173
        0.8206226 0.009901146 0.66446495 0.8211942 0.009903174 0.66446865
        0.8218651 0.009905254 0.664473 0.82265204 0.009907347 0.66447806
        0.82357454 0.009909405 0.66448396 0.824655 0.009911368 0.6644908
        0.8259193 0.009913166 0.6644987 0.8273969 0.009914727 0.6645079
        0.82912177 0.009915973 0.6645185 0.83113194 0.009916836 0.6645307
        0.83347064 0.009917266 0.6645448 0.8361859 0.009917241 0.6645613
        0.83933085 0.00991678 0.66458046 0.84296376 0.0099159395 0.66460294
        0.847147 0.009914821 0.6646293 0.85194665 0.00991355 0.6646601
        0.8574308 0.009912262 0.66469574 0.86366755 0.009911087 0.6647369
        0.8707218 0.009910133 0.66478395 0.8786522 0.009909469 0.66483736
        0.8875062 0.009909129 0.6648973 0.8973155 0.009909116 0.6649639
        0.9080909 0.009909411 0.66503704 0.91981715 0.009909985 0.66511637
        0.9324486 0.0099108005 0.6652014 0.94590676 0.009911828 0.66529155
        0.96007895 0.009913035 0.665386 0.9748206 0.009914395 0.665484
        0.9899597 0.009915883 0.6655847 1.0053041 0.009917458 0.66568714
        0.82007957 0.010894284 0.6644458 0.8205664 0.010896241 0.66444904
        0.82113814 0.010898284 0.66445273 0.82180923 0.010900382 0.6644571
        0.82259643 0.010902497 0.66446215 0.82351923 0.010904579 0.664468
        0.82460004 0.01090657 0.66447484 0.82586473 0.0109084 0.66448283
        0.82734287 0.010909997 0.66449195 0.8290682 0.01091128 0.66450256
        0.83107907 0.010912182 0.6645148 0.8334184 0.010912649 0.6645289
        0.83613455 0.01091266 0.66454536 0.83928055 0.01091223 0.66456455
        0.8429145 0.010911419 0.664587 0.84709907 0.010910328 0.6646134
        0.8519002 0.010909083 0.66464424 0.85738605 0.010907827 0.6646799
        0.86362463 0.01090669 0.664721 0.87068105 0.010905783 0.6647681
        0.87861377 0.010905177 0.6648215 0.8874704 0.01090491 0.66488147
        0.8972827 0.010904983 0.6649481 0.9080614 0.010905378 0.66502124
        0.91979116 0.010906062 0.66510063 0.9324265 0.010907 0.6651857
        0.9458887 0.0109081585 0.6652759 0.96006525 0.010909506 0.66537035
        0.9748114 0.010911013 0.6654684 0.98995507 0.010912651 0.66556907
        1.0053041 0.010914381 0.6656715 0.8200232 0.011889339 0.6644284
        0.8205102 0.011891306 0.6644316 0.8210822 0.011893362 0.66443527
        0.82175344 0.011895474 0.6644396 0.8225409 0.011897603 0.6644447
        0.823464 0.011899704 0.6644506 0.8245451 0.011901717 0.66445744
        0.82581013 0.011903572 0.66446537 0.82728875 0.011905194 0.66447455
        0.8290146 0.011906506 0.66448516 0.8310261 0.01190744 0.6644974
        0.8333662 0.01190794 0.66451156 0.8360832 0.011907982 0.66452795
        0.8392301 0.011907583 0.66454715 0.8428652 0.011906806 0.6645697
        0.8470511 0.0119057475 0.6645961 0.85185367 0.011904538 0.6646268
        0.8573412 0.011903319 0.6646625 0.86358166 0.011902227 0.66470367
        0.8706402 0.011901377 0.66475075 0.8785753 0.011900838 0.66480416
        0.88743466 0.011900649 0.6648642 0.89724994 0.011900813 0.6649308
        0.9080318 0.011901311 0.66500396 0.9197652 0.011902109 0.66508335
        0.93240434 0.011903171 0.66516846 0.94587064 0.011904462 0.66525865
        0.9600515 0.01190595 0.6653532 0.9748021 0.011907604 0.6654512
        0.9899504 0.011909394 0.66555196 1.0053041 0.011911279 0.6656545
        0.81996685 0.012884368 0.66440946 0.820454 0.012886341 0.6644126
        0.82102615 0.012888405 0.6644164 0.8216976 0.012890524 0.6644207
        0.8224853 0.012892665 0.6644258 0.82340866 0.0128947785 0.66443163
        0.82449013 0.012896805 0.6644385 0.82575554 0.012898676 0.6644465
        0.8272346 0.012900317 0.66445565 0.828961 0.012901652 0.6644662
        0.8309731 0.012902608 0.6644785 0.83331394 0.012903134 0.66449267
        0.83603173 0.012903208 0.66450906 0.8391797 0.012902841 0.66452825
        0.8428159 0.012902096 0.6645508 0.847003 0.012901075 0.6645772
        0.85180706 0.012899906 0.66460794 0.8572962 0.012898737 0.66464365
        0.8635386 0.012897702 0.6646848 0.87059927 0.012896914 0.6647319
        0.8785368 0.012896448 0.6647853 0.88739884 0.012896345 0.66484535
        0.89721704 0.012896605 0.664912 0.90800226 0.012897209 0.6649852
        0.9197392 0.012898126 0.66506463 0.93238217 0.012899314 0.66514975
        0.9458526 0.01290074 0.66523993 0.9600377 0.01290237 0.6653345
        0.97479284 0.012904171 0.6654326 0.9899457 0.012906113 0.66553336
        1.0053041 0.012908151 0.6656358 0.8199105 0.013879367 0.664389
        0.82039785 0.0138813425 0.66439223 0.8209701 0.013883409 0.6643959
        0.8216418 0.013885535 0.6644003 0.8224297 0.01388768 0.66440535
        0.82335335 0.013889799 0.66441125 0.8244352 0.013891833 0.6644181
        0.825701 0.013893713 0.664426 0.82718045 0.013895365 0.6644352
        0.8289074 0.013896714 0.6644459 0.8309201 0.013897688 0.6644581
        0.83326167 0.013898236 0.6644722 0.83598024 0.013898334 0.6644887
        0.83912915 0.013897996 0.66450787 0.84276646 0.013897289 0.6645304
        0.8469548 0.013896309 0.6645568 0.8517603 0.013895191 0.66458756
        0.8572512 0.013894076 0.66462326 0.86349547 0.013893105 0.66466445
        0.8705583 0.01389239 0.6647116 0.87849826 0.013892008 0.664765
        0.88736296 0.013891994 0.664825 0.8971842 0.013892356 0.6648917
        0.90797263 0.0138930725 0.6649649 0.91971314 0.013894107 0.66504437
        0.93236 0.013895426 0.66512954 0.94583446 0.013896988 0.6652198
        0.96002394 0.013898759 0.6653143 0.97478354 0.013900708 0.6654124
        0.98994106 0.013902801 0.6655132 1.0053041 0.013904994 0.6656158
        0.8198542 0.014874332 0.66436714 0.82034165 0.01487631 0.66437036
        0.8209141 0.014878375 0.66437405 0.821586 0.014880499 0.6643784
        0.82237417 0.014882646 0.6643835 0.82329804 0.014884763 0.6643894
        0.82438016 0.014886798 0.6643962 0.82564634 0.014888681 0.66440415
        0.82712626 0.014890334 0.66441333 0.8288537 0.014891689 0.664424
        0.83086705 0.014892672 0.6644362 0.8332093 0.014893236 0.66445035
        0.83592874 0.014893356 0.6644668 0.83907855 0.01489305 0.66448605
        0.84271693 0.014892381 0.6645085 0.8469066 0.014891449 0.6645349
        0.8517136 0.014890387 0.6645657 0.8572061 0.014889336 0.66460145
        0.86345226 0.014888437 0.66464263 0.87051725 0.014887803 0.6646897
        0.87845963 0.01488751 0.6647432 0.887327 0.014887596 0.66480327
        0.89715123 0.014888064 0.6648699 0.907943 0.014888895 0.6649432
        0.9196871 0.014890054 0.6650226 0.9323378 0.014891502 0.6651078
        0.9458164 0.014893201 0.6651981 0.9600102 0.014895118 0.66529274
        0.97477424 0.014897214 0.66539085 0.9899364 0.014899459 0.66549164
        1.0053041 0.014901805 0.6655942 0.8197979 0.015869264 0.6643438
        0.82028544 0.015871238 0.66434693 0.82085806 0.015873298 0.6643506
        0.82153016 0.015875418 0.664355 0.8223186 0.015877558 0.6643601
        0.8232428 0.01587967 0.664366 0.8243252 0.015881697 0.6643728
        0.82559174 0.015883572 0.6643807 0.82707214 0.015885223 0.66438997
        0.8288001 0.015886573 0.6644006 0.83081394 0.01588756 0.66441286
        0.8331569 0.015888134 0.664427 0.8358771 0.015888274 0.6644435
        0.8390279 0.015887998 0.6644627 0.84266734 0.01588737 0.6644852
        0.84685826 0.015886491 0.66451156 0.85166675 0.01588549 0.6645424
        0.8571609 0.015884515 0.6645781 0.86340904 0.015883697 0.6646193
        0.8704762 0.015883153 0.6646665 0.878421 0.015882956 0.66471994
        0.8872911 0.015883146 0.66477996 0.89711833 0.015883727 0.66484666
        0.9079134 0.015884677 0.66492 0.919661 0.015885962 0.6649994
        0.9323156 0.015887544 0.6650846 0.9457983 0.015889382 0.6651749
        0.95999634 0.015891442 0.66526955 0.97476494 0.015893688 0.6653677
        0.9899317 0.015896084 0.6654686 1.0053041 0.015898583 0.66557115
        0.8197415 0.016864158 0.66431886 0.82022923 0.016866125 0.6643221
        0.82080203 0.016868176 0.6643258 0.8214744 0.016870286 0.6643301
        0.822263 0.016872413 0.6643352 0.8231875 0.016874515 0.6643411
        0.8242702 0.016876526 0.66434795 0.82553715 0.016878387 0.6643559
        0.8270179 0.016880024 0.6643651 0.8287464 0.016881365 0.6643757
        0.83076084 0.016882349 0.664388 0.83310443 0.016882928 0.6644022
        0.83582544 0.01688308 0.66441864 0.8389771 0.016882837 0.66443783
        0.8426177 0.016882252 0.6644603 0.84680986 0.016881432 0.6644867
        0.8516198 0.016880503 0.6645175 0.8571157 0.016879607 0.6645533
        0.8633657 0.01687888 0.6645945 0.870435 0.016878435 0.6646416
        0.87838227 0.016878342 0.66469514 0.8872551 0.016878642 0.6647552
        0.8970853 0.016879342 0.6648219 0.9078837 0.016880415 0.66489524
        0.9196349 0.01688183 0.6649747 0.9322933 0.016883546 0.6650599
        0.9457801 0.016885526 0.6651503 0.9599826 0.016887732 0.66524494
        0.97475564 0.016890125 0.6653431 0.989927 0.016892672 0.665444
        1.0053041 0.016895326 0.6655466 0.81968516 0.017859016 0.66429245
        0.8201731 0.01786097 0.6642957 0.82074606 0.01786301 0.6642994
        0.8214185 0.0178651 0.6643037 0.8222074 0.017867213 0.66430885
        0.82313216 0.017869294 0.66431475 0.8242152 0.017871283 0.6643216
        0.8254825 0.017873121 0.6643295 0.8269637 0.017874736 0.6643387
        0.8286926 0.01787606 0.6643494 0.83070767 0.017877033 0.66436166
        0.8330519 0.017877609 0.66437584 0.8357737 0.017877778 0.6643923
        0.8389263 0.017877562 0.6644115 0.842568 0.017877026 0.664434
        0.8467614 0.01787627 0.6644604 0.85157275 0.017875418 0.66449124
        0.8570703 0.017874613 0.66452694 0.86332226 0.017873986 0.6645682
        0.8703938 0.017873647 0.66461533 0.87834346 0.017873665 0.6646688
        0.887219 0.017874086 0.66472894 0.8970523 0.017874906 0.6647957
        0.90785396 0.017876105 0.66486895 0.9196088 0.017877653 0.6649485
        0.93227106 0.01787951 0.66503376 0.945762 0.017881632 0.6651241
        0.95996875 0.017883983 0.6652188 0.97474635 0.017886527 0.665317
        0.98992234 0.017889226 0.6654179 1.0053041 0.017892031 0.66552055
        0.81962883 0.01885383 0.6642646 0.8201169 0.01885577 0.6642678
        0.82069004 0.01885779 0.66427153 0.82136273 0.018859861 0.6642759
        0.82215184 0.01886195 0.66428095 0.8230768 0.018864 0.66428685
        0.82416016 0.018865962 0.6642937 0.82542783 0.018867768 0.6643017
        0.8269094 0.018869353 0.6643109 0.82863885 0.018870652 0.66432154
        0.83065444 0.018871607 0.6643338 0.83299935 0.018872177 0.664348
        0.8357219 0.018872358 0.66436446 0.8388754 0.018872172 0.6643837
        0.84251815 0.018871685 0.6644062 0.8467128 0.018871 0.6644326
        0.85152566 0.018870236 0.6644634 0.8570249 0.01886953 0.66449916
        0.8632788 0.01886901 0.66454035 0.8703525 0.018868787 0.66458756
        0.87830466 0.018868927 0.6646411 0.88718295 0.018869469 0.66470116
        0.8970192 0.018870417 0.664768 0.9078242 0.018871749 0.66484123
        0.9195826 0.018873433 0.6649208 0.9322488 0.01887543 0.6650061
        0.9457438 0.018877696 0.66509646 0.9599549 0.018880194 0.6651912
        0.97473705 0.018882887 0.6652894 0.98991764 0.018885737 0.6653903
        1.0053041 0.018888695 0.665493 0.8195725 0.019848602 0.6642353
        0.8200607 0.01985052 0.66423845 0.820634 0.019852515 0.6642422
        0.8213069 0.019854562 0.6642465 0.8220962 0.019856617 0.6642516
        0.8230215 0.019858632 0.6642575 0.82410514 0.019860556 0.6642644
        0.8253732 0.019862322 0.66427237 0.8268552 0.01986387 0.66428155
        0.8285851 0.019865133 0.6642922 0.83060116 0.019866062 0.6643045
        0.8329468 0.019866625 0.6643187 0.83567005 0.019866815 0.66433513
        0.83882445 0.019866662 0.6643544 0.8424682 0.01986623 0.66437685
        0.8466642 0.01986562 0.6644033 0.85147846 0.019864952 0.66443413
        0.8569794 0.019864354 0.66446984 0.86323524 0.019863954 0.6645111
        0.87031114 0.019863851 0.6645583 0.87826574 0.01986412 0.6646118
        0.88714683 0.019864792 0.6646719 0.8969861 0.019865874 0.6647387
        0.9077945 0.019867342 0.664812 0.91955644 0.019869165 0.6648916
        0.9322265 0.019871304 0.6649769 0.9457257 0.019873716 0.6650673
        0.9599411 0.019876363 0.6651621 0.9747277 0.019879207 0.6652603
        0.9899129 0.019882208 0.6653613 1.0053041 0.019885318 0.665464
        0.8195162 0.020843329 0.6642044 0.8200045 0.020845223 0.6642076
        0.820578 0.020847188 0.66421133 0.8212511 0.020849202 0.6642157
        0.8220406 0.020851213 0.66422075 0.82296616 0.020853186 0.6642267
        0.8240501 0.020855064 0.66423357 0.82531846 0.020856777 0.66424155
        0.8268009 0.020858277 0.6642508 0.8285312 0.020859499 0.6642614
        0.83054787 0.020860396 0.6642737 0.832894 0.020860946 0.66428787
        0.8356181 0.020861145 0.6643044 0.83877337 0.020861026 0.66432357
        0.84241825 0.020860655 0.6643461 0.84661543 0.020860128 0.6643725
        0.8514312 0.020859562 0.6644033 0.85693383 0.020859083 0.6644391
        0.8631916 0.020858811 0.6644803 0.8702697 0.02085884 0.66452754
        0.8782268 0.020859243 0.66458106 0.88711065 0.020860052 0.6646412
        0.896953 0.020861272 0.664708 0.9077646 0.020862881 0.66478133
        0.9195303 0.020864848 0.66486096 0.9322042 0.02086713 0.66494626
        0.9457075 0.020869689 0.6650367 0.95992726 0.020872487 0.66513145
        0.9747184 0.02087548 0.66522974 0.9899083 0.020878633 0.6653307
        1.0053041 0.020881897 0.6654334 0.8194598 0.021838004 0.66417205
        0.8199483 0.021839868 0.6641753 0.82052195 0.0218418 0.66417897
        0.82119524 0.021843767 0.6641834 0.821985 0.021845734 0.66418844
        0.8229108 0.021847654 0.66419435 0.82399505 0.02184947 0.66420126
        0.82526374 0.021851128 0.66420925 0.8267465 0.02185257 0.6642185
        0.8284773 0.021853738 0.6642291 0.83049446 0.021854602 0.66424143
        0.8328413 0.021855135 0.6642556 0.83556604 0.021855343 0.66427207
        0.8387222 0.021855261 0.66429126 0.8423681 0.021854956 0.6643138
        0.84656656 0.021854522 0.6643402 0.8513838 0.021854065 0.6643711
        0.85688823 0.021853713 0.66440684 0.8631479 0.021853575 0.664448
        0.8702283 0.021853747 0.6644952 0.87818784 0.021854296 0.6645488
        0.8870744 0.02185525 0.66460896 0.89691985 0.021856612 0.6646758
        0.9077348 0.021858364 0.66474915 0.91950405 0.021860477 0.6648288
        0.93218184 0.021862905 0.66491413 0.94568926 0.021865614 0.66500455
        0.9599134 0.021868559 0.6650993 0.97470903 0.021871705 0.6651977
        0.98990357 0.02187501 0.66529864 1.0053041 0.021878425 0.6654014
        0.81940347 0.022832632 0.66413826 0.8198921 0.022834457 0.6641414
        0.8204659 0.022836344 0.6641452 0.8211394 0.022838263 0.6641495
        0.8219294 0.022840174 0.66415465 0.8228555 0.022842025 0.66416055
        0.82394 0.022843774 0.66416746 0.825209 0.022845361 0.66417545
        0.82669216 0.022846732 0.66418463 0.8284234 0.022847846 0.6641953
        0.83044106 0.022848668 0.66420764 0.83278847 0.022849184 0.6642218
        0.83551395 0.022849401 0.6642383 0.838671 0.02284936 0.6642575
        0.842318 0.02284913 0.66428006 0.8465177 0.022848794 0.66430646
        0.85133636 0.02284846 0.6643373 0.85684246 0.022848245 0.66437304
        0.86310416 0.022848252 0.6644143 0.8701867 0.022848574 0.66446155
        0.8781488 0.022849273 0.6645151 0.8870382 0.022850377 0.6645753
        0.89688665 0.022851888 0.6646421 0.90770495 0.02285379 0.66471547
        0.9194778 0.02285605 0.6647951 0.9321595 0.022858629 0.6648805
        0.9456711 0.022861488 0.66497093 0.9598995 0.022864588 0.66506577
        0.9746997 0.022867884 0.6651641 0.98989886 0.022871342 0.66526514
        1.0053041 0.022874909 0.6653679 0.81934714 0.023827206 0.664103
        0.8198359 0.023828987 0.66410613 0.8204099 0.023830822 0.6641099
        0.82108355 0.023832679 0.66411424 0.8218738 0.023834517 0.66411936
        0.82280004 0.023836294 0.66412526 0.8238849 0.023837961 0.6641322
        0.8251542 0.023839466 0.66414016 0.82663774 0.023840763 0.6641494
        0.8283694 0.023841811 0.6641601 0.83038753 0.023842588 0.66417235
        0.83273554 0.023843084 0.6641866 0.83546174 0.023843314 0.6642031
        0.83861965 0.023843318 0.66422224 0.8422677 0.023843167 0.6642448
        0.8464686 0.02384294 0.66427124 0.85128886 0.023842739 0.66430205
        0.8567967 0.02384267 0.6643378 0.86306036 0.023842834 0.66437906
        0.87014514 0.023843316 0.6644263 0.8781097 0.023844175 0.66447985
        0.8870019 0.023845434 0.66454005 0.8968534 0.023847101 0.66460687
        0.9076751 0.023849156 0.6646803 0.91945153 0.023851566 0.66476
        0.93213713 0.023854299 0.66484535 0.94565284 0.023857309 0.6649359
        0.95988566 0.02386056 0.6650307 0.9746903 0.02386401 0.66512907
        0.98989415 0.02386762 0.6652301 1.0053041 0.023871336 0.6653329
        0.8192908 0.02482173 0.66406614 0.81977975 0.024823455 0.66406935
        0.82035387 0.024825225 0.66407305 0.8210277 0.024827007 0.66407746
        0.8218182 0.024828764 0.6640825 0.82274467 0.024830451 0.6640885
        0.82382977 0.02483202 0.66409534 0.82509935 0.024833433 0.6641033
        0.8265832 0.02483464 0.6641126 0.82831526 0.02483562 0.6641233
        0.8303339 0.024836348 0.66413563 0.8326825 0.024836829 0.6641498
        0.83540946 0.024837077 0.66416633 0.8385682 0.024837134 0.6641855
        0.8422173 0.02483707 0.66420805 0.8464195 0.02483696 0.66423446
        0.85124123 0.024836902 0.66426533 0.8567508 0.02483699 0.6643011
        0.8630164 0.02483732 0.66434234 0.8701035 0.02483797 0.66438955
        0.8780706 0.024838995 0.66444314 0.8869655 0.024840418 0.66450334
        0.8968201 0.024842246 0.6645702 0.9076451 0.024844458 0.66464365
        0.91942525 0.024847025 0.66472334 0.9321147 0.024849912 0.66480875
        0.9456346 0.024853077 0.66489923 0.95987177 0.024856484 0.6649941
        0.97468096 0.024860086 0.6650925 0.98988944 0.024863847 0.66519356
        1.0053041 0.024867715 0.66529644 0.8192345 0.025816193 0.66402787
        0.81972355 0.02581785 0.664031 0.82029784 0.025819544 0.6640348
        0.82097185 0.025821242 0.66403913 0.8217625 0.025822898 0.66404426
        0.82268924 0.02582448 0.6640502 0.8237746 0.025825938 0.6640571
        0.82504445 0.025827244 0.6640651 0.82652867 0.025828358 0.66407436
        0.8282611 0.02582926 0.66408503 0.8302802 0.025829941 0.66409737
        0.8326294 0.025830405 0.6641116 0.835357 0.025830677 0.66412807
        0.8385167 0.025830796 0.6641473 0.84216684 0.02583083 0.66416985
        0.84637034 0.025830852 0.66419625 0.8511935 0.025830945 0.66422707
        0.85670483 0.0258312 0.66426283 0.86297244 0.025831709 0.66430414
        0.87006176 0.025832536 0.66435134 0.8780314 0.025833733 0.6644049
        0.8869291 0.025835326 0.6644652 0.8967868 0.02583732 0.664532
        0.9076152 0.025839694 0.6646055 0.91939896 0.025842419 0.6646852
        0.93209237 0.025845462 0.6647706 0.94561636 0.025848784 0.6648612
        0.9598579 0.025852343 0.66495603 0.9746716 0.025856104 0.6650545
        0.98988473 0.025860017 0.6651556 1.0053041 0.025864035 0.6652584
        0.81917816 0.0268106 0.66398805 0.81966734 0.026812177 0.6639912
        0.82024175 0.026813777 0.663995 0.820916 0.026815364 0.6639994
        0.8217068 0.026816906 0.6640045 0.82263374 0.026818363 0.66401047
        0.8237193 0.0268197 0.6640174 0.82498944 0.026820885 0.66402537
        0.82647395 0.026821895 0.66403466 0.8282068 0.026822718 0.66404533
        0.83022636 0.02682335 0.6640577 0.8325761 0.026823806 0.6640719
        0.8353045 0.02682411 0.66408837 0.83846503 0.026824303 0.6641076
        0.84211624 0.026824445 0.66413015 0.846321 0.026824603 0.66415656
        0.8511457 0.026824864 0.6641874 0.85665876 0.0268253 0.6642232
        0.8629284 0.02682599 0.66426444 0.87002 0.026827008 0.6643117
        0.87799215 0.026828386 0.66436523 0.8868927 0.026830157 0.6644255
        0.89675343 0.026832318 0.6644924 0.9075852 0.026834859 0.66456586
        0.9193726 0.02683775 0.66464555 0.93206996 0.026840951 0.664731
        0.94559807 0.026844433 0.6648216 0.959844 0.02684815 0.6649165
        0.97466224 0.026852064 0.6650149 0.98988 0.026856128 0.6651161
        1.0053041 0.0268603 0.66521895 0.8191218 0.027804941 0.66394675
        0.81961113 0.027806422 0.66394997 0.8201857 0.027807908 0.6639538
        0.8208601 0.027809372 0.66395813 0.82165104 0.027810771 0.66396326
        0.8225782 0.027812086 0.6639692 0.82366395 0.027813278 0.66397613
        0.82493436 0.027814329 0.6639842 0.8264192 0.02781523 0.6639935
        0.8281523 0.027815972 0.66400415 0.83017236 0.027816562 0.6640165
        0.8325227 0.027817018 0.66403073 0.8352518 0.027817365 0.66404724
        0.83841324 0.02781764 0.66406643 0.8420655 0.027817905 0.66408896
        0.8462716 0.02781822 0.66411537 0.8510978 0.027818652 0.6641462
        0.8566126 0.027819283 0.66418195 0.8628843 0.02782017 0.66422325
        0.86997813 0.02782138 0.66427046 0.8779528 0.02782295 0.6643241
        0.8868562 0.027824907 0.6643843 0.89672005 0.027827246 0.66445124
        0.9075552 0.027829956 0.66452473 0.9193463 0.02783301 0.6646045
        0.9320475 0.027836377 0.66468996 0.94557977 0.027840015 0.6647805
        0.95983005 0.02784389 0.66487545 0.9746529 0.027847959 0.6649739
        0.98987526 0.02785218 0.66507506 1.0053041 0.0278565 0.66517794
        0.81906545 0.02879922 0.663904 0.8195549 0.028800579 0.66390723
        0.82012963 0.028801925 0.663911 0.8208041 0.028803233 0.6639154
        0.82159525 0.02880447 0.6639205 0.8225225 0.028805612 0.6639265
        0.82360846 0.028806644 0.66393346 0.8248791 0.028807556 0.66394144
        0.8263642 0.028808342 0.66395074 0.8280977 0.028809011 0.66396147
        0.83011824 0.02880957 0.6639738 0.83246917 0.028810034 0.66398805
        0.835199 0.028810434 0.66400456 0.8383613 0.028810808 0.66402376
        0.84201473 0.028811207 0.6640463 0.84622204 0.02881169 0.6640727
        0.85104984 0.028812313 0.6641035 0.85656637 0.028813142 0.6641393
        0.86284006 0.028814238 0.6641806 0.8699362 0.028815653 0.66422784
        0.8779135 0.028817425 0.6642814 0.88681966 0.028819568 0.6643417
        0.8966867 0.02882209 0.66440856 0.9075252 0.028824974 0.6644821
        0.9193199 0.0288282 0.66456187 0.932025 0.02883173 0.66464734
        0.9455615 0.028835533 0.66473794 0.95981616 0.028839568 0.6648329
        0.97464347 0.028843794 0.6649314 0.98987055 0.028848168 0.66503257
        1.0053041 0.028852642 0.6651355 0.8190091 0.029793434 0.6638598
        0.81949866 0.029794635 0.663863 0.8200735 0.029795805 0.66386676
        0.8207481 0.029796919 0.66387117 0.82153934 0.029797954 0.6638763
        0.82246673 0.029798906 0.6638823 0.82355285 0.029799761 0.6638892
        0.8248237 0.029800527 0.6638973 0.8263091 0.029801207 0.6639066
        0.8280429 0.029801806 0.6639173 0.83006394 0.029802343 0.66392964
        0.83241546 0.029802835 0.6639439 0.83514607 0.029803308 0.66396046
        0.8383093 0.029803796 0.66397965 0.84196377 0.029804347 0.6640021
        0.84617245 0.029805008 0.6640285 0.85100174 0.029805835 0.66405934
        0.8565201 0.029806878 0.6640951 0.8627958 0.029808195 0.6641364
        0.86989427 0.029809827 0.6641837 0.8778741 0.029811801 0.66423726
        0.8867831 0.029814143 0.6642975 0.89665323 0.029816853 0.66436446
        0.90749514 0.029819917 0.664438 0.9192935 0.029823314 0.66451776
        0.93200254 0.029827014 0.6646033 0.9455432 0.029830981 0.66469395
        0.9598022 0.029835178 0.6647889 0.9746341 0.029839562 0.6648874
        0.98986584 0.02984409 0.66498864 1.0053041 0.029848715 0.6650916
        0.8189528 0.030787585 0.663814 0.8194424 0.030788573 0.6638172
        0.8200173 0.030789508 0.66382104 0.82069194 0.030790381 0.66382545
        0.82148325 0.03079118 0.66383064 0.82241076 0.030791918 0.66383666
        0.823497 0.03079259 0.6638436 0.82476807 0.030793212 0.6638516
        0.8262537 0.030793792 0.663861 0.82798797 0.030794343 0.6638717
        0.83000946 0.030794876 0.66388404 0.8323616 0.030795412 0.6638983
        0.8350929 0.030795978 0.6639148 0.83825713 0.030796599 0.663934
        0.8419127 0.030797314 0.6639565 0.8461227 0.030798174 0.66398287
        0.8509536 0.03079922 0.66401374 0.85647374 0.03080049 0.6640495
        0.8627515 0.030802036 0.66409075 0.86985224 0.030803889 0.664138
        0.8778347 0.030806081 0.66419166 0.8867465 0.030808626 0.6642519
        0.89661974 0.030811528 0.66431886 0.90746504 0.030814776 0.6643924
        0.9192671 0.03081835 0.66447216 0.9319801 0.030822223 0.6645577
        0.9455249 0.03082636 0.66464835 0.95978826 0.030830719 0.66474336
        0.97462475 0.030835265 0.6648419 0.98986113 0.03083995 0.6649431
        1.0053041 0.030844728 0.6650461 0.8188964 0.03178166 0.6637668
        0.81938607 0.031782344 0.6637701 0.81996095 0.031782966 0.66377383
        0.8206356 0.031783532 0.6637783 0.8214269 0.03178407 0.6637835
        0.8223545 0.03178457 0.66378945 0.8234409 0.031785067 0.6637964
        0.82471216 0.031785563 0.66380453 0.8261981 0.031786066 0.6638138
        0.8279328 0.031786587 0.66382456 0.82995474 0.031787146 0.66383696
        0.8323075 0.031787753 0.6638512 0.8350397 0.031788427 0.6638677
        0.8382048 0.031789202 0.6638869 0.84186155 0.031790107 0.6639094
        0.84607285 0.031791177 0.6639358 0.8509053 0.03179245 0.6639666
        0.85642725 0.031793963 0.66400236 0.8627071 0.031795748 0.66404366
        0.86981016 0.031797837 0.66409093 0.87779516 0.031800255 0.6641445
        0.88670987 0.031803016 0.6642048 0.8965862 0.031806115 0.6642718
        0.90743494 0.031809554 0.6643453 0.91924065 0.03181331 0.6644251
        0.93195754 0.031817354 0.66451067 0.9455066 0.03182166 0.6646014
        0.9597743 0.031826187 0.6646964 0.97461534 0.031830892 0.6647949
        0.98985636 0.031835735 0.6648962 1.0053041 0.031840667 0.6649992
        0.8188401 0.032775663 0.6637181 0.8193295 0.032775827 0.6637213
        0.81990427 0.032776013 0.6637252 0.8205789 0.032776233 0.6637296
        0.8213702 0.03277649 0.6637348 0.8222978 0.032776788 0.6637408
        0.8233844 0.03277713 0.66374785 0.8246559 0.03277753 0.6637559
        0.8261422 0.03277799 0.66376525 0.8278773 0.032778524 0.663776
        0.8298998 0.032779135 0.6637884 0.8322533 0.03277984 0.6638026
        0.8349862 0.03278065 0.66381913 0.8381523 0.0327816 0.6638383
        0.8418102 0.03278271 0.6638608 0.8460229 0.032784015 0.6638872
        0.8508569 0.032785535 0.66391796 0.8563807 0.0327873 0.6639537
        0.8626626 0.03278934 0.663995 0.869768 0.032791674 0.6640423
        0.87775564 0.032794323 0.66409594 0.8866732 0.0327973 0.6641562
        0.8965527 0.032800604 0.66422313 0.9074048 0.03280424 0.66429675
        0.9192142 0.03280818 0.66437656 0.931935 0.032812405 0.66446215
        0.9454882 0.032816883 0.6645528 0.95976037 0.032821577 0.6646479
        0.9746059 0.032826446 0.66474646 0.98985165 0.032831445 0.66484773
        1.0053041 0.032836534 0.6649507
        <InformationKey name="L2_NORM_RANGE" location="vtkDataArray" length="2">
          <Value index="0">
            1.0545591749
          </Value>
          <Value index="1">
            1.2057670223
          </Value>
        </InformationKey>
      </DataArray>
    </Points>
  </Piece>
  </StructuredGrid>
</VTKFile>
