<?xml version="1.0"?>
<VTKFile type="StructuredGrid" version="0.1" byte_order="LittleEndian" header_type="UInt32" compressor="vtkZLibDataCompressor">
  <StructuredGrid WholeExtent="0 30 0 40 0 0">
  <Piece Extent="0 30 0 40 0 0">
    <PointData>
      <DataArray type="Float32" Name="orthogonality" format="ascii" RangeMin="0" RangeMax="0.9578864574432373">
        0 0.010494936 0.020855583 0.031005811 0.040878553 0.05041178
        0.059548635 0.068237856 0.076433904 0.084096864 0.09119211 0.09768962
        0.10356313 0.108788714 0.11334246 0.11719518 0.12029962 0.12255905
        0.1237552 0.12339796 0.12044204 0.11280468 0.09660977 0.06504886
        0.0066405255 0.096985094 0.26801828 0.5007294 0.72419876 0.8765103
        0.95788646 9.6880816e-05 0.010607109 0.020987732 0.031163048 0.041066155
        0.050634965 0.059812523 0.0685474 0.07679388 0.08451186 0.09166648
        0.09822753 0.104168504 0.109465264 0.114093594 0.11802379 0.121207446
        0.12354492 0.12481102 0.12450026 0.12153742 0.113792636 0.097349815
        0.06549367 0.0074019604 0.09296425 0.25314218 0.46916568 0.6890141
        0.85418004 0.9524371 0.0002456052 0.010776801 0.02118318 0.031389654
        0.041329563 0.05094085 0.060166534 0.06895515 0.07726092 0.08504367
        0.09226849 0.09890513 0.10492708 0.11031019 0.11503024 0.11905733
        0.12234228 0.12478317 0.12614882 0.12592009 0.12299534 0.11520456
        0.09860502 0.066596486 0.009026294 0.087952405 0.23770474 0.43723834
        0.6513774 0.82991487 0.9473603 0.0004387042 0.011001268 0.02144411
        0.03169307 0.041681923 0.05134885 0.060637083 0.06949535 0.077878095
        0.08574537 0.093062565 0.09979976 0.10593085 0.1114322 0.1162801
        0.12044515 0.123878255 0.12647639 0.12800428 0.12793279 0.1251408
        0.11743238 0.100867294 0.06901644 0.012472809 0.08049593 0.21979
        0.40356007 0.6107064 0.8015102 0.9391637 0.00066778 0.011272263
        0.021762455 0.03206544 0.042115614 0.05185162 0.061217137 0.070161365
        0.07863923 0.08661138 0.09404383 0.100907415 0.10717694 0.112829775
        0.117843375 0.12218958 0.12582035 0.12863292 0.13039023 0.13055727
        0.12800163 0.12051768 0.10419897 0.072842635 0.01784732 0.07050994
        0.1992685 0.36773384 0.56639194 0.7677684 0.9265182 0.00092368765
        0.011580326 0.022128431 0.03249663 0.042620134 0.052438255 0.061895356
        0.07094136 0.079532005 0.08762881 0.09519884 0.1022141 0.10865075
        0.11448777 0.11970444 0.124274604 0.12815233 0.13123658 0.13329108
        0.13377964 0.13156779 0.12445798 0.10861039 0.07810012 0.025173513
        0.058008716 0.17612197 0.3294812 0.51781535 0.7271772 0.9075439
        0.0011961075 0.011913619 0.022528617 0.03297152 0.043178514 0.053089757
        0.06265051 0.07181164 0.08052995 0.08876815 0.09649464 0.103683
        0.1103112 0.1163603 0.121812 0.1266429 0.13081013 0.1342159
        0.13662727 0.1375119 0.13574311 0.12915027 0.11399299 0.084670566
        0.034300078 0.04321153 0.15056351 0.28878814 0.46454138 0.6780003
        0.8796264 0.0014752011 0.01226002 0.022948485 0.033472996 0.04377081
        0.05378307 0.06345608 0.07274184 0.081598386 0.08998983 0.09788619
        0.10526287 0.112099975 0.11838104 0.12409062 0.12920865 0.13369612
        0.13745984 0.14027266 0.14161105 0.1403661 0.13441284 0.12014118
        0.09231231 0.04491614 0.026540812 0.12307671 0.24604434 0.40667817
        0.61857265 0.83937246 0.0017493644 0.01260355 0.023367494 0.033975646
        0.04436636 0.054481823 0.064269416 0.07368234 0.082679935 0.0912278
        0.09929763 0.10686679 0.113917634 0.1204363 0.12641042 0.13182354
        0.13664095 0.14077498 0.14400633 0.14582488 0.14514892 0.1399167
        0.12667598 0.100577496 0.0564676 0.008695851 0.09446828 0.20208071
        0.34499702 0.5479549 0.78266793 0.0020127047 0.012933526 0.023769973
        0.034458514 0.04493854 0.05515322 0.06505098 0.074586146 0.083719306
        0.09241747 0.10065394 0.108407944 0.11566398 0.12241072 0.12863874
        0.13433512 0.13946955 0.14396034 0.14759758 0.14988835 0.14978632
        0.1453082 0.1331813 0.108961165 0.06831455 0.009498238 0.06575495
        0.15814985 0.28121558 0.46621677 0.7041284 0.002259763 0.013242
        0.024145368 0.03490827 0.045471013 0.055777658 0.065777555 0.07542602
        0.08468477 0.09352207 0.101912655 0.10983742 0.1172828 0.124239735
        0.1307015 0.13665843 0.14208451 0.14690423 0.1509182 0.1536539
        0.15410763 0.15038732 0.13941649 0.11715979 0.0800536 0.027500523
        0.037629254 0.11520586 0.21712638 0.37475708 0.59837663 0.0024802687
        0.013516102 0.024478115 0.035306472 0.045942247 0.05633023 0.066420525
        0.07616928 0.08553912 0.09449933 0.10302584 0.11110089 0.11871255
        0.12585364 0.13251975 0.13870406 0.14438447 0.14949164 0.15383753
        0.15697272 0.15794228 0.15495619 0.14514598 0.12488106 0.09130589
        0.044816297 0.010726443 0.07417894 0.15472804 0.27785617 0.46556973
        0.002666562 0.013746467 0.024757084 0.03564012 0.046337225 0.056793727
        0.0669603 0.076793686 0.086257175 0.095320806 0.10396138 0.11216217
        0.119912446 0.12720652 0.13404173 0.14041364 0.1463036 0.15164822
        0.15627135 0.15974884 0.16117947 0.15888347 0.15020722 0.1319119
        0.10177978 0.061047923 0.014418889 0.03590063 0.09592004 0.18133613
        0.3140939 0.0028109464 0.013926061 0.024975924 0.035903573 0.046651036
        0.057164032 0.0673936 0.07729689 0.08683761 0.09598633 0.10472042
        0.113023885 0.12088685 0.12830468 0.13527608 0.14179854 0.14785638
        0.15339208 0.15824178 0.16200854 0.16384913 0.16220053 0.15462758
        0.13826594 0.11146371 0.076155044 0.037733536 0.00058769935 0.04167402
        0.09036602 0.15928757 0.0029068855 0.014050386 0.025132244 0.036096618
        0.046885785 0.0574457 0.06772764 0.07768899 0.087293744 0.09651275
        0.1053238 0.11371135 0.12166613 0.12918428 0.13626553 0.14290892
        0.14910157 0.15479164 0.1598282 0.16384321 0.16605516 0.16502292
        0.15853125 0.14407095 0.12048665 0.09027772 0.059384104 0.031899925
        0.0077465167 0.008234927 0.016573349 0.002948225 0.014115648 0.025224674
        0.036220405 0.047045253 0.05764533 0.06797204 0.07798291 0.08764207
        0.096920595 0.10579648 0.11425452 0.122285865 0.12988722 0.13705917
        0.14380206 0.15010568 0.15592395 0.16111942 0.16535453 0.16791265
        0.16747867 0.16205706 0.14947422 0.12900735 0.103603594 0.07961451
        0.061854012 0.052505635 0.06374174 0.104740374 0.0029293138 0.014118125
        0.02525146 0.03627519 0.047131803 0.057767496 0.06813375 0.07818816
        0.08789493 0.09722525 0.106157266 0.114676 0.12277292 0.13044517
        0.13769406 0.14452116 0.15091878 0.1568468 0.16218175 0.16661797
        0.1695062 0.16966033 0.16530311 0.15457727 0.1371348 0.11626751
        0.09861574 0.089540064 0.09291066 0.12561443 0.20238045 0.0028449376
        0.014053975 0.025210146 0.036259927 0.047145825 0.057814088 0.068216234
        0.078309864 0.088059254 0.097435616 0.10641722 0.114989236 0.12314338
        0.1308772 0.13819256 0.14509226 0.15157111 0.15759502 0.16305499
        0.16767834 0.17088507 0.17161986 0.1683211 0.15942933 0.14491963
        0.12833863 0.11650491 0.115155764 0.12929465 0.17816459 0.27843294
        0.002689658 0.01391884 0.025097448 0.03617238 0.047086123 0.057784963
        0.068220414 0.0783501 0.088138275 0.097556196 0.106582195 0.11520156
        0.1234062 0.131194 0.13856737 0.14553022 0.15207991 0.15818845
        0.16376165 0.16856062 0.17207588 0.1733837 0.17113464 0.16404939
        0.15238053 0.13985142 0.1333599 0.13886167 0.16200152 0.22247991
        0.3365621 0.0024588068 0.013708771 0.024910117 0.036009926 0.046950664
        0.05767863 0.068145335 0.07830837 0.08813201 0.09758748 0.10665317
        0.115314454 0.123563394 0.13139813 0.13882163 0.14583883 0.15244958
        0.15863207 0.16430712 0.16927004 0.17308247 0.17495199 0.17373677
        0.16842072 0.15949331 0.150787 0.149191 0.16073805 0.19130197
        0.2596248 0.38042536 0.0021428633 0.013415832 0.024641745 0.03576758
        0.046735786 0.057492692 0.06798981 0.07818473 0.08804169 0.09753195
        0.1066339 0.115333 0.12362144 0.13149762 0.13896497 0.14602943
        0.15269336 0.15894113 0.16470873 0.16982593 0.17392567 0.17634626
        0.17614895 0.1725659 0.16628867 0.16119993 0.16410136 0.18097724
        0.21760222 0.2907278 0.41312647 0.0017424035 0.013039801 0.024291286
        0.035443336 0.046438407 0.057222858 0.06774821 0.07797204 0.08785855
        0.09737898 0.10651173 0.11524228 0.12356292 0.1314722 0.138974
        0.14607517 0.15278043 0.15908025 0.16492559 0.17018032 0.17454782
        0.17749436 0.17827731 0.17636055 0.17260523 0.17089361 0.17787303
        0.19937737 0.2408348 0.31634152 0.43701947 0.0012201495 0.0125502935
        0.023834944 0.03501946 0.046046466 0.056862485 0.06741915 0.07767411
        0.087591626 0.09714299 0.106306635 0.11506813 0.123419866 0.13136064
        0.13889468 0.14602984 0.1527732 0.1591214 0.16504036 0.1704282
        0.17505866 0.17852521 0.1802778 0.18000157 0.17870274 0.18021853
        0.19097619 0.21656565 0.26190272 0.33782858 0.45398912 0.0006215546
        0.012001759 0.023336165 0.03456869 0.045642443 0.056504395 0.06710655
        0.07740689 0.08736997 0.09696736 0.10617781 0.11498719 0.1233883
        0.13138041 0.13896848 0.14616165 0.1529698 0.15939625 0.1654228
        0.1709832 0.17592393 0.1799694 0.1827665 0.18422283 0.18547916
        0.19029532 0.20481855 0.23430403 0.2829858 0.35810453 0.4667462
        8.127955e-05 0.011517625 0.02290805 0.03419553 0.04532373 0.056240138
        0.06689725 0.07725347 0.0872738 0.09693024 0.106202036 0.11507559
        0.1235443 0.13160819 0.13927326 0.14655027 0.1534524 0.1599903
        0.16616288 0.1719417 0.17725012 0.18195042 0.18589623 0.1892263
        0.19321315 0.20151167 0.21992968 0.25328833 0.30491906 0.37860695
        0.47805998 0.00035484324 0.011130556 0.022570532 0.033907633 0.045085948
        0.056053407 0.06676289 0.07717318 0.08724968 0.096964814 0.106298275
        0.11523699 0.123775005 0.1319131 0.13965835 0.14702326 0.15402448
        0.16068047 0.16700827 0.17301963 0.17871952 0.18411659 0.18928313
        0.19459957 0.20146628 0.21339865 0.2357952 0.2729323 0.32703844
        0.39889893 0.48941043 0.0007139015 0.010813688 0.022296866 0.033678003
        0.044901546 0.055915765 0.06667387 0.07713498 0.087264836 0.09703624
        0.106429316 0.115431495 0.12403742 0.13224865 0.14007331 0.14752574
        0.15462616 0.16140135 0.16788763 0.17413963 0.18024968 0.18638296
        0.19284554 0.20027345 0.21019179 0.22593533 0.25240877 0.293219
        0.3493486 0.41891342 0.50073886 0.0009941536 0.010571002 0.022093132
        0.03351465 0.04478032 0.05583873 0.066643395 0.077153735 0.087335825
        0.097162835 0.10661531 0.1156812 0.12435575 0.13264132 0.14054713
        0.1480894 0.15529217 0.16219099 0.16884266 0.17534749 0.18189077
        0.18880482 0.1966451 0.2063188 0.21947321 0.23921804 0.26986945
        0.31422856 0.37192217 0.43882552 0.5121577 0.0012028131 0.010395917
        0.021953305 0.033411957 0.044716943 0.055817142 0.06666634 0.07722428
        0.08745733 0.097339034 0.10685037 0.11597978 0.12472315 0.13308363
        0.14107159 0.14870517 0.15601245 0.16303822 0.16986102 0.17662965
        0.1836285 0.19136833 0.20067161 0.21273485 0.22932653 0.25328138
        0.28821814 0.33598652 0.39479357 0.45870563 0.52378124 0.001344892
        0.010284433 0.021874323 0.0333677 0.044709932 0.055850178 0.06674251
        0.07734694 0.0876302 0.09756617 0.10713627 0.11632946 0.12514226
        0.13357863 0.14165014 0.14937694 0.15679133 0.16394784 0.17094795
        0.17799193 0.18546951 0.19408193 0.20493789 0.21954435 0.23979196
        0.26818514 0.3075212 0.35854542 0.41802678 0.47868383 0.5357858
        0.0014260742 0.010231524 0.021851774 0.033377994 0.044755865 0.055934817
        0.06686921 0.07751936 0.08785229 0.097842306 0.10747124 0.11672859
        0.12561151 0.13412483 0.14228131 0.15010323 0.15762725 0.16491815
        0.17210163 0.17943229 0.1874117 0.1969442 0.20944591 0.22675903
        0.25090015 0.28398228 0.3278402 0.3819568 0.44169277 0.4988904
        0.54836935 0.0014518908 0.010232205 0.021881174 0.033438813 0.04485111
        0.056067783 0.067043476 0.077738814 0.08812116 0.0981652 0.10785321
        0.117175244 0.12612914 0.13472055 0.14296353 0.1508825 0.15851869
        0.1659476 0.17332034 0.18094878 0.18945278 0.19995311 0.21419623
        0.2343889 0.26268134 0.3007283 0.34924182 0.4062819 0.46587867
        0.5194727 0.5617533 0.0014277957 0.010281397 0.021957796 0.03354573
        0.044991516 0.05624516 0.0672616 0.07800177 0.08843339 0.098531544
        0.10827897 0.117666274 0.12669198 0.13536264 0.1436936 0.15171148
        0.15946229 0.16703264 0.1746002 0.18253691 0.19158743 0.20310245
        0.21918416 0.24243802 0.2751613 0.31847775 0.37179568 0.43159056
        0.49068528 0.5405842 0.57616174 0.0013590325 0.010374105 0.022076854
        0.033694148 0.04517264 0.05646263 0.06751936 0.07830408 0.08878489
        0.09893725 0.10874441 0.11819754 0.12729585 0.13604684 0.14446712
        0.15258563 0.16045325 0.16816814 0.17593552 0.18419011 0.19380753
        0.2063823 0.22439957 0.25090402 0.28836086 0.3372851 0.39557618
        0.45796305 0.5162257 0.5623776 0.5918032 0.001250565 0.010505484
        0.022233613 0.03387941 0.045389872 0.056715604 0.06781216 0.07864112
        0.08917095 0.09937754 0.10924464 0.11876399 0.12793553 0.13676767
        0.14527836 0.1534989 0.16148515 0.16934714 0.17731859 0.18589926
        0.19610167 0.20977803 0.22982581 0.2597767 0.30229506 0.3572045
        0.42066374 0.48548988 0.5426195 0.584991 0.60884535 0.0011070194
        0.010670933 0.022423467 0.03409688 0.045638535 0.056999326 0.06813513
        0.07900788 0.0895864 0.09984704 0.10977402 0.11935972 0.12860478
        0.13751854 0.14612032 0.1544438 0.1625499 0.17056079 0.17873941
        0.18765254 0.19845489 0.2132699 0.23543893 0.26903695 0.3169721
        0.37829113 0.4471465 0.51427037 0.5699841 0.6085313 0.6273869
        0.0009326517 0.010866124 0.022641994 0.03434203 0.045913942 0.057308942
        0.06848322 0.07939905 0.09002566 0.10033982 0.11032629 0.11997801
        0.12929639 0.13829172 0.14698465 0.15541127 0.16363762 0.17179817
        0.18018554 0.1894351 0.20084818 0.21683243 0.24120657 0.27865535
        0.33239347 0.40060285 0.4751221 0.5444084 0.5984202 0.63305277
        0.64742625 0.0007313473 0.011087013 0.022884974 0.034610428 0.046211433
        0.057639513 0.068851165 0.079809025 0.090482704 0.10084942 0.11089442
        0.12061128 0.13000213 0.1390782 0.1478615 0.15639049 0.16473638
        0.17304592 0.18164165 0.19122848 0.20325784 0.2204335 0.24708694
        0.28859118 0.34855387 0.42420322 0.50469905 0.5760043 0.6279938
        0.65853244 0.66883004 0.0005066507 0.011329807 0.023148341 0.0348977
        0.046526298 0.05798594 0.06923345 0.0802318 0.09095097 0.101368636
        0.11147054 0.12125086 0.13071245 0.13986742 0.14873919 0.15736851
        0.16583169 0.17428768 0.1830889 0.19300996 0.20565465 0.22403337
        0.2530275 0.2987911 0.36544222 0.44916606 0.5359974 0.6091423
        0.6587122 0.684845 0.6913035 0.0002618326 0.011590876 0.02342808
        0.03519942 0.04685364 0.058342826 0.06962409 0.080660746 0.09142313
        0.101889335 0.11204559 0.121886656 0.13141605 0.14064683 0.14960364
        0.15832953 0.16690575 0.17550324 0.18450381 0.19475128 0.20800251
        0.22758316 0.2589631 0.30918774 0.38304353 0.4755819 0.5691467
        0.64387006 0.69049716 0.71173716 0.7143625 0 0.0118683595
        0.023723615 0.035516337 0.04719559 0.058713734 0.07002818 0.081102535
        0.09190753 0.10242164 0.11263159 0.12253268 0.13212913 0.14143483
        0.1504757 0.15929703 0.1679849 0.17672214 0.18591969 0.19649024
        0.2103438 0.23112418 0.26490223 0.31963843 0.40075517 0.50191927
        0.6015857 0.67735916 0.7211812 0.7378129 0.73670727
      </DataArray>
      <DataArray type="Float32" Name="aspect_ratio" format="ascii" RangeMin="1.6069974899291992" RangeMax="24.85562515258789">
        24.008139 23.831642 23.598547 23.251509 22.797132 22.243967
        21.602175 20.883125 20.098982 19.262281 18.385546 17.480932
        16.559948 15.633221 14.710339 13.799761 12.90881 12.043751
        11.209996 10.412446 9.655936 8.945628 8.286775 7.682451
        7.1258483 6.579949 5.9422984 5.094127 4.2061152 3.700508
        3.8479757 24.01607 23.799585 23.52669 23.140654 22.648691
        22.059917 21.384981 20.635664 19.824442 18.964075 18.067207
        17.146038 16.212029 15.275691 14.346437 13.432499 12.54092
        11.677632 10.847625 10.055221 9.304422 8.5991335 7.942707
        7.3353667 6.7665105 6.1981726 5.549859 4.7643743 4.0027943
        3.5763154 3.6955898 24.024014 23.770437 23.460701 23.038635
        22.512028 21.890507 21.18517 20.408165 19.57225 18.69038
        17.775307 16.83925 15.893622 14.948817 14.014074 13.097405
        12.205591 11.344241 10.5179405 9.730457 8.984984 8.2842245
        7.629773 7.019409 6.4398127 5.8539166 5.2003245 4.4634476
        3.7915251 3.419124 3.4918027 24.03198 23.747322 23.40661
        22.95414 22.39818 21.748796 21.017477 20.21669 19.359447
        18.458878 17.527842 16.57859 15.622512 14.669913 13.7299
        12.81031 11.917704 11.05742 10.233685 9.449761 8.708092
        8.010264 7.356295 6.741957 6.1522408 5.552473 4.8974433
        4.197262 3.5848372 3.2456398 3.2509842 24.039976 23.730919
        23.365797 22.889257 22.309952 21.638302 20.886106 20.066101
        19.19151 18.275616 17.331373 16.371082 15.406115 14.446726
        13.501927 12.579424 11.685607 10.825595 10.003306 9.221551
        8.482076 7.78544 7.1302495 6.5106735 5.910868 5.299465
        4.6444993 3.970583 3.3930452 3.0649283 2.990166 24.048006
        23.722004 23.339825 22.84635 22.250502 21.56296 20.795752
        19.961811 19.074524 18.147295 17.193169 16.22448 15.252613
        14.287797 13.338986 12.413801 11.518514 10.658073 9.836147
        9.0551405 8.316163 7.618819 6.9604526 6.3339744 5.7233787
        5.1010528 4.445554 3.7884738 3.22628 2.8875973 2.7274942
        24.05608 23.720871 23.329298 22.826342 22.221087 21.52436
        20.748335 19.906069 19.011057 18.076792 17.11638 16.142206
        15.165671 14.197006 13.245148 12.317673 11.420787 10.559324
        9.73675 8.955116 8.214943 7.5149374 6.851304 6.215978
        5.593299 4.959557 4.301517 3.653034 3.0916085 2.7237468
        2.4777849 24.064201 23.728048 23.335272 22.830824 22.223825
        21.525146 20.747 19.902498 19.00518 18.068592 17.105877
        16.129461 15.150783 14.180096 13.2263565 12.297147 11.398656
        10.535656 9.711462 8.927821 8.184699 7.4799476 6.808714
        6.1621695 5.525352 4.8784227 4.214543 3.5671892 2.9959745
        2.584087 2.255155 24.072372 23.742033 23.35476 22.855371
        22.252922 21.558231 20.783482 19.941767 19.046625 18.111614
        17.149906 16.17396 15.195256 14.224098 13.269487 12.33905
        11.438997 10.574083 9.747515 8.960766 8.213276 7.5020633
        6.821279 6.1615014 5.5087485 4.8469834 4.174462 3.5229888
        2.9361305 2.4721897 2.0622902 24.080593 23.760464 23.383068
        22.893015 22.29923 21.612423 20.844688 20.009062 19.119047
        18.188192 17.229683 16.25601 15.2787 14.308117 13.35333
        12.422029 11.520475 10.653432 9.824022 9.033467 8.28069
        7.5618906 6.870269 6.195963 5.526222 4.8487763 4.1660986
        3.507856 2.903935 2.3866594 1.8944008 24.088861 23.785044
        23.423595 22.948826 22.36943 21.695927 20.940252 20.11532
        19.234558 18.311464 17.359222 16.390348 15.416423 14.447888
        13.493903 12.562256 11.659293 10.789824 9.956921 9.161576
        8.402206 7.6741796 6.9697566 6.2787137 5.589692 4.8941526
        4.1982913 3.5298474 2.9077928 2.3396645 1.7694862 24.097172
        23.81663 23.47807 23.02538 22.466928 21.812943 21.075117
        20.26617 19.399395 18.488209 17.545767 16.584604 15.616361
        14.651574 13.699523 12.76813 11.863869 10.991634 10.154488
        9.353216 8.585728 7.846541 7.126942 6.416379 5.704992
        4.9879875 4.275119 3.5928354 2.9520564 2.33972 1.70374
        24.105515 23.854223 23.544495 23.119701 22.587791 21.95862
        21.243565 20.455091 19.60631 18.710526 17.780844 16.829815
        15.869147 14.909488 13.960263 13.029561 12.124019 11.248654
        10.406549 9.598305 8.821319 8.069227 7.3323116 6.599709
        5.863173 5.1217437 4.388778 3.6902006 3.031524 2.3851893
        1.700486 24.113888 23.897379 23.621962 23.230402 22.730148
        22.130602 21.44276 20.67879 19.851568 18.974266 18.059927
        17.12111 16.169607 15.216191 14.270464 13.340709 12.4337635
        11.554807 10.706968 9.890684 9.102839 8.336161 7.5798883
        6.822864 6.058565 5.2899976 4.5342956 3.8176534 3.1424997
        2.473683 1.7606617 24.12228 23.94548 23.709204 23.355541
        22.891367 22.325567 21.668703 20.932594 20.129871 19.27354
        18.376577 17.451567 16.51038 15.563952 14.622083 13.693286
        12.784634 11.901496 11.047087 10.221693 9.421692 8.638879
        7.861432 7.0779176 6.283641 5.48572 4.705282 3.9695075
        3.2796483 2.5993261 1.8778887 24.130692 23.998163 23.805454
        23.493912 23.069769 22.541348 21.918732 21.213356 20.437584
        19.604252 18.726276 17.81626 16.886194 15.947188 15.009274
        14.081229 13.170395 12.282371 11.420481 10.584889 9.771468
        8.97108 8.170822 7.3590074 6.532859 5.7037416 4.896993
        4.1413946 3.4385192 2.7557094 2.0424776 24.139118 24.055048
        23.909908 23.64425 23.26361 22.775703 22.190102 21.517843
        20.771004 19.962257 19.10446 18.210266 17.291798 16.360373
        15.426286 14.498614 13.585001 12.691308 11.821002 10.974146
        10.146126 9.326865 8.50238 7.6607466 6.8011703 5.939373
        5.1051006 4.3292418 3.6147957 2.936061 2.243434 24.147558
        24.116037 24.022326 23.80613 23.472244 23.027742 22.48166
        21.844627 21.128433 20.345592 19.50892 18.631142 17.72454
        16.800674 15.870135 14.942334 14.025252 13.125048 12.245359
        11.386177 10.542416 9.703069 8.85307 7.9802594 7.085869
        6.190059 5.327172 4.530626 3.8056166 3.1350625 2.4715247
        24.15601 24.18091 24.142227 23.978777 23.694588 23.29606
        22.791685 22.191675 21.50754 20.75165 19.936804 19.07582
        18.18118 17.264708 16.337332 15.40883 14.487556 13.579996
        12.68999 11.81748 10.956932 10.096422 9.219796 8.314654
        7.384262 6.4532804 5.5608153 4.7431717 4.008229 3.3479397
        2.7189772 24.164473 24.251225 24.272614 24.166525 23.936167
        23.587238 23.12767 22.56725 21.91722 21.189827 20.397877
        19.554321 18.671871 17.762676 16.838037 15.908145 14.981771
        14.06577 13.164224 12.27706 11.3983135 10.515149 9.610309
        8.671115 7.7028584 6.734774 5.810963 4.970996 4.225726
        3.5756013 2.9843793 24.172947 24.32497 24.409515 24.363514
        24.189346 23.89201 23.478868 22.959309 22.344318 21.646044
        20.877333 20.051292 19.180906 18.27867 17.356295 16.424416
        15.49225 14.567048 13.653157 12.750515 11.852754 10.946136
        10.012294 9.0382395 8.0312395 7.025122 6.0691366 5.206393
        4.450806 3.8101714 3.2586253 24.18143 24.412739 24.573483
        24.59953 24.49233 24.256105 23.89762 23.425838 22.851517
        22.186743 21.444462 20.63803 19.78078 18.885668 17.964912
        17.029707 16.08981 15.152967 14.223877 13.302545 12.382219
        11.448235 10.481015 9.467149 8.415866 7.365824 6.3719625
        5.4815626 4.711679 4.075631 3.5647316 24.189924 24.497454
        24.73134 24.826456 24.783375 24.605587 24.299301 23.873095
        23.337513 22.704596 21.9874 21.19952 20.354645 19.466158
        18.546787 17.608244 16.660824 15.712744 14.769038 13.829784
        12.887869 11.927729 10.928607 9.876632 8.782872 7.690673
        6.660633 5.744302 4.961699 4.329814 3.8599796 24.198433
        24.513062 24.753866 24.855625 24.818808 24.646824 24.345808
        23.924284 23.392761 22.76326 22.04883 21.263079 20.419718
        19.532164 18.613184 17.674534 16.726545 15.777449 14.832245
        13.890874 12.945922 11.981331 10.975805 9.915425 8.812542
        7.7132826 6.681163 5.7694683 4.999978 4.3922477 3.9563122
        24.20698 24.459341 24.640633 24.686424 24.59787 24.378933
        24.036167 23.57837 23.016186 22.361637 21.627659 20.827631
        19.97496 19.082691 18.163166 17.2277 16.286163 15.346345
        14.412837 13.48524 12.555916 11.608732 10.622513 9.5837
        8.505313 7.4342422 6.4340634 5.5571938 4.825923 4.2606397
        3.8477945 24.215565 24.398386 24.513067 24.49609 24.34939
        24.077576 23.687687 23.188858 22.591904 21.908863 21.152557
        20.336132 19.472656 18.574768 17.654345 16.722202 15.787708
        14.858163 13.937717 13.025632 12.11408 11.186944 10.223254
        9.209797 8.16003 7.1212125 6.1565714 5.317343 4.625871
        4.1008797 3.7082913 24.224184 24.346998 24.403845 24.332039
        24.134247 23.815695 23.383907 22.848354 22.22005 21.511103
        20.734266 19.902514 19.028656 18.12499 17.203007 16.2731
        15.344202 14.42319 13.513837 12.6151085 11.719017 10.809451
        9.865584 8.8744135 7.8497066 6.8391156 5.9057603 5.09996
        4.4437966 3.9522057 3.5778768 24.232832 24.2976 24.298258
        24.172955 23.925104 23.560566 23.087366 22.515347 21.855745
        21.120768 20.323133 19.475677 18.590973 17.681005 16.756903
        15.828654 14.9047785 13.991747 13.092974 12.207156 11.326186
        10.433992 9.50989 8.540994 7.5411863 6.5583344 5.6554093
        4.8818007 4.258816 3.796379 3.4369354 24.241508 24.252798
        24.20145 24.02641 23.73181 23.324123 22.811882 22.205301
        21.515867 20.755901 19.938124 19.075268 18.179708 17.263163
        16.336433 15.409148 14.489448 13.583437 12.694208 11.820229
        10.953301 10.077418 9.17201 8.224192 7.247757 6.290682
        5.415869 4.6718574 4.078695 3.6405344 3.2931561 24.250212
        24.212025 24.112364 23.890928 23.552536 23.104261 22.555126
        21.915726 21.197802 20.413813 19.576513 18.698557 17.79216
        16.868805 15.939004 15.012064 14.095782 13.1959305 12.315315
        11.45221 10.59837 9.737876 8.850251 7.9224725 6.9680314
        6.0348697 5.185898 4.4688663 3.9021127 3.4837573 3.145544
        24.258938 24.175505 24.03149 23.767294 23.38838 22.902393
        22.31883 21.648657 20.903875 20.0971 19.241127 18.348572
        17.431515 16.501244 15.568022 14.640864 13.727264 12.832703
        11.959733 11.106481 10.2646885 9.418559 8.547676 7.638732
        6.7046614 5.793223 4.9674377 4.274365 3.730279 3.3274076
        2.9958377 24.267689 24.14317 23.958742 23.655443 23.239342
        22.71861 22.103199 21.404428 20.634562 19.806372 18.932722
        18.0262 17.09879 16.16161 15.2247095 14.296852 13.385265
        12.495169 11.628911 10.784508 9.953737 9.120949 8.265761
        7.3744173 6.459002 5.5669065 4.7613816 4.088943 3.5635953
        3.1721706 2.8451562 24.276459 24.114935 23.893986 23.55524
        23.105312 22.552864 21.908268 21.183184 20.390123 19.54202
        18.651817 17.732092 16.794754 15.85079 14.910058 13.981109
        13.070938 12.184547 11.324115 10.487593 9.666844 8.8464
        8.005885 7.1309137 6.232373 5.3570485 4.5685625 3.9131148
        3.4024327 3.0187593 2.6947997 24.28525 24.090628 23.836927
        23.466297 22.98585 22.404694 21.73359 20.98451 20.170208
        19.303774 18.398232 17.466166 16.519432 15.568905 14.62429
        13.6939535 12.784692 11.901325 11.045904 10.216362 9.404698
        8.595671 7.768886 6.9091287 6.025677 5.1643934 4.389429
        3.7470272 3.2468753 2.8676903 2.5459528 24.29406 24.07003
        23.787157 23.388056 22.880278 22.273344 21.57836 20.80759
        19.974009 19.090858 18.171244 17.22777 16.272253 15.315476
        14.367021 13.435093 12.526327 11.645393 10.794256 9.970879
        9.167452 8.369015 7.5551424 6.7095723 5.839476 4.9893594
        4.224083 3.5904806 3.0967395 2.7193027 2.3996677 24.302889
        24.052883 23.744186 23.319826 22.787748 22.157833 21.441502
        20.651281 19.800348 18.902088 17.969687 17.015776 16.052143
        15.089502 14.137326 13.203693 12.2951 11.416103 10.568617
        9.750687 8.954759 8.166214 7.3646 6.5323772 5.674002
        4.832037 4.0722523 3.4428978 2.9515488 2.5737312 2.2567856
        24.311733 24.038908 23.70749 23.26086 22.707314 22.057049
        21.32177 20.514238 19.647814 18.736012 17.792099 16.828733
        15.857685 14.889615 13.933905 12.998528 12.0898695 11.212403
        10.368033 9.554935 8.7658825 7.98668 7.196867 6.377385
        5.5292397 4.6922417 3.9333072 3.3033195 2.8105338 2.430898
        2.1178737 24.320595 24.027842 23.676552 23.210415 22.63803
        21.969872 21.217897 20.395075 19.514929 18.591095 17.63691
        16.665062 15.687313 14.714278 13.755269 12.818171 11.909284
        11.033024 10.191323 9.382544 8.59986 7.829598 7.0513406
        6.2442646 5.405029 4.569585 3.8062747 3.1703994 2.672638
        2.2905064 1.9831625 24.32947 24.01945 23.65092 23.167833
        22.579052 21.895298 21.12874 20.292532 19.400345 18.465916
        17.502653 16.523275 15.539536 14.562018 13.5999775 12.661227
        11.752003 10.876692 10.037292 9.232403 8.4556875 7.694107
        6.927376 6.1326704 5.301208 4.463561 3.689848 3.0423913
        2.5365233 2.152031 1.8524848 24.338358 24.013567 23.63027
        23.132645 22.529774 21.832592 21.053453 20.205671 19.303043
        18.359404 17.388218 16.402235 15.413208 14.431695 13.466906
        12.526602 11.616971 10.7424 9.904984 9.103623 8.332556
        7.5795197 6.824493 6.042432 5.2177825 4.3736386 3.5823681
        2.9171143 2.40057 2.0146978 1.7252132 24.347258 24.008919
        23.612085 23.101131 22.485352 21.775867 20.985209 20.126833
        19.214651 18.262589 17.284164 16.292154 15.298311 14.3131695
        13.345898 12.404211 11.494262 10.620447 9.78499 8.987135
        8.221798 7.4776845 6.73536 5.967854 5.152312 4.30255
        3.492425 2.807462 2.278732 1.889788 1.6069975
      </DataArray>
      <DataArray type="Float32" Name="jacobian" format="ascii" RangeMin="0.0005141734145581722" RangeMax="0.010038772597908974">
        0.0098543195 0.009824573 0.009767296 0.009658357 0.009500191 0.009296177
        0.00905049 0.008767928 0.008453731 0.0081133945 0.007752487 0.0073764906
        0.006990656 0.0065998854 0.0062086484 0.0058209156 0.005440116 0.005069109
        0.0047101574 0.0043648914 0.0040342663 0.0037185187 0.0034171639 0.0031291181
        0.0028530245 0.0025873645 0.002326766 0.002040747 0.0016438961 0.0010866353
        0.0005141734 0.0098575745 0.0098442845 0.009803545 0.009710927 0.009568588
        0.0093796505 0.009148058 0.008878411 0.0085757915 0.008245581 0.007893275
        0.0075243195 0.00714397 0.006757168 0.0063684457 0.0059818574 0.005600925
        0.0052285898 0.004867156 0.004518207 0.0041824933 0.0038598059 0.00354891
        0.003247632 0.0029531482 0.0026621607 0.0023693824 0.0020566902 0.0016726073
        0.0011730595 0.0005969532 0.009860835 0.009862876 0.009837607 0.009760325
        0.00963293 0.009458299 0.009240152 0.008982903 0.008691478 0.008371136
        0.0080272965 0.0076653645 0.0072905878 0.0069079315 0.00652198 0.0061368565
        0.0057561602 0.005382898 0.0050193933 0.0046671527 0.0043266714 0.0039972262
        0.0036767484 0.0033619346 0.0030486714 0.00273263 0.0024099268 0.0020739064
        0.0017010061 0.0012537175 0.0006752719 0.009864105 0.009879038 0.009866893
        0.009802738 0.009688256 0.009526111 0.00931983 0.009073652 0.008792358
        0.008481094 0.008145189 0.0077899974 0.0074207433 0.007042396 0.006659565
        0.006276418 0.0058966028 0.005523162 0.005158407 0.0048037227 0.0044592945
        0.0041238084 0.0037942843 0.0034662837 0.0031346537 0.002794847 0.0024455767
        0.0020902916 0.0017266581 0.0013286921 0.0007657301 0.009867385 0.009892472
        0.009890744 0.009837094 0.0097330315 0.009581054 0.00938453 0.009147553
        0.00887478 0.008571252 0.0082422225 0.007892987 0.007528739 0.0071544372
        0.0067747002 0.0063937157 0.0060151573 0.005642076 0.0052767396 0.004920375
        0.0045728106 0.004232086 0.0038942671 0.0035538343 0.0032049166 0.0028435339
        0.0024718768 0.002102074 0.001746947 0.0013944146 0.0008671827 0.009870679
        0.009902841 0.0099084275 0.009862212 0.009765587 0.009620928 0.009431492
        0.009201266 0.008934813 0.008637093 0.008313297 0.007968673 0.00760838
        0.0072373617 0.0068602334 0.006481188 0.0061039026 0.005731415 0.0053659235
        0.0050084707 0.004658498 0.004313375 0.003968228 0.0036165852 0.0032522422
        0.0028724927 0.002483515 0.0021045816 0.0017583729 0.0014463658 0.00097409287
        0.00987399 0.00991001 0.009919631 0.009877565 0.009785138 0.009644661
        0.009459322 0.009233047 0.008970341 0.008676114 0.008355512 0.00801375
        0.0076559642 0.007287079 0.0069116997 0.0065340134 0.006157688 0.0057857283
        0.0054202466 0.0050620865 0.0047102957 0.004361593 0.0040102415 0.003649018
        0.0032717995 0.0028777102 0.0024770184 0.0020944797 0.0017582471 0.0014807265
        0.0010776252 0.009877319 0.009913754 0.009923874 0.00988239 0.009790616
        0.009650853 0.009466275 0.009240791 0.008978889 0.008685464 0.008365644
        0.008024629 0.0076675406 0.00729929 0.006924472 0.0065472587 0.0061712954
        0.005799543 0.005434017 0.0050753597 0.0047222474 0.0043708095 0.0040145842
        0.003645865 0.0032590122 0.0028553344 0.0024488918 0.0020681876 0.0017434037
        0.0014939338 0.0011644611 0.009880669 0.009914697 0.00992242 0.009878583
        0.009784546 0.0096426355 0.009456055 0.009228738 0.008965188 0.008670311
        0.008349242 0.008007181 0.0076492443 0.007280336 0.0069050365 0.0065274998
        0.006151342 0.0057794703 0.0054138 0.0050547835 0.0047007618 0.0043473626
        0.003987564 0.0036134399 0.0032201486 0.0028113038 0.002404186 0.002029446
        0.0017168225 0.0014886213 0.0012288423 0.009884039 0.009913827 0.009917269
        0.009869185 0.009770996 0.009625093 0.0094347345 0.009203899 0.00893713
        0.008639362 0.00831575 0.007971504 0.0076117427 0.007241364 0.0068649333
        0.006486583 0.0061098947 0.0057377205 0.005371877 0.0050126407 0.0046580606
        0.004303347 0.0039410703 0.0035632947 0.0031661675 0.0027555425 0.0023512614
        0.0019848477 0.0016840296 0.0014700064 0.0012709043 0.009887427 0.009910435
        0.009907 0.0098520545 0.009747127 0.009594711 0.009398153 0.009161516
        0.008889409 0.008586819 0.00825894 0.007911003 0.007548138 0.0071752365
        0.006796849 0.00641708 0.0060394686 0.0056668064 0.0053008115 0.0049416055
        0.004586999 0.0042318944 0.00386863 0.0034894717 0.003091675 0.0026831154
        0.0022854311 0.0019299116 0.0016413546 0.001436722 0.0012826655 0.009890833
        0.009904168 0.009890918 0.009826175 0.009711623 0.0095499 0.009344487
        0.009099563 0.008819835 0.008510369 0.008176413 0.007823234 0.0074559753
        0.0070795245 0.00669841 0.0063166996 0.0059378804 0.0055646733 0.0051987004
        0.0048399484 0.0044860505 0.0041317227 0.0037692476 0.0033912768 0.002996202
        0.0025935757 0.0022060347 0.0018637349 0.0015881471 0.0013905788 0.0012630004
        0.009894253 0.009895448 0.0098699145 0.00979295 0.009666431 0.009493178
        0.009276837 0.009021732 0.008732692 0.008414877 0.008073597 0.0077141626
        0.007341727 0.0069611687 0.0065769847 0.006193194 0.005813218 0.005439697
        0.0050741546 0.004716463 0.004364129 0.0040117833 0.0036517915 0.003277298
        0.0028877635 0.0024940213 0.0021190264 0.0017912132 0.0015287242 0.0013373456
        0.0012207873 0.009897686 0.009884469 0.0098444335 0.009753115 0.009612619
        0.00942598 0.009197038 0.008930281 0.008630672 0.008303472 0.007954063
        0.007587786 0.007209801 0.006824965 0.006437728 0.0060520438 0.0056712516
        0.0052978965 0.004933402 0.0045775357 0.0042277225 0.0038785848 0.0035226713
        0.003153666 0.0027719708 0.0023893097 0.0020284185 0.0017156807 0.0014661436
        0.0012811106 0.0011653205 0.009901128 0.0098715 0.009815067 0.009707638
        0.009551577 0.0093501555 0.009107421 0.008828037 0.008517106 0.008179986
        0.00782212 0.0074488726 0.0070653935 0.0066764974 0.0062865694 0.005899476
        0.0055184555 0.0051459447 0.0047832555 0.0044300607 0.0040837335 0.0037389414
        0.0033884733 0.0030265502 0.0026543597 0.0022841755 0.0019381423 0.0016404834
        0.0014035192 0.0012253426 0.0011053833 0.009904579 0.009856702 0.009782201
        0.009657179 0.009484283 0.009267031 0.009009689 0.008717093 0.008394477
        0.008047286 0.0076810066 0.0073010065 0.0069124014 0.006519941 0.0061279205
        0.0057400973 0.0053595877 0.004988702 0.004628634 0.004278964 0.003937032
        0.0035975864 0.003253683 0.002900047 0.0025384922 0.0021815677 0.0018505924
        0.0015676642 0.0013427943 0.0011719329 0.0010465115 0.009908038 0.009840249
        0.009746235 0.009602415 0.009411724 0.009177933 0.008905518 0.008599478
        0.008265161 0.007908077 0.0075337295 0.007147463 0.0067543313 0.0063589932
        0.005965627 0.005577856 0.005198657 0.004830196 0.0044735395 0.0041281777
        0.003791429 0.0034581434 0.0031216503 0.002777129 0.0024268734 0.0020834988
        0.0017673732 0.0014985945 0.0012852758 0.0011219747 0.0009917602 0.009911505
        0.009822197 0.00970734 0.009543676 0.009334424 0.0090836035 0.008795881
        0.008476398 0.008130588 0.007763997 0.007382115 0.006990229 0.0065933005
        0.0061958665 0.0058019636 0.005415059 0.005037967 0.0046726987 0.004320185
        0.0039798245 0.003648925 0.003322447 0.00299399 0.0026591334 0.0023205243
        0.0019906883 0.0016889885 0.0014336865 0.0012313642 0.0010756643 0.00094206986
        0.009914978 0.009802655 0.009665785 0.0094814245 0.009253069 0.008984959
        0.008681926 0.008349222 0.007992331 0.007616794 0.007228053 0.006831303
        0.0064313808 0.0060326722 0.005639047 0.0052537946 0.0048795524 0.0045181643
        0.0041704215 0.0038356313 0.0035110966 0.0031918953 0.002871886 0.0025469942
        0.0022201154 0.0019035735 0.001615721 0.0013731605 0.0011812564 0.0010330331
        0.0008975669 0.009918458 0.009781015 0.009620453 0.009414131 0.009165793
        0.00887987 0.008561324 0.008215471 0.007847802 0.0074638105 0.0070688445
        0.006667967 0.0062658517 0.0058667026 0.005474192 0.005091411 0.0047208
        0.0043640253 0.00402173 0.0036931308 0.0033755302 0.0030641293 0.0027530359
        0.002438478 0.0021235063 0.001820152 0.0015457543 0.001315404 0.001133496
        0.0009926531 0.0008566415 0.009921943 0.009758109 0.009573015 0.009344273
        0.0090758335 0.008772266 0.00843861 0.008080192 0.0077024605 0.007310818
        0.0069104754 0.0065063275 0.0061028567 0.0057040583 0.005313391 0.0049337326
        0.0045673205 0.0042156386 0.0038791823 0.0035570827 0.0032466464 0.0029431982
        0.00264108 0.0023367768 0.0020334274 0.001742718 0.0014810198 0.0012620783
        0.001089532 0.0009557521 0.0008202427 0.009925433 0.00972974 0.009515582
        0.00926077 0.008969397 0.008646101 0.008295913 0.0079240985 0.0075359773
        0.007136779 0.0067315022 0.0063248035 0.005920906 0.005523542 0.0051359036
        0.004760613 0.0043996708 0.004054349 0.0037249795 0.0034105983 0.0031085191
        0.0028141998 0.0025222213 0.0022292994 0.0019385829 0.0016613111 0.0014128331
        0.0012055996 0.0010426393 0.000916328 0.00078222016 0.009928927 0.009702757
        0.009461188 0.009182132 0.00886973 0.008528608 0.008163731 0.007780236
        0.0073832804 0.0069778874 0.0065688244 0.0061604986 0.005756875 0.005361425
        0.00497709 0.0046062497 0.0042506848 0.003911477 0.003588812 0.0032816448
        0.002987303 0.0027013703 0.0024186403 0.0021360195 0.0018566349 0.0015913035
        0.0013544697 0.0011574806 0.0010029107 0.0008832231 0.00075100304 0.009932426
        0.00970323 0.009458885 0.009177308 0.008862652 0.008519552 0.008152973
        0.0077680512 0.007369933 0.006963631 0.0065538962 0.0061451164 0.0057412363
        0.0053457054 0.004961443 0.0045908093 0.004235566 0.0038967812 0.003574637
        0.0032680996 0.0029745323 0.0026895818 0.0024081306 0.0021271876 0.0018499818
        0.0015873672 0.0013535956 0.0011596018 0.0010077653 0.0008901556 0.00075988437
        0.009935935 0.009731251 0.009508742 0.00924626 0.008947953 0.0086185
        0.008262957 0.007886591 0.007494712 0.0070925206 0.006684977 0.006276687
        0.005871818 0.005474039 0.0050864792 0.004711699 0.004351643 0.004007543
        0.0036797205 0.0033672494 0.0030675586 0.0027763126 0.0024883791 0.0022008035
        0.0019170544 0.0016484746 0.0014097925 0.0012121354 0.0010578469 0.0009382208
        0.0008102836 0.009939458 0.0097623505 0.009564738 0.009324314 0.009045152
        0.008731914 0.008389702 0.008023882 0.0076399087 0.0072431667 0.0068388265
        0.006431725 0.0060262694 0.0056263735 0.005235405 0.0048561543 0.004490778
        0.0041407035 0.0038064197 0.003487137 0.0031803732 0.0028818254 0.002586349
        0.002291018 0.0019995428 0.0017238093 0.001479132 0.0012769435 0.0011195481
        0.0009977273 0.0008725449 0.009942994 0.009789808 0.009614161 0.009393528
        0.009131835 0.008833661 0.008504084 0.008148498 0.0077724373 0.007381408
        0.006980734 0.0065754326 0.006170108 0.0057688784 0.00537532 0.004992425
        0.0046225456 0.004267291 0.003927315 0.0036019713 0.003288889 0.0029838323
        0.0026816772 0.0023795308 0.0020813 0.0017993354 0.0015494837 0.0013434587
        0.0011835073 0.0010603244 0.0009383348 0.009946542 0.00981663 0.009662659
        0.009461834 0.009217881 0.008935243 0.008618919 0.008274286 0.007906912
        0.0075223846 0.0071261507 0.0067233797 0.0063188532 0.0059168786 0.005521231
        0.005135101 0.0047610365 0.0044008326 0.0040553203 0.0037240146 0.0034046844
        0.0030931947 0.0027844724 0.0024756563 0.0021708112 0.0018827119 0.001627743
        0.0014179358 0.0012555104 0.0011313856 0.0010134893 0.0099501 0.009841745
        0.00970813 0.009526163 0.009299343 0.0090319365 0.008728824 0.008395318
        0.00803698 0.0076594385 0.007268223 0.00686862 0.006465556 0.0060635055
        0.005666418 0.0052776686 0.0048999884 0.004535355 0.00418478 0.0038479557
        0.0035228208 0.0032053858 0.0028906683 0.002575844 0.0022650782 0.0019714818
        0.0017119346 0.0014987956 0.0013343156 0.0012099787 0.0010971193 0.009953671
        0.009865358 0.00975091 0.009586932 0.009376668 0.009124187 0.008834219
        0.008511981 0.008162989 0.0077928756 0.0074072187 0.0070113908 0.0066104345
        0.0062089623 0.0058110803 0.005420329 0.0050396123 0.004671085 0.004315942
        0.003974071 0.0036436147 0.0033207824 0.0030007332 0.0026806903 0.0023648487
        0.002066541 0.001803076 0.0015871507 0.0014211435 0.0012974262 0.0011908056
        0.009957252 0.009887355 0.009790729 0.009643671 0.009449176 0.009211094
        0.0089339875 0.008622954 0.0082834335 0.007921035 0.0075413524 0.0071498123
        0.0067515452 0.006351276 0.005953243 0.0055611324 0.0051780064 0.0048061884
        0.0044470592 0.0041007185 0.0037655553 0.0034380367 0.0031135306 0.0027893255
        0.002469566 0.0021676482 0.0019012013 0.0016832595 0.001516467 0.0013943923
        0.0012953194 0.009960843 0.009907743 0.009827544 0.0096962545 0.009516616
        0.009292265 0.009027584 0.008727533 0.008397459 0.00804292 0.0076695015
        0.0072826575 0.006887579 0.006489077 0.0060915 0.00569866 0.0053137587
        0.00493928 0.0045767925 0.004226626 0.003887459 0.0035560916 0.0032281834
        0.0029011213 0.0025789072 0.0022748013 0.0020065883 0.0017876265 0.0016210085
        0.0015017751 0.0014116165 0.009964443 0.009926539 0.009861343 0.009744595
        0.0095788 0.009367381 0.009114542 0.008825095 0.008504285 0.0081576
        0.0077905944 0.0074087307 0.007017235 0.0066209817 0.006224406 0.005831425
        0.0054453663 0.0050688614 0.0047036665 0.0043503637 0.004007971 0.003673707
        0.0033436262 0.0030152693 0.0026924014 0.0023878934 0.0021194513 0.0019007252
        0.0017354809 0.0016204441 0.0015404643 0.009968053 0.0099437935 0.009892186
        0.009788724 0.009635692 0.009436314 0.009194615 0.008915267 0.008603398
        0.008264419 0.00790384 0.0075271116 0.0071394756 0.0067458516 0.00635074
        0.0059581446 0.0055715 0.005193578 0.004826323 0.0044705914 0.0041257953
        0.0037896733 0.0034588024 0.0031309617 0.0028095916 0.002506866 0.0022400853
        0.0020231283 0.0018606962 0.0017513074 0.0016824533 0.00997167 0.009959582
        0.009920188 0.009828759 0.009687381 0.009499091 0.009267751 0.008997889
        0.008694523 0.008362978 0.008008711 0.007637146 0.0072535286 0.006862805
        0.006469523 0.0060777566 0.005691034 0.005312255 0.0049435566 0.004586092
        0.004239733 0.0039028472 0.003572694 0.003247416 0.0029300614 0.0026317432
        0.0023689074 0.0021555482 0.0019975868 0.001895284 0.0018378658 0.0099752955
        0.009974001 0.009945507 0.00986489 0.009734057 0.009555877 0.009334061
        0.009073003 0.00877761 0.008453124 0.008104943 0.007738457 0.0073589035
        0.0069712414 0.006580053 0.006189467 0.0058030924 0.005423951 0.0050543738
        0.004695839 0.004348742 0.0040122126 0.0036843803 0.003363932 0.0030534978
        0.0027627079 0.002506545 0.0022989195 0.0021472625 0.002053296 0.00200655
        0.009978928 0.009987151 0.009968323 0.0098973485 0.0097759785 0.009606933
        0.009393782 0.009140799 0.008852787 0.008534906 0.008192495 0.007830906
        0.007455359 0.007070817 0.0066818856 0.006292737 0.0059070503 0.0055279625
        0.0051580044 0.0047990074 0.004451964 0.0041169073 0.0037930647 0.0034799215
        0.0031797322 0.0029001697 0.0026539294 0.0024544972 0.00231107 0.0022262475
        0.002187756 0.009982566 0.009999134 0.00998882 0.009926382 0.0098134335
        0.0096525615 0.009447215 0.009201555 0.0089202905 0.008608505 0.008271477
        0.007914522 0.0075428365 0.007161382 0.00677478 0.0063872347 0.0060024885
        0.005623789 0.0052538738 0.004894957 0.0045487047 0.004216209 0.0038980683
        0.0035949098 0.0033087665 0.0030448372 0.002812412 0.0026239767 0.002490668
        0.0024149993 0.002379946 0.009986211 0.010010038 0.010007162 0.009952213
        0.009846685 0.009693052 0.009494653 0.009255553 0.008980376 0.008674132
        0.008342047 0.007989396 0.007621356 0.007242879 0.006858595 0.0064727375
        0.0060891034 0.0057110484 0.0053415243 0.0049831597 0.0046383725 0.0043094843
        0.003998781 0.0037085002 0.003440771 0.003197785 0.0029839065 0.0028096498
        0.0026881155 0.0026203452 0.0025806052 0.0099898605 0.010019925 0.010023463
        0.009974996 0.009875917 0.009728601 0.009536297 0.009302981 0.009033204
        0.008731913 0.008404284 0.008055554 0.007690878 0.0073152 0.0069331536
        0.0065489947 0.006166571 0.005789345 0.005420492 0.0050630826 0.004720367
        0.004396079 0.0040945653 0.0038202913 0.003576052 0.0033605301 0.0031710803
        0.0030146192 0.0029059842 0.0028430102 0.0027860934 0.009993513 0.010029321
        0.010038773 0.009996294 0.009903186 0.009761734 0.009575099 0.00934718
        0.009082458 0.00878582 0.008462395 0.008117386 0.0077559245 0.0073829447
        0.0070030843 0.006620619 0.0062394473 0.005863141 0.005495108 0.0051388997
        0.0047986796 0.0044797803 0.004189005 0.0039337324 0.0037180558 0.0035364106
        0.0033759256 0.0032365452 0.0031349307 0.0030685384 0.0029818637
      </DataArray>
    </PointData>
    <CellData>
    </CellData>
    <Points>
      <DataArray type="Float32" Name="Points" NumberOfComponents="3" format="ascii" RangeMin="0.809852751333473" RangeMax="0.938032126598524">
        0.4671739 -0.016147813 0.6613239 0.47786853 -0.0161566 0.66168386
        0.488514 -0.01616495 0.6620257 0.4990557 -0.016172819 0.662348
        0.50944114 -0.01618018 0.66264945 0.5196209 -0.016187008 0.6629291
        0.52954966 -0.016193287 0.6631863 0.5391869 -0.016199011 0.66342074
        0.5484973 -0.016204178 0.6636323 0.55745125 -0.016208794 0.66382134
        0.56602484 -0.016212873 0.6639884 0.57420003 -0.01621644 0.66413444
        0.5819644 -0.016219517 0.6642605 0.5893106 -0.016222136 0.6643678
        0.5962364 -0.016224334 0.66445774 0.6027439 -0.016226145 0.66453195
        0.608839 -0.016227607 0.66459185 0.61453086 -0.01622876 0.664639
        0.61983156 -0.016229639 0.664675 0.62475514 -0.01623028 0.6647013
        0.62931764 -0.01623072 0.6647193 0.63353604 -0.016230986 0.6647302
        0.6374284 -0.016231108 0.6647352 0.6410131 -0.016231114 0.66473544
        0.6443087 -0.016231027 0.66473186 0.6473337 -0.016230863 0.6647252
        0.65010625 -0.016230643 0.6647161 0.652644 -0.01623038 0.66470534
        0.65496397 -0.016230088 0.6646934 0.65708244 -0.016229777 0.66468066
        0.659015 -0.016229454 0.6646675 0.4671739 -0.015812855 0.661332
        0.47787204 -0.01582046 0.6616921 0.48852104 -0.015827706 0.66203403
        0.4990662 -0.015834559 0.6623565 0.509455 -0.015840985 0.66265804
        0.51963806 -0.01584696 0.6629378 0.52957004 -0.015852464 0.6631951
        0.5392103 -0.01585749 0.6634295 0.5485236 -0.01586203 0.66364115
        0.5574802 -0.015866095 0.66383016 0.5660564 -0.015869692 0.6639973
        0.57423383 -0.01587284 0.6641434 0.58200026 -0.015875561 0.6642694
        0.5893484 -0.015877884 0.6643766 0.59627587 -0.015879838 0.66446656
        0.60278475 -0.015881458 0.6645407 0.60888094 -0.01588278 0.6646005
        0.61457366 -0.015883842 0.66464764 0.6198748 -0.01588469 0.6646836
        0.6247983 -0.015885377 0.6647098 0.62935966 -0.015885992 0.6647277
        0.6335754 -0.015886653 0.66473854 0.63746196 -0.015887553 0.66474354
        0.64103556 -0.015888952 0.6647437 0.64431125 -0.015891181 0.66474
        0.6473019 -0.01589463 0.66473335 0.65001774 -0.015900249 0.6647244
        0.6524699 -0.0159126 0.66471386 0.6546867 -0.015945839 0.66470176
        0.65672886 -0.016015274 0.6646881 0.65866464 -0.016109515 0.6646729
        0.4671739 -0.015477894 0.66133994 0.4778756 -0.015483752 0.6617002
        0.48852813 -0.015489322 0.66204226 0.49907678 -0.015494568 0.66236484
        0.50946903 -0.015499461 0.6626665 0.51965547 -0.015503974 0.66294634
        0.52959067 -0.015508088 0.6632037 0.5392341 -0.01551179 0.66343826
        0.54855037 -0.015515078 0.6636499 0.5575098 -0.015517954 0.66383904
        0.56608856 -0.0155204255 0.6640062 0.5742685 -0.015522511 0.6641522
        0.58203715 -0.015524228 0.6642782 0.5893873 -0.015525602 0.6643855
        0.5963165 -0.015526661 0.66447544 0.60282695 -0.015527436 0.66454947
        0.60892445 -0.015527961 0.6646093 0.6146181 -0.0155282775 0.6646564
        0.6199198 -0.015528437 0.6646923 0.62484324 -0.015528524 0.66471845
        0.62940365 -0.015528676 0.6647363 0.63361657 -0.015529124 0.66474706
        0.6374972 -0.015530233 0.664752 0.64105934 -0.015532536 0.6647521
        0.64431447 -0.015536685 0.66474843 0.6472706 -0.015543439 0.66474175
        0.64993185 -0.015554574 0.66473293 0.65230554 -0.01557812 0.66472256
        0.6544281 -0.015638629 0.6647105 0.6563878 -0.01576679 0.66469616
        0.65830046 -0.015955433 0.6646791 0.4671739 -0.015142926 0.6613477
        0.47787917 -0.015146554 0.66170806 0.48853526 -0.015149945 0.66205037
        0.49908748 -0.015153073 0.66237307 0.5094832 -0.015155901 0.66267484
        0.51967305 -0.015158409 0.6629548 0.5296116 -0.0151605755 0.6632123
        0.53925824 -0.015162388 0.6634469 0.54857755 -0.01516384 0.6636586
        0.55753994 -0.015164936 0.6638478 0.56612146 -0.015165682 0.664015
        0.574304 -0.015166091 0.6641611 0.582075 -0.015166181 0.6642871
        0.5894273 -0.015165976 0.6643944 0.5963585 -0.015165501 0.66448426
        0.6028706 -0.015164783 0.66455835 0.60896945 -0.0151638575 0.66461813
        0.61466426 -0.015162766 0.66466516 0.6199667 -0.015161574 0.66470104
        0.62489027 -0.015160391 0.66472715 0.6294497 -0.015159419 0.664745
        0.6336599 -0.01515901 0.6647557 0.6375344 -0.01515973 0.6647606
        0.6410848 -0.0151624065 0.66476065 0.64431906 -0.01516803 0.6647569
        0.64724094 -0.015177717 0.6647503 0.6498501 -0.015193915 0.6647416
        0.6521523 -0.015227132 0.6647314 0.6541891 -0.015308989 0.66471946
        0.6560628 -0.015483841 0.6647048 0.65792596 -0.015760668 0.6646864
        0.4671739 -0.014807955 0.66135526 0.47788274 -0.014808958 0.6617158
        0.48854244 -0.014809759 0.6620583 0.49909824 -0.014810336 0.6623811
        0.5094975 -0.01481066 0.66268307 0.5196909 -0.014810704 0.66296315
        0.5296328 -0.014810448 0.6632207 0.53928274 -0.0148098795 0.6634554
        0.54860526 -0.014808996 0.66366726 0.5575707 -0.014807792 0.6638565
        0.5661551 -0.01480628 0.6640237 0.5743403 -0.014804469 0.66416985
        0.5821138 -0.014802374 0.66429585 0.5894684 -0.014800017 0.66440314
        0.59640163 -0.01479742 0.6644931 0.6029156 -0.014794611 0.6645671
        0.6090161 -0.014791624 0.66462696 0.6147122 -0.0147885 0.664674
        0.62001544 -0.0147853205 0.6647098 0.6249393 -0.014782226 0.6647359
        0.629498 -0.014779487 0.6647537 0.63370544 -0.01477759 0.66476434
        0.63757384 -0.014777329 0.6647692 0.6411123 -0.014779842 0.66476923
        0.64432573 -0.014786481 0.6647655 0.64721406 -0.014798676 0.6647589
        0.649774 -0.0148193585 0.66475034 0.6520116 -0.014860598 0.66474026
        0.65397114 -0.014958143 0.6647286 0.6557582 -0.015166892 0.6647139
        0.65754735 -0.015519008 0.66469455 0.4671739 -0.014472982 0.6613627
        0.47788632 -0.01447106 0.66172343 0.48854965 -0.01446896 0.66206604
        0.49910906 -0.014466663 0.66238904 0.50951195 -0.014464138 0.6626911
        0.5197088 -0.014461362 0.6629714 0.52965426 -0.014458313 0.66322905
        0.53930753 -0.01445498 0.66346383 0.54863334 -0.014451357 0.6636757
        0.5576019 -0.014447442 0.66386503 0.5661893 -0.01444324 0.66403234
        0.5743773 -0.014438762 0.6641785 0.5821535 -0.014434023 0.6643046
        0.5895105 -0.014429039 0.6644119 0.596446 -0.014423832 0.66450185
        0.60296196 -0.014418427 0.66457593 0.6090642 -0.014412855 0.6646357
        0.6147617 -0.014407164 0.6646827 0.62006605 -0.014401446 0.66471857
        0.6249904 -0.014395878 0.6647446 0.6295485 -0.014390808 0.6647624
        0.6337534 -0.014386863 0.66477305 0.6376158 -0.014385086 0.6647778
        0.6411425 -0.014386951 0.6647778 0.6443353 -0.0143941725 0.66477406
        0.6471913 -0.0144084385 0.66476756 0.6497055 -0.01443293 0.66475904
        0.6518852 -0.014480426 0.66474926 0.65377593 -0.014588284 0.6647378
        0.6554789 -0.014817871 0.6647234 0.657174 -0.015225868 0.6647038
        0.4671739 -0.014138003 0.6613699 0.47788996 -0.014132973 0.6617308
        0.48855692 -0.014127776 0.6620737 0.49911997 -0.014122397 0.6623968
        0.5095265 -0.014116806 0.66269904 0.519727 -0.014110981 0.66297936
        0.5296759 -0.014104896 0.66323715 0.5393327 -0.014098545 0.66347206
        0.5486618 -0.014091916 0.66368407 0.5576336 -0.014085009 0.6638735
        0.56622404 -0.014077828 0.66404086 0.574415 -0.0140703805 0.6641871
        0.5821939 -0.01406268 0.6643132 0.58955353 -0.014054739 0.66442055
        0.5964914 -0.014046579 0.6645105 0.6030095 -0.01403822 0.6645845
        0.6091137 -0.014029695 0.66464436 0.61481285 -0.014021052 0.6646914
        0.62011844 -0.014012397 0.66472715 0.6250434 -0.014003947 0.6647532
        0.6296011 -0.013996126 0.66477096 0.6338037 -0.013989724 0.6647816
        0.6376603 -0.013986035 0.66478634 0.64117557 -0.013986889 0.6647864
        0.64434856 -0.013994347 0.66478264 0.64717394 -0.014010282 0.6647761
        0.6496465 -0.01403787 0.66476774 0.6517752 -0.0140898125 0.66475815
        0.6536057 -0.014202985 0.66474706 0.65523016 -0.014440753 0.6647331
        0.6568183 -0.014880365 0.6647139 0.4671739 -0.013803023 0.661377
        0.4778936 -0.013794805 0.6617381 0.48856422 -0.013786427 0.66208106
        0.49913096 -0.013777876 0.66240436 0.50954115 -0.013769123 0.6627068
        0.5197453 -0.013760139 0.6629873 0.52969784 -0.013750909 0.66324514
        0.5393581 -0.013741417 0.6634802 0.5486906 -0.013731656 0.6636923
        0.5576657 -0.013721621 0.6638818 0.5662593 -0.013711316 0.6640492
        0.5744533 -0.013700745 0.6641954 0.58223504 -0.013689921 0.6643216
        0.58959734 -0.013678854 0.66442895 0.5965377 -0.01366756 0.66451895
        0.6030581 -0.013656059 0.664593 0.60916436 -0.0136443805 0.6646528
        0.6148653 -0.013632578 0.66469985 0.6201723 -0.013620773 0.6647356
        0.62509817 -0.013609213 0.66476166 0.6296557 -0.013598413 0.66477937
        0.63385624 -0.013589322 0.66479003 0.6377075 -0.013583501 0.66479474
        0.6412118 -0.013583133 0.66479474 0.6443661 -0.01359061 0.664791
        0.6471633 -0.013607896 0.6647845 0.64959854 -0.013637904 0.66477627
        0.651683 -0.013692576 0.66476685 0.65346205 -0.013806656 0.6647561
        0.65501636 -0.014041304 0.6647429 0.6564937 -0.014486049 0.66472465
        0.4671739 -0.013468037 0.6613839 0.47789726 -0.013456684 0.6617452
        0.48857158 -0.013445176 0.66208833 0.49914205 -0.013433501 0.6624118
        0.50955594 -0.0134216305 0.6627143 0.5197637 -0.013409538 0.6629949
        0.5297199 -0.013397205 0.66325295 0.53938365 -0.013384617 0.6634881
        0.5487197 -0.013371764 0.6637003 0.5576981 -0.01335864 0.6638898
        0.5662949 -0.013345248 0.6640573 0.574492 -0.013331593 0.66420364
        0.58227664 -0.013317678 0.6643298 0.5896417 -0.013303519 0.6644372
        0.5965846 -0.013289124 0.6645272 0.60310745 -0.01327451 0.66460127
        0.60921586 -0.013259707 0.66466105 0.61491877 -0.013244771 0.664708
        0.6202274 -0.013229836 0.66474384 0.6251543 -0.013215192 0.6647699
        0.6297119 -0.013201436 0.6647876 0.6339107 -0.013189678 0.66479814
        0.637757 -0.013181749 0.66480285 0.64125127 -0.013180177 0.66480285
        0.6443882 -0.013187643 0.66479903 0.64715993 -0.0132061085 0.6647926
        0.64956254 -0.013237982 0.66478443 0.6516098 -0.013293899 0.66477525
        0.65334624 -0.013405281 0.66476494 0.65484095 -0.013627539 0.66475254
        0.6562138 -0.014053292 0.6647357 0.4671739 -0.013133049 0.66139066
        0.47790092 -0.013118674 0.6617521 0.48857898 -0.013104155 0.66209537
        0.4991532 -0.013089474 0.662419 0.50957084 -0.013074607 0.6627217
        0.5197823 -0.013059527 0.6630024 0.52974206 -0.013044217 0.6632605
        0.53940946 -0.013028656 0.6634958 0.5487489 -0.013012839 0.66370803
        0.5577307 -0.0129967565 0.66389763 0.5663308 -0.012980409 0.6640652
        0.57453096 -0.0129638 0.6642115 0.58231866 -0.012946932 0.66433775
        0.5896865 -0.012929814 0.66444516 0.5966321 -0.012912454 0.66453516
        0.6031574 -0.012894869 0.66460925 0.60926807 -0.012877083 0.66466904
        0.614973 -0.012859157 0.66471606 0.6202834 -0.01284124 0.6647518
        0.62521154 -0.012823659 0.6647778 0.62976944 -0.012807097 0.66479546
        0.6339668 -0.012792824 0.664806 0.6378087 -0.012782931 0.66481066
        0.64129376 -0.012780279 0.6648106 0.644415 -0.012787799 0.6648068
        0.6471641 -0.012807357 0.6648004 0.64953876 -0.012840665 0.6647923
        0.6515552 -0.012896653 0.6647833 0.6532574 -0.013002702 0.66477334
        0.6547043 -0.013205973 0.6647618 0.65598583 -0.01359189 0.66474664
        0.4671739 -0.012798056 0.6613972 0.47790465 -0.012780839 0.66175884
        0.48858643 -0.012763483 0.6621023 0.49916437 -0.012745984 0.66242605
        0.50958574 -0.012728308 0.66272885 0.5198009 -0.012710436 0.6630097
        0.52976435 -0.012692341 0.66326797 0.5394353 -0.012674012 0.6635032
        0.5487783 -0.012655434 0.6637156 0.55776346 -0.012636603 0.66390526
        0.56636685 -0.012617514 0.6640729 0.5745702 -0.01259817 0.66421926
        0.58236086 -0.012578571 0.6643455 0.5897316 -0.012558724 0.6644529
        0.59667987 -0.012538634 0.6645429 0.60320765 -0.012518315 0.664617
        0.6093207 -0.012497789 0.6646767 0.6150278 -0.012477125 0.6647237
        0.62034 -0.012456481 0.66475946 0.6252695 -0.012436222 0.66478544
        0.6298279 -0.012417116 0.664803 0.63402414 -0.012400591 0.6648135
        0.63786215 -0.012388984 0.66481817 0.641339 -0.01238547 0.66481805
        0.6444463 -0.01239319 0.66481423 0.64717567 -0.012413839 0.66480786
        0.64952666 -0.01244828 0.66479987 0.65151834 -0.012503491 0.664791
        0.65319425 -0.012602457 0.6647814 0.65460515 -0.012782832 0.6647706
        0.6558139 -0.013113228 0.6647573 0.4671739 -0.012463062 0.6614036
        0.47790837 -0.012443285 0.6617654 0.4885939 -0.012423396 0.66210896
        0.4991756 -0.012403382 0.6624329 0.5096007 -0.012383214 0.6627358
        0.51981956 -0.0123628685 0.66301674 0.5297867 -0.012342324 0.6632751
        0.5394612 -0.0123215625 0.6635105 0.5488077 -0.012300576 0.66372293
        0.55779624 -0.012279351 0.66391265 0.5664029 -0.012257889 0.66408026
        0.57460934 -0.012236185 0.66422665 0.582403 -0.012214242 0.66435295
        0.5897766 -0.01219206 0.66446036 0.5967276 -0.012169646 0.66455036
        0.60325795 -0.0121470075 0.66462445 0.6093734 -0.012124171 0.6646842
        0.6150826 -0.012101203 0.6647311 0.6203967 -0.012078278 0.6647667
        0.62532765 -0.012055798 0.6647927 0.6298867 -0.012034605 0.66481024
        0.63408214 -0.01201628 0.6648207 0.6379168 -0.012003395 0.66482526
        0.6413864 -0.011999399 0.6648251 0.64448154 -0.012007609 0.66482127
        0.647194 -0.012029482 0.66481483 0.64952564 -0.012064953 0.6648069
        0.651498 -0.012118932 0.6647982 0.65315497 -0.012209999 0.6647889
        0.6545415 -0.012366191 0.6647788 0.65569943 -0.012634049 0.6647672
        0.4671739 -0.0121280635 0.66140985 0.4779121 -0.012106102 0.6617717
        0.4886014 -0.012084059 0.6621155 0.49918684 -0.012061924 0.6624395
        0.50961566 -0.012039669 0.66274256 0.5198383 -0.012017264 0.6630236
        0.529809 -0.011994694 0.66328204 0.53948706 -0.011971938 0.66351753
        0.548837 -0.011948986 0.66372997 0.5578289 -0.011925828 0.66391975
        0.5664388 -0.011902457 0.6640874 0.5746484 -0.011878871 0.6642338
        0.582445 -0.0118550705 0.6643601 0.5898214 -0.0118310535 0.6644675
        0.59677505 -0.011806823 0.66455746 0.6033079 -0.011782389 0.6646315
        0.60942566 -0.0117577715 0.6646912 0.61513704 -0.011733045 0.66473806
        0.620453 -0.011708393 0.6647737 0.6253854 -0.011684254 0.6647996
        0.6299452 -0.011661542 0.6648171 0.63414013 -0.011641972 0.66482747
        0.63797194 -0.01162833 0.66483194 0.6414353 -0.011624316 0.6648317
        0.64452 -0.011633367 0.6648278 0.64721835 -0.0116566755 0.66482145
        0.64953434 -0.011693209 0.6648135 0.65149236 -0.011745827 0.6648049
        0.65313673 -0.011828941 0.6647959 0.6545092 -0.011961654 0.6647864
        0.6556384 -0.012167404 0.6647763 0.4671739 -0.011793061 0.66141593
        0.47791582 -0.011769373 0.6617779 0.4886089 -0.011745644 0.66212183
        0.4991981 -0.011721865 0.66244596 0.5096306 -0.011698009 0.66274905
        0.5198569 -0.011674048 0.66303027 0.52983123 -0.0116499625 0.6632888
        0.5395128 -0.011625732 0.66352427 0.54886615 -0.011601346 0.66373676
        0.5578614 -0.011576792 0.66392654 0.56647444 -0.011552063 0.66409427
        0.57468706 -0.011527156 0.66424066 0.58248657 -0.011502068 0.6643669
        0.5898657 -0.011476795 0.6644743 0.59682196 -0.011451338 0.66456425
        0.60335726 -0.011425707 0.6646382 0.6094773 -0.011399918 0.6646979
        0.61519074 -0.011374051 0.66474473 0.62050855 -0.0113483 0.6647803
        0.62544245 -0.011323131 0.66480607 0.63000304 -0.011299528 0.6648235
        0.6341976 -0.011279325 0.66483384 0.6380271 -0.011265499 0.66483825
        0.6414851 -0.01126196 0.6648379 0.644561 -0.011272237 0.66483396
        0.6472476 -0.011297227 0.6648275 0.64955145 -0.011334962 0.66481966
        0.65149933 -0.011386356 0.66481113 0.6531366 -0.011462064 0.6648023
        0.6545036 -0.011573425 0.6647933 0.6556233 -0.011723214 0.6647844
        0.4671739 -0.011458057 0.6614218 0.47791958 -0.011433165 0.661784
        0.48861638 -0.011408287 0.662128 0.4992093 -0.0113834115 0.6624522
        0.5096456 -0.01135851 0.6627554 0.51987547 -0.011333553 0.66303664
        0.52985334 -0.011308522 0.6632952 0.53953844 -0.011283397 0.66353077
        0.5488951 -0.01125816 0.6637433 0.5578936 -0.011232804 0.6639331
        0.56650966 -0.011207318 0.66410077 0.5747253 -0.0111816935 0.6642472
        0.58252764 -0.0111559285 0.66437346 0.5899094 -0.011130019 0.6644808
        0.59686816 -0.011103962 0.6645707 0.60340583 -0.011077759 0.66464466
        0.609528 -0.011051435 0.6647042 0.6152435 -0.011025065 0.664751
        0.62056303 -0.010998857 0.66478646 0.62549835 -0.010973302 0.6648122
        0.63005984 -0.01094944 0.66482955 0.63425416 -0.010929216 0.6648398
        0.6380817 -0.0109157665 0.6648441 0.64153534 -0.010913181 0.6648437
        0.6446039 -0.010925049 0.6648397 0.6472811 -0.010951975 0.66483325
        0.64957565 -0.010991101 0.6648254 0.651517 -0.01104158 0.66481686
        0.6531516 -0.011110799 0.66480815 0.65452 -0.011203732 0.6647996
        0.65564543 -0.011306784 0.66479146 0.4671739 -0.011123051 0.6614275
        0.47792333 -0.011097545 0.66178983 0.4886239 -0.011072116 0.66213393
        0.49922052 -0.011046747 0.66245824 0.5096604 -0.011021406 0.6627615
        0.5198939 -0.010996068 0.6630428 0.52987534 -0.010970707 0.66330147
        0.5395638 -0.010945305 0.663537 0.54892373 -0.010919843 0.6637496
        0.55792534 -0.010894306 0.6639394 0.5665445 -0.010868686 0.6641071
        0.57476294 -0.010842974 0.6642535 0.582568 -0.010817161 0.6643797
        0.58995235 -0.010791241 0.664487 0.5969135 -0.01076521 0.6645768
        0.6034534 -0.010739068 0.6646507 0.60957766 -0.010712836 0.6647102
        0.61529505 -0.010686591 0.6647569 0.6206163 -0.010660551 0.6647923
        0.62555295 -0.010635229 0.6648179 0.6301153 -0.010611713 0.66483516
        0.63430965 -0.010592041 0.6648453 0.6381357 -0.010579489 0.6648495
        0.64158565 -0.010578296 0.6648491 0.64464825 -0.010592082 0.664845
        0.647318 -0.010621174 0.6648385 0.6496058 -0.010661907 0.6648306
        0.65154356 -0.010711873 0.66482216 0.65317905 -0.010775721 0.6648136
        0.65455425 -0.010853486 0.6648052 0.65569645 -0.010920026 0.6647976
        0.4671739 -0.010788039 0.66143304 0.4779271 -0.010762572 0.6617955
        0.48863137 -0.010737242 0.66213965 0.4992317 -0.010712029 0.6624641
        0.5096752 -0.0106869005 0.6627674 0.51991224 -0.010661827 0.66304874
        0.5298971 -0.010636784 0.6633074 0.53958887 -0.010611746 0.66354305
        0.54895204 -0.010586696 0.6637556 0.5579567 -0.010561616 0.66394544
        0.5665788 -0.010536494 0.6641131 0.5748 -0.010511318 0.66425943
        0.5826076 -0.010486077 0.6643856 0.5899945 -0.010460763 0.66449285
        0.5969579 -0.010435369 0.6645826 0.60349995 -0.01040989 0.66465646
        0.6096262 -0.010384348 0.6647158 0.61534536 -0.010358822 0.66476244
        0.62066823 -0.010333532 0.6647978 0.6256062 -0.010309013 0.6648233
        0.6301694 -0.010286395 0.66484046 0.63436383 -0.010267795 0.66485053
        0.6381887 -0.010256603 0.66485465 0.64163584 -0.01025718 0.6648541
        0.6446937 -0.010273166 0.66484994 0.6473578 -0.010304626 0.6648434
        0.64964104 -0.010347175 0.6648354 0.65157765 -0.010397064 0.664827
        0.6532169 -0.010456716 0.66481847 0.6546029 -0.010522569 0.66481024
        0.65576893 -0.010562457 0.66480297 0.4671739 -0.010453026 0.6614384
        0.4779308 -0.010428299 0.661801 0.48863882 -0.010403765 0.6621452
        0.4992428 -0.010379397 0.6624697 0.5096899 -0.0103551615 0.66277313
        0.5199304 -0.010331024 0.66305447 0.5299187 -0.010306959 0.66331315
        0.5396137 -0.010282938 0.6635488 0.54898 -0.010258941 0.6637614
        0.55798763 -0.010234949 0.66395116 0.56661254 -0.010210944 0.66411877
        0.5748364 -0.010186913 0.66426516 0.58264655 -0.010162843 0.6643912
        0.5900357 -0.010138721 0.6644984 0.5970014 -0.010114537 0.6645881
        0.60354537 -0.010090287 0.6646618 0.6096735 -0.010065988 0.6647212
        0.61539435 -0.010041718 0.6647676 0.6207187 -0.010017708 0.6648029
        0.6256579 -0.009994502 0.66482836 0.630222 -0.009973273 0.6648454
        0.63441664 -0.009956196 0.6648553 0.6382408 -0.009946763 0.66485935
        0.6416857 -0.009949428 0.6648587 0.64474 -0.009967844 0.6648545
        0.64739996 -0.010001836 0.66484785 0.6496805 -0.010046395 0.6648399
        0.65161794 -0.01009664 0.66483146 0.65326333 -0.010153235 0.66482294
        0.654663 -0.010210217 0.6648148 0.655857 -0.010232269 0.6648076
        0.4671739 -0.01011801 0.66144365 0.4779346 -0.010094782 0.6618062
        0.48864627 -0.010071783 0.66215056 0.4992539 -0.010048986 0.6624751
        0.50970453 -0.01002635 0.6627786 0.5199485 -0.010003841 0.66306
        0.52994 -0.009981425 0.6633187 0.5396382 -0.009959077 0.6635543
        0.5490076 -0.009936771 0.66376686 0.5580181 -0.009914485 0.66395664
        0.5666457 -0.0098922 0.66412425 0.57487214 -0.0098699 0.66427046
        0.5826847 -0.009847567 0.6643965 0.590076 -0.00982519 0.66450363
        0.59704375 -0.009802751 0.6645933 0.6035897 -0.009780248 0.6646669
        0.6097196 -0.009757695 0.66472614 0.61544204 -0.009735172 0.66477257
        0.6207678 -0.009712908 0.66480774 0.6257082 -0.00969147 0.66483307
        0.63027316 -0.009672053 0.66485 0.63446814 -0.00965689 0.66485983
        0.63829184 -0.009649551 0.66486377 0.6417352 -0.009654571 0.664863
        0.64478683 -0.0096756 0.66485876 0.64744407 -0.009712255 0.664852
        0.64972353 -0.009758993 0.66484404 0.65166354 -0.009810003 0.6648356
        0.65331674 -0.009864599 0.664827 0.6547321 -0.009915442 0.6648188
        0.65595603 -0.009927228 0.6648117 0.4671739 -0.009782992 0.66144866
        0.47793832 -0.009762065 0.66181135 0.48865372 -0.009741379 0.66215575
        0.49926493 -0.0097209 0.66248035 0.5097191 -0.009700586 0.6627838
        0.51996636 -0.009680399 0.66306525 0.52996117 -0.0096603045 0.66332394
        0.5396625 -0.009640273 0.6635596 0.5490347 -0.009620277 0.6637721
        0.558048 -0.009600294 0.6639619 0.5666783 -0.009580301 0.66412944
        0.5749071 -0.009560281 0.66427565 0.582722 -0.009540214 0.6644016
        0.5901155 -0.0095200855 0.66450864 0.5970852 -0.00949988 0.66459817
        0.6036329 -0.00947959 0.6646717 0.6097644 -0.009459229 0.6647309
        0.61548835 -0.009438881 0.66477716 0.62081546 -0.009418776 0.6648122
        0.62575704 -0.009399493 0.6648375 0.6303228 -0.009382252 0.6648543
        0.63451827 -0.009369329 0.664864 0.6383418 -0.009364361 0.6648679
        0.64178413 -0.009371947 0.664867 0.6448341 -0.009395729 0.66486263
        0.64748985 -0.009435146 0.6648559 0.6497695 -0.009484205 0.66484785
        0.65171343 -0.009536347 0.66483927 0.65337586 -0.00958989 0.66483074
        0.6548083 -0.00963696 0.6648225 0.65606254 -0.009644779 0.6648152
        0.4671739 -0.009447971 0.66145355 0.47794208 -0.009430245 0.6618163
        0.4886611 -0.009412727 0.66216075 0.4992759 -0.009395382 0.66248536
        0.5097335 -0.009378164 0.66278887 0.51998407 -0.009361037 0.6630703
        0.52998203 -0.009343963 0.663329 0.5396863 -0.009326913 0.6635646
        0.5490615 -0.009309859 0.6637771 0.55807745 -0.009292778 0.66396683
        0.5667102 -0.009275646 0.6641343 0.5749414 -0.009258444 0.6642805
        0.5827584 -0.009241156 0.66440636 0.59015393 -0.009223763 0.66451335
        0.5971255 -0.00920625 0.6646028 0.6036749 -0.009188611 0.66467625
        0.60980797 -0.009170859 0.6647353 0.6155333 -0.009153076 0.6647815
        0.62086165 -0.009135503 0.66481644 0.6258043 -0.009118723 0.66484153
        0.6303709 -0.00910398 0.6648583 0.63456696 -0.009093584 0.66486794
        0.63839054 -0.009091225 0.6648717 0.6418325 -0.009101554 0.66487074
        0.64488155 -0.009128205 0.66486627 0.6475367 -0.009170461 0.6648595
        0.64981776 -0.009221965 0.66485137 0.6517668 -0.009275576 0.6648427
        0.6534394 -0.009328923 0.66483414 0.6548896 -0.009374264 0.6648258
        0.6561734 -0.00938341 0.6648182 0.4671739 -0.009112948 0.66145825
        0.47794583 -0.009099309 0.66182107 0.4886685 -0.009085794 0.6621655
        0.4992868 -0.009072362 0.6624902 0.50974774 -0.009058975 0.6627937
        0.5200016 -0.0090455925 0.66307515 0.53000265 -0.009032183 0.66333383
        0.53970987 -0.009018719 0.66356945 0.54908776 -0.009005172 0.6637819
        0.5581063 -0.008991523 0.66397154 0.56674147 -0.008977749 0.664139
        0.57497495 -0.008963834 0.66428506 0.5827941 -0.008949761 0.6644109
        0.5901915 -0.008935513 0.66451776 0.59716475 -0.008921078 0.66460717
        0.6037158 -0.008906451 0.6646805 0.6098503 -0.008891647 0.66473943
        0.615577 -0.008876748 0.66478556 0.6209065 -0.008862002 0.66482043
        0.62585014 -0.008848 0.6648454 0.63041764 -0.008836003 0.66486204
        0.6346143 -0.008828353 0.6648716 0.6384382 -0.008828781 0.6648752
        0.64188015 -0.0088419765 0.6648742 0.64492905 -0.008871567 0.66486967
        0.6475847 -0.008916705 0.66486275 0.64986813 -0.008970736 0.6648546
        0.65182304 -0.009026086 0.66484594 0.65350664 -0.009079939 0.6648373
        0.65497506 -0.009125201 0.66482884 0.65628713 -0.009139813 0.6648209
        0.4671739 -0.008777923 0.6614628 0.47794956 -0.008769641 0.6618256
        0.48867583 -0.008761295 0.6621702 0.4992976 -0.008752854 0.6624948
        0.50976187 -0.008744285 0.66279835 0.5200189 -0.008735564 0.6630798
        0.53002286 -0.008726662 0.6633384 0.53973293 -0.008717559 0.663574
        0.54911345 -0.008708239 0.6637864 0.55813444 -0.008698684 0.663976
        0.5667719 -0.00868888 0.6641434 0.5750075 -0.008678816 0.6642894
        0.5828285 -0.00866848 0.6644152 0.5902277 -0.008657862 0.66452193
        0.5972026 -0.008646952 0.6646112 0.6037552 -0.008635749 0.6646845
        0.609891 -0.008624273 0.6647433 0.6156189 -0.008612613 0.6647893
        0.62094945 -0.00860102 0.66482407 0.62589407 -0.008590095 0.664849
        0.6304624 -0.008581112 0.6648655 0.6346597 -0.008576442 0.6648749
        0.6384842 -0.008579845 0.6648785 0.64192647 -0.008596042 0.6648774
        0.64497584 -0.008628653 0.66487277 0.64763266 -0.0086767245 0.66486585
        0.6499192 -0.008733381 0.66485757 0.6518807 -0.008790757 0.66484886
        0.6535756 -0.008845799 0.66484004 0.65506196 -0.0088923955 0.66483146
        0.6564001 -0.008916281 0.66482323 0.4671739 -0.008442895 0.6614672
        0.47795328 -0.008440761 0.66183 0.48868316 -0.008438302 0.6621746
        0.49930835 -0.008435501 0.66249925 0.5097759 -0.008432343 0.66280276
        0.520036 -0.008428816 0.6630842 0.5300429 -0.008424909 0.66334283
        0.5397557 -0.0084206145 0.6635784 0.5491388 -0.008415923 0.66379076
        0.5581622 -0.008410833 0.6639803 0.56680185 -0.008405337 0.6641476
        0.57503945 -0.008399432 0.6642935 0.5828624 -0.008393115 0.66441923
        0.5902633 -0.008386383 0.6645259 0.59723973 -0.008379234 0.6646151
        0.6037937 -0.008371672 0.6646882 0.6099308 -0.008363723 0.664747
        0.61565983 -0.008355482 0.6647929 0.62099147 -0.008347205 0.6648275
        0.625937 -0.008339505 0.6648524 0.63050616 -0.008333668 0.6648688
        0.6347043 -0.008332083 0.66487813 0.6385295 -0.008338537 0.6648816
        0.64197254 -0.008357778 0.6648804 0.6450229 -0.008393411 0.6648757
        0.6476816 -0.008444395 0.66486865 0.6499721 -0.008503689 0.66486037
        0.65194076 -0.008563239 0.66485155 0.6536475 -0.00861991 0.66484267
        0.65515184 -0.008668867 0.6648339 0.6565145 -0.008704376 0.6648254
        0.4671739 -0.008107864 0.66147137 0.47795704 -0.008111283 0.66183424
        0.48869053 -0.008114176 0.6621789 0.4993192 -0.008116534 0.66250354
        0.50979006 -0.008118356 0.6628071 0.52005327 -0.008119637 0.6630885
        0.5300632 -0.008120378 0.6633472 0.5397788 -0.008120577 0.6635827
        0.54916453 -0.008120234 0.663795 0.5581904 -0.008119355 0.66398454
        0.56683236 -0.008117938 0.6641517 0.57507205 -0.008115989 0.66429764
        0.58289695 -0.00811351 0.6644232 0.59029967 -0.008110501 0.66452986
        0.5972777 -0.0081069665 0.6646189 0.60383314 -0.008102914 0.66469204
        0.6099716 -0.008098377 0.66475064 0.61570185 -0.008093454 0.6647965
        0.6210346 -0.008088404 0.664831 0.62598115 -0.008083846 0.6648557
        0.63055134 -0.008081077 0.66487205 0.6347504 -0.008082496 0.6648813
        0.6385767 -0.008091912 0.6648847 0.64202106 -0.0081140855 0.6648834
        0.64507324 -0.00815261 0.6648786 0.64773476 -0.008206362 0.6648715
        0.65003026 -0.008268166 0.6648631 0.65200734 -0.008329852 0.6648542
        0.6537271 -0.0083883405 0.6648452 0.6552508 -0.008440489 0.6648363
        0.6566384 -0.008488244 0.6648274 0.4671739 -0.007772832 0.66147536
        0.47796082 -0.007780728 0.66183835 0.48869795 -0.00778799 0.662183
        0.49933016 -0.0077946126 0.6625077 0.5098044 -0.007800594 0.66281134
        0.5200709 -0.0078059374 0.6630928 0.53008395 -0.0078106415 0.6633514
        0.5398025 -0.007814712 0.6635869 0.54919094 -0.00781815 0.66379917
        0.55821943 -0.007820963 0.66398865 0.5668638 -0.0078231525 0.66415584
        0.5751058 -0.007824727 0.6643017 0.5829327 -0.007825692 0.6644272
        0.59033734 -0.007826049 0.6645338 0.5973172 -0.007825803 0.6646228
        0.60387427 -0.007824968 0.6646958 0.6100142 -0.007823575 0.66475433
        0.6157458 -0.007821725 0.66480005 0.6210798 -0.0078196805 0.6648345
        0.6260276 -0.007818064 0.66485906 0.6305989 -0.007818171 0.6648753
        0.6347993 -0.00782241 0.66488445 0.63862705 -0.007834595 0.6648877
        0.6420734 -0.007859492 0.66488636 0.64512825 -0.007900677 0.6648815
        0.6477938 -0.007956952 0.6648744 0.6500957 -0.008021037 0.6648659
        0.65208286 -0.008084715 0.6648569 0.65381753 -0.008145128 0.6648478
        0.6553622 -0.008201233 0.6648387 0.6567761 -0.008261052 0.6648294
        0.4671739 -0.0074377987 0.66147923 0.4779646 -0.007449369 0.6618423
        0.48870546 -0.007460256 0.662187 0.49934125 -0.0074704527 0.6625118
        0.509819 -0.007479957 0.66281545 0.5200888 -0.007488769 0.6630969
        0.530105 -0.007496891 0.6633555 0.5398266 -0.0075043244 0.663591
        0.54921794 -0.0075110747 0.66380334 0.5582491 -0.0075171455 0.66399276
        0.566896 -0.0075225434 0.66415995 0.57514036 -0.007527274 0.6643057
        0.5829695 -0.007531341 0.66443115 0.5903762 -0.0075347517 0.66453767
        0.5973579 -0.00753751 0.6646266 0.6039167 -0.007539626 0.6646995
        0.61005825 -0.0075411354 0.66475797 0.6157914 -0.007542138 0.66480356
        0.6211268 -0.0075428966 0.6648379 0.62607586 -0.007544029 0.66486245
        0.6306486 -0.007546832 0.6648786 0.63485056 -0.007553707 0.6648876
        0.63868034 -0.0075684637 0.6648908 0.64212936 -0.0075958637 0.6648894
        0.6451879 -0.007639456 0.6648845 0.6478588 -0.0076979864 0.66487724
        0.6501686 -0.0077641043 0.66486865 0.6521675 -0.007829631 0.6648596
        0.65391886 -0.007892105 0.6648503 0.65548605 -0.007952807 0.66484094
        0.65692717 -0.008024784 0.66483134 0.4671739 -0.007102762 0.6614829
        0.47796842 -0.0071171816 0.66184604 0.48871303 -0.007130917 0.66219085
        0.49935246 -0.007143956 0.66251576 0.5098337 -0.007156294 0.6628194
        0.520107 -0.0071679302 0.66310096 0.53012645 -0.007178863 0.66335964
        0.5398512 -0.0071890936 0.66359514 0.5492455 -0.0071986252 0.6638074
        0.5582795 -0.0072074584 0.6639968 0.56692904 -0.0072156 0.66416395
        0.5751759 -0.0072230524 0.6643097 0.5830074 -0.00722982 0.6644351
        0.59041625 -0.007235907 0.66454154 0.5974 -0.0072413175 0.66463035
        0.6039607 -0.007246061 0.6647032 0.610104 -0.0072501716 0.6647616
        0.6158387 -0.007253747 0.66480714 0.6211757 -0.007257046 0.6648414
        0.62612635 -0.0072606835 0.66486585 0.6307007 -0.007265944 0.6648819
        0.6349046 -0.007275216 0.6648908 0.6387369 -0.0072922874 0.6648939
        0.64218944 -0.007321897 0.66489244 0.6452529 -0.0073675695 0.6648874
        0.64793056 -0.0074280016 0.6648801 0.65025 -0.007495824 0.66487145
        0.6522626 -0.0075629866 0.6648623 0.65403277 -0.0076276176 0.6648528
        0.6556242 -0.0076934416 0.6648432 0.6570936 -0.007777291 0.6648332
        0.4671739 -0.006767724 0.6614864 0.47797227 -0.0067842365 0.6618497
        0.48872063 -0.0068000974 0.66219455 0.49936378 -0.00681529 0.6625195
        0.50984865 -0.0068298075 0.66282326 0.5201254 -0.0068436437 0.66310483
        0.53014827 -0.0068567963 0.6633636 0.5398762 -0.006869263 0.6635991
        0.5492736 -0.006881042 0.6638114 0.55831057 -0.0068921335 0.6640008
        0.5669629 -0.006902541 0.6641679 0.5752124 -0.006912266 0.6643136
        0.5830464 -0.00692131 0.66443896 0.59045756 -0.006929674 0.66454536
        0.5974435 -0.006937361 0.6646341 0.6040062 -0.006944379 0.6647069
        0.6101514 -0.0069507584 0.66476524 0.61588794 -0.0069565955 0.66481066
        0.6212266 -0.006962144 0.6648448 0.62617904 -0.0069680065 0.6648692
        0.6307553 -0.006975452 0.66488516 0.6349615 -0.0069868383 0.664894
        0.6387969 -0.0070059197 0.664897 0.6422539 -0.007037392 0.6648954
        0.6453236 -0.0070847464 0.66489035 0.6480098 -0.0071466556 0.66488296
        0.65034086 -0.007215779 0.6648742 0.6523694 -0.0072843106 0.66486484
        0.65416044 -0.0073511456 0.66485524 0.65577805 -0.007422447 0.6648454
        0.6572768 -0.0075176633 0.66483504 0.4671739 -0.0064326846 0.6614898
        0.47797614 -0.0064505814 0.66185313 0.48872834 -0.006467882 0.6621982
        0.49937522 -0.0064845677 0.66252315 0.5098638 -0.0065006255 0.662827
        0.5201441 -0.006516049 0.66310865 0.53017044 -0.0065308297 0.6633674
        0.53990173 -0.0065449635 0.66360295 0.54930234 -0.006558447 0.66381526
        0.55834234 -0.006571278 0.6640047 0.5669976 -0.0065834546 0.6641718
        0.57524985 -0.006594975 0.6643174 0.5830865 -0.0066058417 0.6644428
        0.5905001 -0.0066160504 0.6645491 0.59748834 -0.0066256044 0.66463786
        0.60405326 -0.006634507 0.6647105 0.6102005 -0.006642787 0.66476876
        0.615939 -0.006650535 0.6648142 0.6212796 -0.006657998 0.66484827
        0.62623394 -0.006665765 0.6648725 0.6308124 -0.006675077 0.6648884
        0.6350214 -0.006688249 0.66489714 0.63886064 -0.006708975 0.6649001
        0.6423231 -0.00674189 0.66489846 0.6454005 -0.0067904443 0.66489327
        0.6480972 -0.0068533085 0.66488576 0.6504423 -0.006923239 0.66487694
        0.6524891 -0.0069927876 0.6648674 0.65430355 -0.007061791 0.6648576
        0.65594923 -0.007138713 0.6648475 0.65747863 -0.007244407 0.6648367
        0.4671739 -0.0060976436 0.66149294 0.47798002 -0.0061162724 0.6618565
        0.48873606 -0.0061343755 0.6622016 0.49938676 -0.006151928 0.6625267
        0.50987905 -0.0061689187 0.6628306 0.52016306 -0.006185335 0.6631123
        0.5301929 -0.006201168 0.66337115 0.53992766 -0.00621641 0.6636067
        0.5493316 -0.0062310547 0.6638191 0.55837476 -0.0062450967 0.6640085
        0.5670331 -0.006258534 0.66417557 0.57528824 -0.0062713614 0.66432124
        0.5831276 -0.006283578 0.66444653 0.59054387 -0.0062951776 0.6645528
        0.5975346 -0.0063061602 0.6646415 0.60410184 -0.0063165287 0.66471416
        0.61025137 -0.0063263075 0.66477233 0.61599195 -0.006335581 0.66481763
        0.6213347 -0.006344589 0.6648516 0.6262912 -0.0063538984 0.6648758
        0.63087213 -0.0063647158 0.66489154 0.63508433 -0.006379294 0.6649003
        0.6389282 -0.006401242 0.66490316 0.64239734 -0.006435107 0.6649014
        0.64548427 -0.0064842873 0.66489613 0.6481937 -0.0065474794 0.66488856
        0.65055543 -0.0066176145 0.66487956 0.6526235 -0.00668773 0.6648699
        0.65446395 -0.0067587425 0.6648599 0.6561398 -0.0068411487 0.66484946
        0.6577011 -0.0069559948 0.6648383 0.4671739 -0.005762601 0.6614959
        0.47798392 -0.0057813656 0.6618596 0.48874384 -0.0057996786 0.66220486
        0.49939838 -0.005817516 0.66253006 0.5098945 -0.005834862 0.6628341
        0.5201822 -0.0058517046 0.66311586 0.53021574 -0.0058680326 0.6633747
        0.539954 -0.0058838353 0.6636104 0.54936135 -0.005899106 0.66382277
        0.5584079 -0.005913837 0.6640122 0.56706935 -0.0059280223 0.6641793
        0.5753276 -0.0059416573 0.66432494 0.5831698 -0.005954736 0.6644502
        0.59058887 -0.0059672548 0.66455644 0.5975822 -0.0059792087 0.6646451
        0.60415196 -0.005990599 0.6647177 0.6103039 -0.006001446 0.6647758
        0.61604685 -0.0060118306 0.664821 0.62139183 -0.0060219783 0.66485494
        0.6263508 -0.006032433 0.6648791 0.6309346 -0.006044353 0.66489476
        0.63515055 -0.0060599097 0.66490334 0.6389998 -0.006082596 0.66490614
        0.642477 -0.006116837 0.6649043 0.64557534 -0.006165967 0.664899
        0.64830023 -0.006228742 0.6648913 0.6506816 -0.006298355 0.6648822
        0.652774 -0.006368461 0.66487235 0.65464354 -0.0064411527 0.6648621
        0.65635186 -0.0065285503 0.6648513 0.65794647 -0.0066506895 0.6648398
        0.4671739 -0.0054275566 0.6614987 0.47798783 -0.0054459153 0.66186255
        0.48875168 -0.0054638973 0.6622079 0.49941012 -0.005481479 0.6625333
        0.50991005 -0.0054986435 0.6628374 0.52020156 -0.005515378 0.66311926
        0.5302388 -0.0055316687 0.6633782 0.53998077 -0.0055475063 0.6636139
        0.5493917 -0.0055628815 0.6638263 0.5584416 -0.0055777854 0.66401577
        0.56710637 -0.005592212 0.66418284 0.57536775 -0.005606155 0.6643285
        0.5832131 -0.005619607 0.6644538 0.590635 -0.0056325626 0.66455996
        0.5976312 -0.0056450153 0.6646486 0.60420364 -0.0056569655 0.66472113
        0.6103581 -0.0056684306 0.6647792 0.6161036 -0.005679485 0.66482437
        0.62145114 -0.0056903404 0.6648582 0.6264128 -0.0057015093 0.6648822
        0.6309998 -0.005714091 0.6648978 0.63522005 -0.0057301526 0.6649064
        0.63907564 -0.0057530333 0.66490906 0.6425623 -0.0057869973 0.6649072
        0.6456744 -0.0058352947 0.66490173 0.64841765 -0.0058967774 0.6648939
        0.65082216 -0.005964998 0.6648847 0.65294266 -0.0060343645 0.6648747
        0.6548446 -0.006108169 0.6648641 0.65658784 -0.006199618 0.664853
        0.65821743 -0.0063265865 0.66484106 0.4671739 -0.005092511 0.6615014
        0.47799176 -0.0051099765 0.66186535 0.48875955 -0.005127137 0.6622109
        0.49942192 -0.005143967 0.6625363 0.5099258 -0.0051604523 0.66284055
        0.5202212 -0.005176578 0.66312253 0.53026223 -0.0051923324 0.6633815
        0.5400078 -0.005207705 0.66361725 0.5494224 -0.0052226847 0.66382974
        0.55847585 -0.005237265 0.6640192 0.5671441 -0.005251438 0.66418636
        0.57540876 -0.005265196 0.664332 0.5832573 -0.005278533 0.66445726
        0.5906823 -0.005291442 0.6645634 0.59768146 -0.005303916 0.664652
        0.60425675 -0.005315955 0.6647245 0.610414 -0.005327574 0.66478246
        0.6161622 -0.0053388397 0.6648276 0.6215125 -0.0053499495 0.6648614
        0.6264771 -0.0053613777 0.66488534 0.6310677 -0.00537415 0.66490084
        0.6352928 -0.0053902008 0.66490936 0.63915575 -0.005412677 0.6649119
        0.64265364 -0.0054456308 0.66490996 0.64578193 -0.005492201 0.6649045
        0.648547 -0.005551373 0.6648965 0.65097874 -0.0056171715 0.6648871
        0.65313154 -0.0056848745 0.6648768 0.6550696 -0.005758918 0.664866
        0.6568505 -0.0058529284 0.66485447 0.65851676 -0.005981589 0.6648422
        0.4671739 -0.004757464 0.6615039 0.47799572 -0.0047736014 0.66186804
        0.48876747 -0.0047894963 0.6622136 0.49943385 -0.0048051258 0.66253924
        0.50994164 -0.004820476 0.6628435 0.52024096 -0.004835533 0.6631256
        0.53028584 -0.004850285 0.66338474 0.5400353 -0.004864723 0.66362053
        0.5494536 -0.004878836 0.663833 0.5585107 -0.0048926175 0.66402256
        0.5671825 -0.00490606 0.6641897 0.5754506 -0.004919157 0.66433537
        0.58330244 -0.0049319016 0.6644606 0.59073067 -0.0049442877 0.66456676
        0.59773296 -0.004956309 0.6646553 0.6043113 -0.0049679643 0.6647277
        0.6104715 -0.0049792673 0.6647857 0.61622256 -0.0049902783 0.6648307
        0.62157583 -0.005001174 0.6648644 0.6265437 -0.005012388 0.6648883
        0.63113827 -0.0050248546 0.66490376 0.63536894 -0.005040348 0.66491216
        0.6392403 -0.0050617727 0.6649147 0.64275116 -0.0050929063 0.66491264
        0.6458986 -0.0051367423 0.66490704 0.64868927 -0.0051924344 0.66489893
        0.651153 -0.005254596 0.66488934 0.6533429 -0.005319472 0.6648788
        0.65532136 -0.00539248 0.6648676 0.65714306 -0.0054869005 0.6648557
        0.65884775 -0.0056133983 0.6648431 0.4671739 -0.0044224155 0.66150624
        0.47799966 -0.004436838 0.6618705 0.4887754 -0.004451072 0.66221625
        0.4994458 -0.004465096 0.662542 0.5099576 -0.004478898 0.6628464
        0.5202609 -0.0044924654 0.66312855 0.53030974 -0.0045057875 0.6633877
        0.5400631 -0.0045188554 0.66362363 0.5494852 -0.004531661 0.6638362
        0.55854607 -0.0045441967 0.6640257 0.56722146 -0.0045564575 0.6641929
        0.57549316 -0.0045684376 0.6643385 0.58334845 -0.004580131 0.6644638
        0.5907801 -0.004591532 0.66457 0.5977856 -0.0046026367 0.6646585
        0.60436714 -0.0046134423 0.66473085 0.61053044 -0.004623963 0.6647887
        0.61628467 -0.004634251 0.6648337 0.6216411 -0.004644462 0.6648674
        0.62661254 -0.0046549784 0.6648912 0.6312115 -0.0046666297 0.6649066
        0.6354484 -0.0046809944 0.6649149 0.63932925 -0.0047006793 0.6649174
        0.6428551 -0.0047291154 0.6649152 0.6460247 -0.0047690948 0.6649095
        0.6488457 -0.004819975 0.6649012 0.65134686 -0.004877075 0.6648914
        0.6535795 -0.0049376665 0.6648806 0.6556031 -0.0050078514 0.66486895
        0.657469 -0.005099755 0.6648567 0.659214 -0.005219508 0.6648437
        0.4671739 -0.0040873666 0.6615084 0.47800365 -0.0040997323 0.6618728
        0.48878342 -0.004111953 0.6622187 0.4994578 -0.0041240104 0.66254455
        0.50997365 -0.0041358923 0.66284907 0.520281 -0.004147589 0.66313136
        0.5303339 -0.0041590915 0.6633906 0.54009116 -0.004170391 0.66362655
        0.54951715 -0.0041814814 0.66383916 0.5585818 -0.0041923574 0.6640288
        0.56726104 -0.004203014 0.66419595 0.57553643 -0.0042134477 0.6643417
        0.5833953 -0.004223654 0.66446686 0.5908304 -0.0042336294 0.664573
        0.59783936 -0.00424337 0.66466147 0.60442424 -0.0042528766 0.6647339
        0.6105909 -0.0042621596 0.6647917 0.6163483 -0.004271264 0.66483665
        0.6217083 -0.004280323 0.6648702 0.62668353 -0.004289661 0.6648939
        0.6312873 -0.004299981 0.66490924 0.635531 -0.004312632 0.66491747
        0.63942266 -0.004329858 0.6649199 0.64296556 -0.0043546576 0.66491765
        0.64616096 -0.0043895477 0.66491175 0.64901733 -0.004434108 0.66490334
        0.6515623 -0.00448448 0.6648932 0.6538442 -0.0045389566 0.66488206
        0.65591854 -0.004603889 0.66487 0.6578323 -0.004689448 0.66485727
        0.6596195 -0.004797188 0.66484386 0.4671739 -0.003752316 0.6615104
        0.47800764 -0.0037623262 0.66187495 0.4887914 -0.0037722236 0.66222095
        0.4994699 -0.0037819927 0.662547 0.50998986 -0.003791624 0.66285163
        0.5203012 -0.0038011083 0.6631339 0.53035814 -0.0038104383 0.66339326
        0.54011947 -0.0038196081 0.6636293 0.54954946 -0.0038286122 0.663842
        0.55861807 -0.0038374474 0.6640317 0.5673011 -0.0038461103 0.6641989
        0.5755803 -0.0038545989 0.66434455 0.58344287 -0.0038629111 0.6644698
        0.5908816 -0.003871045 0.6645759 0.59789413 -0.003879 0.6646643
        0.6044825 -0.0038867765 0.6647367 0.61065257 -0.0038943852 0.66479445
        0.6164136 -0.003901863 0.6648393 0.6217771 -0.0039093154 0.6648728
        0.6267565 -0.0039170007 0.66489655 0.6313655 -0.003925478 0.6649118
        0.6356168 -0.003935827 0.66492 0.6395204 -0.003949857 0.6649223
        0.6430827 -0.00397003 0.6649199 0.64630777 -0.0039984873 0.6649139
        0.64920545 -0.004035028 0.66490525 0.65180176 -0.0040767197 0.6648948
        0.65414065 -0.004122782 0.6648832 0.6562722 -0.004179224 0.66487074
        0.658238 -0.004253593 0.66485745 0.6600687 -0.004343482 0.6648436
        0.4671739 -0.0034172647 0.6615122 0.47801164 -0.0034246577 0.66187686
        0.48879945 -0.0034319598 0.6622231 0.49948204 -0.0034391584 0.6625492
        0.51000607 -0.0034462458 0.66285396 0.5203216 -0.003453214 0.6631364
        0.53038263 -0.0034600582 0.6633958 0.5401481 -0.0034667735 0.6636319
        0.5495821 -0.0034733564 0.66384465 0.55865467 -0.003479805 0.66403437
        0.5673417 -0.0034861185 0.6642016 0.5756247 -0.003492297 0.6643473
        0.58349115 -0.0034983398 0.6644725 0.5909336 -0.003504248 0.6645787
        0.5979498 -0.0035100223 0.66466707 0.6045418 -0.0035156664 0.6647393
        0.6107155 -0.0035211889 0.6647971 0.6164802 -0.0035266178 0.6648419
        0.62184757 -0.0035320288 0.6648753 0.62683135 -0.003537605 0.664899
        0.63144594 -0.0035437427 0.66491413 0.6357055 -0.003551207 0.66492224
        0.6396224 -0.0035612974 0.66492444 0.6432064 -0.0035758123 0.66492194
        0.64646554 -0.0035963822 0.6649158 0.6494115 -0.0036229915 0.6649069
        0.652068 -0.0036537016 0.66489613 0.6544732 -0.0036884462 0.664884
        0.6566692 -0.0037321446 0.6648709 0.6586915 -0.0037893462 0.6648571
        0.6605664 -0.0038551977 0.6648428 0.4671739 -0.0030822125 0.66151386
        0.4780156 -0.0030867627 0.6618787 0.48880753 -0.0030912338 0.662225
        0.4994942 -0.003095616 0.6625512 0.5100224 -0.0030999028 0.66285616
        0.5203421 -0.0031040888 0.6631386 0.53040725 -0.0031081699 0.6633982
        0.5401768 -0.0031121431 0.66363436 0.54961497 -0.0031160067 0.66384715
        0.5586916 -0.0031197607 0.6640369 0.56738263 -0.0031234059 0.6642042
        0.57566965 -0.0031269435 0.66434985 0.58353996 -0.0031303763 0.66447514
        0.5909863 -0.0031337072 0.6645812 0.5980063 -0.0031369403 0.6646696
        0.6046021 -0.00314008 0.6647419 0.6107796 -0.003143134 0.6647995
        0.61654806 -0.0031461208 0.6648443 0.6219195 -0.003149083 0.66487765
        0.6269079 -0.003152119 0.6649012 0.6315285 -0.0031554413 0.6649163
        0.63579696 -0.003159458 0.6649243 0.6397285 -0.0031648688 0.66492647
        0.64333683 -0.003172663 0.66492385 0.64663476 -0.0031837784 0.6649175
        0.6496369 -0.0031982944 0.6649083 0.65236443 -0.0032152832 0.664897
        0.65484697 -0.0032350128 0.66488427 0.65711623 -0.0032604276 0.66487056
        0.6591995 -0.0032932528 0.6648561 0.66111803 -0.0033289092 0.6648413
        0.4671739 -0.0027471592 0.6615153 0.47801962 -0.002748675 0.6618803
        0.4888156 -0.0027501138 0.66222674 0.4995064 -0.0027514691 0.66255313
        0.5100388 -0.0027527355 0.66285807 0.5203627 -0.0027539094 0.6631407
        0.53043205 -0.0027549875 0.66340035 0.5402058 -0.0027559686 0.6636366
        0.5496481 -0.0027568527 0.6638495 0.5587289 -0.0027576408 0.66403925
        0.567424 -0.0027583356 0.66420656 0.575715 -0.0027589407 0.66435224
        0.5835893 -0.0027594606 0.66447747 0.59103966 -0.002759901 0.66458356
        0.5980636 -0.002760268 0.66467196 0.60466325 -0.002760568 0.66474414
        0.6108446 -0.0027608073 0.6648018 0.6166171 -0.0027609929 0.6648465
        0.62199277 -0.0027611314 0.6648798 0.626986 -0.0027612287 0.6649032
        0.631613 -0.002761291 0.66491824 0.635891 -0.002761324 0.6649262
        0.6398384 -0.0027613326 0.66492826 0.6434737 -0.0027613211 0.6649255
        0.64681584 -0.002761294 0.6649189 0.6498835 -0.002761254 0.6649093
        0.6526952 -0.002761205 0.6648975 0.6552687 -0.002761149 0.66488403
        0.6576214 -0.0027610885 0.6648695 0.6597697 -0.0027610254 0.6648543
        0.6617295 -0.0027609614 0.66483885
        <InformationKey name="L2_NORM_RANGE" location="vtkDataArray" length="2">
          <Value index="0">
            0.80985275133
          </Value>
          <Value index="1">
            0.9380321266
          </Value>
        </InformationKey>
      </DataArray>
    </Points>
  </Piece>
  </StructuredGrid>
</VTKFile>
