<?xml version="1.0"?>
<VTKFile type="StructuredGrid" version="0.1" byte_order="LittleEndian" header_type="UInt32" compressor="vtkZLibDataCompressor">
  <StructuredGrid WholeExtent="0 30 0 40 0 0">
  <Piece Extent="0 30 0 40 0 0">
    <PointData>
      <DataArray type="Float32" Name="orthogonality" format="ascii" RangeMin="0" RangeMax="0.9124095439910889">
        0 0.017520264 0.034823537 0.05178416 0.06829146 0.08424511
        0.099555984 0.11414699 0.1279534 0.14092253 0.15301318 0.16419439
        0.17444405 0.18374723 0.19209392 0.1994758 0.20587938 0.21126994
        0.21555215 0.21847978 0.21946846 0.21724494 0.2092504 0.19068532
        0.15292616 0.08048147 0.054129817 0.2824606 0.5664519 0.7876401
        0.91240954 9.178637e-05 0.017642118 0.034982424 0.051987387 0.068546355
        0.08455883 0.099935435 0.11459875 0.1284837 0.1415373 0.15371794
        0.16499439 0.1753443 0.18475251 0.1932088 0.2007045 0.20722552
        0.21273535 0.21713394 0.22016318 0.22121187 0.21895312 0.21073934
        0.19167382 0.15319522 0.08070519 0.049435712 0.26151606 0.52865285
        0.7581542 0.9054948 0.00022661072 0.017812371 0.035195105 0.05224998
        0.06886645 0.08494389 0.10039276 0.11513542 0.12910652 0.14225288
        0.1545327 0.1659146 0.17637616 0.18590218 0.1944825 0.20210846
        0.20876563 0.21441625 0.21895622 0.22211692 0.223263 0.22101974
        0.21266319 0.19322512 0.15425575 0.082103804 0.0432523 0.23967727
        0.4893699 0.7263254 0.89802563 0.00039800504 0.018028852 0.0354639
        0.05257912 0.069264226 0.0854187 0.100953005 0.11578951 0.12986289
        0.14311996 0.15551908 0.16702907 0.1776278 0.18730052 0.19603756
        0.20383084 0.21066636 0.21650594 0.22124279 0.22459996 0.22592224
        0.22379611 0.215441 0.19586241 0.15682292 0.085785545 0.03377979
        0.21464884 0.44701785 0.6895152 0.8851699 0.0005987278 0.018283814
        0.03578057 0.05296605 0.069730416 0.08597341 0.10160572 0.11654995
        0.13074102 0.14412607 0.1566639 0.16832386 0.17908452 0.18893203
        0.19785778 0.20585485 0.21291035 0.21898676 0.22397599 0.2275954
        0.22917496 0.22727296 0.21907508 0.19961002 0.16095333 0.09182029
        0.021004066 0.18625481 0.40084654 0.646105 0.8649655 0.0008209032
        0.018568395 0.03613522 0.053399783 0.07025283 0.086594544 0.10233603
        0.11740031 0.13172281 0.14525124 0.15794511 0.16977467 0.18071957
        0.19076724 0.19991066 0.20814468 0.21545829 0.22181554 0.22710869
        0.23105219 0.23296694 0.23139513 0.22351393 0.20442702 0.16661862
        0.10015942 0.0050602816 0.15450922 0.35027632 0.59411484 0.8344734
        0.0010556565 0.018871577 0.036514603 0.05386469 0.07081329 0.087261155
        0.10311993 0.11831324 0.13277717 0.14646024 0.15932286 0.17133646
        0.18248206 0.19274877 0.2021315 0.21062738 0.21822791 0.2248996
        0.23053655 0.2348532 0.23716748 0.23601821 0.22860059 0.21014446
        0.1736274 0.11053997 0.013649714 0.119769774 0.29517168 0.5314816
        0.78946626 0.0012945677 0.01918201 0.036904298 0.05434308 0.071390554
        0.08794811 0.10392805 0.11925466 0.13386479 0.14770788 0.16074541
        0.17295009 0.18430454 0.19479968 0.20443265 0.21320316 0.22110564
        0.22810969 0.23411252 0.2388313 0.24158704 0.24092814 0.2340937
        0.21648705 0.1816466 0.12250375 0.034460124 0.082803614 0.23615998
        0.45667118 0.72435683 0.001527816 0.019485371 0.037285306 0.054810997
        0.071955375 0.08862046 0.10471917 0.120176464 0.13492997 0.14892998
        0.16213909 0.17453125 0.18609066 0.1968101 0.2066889 0.21572934
        0.22392888 0.23126057 0.23762557 0.2427461 0.24595174 0.24581255
        0.23963533 0.223037 0.1901635 0.13536692 0.05643349 0.044760667
        0.17464672 0.36973086 0.63271475 0.0017507335 0.019772625 0.037644062
        0.0552501 0.072484314 0.08924925 0.105458364 0.121037185 0.13592397
        0.15006979 0.16343814 0.17600411 0.18775325 0.19867997 0.20878561
        0.21807477 0.22654769 0.23418084 0.24087979 0.2463736 0.25000525
        0.2503772 0.24488452 0.22938885 0.19866773 0.14843531 0.078603305
        0.0069229407 0.11261221 0.27250147 0.5078592 0.0019593649 0.02003798
        0.037972864 0.055650663 0.07296546 0.08982021 0.10612878 0.1218171
        0.13682391 0.15110086 0.16461214 0.17733377 0.18925235 0.20036367
        0.21067066 0.22017998 0.22889423 0.23679313 0.24378693 0.24961309
        0.2536324 0.25448963 0.2496858 0.23535089 0.20689961 0.16132173
        0.1003945 0.029889297 0.051684413 0.16862962 0.3477725 0.0021459067
        0.020273158 0.038262937 0.05600335 0.07338885 0.09032269 0.10671894
        0.12250383 0.13761638 0.15200862 0.16564524 0.17850287 0.19056894
        0.20184027 0.21232104 0.22201951 0.23094036 0.23906621 0.2463123
        0.25242594 0.25678995 0.2581006 0.2539807 0.24084574 0.21473867
        0.17381935 0.12147194 0.06513392 0.0067185354 0.06429173 0.16460754
        0.0023047864 0.020473856 0.038511276 0.056306474 0.07375415 0.0907577
        0.10723134 0.123101406 0.13830706 0.15280055 0.16654684 0.17952299
        0.191717 0.20312643 0.21375643 0.2236165 0.23271312 0.24103163
        0.24849252 0.25485453 0.25952664 0.26126528 0.257829 0.24593052
        0.2222204 0.18591073 0.141739 0.098569326 0.061638586 0.034378175
        0.017908579 0.002429969 0.020636508 0.03871683 0.056561567 0.074065566
        0.09113231 0.10767606 0.12362313 0.13891277 0.15349728 0.16734183
        0.18042374 0.19273141 0.20426296 0.21502432 0.22502604 0.23427616
        0.2427628 0.25041217 0.25699604 0.2619538 0.26411045 0.2613727
        0.2507586 0.22949898 0.19773786 0.16132715 0.13029057 0.1127285
        0.12320169 0.1775322 0.0025158545 0.020757461 0.038877934 0.056768995
        0.07432559 0.09145121 0.1080601 0.12407854 0.13944574 0.15411405
        0.16804872 0.18122725 0.19363835 0.20528063 0.21616064 0.22628988
        0.23567791 0.24431568 0.25213566 0.25892445 0.26415583 0.2667309
        0.26471543 0.25543705 0.23667464 0.2093855 0.18031551 0.16036958
        0.15982787 0.20028593 0.30436206 0.0025568048 0.020832038 0.03899088
        0.056926038 0.07453249 0.09171371 0.108383864 0.12446918 0.13990879
        0.15465502 0.16867317 0.18194087 0.19444707 0.20619076 0.21717912
        0.22742446 0.23693785 0.24571322 0.2536899 0.2606708 0.26616773
        0.26916465 0.26789474 0.25999573 0.24375892 0.22084114 0.19868161
        0.18879162 0.2028606 0.2655152 0.39950758 0.002547486 0.020855248
        0.03905102 0.05702836 0.07468224 0.0919161 0.10864398 0.12479201
        0.14029922 0.15511785 0.16921324 0.18256308 0.19515656 0.20699295
        0.21807997 0.22843075 0.2380578 0.24695821 0.2550786 0.26223966
        0.26799423 0.27141458 0.2709075 0.26441795 0.25071192 0.2320391
        0.21635222 0.21551049 0.24186152 0.31985232 0.46880192 0.002482948
        0.020822281 0.039053675 0.0570714 0.074770376 0.09205396 0.10883606
        0.12504266 0.14061266 0.15549824 0.16966464 0.18308964 0.19576254
        0.20768295 0.21885899 0.22930458 0.23903368 0.24804655 0.2562976
        0.2636264 0.2696293 0.2734712 0.27373657 0.268672 0.25748014
        0.24290507 0.23325448 0.24050206 0.27698725 0.3647215 0.51848847
        0.0023581 0.02072834 0.038994335 0.05705089 0.074792854 0.09212346
        0.10895646 0.12521769 0.14084585 0.15579303 0.17002438 0.18351771
        0.1962624 0.20825832 0.21951395 0.23004396 0.23986368 0.24897668
        0.25734544 0.26482934 0.27107033 0.27532908 0.2763701 0.27273437
        0.2640242 0.25338897 0.24935293 0.26380017 0.30850998 0.40162858
        0.5536555 0.0021685627 0.020569144 0.038868796 0.05696266 0.07474547
        0.09212033 0.10900081 0.12531254 0.14099404 0.15599725 0.17028722
        0.18384172 0.19665022 0.2087127 0.22003804 0.23064151 0.24053983
        0.24973986 0.2582124 0.26583734 0.27230367 0.27697 0.2787814
        0.27656448 0.27028534 0.26341844 0.26458484 0.28540596 0.33667076
        0.4318622 0.5780353 0.0019058618 0.020337583 0.03867129 0.05680219
        0.0746249 0.092042394 0.10896806 0.1253273 0.14105849 0.15611336
        0.17045686 0.18406671 0.1969324 0.20905407 0.22044085 0.23110865
        0.24107552 0.25035158 0.25891626 0.26667047 0.27335146 0.27841732
        0.28099394 0.28018472 0.2762871 0.2730302 0.27902845 0.30549675
        0.36191788 0.4566767 0.5942879 0.0015701764 0.020032162 0.03839864
        0.056564525 0.07442432 0.09188081 0.10884722 0.12524872 0.14102343
        0.15612288 0.17051192 0.1841681 0.1970809 0.2092505 0.22068626
        0.23140453 0.2414246 0.2507599 0.25939825 0.26726186 0.2741364
        0.2795793 0.2828943 0.28344947 0.28184026 0.28198597 0.29240766
        0.32380307 0.384138 0.47662243 0.6042184 0.0011293748 0.019627947
        0.038032863 0.056238234 0.07413855 0.091636546 0.1086453 0.12508984
        0.14090814 0.15605158 0.17048487 0.1841855 0.19714296 0.20935747
        0.22083862 0.23160325 0.2416719 0.25106126 0.25976795 0.26773578
        0.2747998 0.280618 0.2846719 0.28658742 0.28723314 0.29066494
        0.30523437 0.34103224 0.40438688 0.49310294 0.60912937 0.00062207354
        0.019176774 0.03763896 0.055901714 0.073859826 0.09141625 0.10848421
        0.12498886 0.14086829 0.156074 0.17057085 0.18433657 0.19736093
        0.2096446 0.22119771 0.23203804 0.2421878 0.25166768 0.26048392
        0.2686037 0.27591452 0.2821803 0.28706786 0.29046702 0.29351202
        0.3003582 0.31911227 0.35912815 0.42486852 0.5088292 0.6112008
        0.00016324208 0.01878443 0.03731427 0.055645254 0.073672585 0.091299586
        0.10843977 0.12501858 0.14097439 0.15625903 0.17083777 0.1846888
        0.1978025 0.21018022 0.22183305 0.23278005 0.24304575 0.25265536
        0.26162603 0.26995042 0.2775726 0.2843701 0.29020703 0.29525
        0.3009002 0.311381 0.33446702 0.37858588 0.44600925 0.5248303
        0.6129145 0.0002078881 0.018474132 0.037066486 0.055461466 0.07355463
        0.09124956 0.10846006 0.12511177 0.14114337 0.15650699 0.17116827
        0.1851059 0.19831085 0.21078523 0.2225411 0.2335989 0.24398552
        0.2537312 0.26286465 0.27140594 0.27935997 0.286726 0.2935783
        0.3003737 0.3087803 0.3230515 0.35052893 0.39850965 0.4668619
        0.54055053 0.615682 0.0005145581 0.018221462 0.036869995 0.055323314
        0.07347725 0.09123562 0.1085124 0.12523346 0.14133763 0.15677738
        0.17151867 0.18554065 0.19883482 0.21140407 0.22326137 0.2344286
        0.24493507 0.2548163 0.26411346 0.27287614 0.28117496 0.2891404
        0.29707223 0.30573422 0.31706232 0.3352959 0.36722788 0.41882235
        0.48747993 0.55598176 0.6193576 0.0007552255 0.018030537 0.036731333
        0.055239588 0.0734514 0.091270775 0.10861186 0.1254007 0.14157638
        0.15709157 0.17191261 0.18601911 0.19940314 0.2120683 0.22402859
        0.23530729 0.24593636 0.2559569 0.26542342 0.27441734 0.28307986
        0.2916827 0.30076686 0.31142056 0.3258477 0.3482234 0.38466007
        0.4395819 0.5079557 0.5713326 0.6240606 0.00093601574 0.017895585
        0.036645018 0.05520499 0.073471844 0.091349766 0.10875307 0.12560798
        0.14185376 0.15744339 0.17234352 0.1865342 0.2000081 0.21276957
        0.2248336 0.236225 0.2469784 0.25714087 0.2667813 0.27601516
        0.28505966 0.29433823 0.3046506 0.3174286 0.3351445 0.36185175
        0.40283388 0.46077874 0.5283543 0.5867076 0.6298615 0.0010611338
        0.01781334 0.03660866 0.055217907 0.07353767 0.09147232 0.108936355
        0.12585615 0.14217119 0.15783472 0.17281376 0.1870888 0.2006531
        0.2135118 0.22568089 0.23718677 0.24806695 0.25837478 0.26819444
        0.27767792 0.28712413 0.29711926 0.30874035 0.32378384 0.3449909
        0.3762279 0.42178446 0.48243287 0.5487634 0.6022575 0.6368973
        0.0011353446 0.017779611 0.036618594 0.055275135 0.073646076 0.091635995
        0.10915954 0.12614329 0.14252697 0.15826407 0.17332199 0.1876817
        0.20133708 0.21429403 0.22656964 0.2381919 0.24920134 0.25965804
        0.26966238 0.2794055 0.28927365 0.3000276 0.3130415 0.33049968
        0.35541305 0.39138705 0.44153664 0.50456476 0.56927687 0.61812365
        0.6453077 0.0011632668 0.017790286 0.036671177 0.055373438 0.07379419
        0.091838226 0.10942038 0.12646744 0.14291935 0.1587299 0.1738669
        0.18831179 0.20205908 0.21511549 0.22749922 0.23923996 0.25038135
        0.2609906 0.27118534 0.28119838 0.29150915 0.30306536 0.3175594
        0.3375889 0.3664366 0.40736434 0.462117 0.52720594 0.58999944
        0.6344504 0.65523857 0.0011494412 0.017841192 0.03676256 0.055509277
        0.07397875 0.09207598 0.10971602 0.12682588 0.14334576 0.1592298
        0.17444615 0.18897682 0.20281695 0.21597412 0.22846767 0.24032904
        0.25160518 0.26237074 0.27276164 0.2830549 0.29382917 0.30623162
        0.3222952 0.3450596 0.37808266 0.42419147 0.4835523 0.55039763
        0.6110424 0.65137273 0.6668148 0.0010982198 0.01792824 0.036888905
        0.055679 0.074196264 0.092345916 0.11004326 0.12721552 0.14380321
        0.15976077 0.17505683 0.18967389 0.20360781 0.21686704 0.2294721
        0.24145629 0.25286993 0.26379552 0.27438828 0.2849719 0.29623026
        0.30952266 0.32724655 0.3529152 0.3903681 0.4418979 0.5058723
        0.57419163 0.6325187 0.66900706 0.6801202 0.0010137087 0.01804749
        0.037046403 0.055878934 0.07444315 0.09264452 0.110398605 0.12763289
        0.1442882 0.16031933 0.17569536 0.19039938 0.20442796 0.21779045
        0.23050863 0.24261764 0.25417143 0.26526064 0.2760607 0.2869444
        0.29870656 0.31293166 0.33240643 0.36115357 0.40330496 0.46051165
        0.529111 0.59864795 0.65453506 0.6874375 0.69517124 0.0008997205
        0.018195208 0.03723138 0.056105427 0.07471576 0.092968136 0.11077836
        0.12807423 0.14479685 0.16090147 0.17635763 0.191149 0.20527291
        0.21873966 0.23157229 0.2438079 0.2555042 0.2667602 0.2777725
        0.2889651 0.3012495 0.31644788 0.33776256 0.36976632 0.41690043
        0.48006073 0.5533086 0.6238308 0.67718 0.7067001 0.711892
        0.0007597519 0.018367892 0.03744031 0.056354914 0.07501046 0.093313016
        0.11117865 0.12853548 0.14532496 0.16150275 0.17703891 0.19191773
        0.2061373 0.21970892 0.23265696 0.24502051 0.25686106 0.26828653
        0.27951515 0.29102436 0.30384722 0.3200562 0.34329665 0.37873793
        0.4311571 0.5005753 0.578512 0.64980125 0.70050997 0.7267666
        0.7300926 0.0005969872 0.01856227 0.03766981 0.05662387 0.075323574
        0.09367527 0.11159536 0.12901226 0.14586782 0.16211814 0.17773376
        0.19269967 0.20701477 0.22069132 0.23375507 0.24624719 0.25823307
        0.2698296 0.28127748 0.29310912 0.30648383 0.32373616 0.34898314
        0.38804486 0.44607368 0.5220903 0.604774 0.6766062 0.7245325
        0.7475284 0.7494523 0.00041433144 0.018775241 0.03791657 0.05690874
        0.07565126 0.09405078 0.112024 0.1294997 0.14642012 0.16274177
        0.17843579 0.19348781 0.20789753 0.22167829 0.23485717 0.24747747
        0.25960857 0.27137646 0.2830448 0.29520226 0.30913824 0.32746053
        0.35478786 0.39765474 0.4616461 0.5446489 0.63215077 0.7042637
        0.74918896 0.7687835 0.7695121 0.0002144757 0.019003805 0.038177248
        0.057205822 0.0759894 0.09443496 0.11245951 0.12999216 0.14697555
        0.16336666 0.17913719 0.19427343 0.20877591 0.22265902 0.2359512
        0.24869788 0.26097244 0.27291012 0.2847977 0.29728112 0.31178272
        0.33119377 0.3606664 0.40752512 0.47786963 0.5683067 0.6606952
        0.73274404 0.77433825 0.7902289 0.78967357 0 0.019246412
        0.038451348 0.05751568 0.07633967 0.094830565 0.11290572 0.13049458
        0.14754017 0.16399992 0.17984608 0.19506563 0.2096599 0.22364429
        0.23704863 0.2499204 0.26233697 0.27444282 0.28654775 0.2993549
        0.31441978 0.33491778 0.3665365 0.41738275 0.49398997 0.5914637
        0.6880569 0.7597719 0.79845965 0.8109106 0.8087653
      </DataArray>
      <DataArray type="Float32" Name="aspect_ratio" format="ascii" RangeMin="1.6381447315216064" RangeMax="27.35788917541504">
        26.435976 26.232729 25.961336 25.559114 25.034399 24.397823
        23.661863 22.84031 21.947739 20.998991 20.008713 18.990946
        17.958801 16.92423 15.897852 14.888881 13.905121 12.953051
        12.038014 11.16455 10.3369055 9.559672 8.838311 8.178748
        7.5841217 7.044034 6.5023932 5.7937922 4.8171597 4.0533843
        4.056218 26.44921 26.205618 25.894062 25.452482 24.889853
        24.217388 23.448069 22.596102 21.676378 20.70396 19.69361
        18.659388 17.614357 16.570332 15.537743 14.525569 13.541339
        12.591215 11.680173 10.8122835 9.991138 9.220339 8.503778
        7.8448243 7.2422504 6.678568 6.0947356 5.372467 4.5029187
        3.8629177 3.8286154 26.462465 26.181557 25.832912 25.355047
        24.757519 24.052082 23.252176 22.372383 21.427881 20.433924
        19.405369 18.356298 17.29971 16.247286 15.209283 14.194448
        13.210052 12.261958 11.354792 10.492172 9.677051 8.912057
        8.199566 7.5405664 6.930073 6.34545 5.7283807 4.998259
        4.2031784 3.6458254 3.5551243 26.475754 26.163815 25.784218
        25.275936 24.649029 23.9157 23.089785 22.186197 21.220367
        20.207726 19.163235 18.101007 17.033998 15.973808 14.930548
        13.91279 12.927592 11.980575 11.076055 10.217249 9.406513
        8.645553 7.935313 7.2746124 6.655335 6.051491 5.4083242
        4.6745977 3.9279878 3.4181921 3.2533975 26.489077 26.153088
        25.749382 25.21728 24.567232 23.811798 22.965137 22.042429
        21.059324 20.031408 18.97374 17.90047 16.824553 15.757525
        14.709405 13.688638 12.702122 11.755282 10.852188 9.9957
        9.187625 8.4288 7.7188253 7.0545697 6.425397 5.803476
        5.1392765 4.4036613 3.6852078 3.1915295 2.941825 26.502443
        26.150179 25.730022 25.181515 24.515371 23.74441 22.883018
        21.94658 20.950912 19.911728 18.844175 17.762455 16.679531
        15.606922 14.554596 13.530922 12.542695 11.595205 10.6923275
        9.836619 9.029389 8.2706585 7.558768 6.888847 6.2482996
        5.60867 4.926409 4.1884437 3.4824717 2.978279 2.6387827
        26.515858 26.155375 25.726732 25.169542 24.494673 23.71508
        22.845293 21.900826 20.897606 19.851442 18.777561 17.69022
        16.602413 15.525674 14.469963 13.443626 12.453412 11.504533
        10.600726 9.744299 8.936108 8.175401 7.459337 6.781494
        6.1278114 5.4701414 4.771082 4.0289316 3.323985 2.7891803
        2.3586962 26.529322 26.169157 25.740475 25.182825 24.507084
        23.726242 22.854862 21.908506 20.90316 19.85469 18.778387
        17.688559 16.598257 15.519065 14.460978 13.432369 12.4400015
        11.489065 10.5832205 9.724576 8.913579 8.14874 7.4260874
        6.737801 6.068766 5.391827 4.675549 3.92621 3.2140367
        2.6352375 2.1157181 26.54284 26.189793 25.76782 25.216288
        24.545982 23.769825 22.902336 21.959059 20.955988 19.90902
        18.833485 17.743757 16.652952 15.572722 14.513141 13.482648
        12.488061 11.534599 10.625886 9.763873 8.948623 8.177929
        7.4467187 6.7458982 6.0596533 5.3623643 4.628323 3.8695335
        3.1459064 2.5183446 1.913903 26.556404 26.214552 25.803347
        25.26191 24.600868 23.833014 22.972776 22.03564 21.037577
        19.994488 18.92174 17.833763 16.743746 15.663429 14.602975
        13.570915 12.57415 11.617954 10.705939 9.839914 9.019568
        8.241974 7.500969 6.7862887 6.081745 5.3637414 4.612127
        3.8432508 3.107862 2.435063 1.7532319 26.570011 26.24492
        25.85004 25.324142 24.677616 23.92304 23.074682 22.147915
        21.158634 20.122723 19.055565 17.97164 16.884222 15.805151
        14.744706 13.711544 12.712681 11.75348 10.837576 9.966663
        9.140065 8.35412 7.6015677 6.8710294 6.146196 5.4058595
        4.635288 3.8545163 3.1073163 2.3979654 1.6556951 26.583656
        26.28167 25.909445 25.405308 24.779295 24.043688 23.212511
        22.300951 21.324787 20.29984 19.241493 18.16427 17.081535
        16.005247 14.945832 13.912103 12.911231 11.948711 11.028241
        10.151424 9.317226 8.521237 7.7550607 7.0062346 6.258522
        5.493412 4.7015452 3.9065325 3.1478524 2.4148633 1.6381447
        26.597332 26.323967 25.979897 25.502901 24.902586 24.190855
        23.381414 22.489214 21.529865 20.519104 19.472288 18.40399
        17.327662 16.255407 15.197819 14.163899 13.161012 12.194818
        11.269109 10.385423 9.542372 8.73477 7.9530473 7.1836753
        6.4106765 5.6185446 4.8033624 3.9925017 3.2237506 2.4820347
        1.700091 26.611034 26.371817 26.061365 25.61683 25.047302
        24.364222 23.58092 22.71205 21.77302 20.779453 19.746672
        18.689295 17.620882 16.553694 15.498524 14.464597 13.459505
        12.489117 11.55735 10.665705 9.812439 8.991569 8.192314
        7.4000916 6.5993533 5.7778845 4.937335 4.1091723 3.3318334
        2.5947013 1.8335273 26.624763 26.425014 26.153404 25.746368
        25.212387 24.562386 23.809252 22.9673 22.051708 21.07796
        20.061344 19.016531 17.957205 16.895813 15.843379 14.809387
        13.801701 12.826428 11.887656 10.986864 10.121968 9.286166
        8.467437 7.650154 6.819357 5.966381 5.098588 4.2518954
        3.4672809 2.7445433 2.0230331 26.638514 26.483427 26.255697
        25.890965 25.39704 24.78425 24.065002 23.253231 22.363855
        21.412218 20.413578 19.382664 18.333313 17.278185 16.22857
        15.194259 14.183415 13.202438 12.2556095 11.344421 10.466454
        9.614074 8.773988 7.929547 7.066509 6.1799846 5.2831893
        4.416819 3.625786 2.923304 2.253129 26.652288 26.546719
        26.367535 26.049507 25.599709 25.027826 24.345732 23.566961
        22.70616 21.778528 20.7993 19.783289 18.744505 17.695862
        16.648954 15.613906 14.599236 13.611663 12.655703 11.732883
        10.840463 9.969964 9.106805 8.233319 7.336098 6.41422
        5.4868846 4.5998325 3.8028128 3.123105 2.5104625 26.666082
        26.614767 26.488625 26.221498 25.819666 25.292124 24.650179
        23.906952 23.076807 22.174805 21.216175 20.21584 19.188017
        18.145905 17.101439 16.065126 15.045873 14.05076 13.084572
        12.148895 11.240678 10.350594 9.462751 8.558474 7.62527
        6.666344 5.70701 4.7982674 3.9951694 3.3381126 2.785585
        26.679897 26.6873 26.618385 26.40602 26.055632 25.575499
        24.976345 24.270855 23.473122 22.59808 21.660973 20.676859
        19.660198 18.624514 17.582123 16.54395 15.519329 14.5157385
        13.5382595 12.588568 11.663309 10.75231 9.838347 8.901731
        7.930949 6.9334607 5.940812 5.0094256 4.1997557 3.563364
        3.0712855 26.69373 26.765896 26.759867 26.607464 26.313217
        25.884632 25.331827 24.667046 23.904106 23.057842 22.143536
        21.176426 20.171255 19.141918 18.10117 17.0604 16.029425
        15.01616 14.0260315 13.060828 12.116919 11.183266 10.241293
        9.270259 8.259661 7.221326 6.193206 5.2373376 4.4194326
        3.7996836 3.367504 26.70758 26.848423 26.908854 26.819616
        26.584314 26.20968 25.70522 25.082737 24.355803 23.539162
        22.648172 21.69828 20.704552 19.681286 18.641706 17.597713
        16.55963 15.535843 14.532145 13.550465 12.586899 11.629553
        10.658474 9.651852 8.600195 7.5197806 6.4550805 5.473828
        4.646569 4.0392566 3.6650352 26.721447 26.945919 27.086782
        27.073563 26.908813 26.598396 26.151148 25.578426 24.893555
        24.111238 23.24698 22.316517 21.335342 20.318275 19.279127
        18.230417 17.183094 16.146128 15.125766 14.124148 13.13713
        12.151929 11.147112 10.099658 9.001039 7.872162 6.7644634
        5.751845 4.909312 4.305603 3.9907658 26.735323 27.040503
        27.258879 27.318829 27.22191 26.973166 26.580803 26.055756
        25.411133 24.661608 23.822828 22.91083 21.941517 20.930214
        19.891304 18.837906 17.781569 16.731823 15.695356 14.674506
        13.664888 12.652844 11.61548 10.528571 9.3845215 8.208835
        7.0598774 6.017587 5.1606407 4.557253 4.2965364 26.74922
        27.063091 27.289902 27.35789 27.26848 27.0266 26.640373
        26.12067 25.480558 24.7347 23.89875 22.988771 22.02071
        21.009949 19.97093 18.91684 17.859285 16.80784 15.769179
        14.745519 13.732159 12.714842 11.669881 10.57262 9.416603
        8.230832 7.0782237 6.0416994 5.2008715 4.620338 4.3764987
        26.763163 27.013275 27.179056 27.189598 27.047066 26.756987
        26.327938 25.771084 25.09963 24.32824 23.472435 22.548035
        21.570652 20.555267 19.515879 18.465193 17.414335 16.372396
        15.345593 14.335711 13.337671 12.33694 11.309749 10.2318325
        9.098014 7.9395404 6.8212767 5.8259506 5.0311594 4.494046
        4.2311068 26.777155 26.955893 27.05323 26.999231 26.796911
        26.452494 25.975082 25.376196 24.669218 23.868822 22.990396
        22.049498 21.061375 20.040565 19.000566 17.953556 16.910118
        15.878808 14.865339 13.87105 12.890508 11.908979 10.902748
        9.848029 8.740841 7.6143374 6.534847 5.584272 4.8367724
        4.338497 4.055642 26.79119 26.908514 26.946617 26.836441
        26.581787 26.189537 25.669304 25.03296 24.294098 23.467442
        22.568304 21.612047 20.613632 19.58723 18.545921 17.501432
        16.463884 15.44137 14.439163 13.458209 12.4927635 11.527905
        10.539936 9.505444 8.4214945 7.323075 6.2780657 5.367574
        4.661347 4.191889 3.8933122 26.805264 26.86316 26.843704
        26.678726 26.37282 25.933535 25.37102 24.697527 23.926876
        23.073883 22.15381 21.181856 20.17272 19.140232 18.09708
        17.054562 16.022348 15.008089 14.016637 13.048568 12.097862
        11.149461 10.17972 9.165579 8.105001 7.034586 6.023574
        5.1519036 4.4836864 4.037007 3.7227962 26.819374 26.82254
        26.749855 26.533974 26.180252 25.696896 25.094574 24.385931
        23.585033 22.706806 21.766497 20.77918 19.759333 18.72049
        17.674986 16.633732 15.605989 14.599003 13.617242 12.660952
        11.723874 10.7908535 9.83831 8.843464 7.805003 6.7609506
        5.7818 4.946018 4.3110647 3.8807817 3.5522976 26.83352
        26.786047 26.663912 26.400557 26.002062 25.477266 24.837353
        24.095356 23.2656 22.363144 21.403244 20.40088 19.370348
        18.324923 17.276623 16.236008 15.211968 14.21138 13.23836
        12.292864 11.368439 10.449871 9.513663 8.53724 7.519812
        6.500604 5.5512185 4.748291 4.14182 3.722514 3.380667
        26.847698 26.753897 26.586355 26.27924 25.83932 25.276028
        24.601046 23.827787 22.970839 22.045406 21.066782 20.04988
        19.008839 17.956718 16.905258 15.864707 14.843622 13.848542
        12.883276 11.947529 11.0346985 10.129559 9.208702 8.249663
        7.2519426 6.255713 5.333534 4.5598726 3.9767802 3.5635965
        3.2096663 26.861908 26.72601 26.517069 26.16992 25.691961
        25.09319 24.385756 23.583439 22.70109 21.754065 20.75771
        19.726896 18.675642 17.616817 16.561926 15.520937 14.502115
        13.511702 12.553235 11.626211 10.723929 9.831197 8.924705
        7.981987 7.0025516 6.027223 5.1293464 4.38094 3.8159993
        3.4047728 3.0403714 26.876148 26.702288 26.455898 26.072418
        25.559824 24.928633 24.191435 23.362358 22.456503 21.489384
        20.476408 19.43243 18.37137 17.305943 16.247444 15.205603
        14.188426 13.201896 12.249321 11.330031 10.43728 9.555957
        8.662862 7.7354 6.772751 5.816021 4.939158 4.2115674
        3.6595182 3.2467937 2.8740215 26.890415 26.682549 26.402517
        25.986301 25.442408 24.781826 24.017548 23.16403 22.236612
        21.250963 20.222563 19.166258 18.095896 17.02406 15.961872
        14.918857 13.902793 12.919442 11.971919 11.059439 10.1752615
        9.304417 8.423821 7.5106063 6.563217 5.62258 4.763051
        4.0514507 3.507125 3.0902236 2.7117007 26.90471 26.666553
        26.356487 25.91097 25.338984 24.651943 23.863213 22.987545
        22.04051 21.037922 19.995335 18.9276 17.848515 16.770552
        15.704684 14.660261 13.644868 12.664079 11.720857 10.814344
        9.937869 9.076665 8.207784 7.307912 6.3742723 5.447022
        4.600732 3.8999426 3.3583863 2.9354653 2.5543218 26.919033
        26.654036 26.317297 25.845701 25.248652 24.537945 23.72728
        22.831684 21.866932 20.84898 19.793457 18.715229 17.628048
        16.544302 15.474842 14.428864 13.41379 12.435038 11.495457
        10.594168 9.724627 8.872346 8.014537 7.1272554 6.205909
        5.2891245 4.4515157 3.7560377 3.212639 2.7827468 2.4025416
        26.933378 26.644709 26.284403 25.789719 25.17043 24.438679
        23.608461 22.695051 21.714413 20.68263 19.615406 18.527626
        17.43301 16.343878 15.270973 14.223365 13.208341 12.231192
        11.294687 10.397977 9.534714 8.690772 7.843564 6.968309
        6.0578732 5.1483784 4.31435 3.6183882 3.0690122 2.6321216
        2.2567003 26.94775 26.638302 26.257284 25.74227 25.103367
        24.353016 23.50548 22.576252 21.581465 20.537325 19.4596
        18.3632 17.26182 16.167727 15.091573 14.042323 13.027151
        12.051249 11.117344 10.224662 9.367131 8.53108 7.6941843
        6.830604 5.929779 5.024057 4.187841 3.4853218 2.9264505
        2.4834633 2.1167595 26.962143 26.634588 26.235498 25.702719
        25.046644 24.279982 23.417225 22.474062 21.46678 20.41169
        19.324625 18.220514 17.113045 16.01443 14.935254 13.884393
        12.868929 11.893981 10.96227 10.07315 9.220901 8.392423
        7.5657296 6.7136946 5.821243 4.9152994 4.0702662 3.3548546
        2.7837455 2.3364542 1.9822451 26.976557 26.633423 26.218758
        25.670645 24.99972 24.218922 23.342947 22.387655 21.369461
        20.304777 19.209496 18.098564 16.985664 15.882974 14.80102
        13.748604 12.732738 11.758494 10.828619 9.94265 9.095306
        8.274186 7.4577518 6.6173477 5.7320457 4.821182 3.9595633
        3.2246947 2.6395562 2.1905522 1.8521903 26.990992 26.633522
        26.204533 25.642315 24.957733 24.163937 23.275808 22.309362
        21.28114 20.20764 19.104809 17.987617 16.86974 15.763315
        14.6788225 13.625 12.608794 11.635249 10.707161 9.824302
        8.981932 8.168542 7.363345 6.536371 5.660159 4.7445292
        3.8643692 3.1087203 2.5099592 2.0587864 1.7324538
      </DataArray>
      <DataArray type="Float32" Name="jacobian" format="ascii" RangeMin="0.0006589466938748956" RangeMax="0.009263142943382263">
        0.009046743 0.009021212 0.00897054 0.008872423 0.00872903 0.0085434085
        0.008319344 0.008061218 0.0077738264 0.007462214 0.0071315044 0.006786746
        0.0064327796 0.006074132 0.005714932 0.0053588524 0.005009079 0.0046682917
        0.004338663 0.004021859 0.0037190435 0.00343089 0.0031576052 0.0028990114
        0.0026547257 0.0024243018 0.002206207 0.0019895746 0.0017154003 0.0012691312
        0.00069452054 0.009051271 0.009039567 0.009002788 0.00891838 0.008788281
        0.008615317 0.008403082 0.008155792 0.007878111 0.007574985 0.0072514755
        0.0069126044 0.006563218 0.006207874 0.005850757 0.0054956153 0.005145719
        0.0048038326 0.004472198 0.004152503 0.0038458414 0.0035526599 0.0032727148
        0.0030050932 0.0027482864 0.002499996 0.0022560966 0.002008021 0.0017232049
        0.001324956 0.0007731736 0.009055807 0.009056949 0.0090331305 0.008961563
        0.008843968 0.008682966 0.00848197 0.008245032 0.0079766875 0.007681784
        0.0073653185 0.0070322775 0.0066875033 0.0063355775 0.0059807287 0.005626768
        0.005277037 0.004934375 0.0046010762 0.0042788293 0.0039686253 0.0036706307
        0.0033840737 0.0031072176 0.0028374037 0.0025707665 0.0023017202 0.0020251386
        0.0017307679 0.0013751625 0.0008469295 0.009060354 0.009072217 0.009059304
        0.0089986315 0.008891738 0.008741073 0.008549887 0.008322087 0.008062091
        0.0077746506 0.0074646925 0.0071371617 0.006796883 0.0064484426 0.0060960953
        0.005743692 0.0053946264 0.005051785 0.00471749 0.0043934 0.00408036
        0.0037781957 0.0034855253 0.0031997117 0.0029169703 0.0026322585 0.0023397058
        0.0020386237 0.0017364089 0.0014190421 0.0009289968 0.009064913 0.009085116
        0.009080749 0.009028679 0.008930305 0.00878794 0.0086047035 0.008384387
        0.008131305 0.007850125 0.0075457133 0.0072229686 0.0068866913 0.006541462
        0.006191546 0.005840817 0.005492697 0.0051501 0.0048153503 0.0044900463
        0.004174847 0.003869183 0.0035709948 0.0032767018 0.0029814816 0.0026795864
        0.0023659528 0.002044945 0.0017372625 0.0014531357 0.0010164297 0.009069486
        0.009095353 0.009096837 0.009050703 0.008958259 0.00882172 0.008644116
        0.008429156 0.008181077 0.007904487 0.0076041957 0.0072850673 0.006951878
        0.006609196 0.006261285 0.0059120264 0.0055648563 0.0052226936 0.004887841
        0.0045618117 0.0042450456 0.0039365366 0.0036335103 0.0033314445 0.0030246445
        0.0027071894 0.0023757597 0.0020399531 0.0017298019 0.001473368 0.0011023402
        0.009074074 0.009102818 0.009107314 0.009064278 0.00897497 0.008841557
        0.008667021 0.00845502 0.00820975 0.007935777 0.0076378817 0.0073208977
        0.006989582 0.0066484893 0.0063018766 0.005953622 0.005607159 0.005265395
        0.004930595 0.0046041626 0.0042862976 0.0039755404 0.0036683967 0.003359466
        0.0030424157 0.0027116947 0.00236643 0.002021173 0.0017117617 0.001476983
        0.0011777651 0.00907868 0.0091073355 0.009111811 0.009068821 0.008979625
        0.008846391 0.008672094 0.008460388 0.008215455 0.007941854 0.0076443506
        0.007327767 0.006996847 0.0066561345 0.006309874 0.0059619327 0.005615729
        0.0052741454 0.00493939 0.0046127457 0.004294163 0.0039817328 0.0036712831
        0.0033566575 0.0030311712 0.0026901425 0.0023355526 0.0019862135 0.001680745
        0.0014617515 0.0012308705 0.009083302 0.009109506 0.009111537 0.009066145
        0.008974635 0.008839209 0.008662871 0.008449301 0.008202701 0.0079276385
        0.0076288837 0.0073112603 0.006979507 0.0066381553 0.0062914384 0.005943205
        0.005596851 0.005255222 0.0049204603 0.0045937216 0.0042747115 0.003961097
        0.0036481004 0.0033289632 0.002996936 0.0026485866 0.002288853 0.001939879
        0.0016407536 0.0014323709 0.0012588735 0.009087941 0.009110278 0.009108414
        0.00905916 0.008963885 0.0088248495 0.00864511 0.008428389 0.008178923
        0.007901304 0.007600319 0.007280798 0.006947477 0.0066048806 0.0062572258
        0.005908342 0.0055615953 0.005219791 0.004885002 0.004558256 0.004239027
        0.0039245943 0.0036096517 0.0032869917 0.002950038 0.002596841 0.0022351702
        0.0018895657 0.001598046 0.0013960903 0.0012652342 0.009092594 0.009109134
        0.009101399 0.009046298 0.008945295 0.008800736 0.00861576 0.008394157
        0.008140219 0.007858584 0.0075540654 0.00723151 0.006895657 0.0065510254
        0.006201814 0.0058518266 0.005504394 0.005162272 0.0048274593 0.004500859
        0.0041817315 0.00386702 0.0035509954 0.003226172 0.0028863614 0.0025312111
        0.002171008 0.001831726 0.0015492148 0.0013518166 0.0012451414 0.0090972595
        0.009105803 0.009089968 0.009026788 0.00891786 0.008765653 0.008573416
        0.008345036 0.008084887 0.007797664 0.0074882274 0.0071614482 0.006822074
        0.006474614 0.006123249 0.0057717473 0.005423397 0.005080894 0.004746157
        0.004419967 0.004101396 0.0037871164 0.003471095 0.003145746 0.0028054384
        0.0024514021 0.0020959864 0.0017656854 0.0014934572 0.0013006588 0.0012003116
        0.009101937 0.0091005815 0.009074738 0.009001604 0.008882933 0.00872135
        0.008520235 0.008283598 0.008015906 0.007721933 0.0074065872 0.007074769
        0.0067312345 0.006380482 0.006026662 0.005673503 0.0053242357 0.0049814894
        0.0046470934 0.004321712 0.004004255 0.0036911843 0.003376276 0.0030519865
        0.0027133424 0.002363037 0.0020149876 0.0016954796 0.001434247 0.0012468764
        0.0011406136 0.009106623 0.009093472 0.009055759 0.008970873 0.008840762
        0.0086682215 0.0084567955 0.0082106255 0.007934291 0.007632646 0.007310654
        0.006973243 0.00662517 0.006270913 0.0059145843 0.0055598556 0.0052098893
        0.004867232 0.0045336178 0.004209596 0.0038939372 0.0035829498 0.0032703148
        0.0029486448 0.0026136604 0.0022693384 0.0019306866 0.0016232427 0.0013734534
        0.0011924161 0.0010742069 0.009111319 0.009084553 0.009033234 0.008934971
        0.008791925 0.008607093 0.008384192 0.0081275115 0.0078417435 0.0075318255
        0.007202771 0.0068595256 0.006506837 0.0061491495 0.0057905186 0.0054345443
        0.0050843023 0.004742244 0.0044099973 0.0040879957 0.0037748895 0.0034668823
        0.0031576362 0.0028399944 0.0025103618 0.0021737898 0.0018459682 0.0015513396
        0.001313209 0.0011391173 0.0010079674 0.009116024 0.009073886 0.009007331
        0.008894215 0.008736935 0.0085387025 0.008303416 0.0080355145 0.007739805
        0.0074212975 0.007085044 0.006735993 0.006378866 0.0060180514 0.005657531
        0.0053008115 0.004950865 0.0046100304 0.0042798184 0.003960547 0.0036507605
        0.0033465952 0.0030417524 0.002729351 0.0024064363 0.0020789257 0.0017628592
        0.0014813952 0.0012549531 0.0010880834 0.0009458255 0.009120738 0.009061599
        0.008978356 0.008849129 0.008676566 0.008464097 0.008215806 0.007936275
        0.00763041 0.0073032817 0.0069599603 0.006605377 0.006244202 0.0058807493
        0.005518901 0.005162053 0.0048130522 0.0044741104 0.0041466122 0.003830758
        0.0035249984 0.003225432 0.0029258402 0.0026196386 0.002304451 0.0019868673
        0.0016830246 0.001414728 0.0011998148 0.0010401908 0.00088976254 0.00912546
        0.0090477485 0.008946471 0.008800022 0.008611307 0.008383971 0.008122272
        0.00783092 0.0075149043 0.0071793296 0.0068292604 0.006469584 0.0061048944
        0.0057394044 0.0053768754 0.005020568 0.00467319 0.0043368107 0.004012679
        0.003700878 0.003399774 0.003105452 0.0028118026 0.0025125423 0.0022058045
        0.0018986796 0.0016072158 0.0013518692 0.0011481968 0.0009957021 0.00084007817
        0.00913019 0.009032444 0.008911939 0.0087473495 0.008541823 0.008299213
        0.008023931 0.007720789 0.007394831 0.0070511685 0.006694829 0.0063306266
        0.0059630517 0.0055961893 0.0052336585 0.0048785666 0.0045334646 0.004200269
        0.003880087 0.0035728829 0.0032769507 0.0029883792 0.0027011882 0.0024093906
        0.0021115576 0.0018151348 0.0015359477 0.0012931564 0.0011003193 0.0009547407
        0.00079646456 0.009134928 0.00901517 0.008873818 0.008689816 0.008466547
        0.008208043 0.007918843 0.007603831 0.007268069 0.0069166366 0.00655449
        0.0061863335 0.005816523 0.0054489863 0.005087173 0.004734016 0.004391893
        0.0040625534 0.0037469561 0.0034449461 0.0031547525 0.002872486 0.0025923115
        0.0023085324 0.002020091 0.0017346573 0.0014677224 0.0012372073 0.0010549153
        0.0009161714 0.0007571766 0.009139673 0.008996664 0.00883359 0.008629632
        0.008388372 0.008113986 0.0078110965 0.007484617 0.0071395854 0.006781013
        0.006413746 0.00604235 0.0056710164 0.005303495 0.004943048 0.0045924215
        0.004253809 0.00392879 0.003618173 0.0033216893 0.0030375114 0.002761784
        0.0024888269 0.0022132162 0.0019342033 0.0016595819 0.0014044507 0.0011855871
        0.0010132664 0.00088102225 0.0007227554 0.0091444235 0.008973271 0.008784367
        0.008557098 0.008295201 0.008002939 0.0076849605 0.007346141 0.0069914283
        0.0066256956 0.006253616 0.005879551 0.0055074724 0.0051408983 0.0047828592
        0.004435872 0.0041019158 0.0037823718 0.0034778798 0.0031880485 0.0029109984
        0.0026429251 0.0023783264 0.0021120564 0.0018436187 0.0015808033 0.0013381911
        0.0011314246 0.0009694348 0.0008443001 0.0006876344 0.009149177 0.008950977
        0.008737581 0.008488499 0.008207548 0.007899014 0.00756751 0.007217827
        0.0068547823 0.0064830855 0.006107215 0.0057313195 0.005359146 0.004993985
        0.004638642 0.0042954176 0.00396609 0.0036518583 0.0033532118 0.0030696515
        0.0027992579 0.0025382831 0.0022813927 0.0020236871 0.0017648718 0.0015126911
        0.0012812383 0.0010851708 0.00093227427 0.0008132776 0.0006589467 0.009153937
        0.0089525785 0.008736265 0.008484516 0.008201167 0.007890513 0.007557175
        0.0072059412 0.0068416237 0.0064689186 0.006092288 0.0057158633 0.0053433687
        0.004978073 0.004622758 0.0042797015 0.00395066 0.003636815 0.0033386382
        0.0030556223 0.0027858494 0.002525591 0.0022695623 0.002012966 0.0017556949
        0.0015057306 0.0012772521 0.0010845641 0.000934525 0.0008160245 0.00066561333
        0.00915871 0.008978229 0.00878061 0.008545286 0.008276066 0.007977266
        0.0076535656 0.0073098517 0.0069510643 0.006582053 0.0062074508 0.0058315704
        0.0054583233 0.0050911647 0.004733057 0.0043864506 0.0040532593 0.003734806
        0.0034316834 0.0031434721 0.0028682996 0.0026024252 0.0023405051 0.0020777204
        0.0018141624 0.0015583646 0.0013251681 0.001129061 0.0009760025 0.00085302984
        0.0007085356 0.009163498 0.009006577 0.0088303145 0.00861399 0.008361325
        0.008076604 0.0077645327 0.0074300673 0.007078261 0.006714111 0.0063424236
        0.005967704 0.005594067 0.005225173 0.0048641902 0.004513765 0.0041759955
        0.003852372 0.0035436319 0.0032494667 0.0029680673 0.0026956918 0.0024269363
        0.0021569477 0.0018860128 0.0016232562 0.0013842677 0.0011837563 0.0010267018
        0.00089929835 0.00076146156 0.0091683 0.009031748 0.008874245 0.008674865
        0.008437198 0.008165447 0.007864286 0.0075386893 0.00719377 0.0068346206
        0.0064661754 0.006093088 0.0057196375 0.005349659 0.0049864943 0.004632964
        0.0042913314 0.0039632404 0.0036495659 0.003350112 0.0030631446 0.0027849455
        0.0025100822 0.002233684 0.0019562114 0.0016873197 0.0014432743 0.0012389051
        0.0010782236 0.0009477426 0.0008169466 0.009173115 0.00905639 0.008917388
        0.0087349415 0.008512467 0.008254045 0.007964276 0.0076481136 0.0073106964
        0.0069571827 0.0065926057 0.0062217456 0.0058490303 0.0054784543 0.005113528
        0.004757239 0.0044120164 0.00407966 0.0037611877 0.0034565283 0.003164042
        0.002880058 0.0025991392 0.0023164032 0.002032457 0.0017574473 0.0015082916
        0.0012999009 0.0011354415 0.0010026703 0.0008800116 0.009177943 0.009079572
        0.008957916 0.008791553 0.008583698 0.008338284 0.008059806 0.007753164
        0.0074234856 0.0070759617 0.0067156935 0.0063475613 0.0059761126 0.0056054825
        0.0052393298 0.004880796 0.0045324643 0.0041962853 0.00387342 0.0035639289
        0.0032662852 0.0029768983 0.002690361 0.002401793 0.0021119087 0.0018312654
        0.0015773574 0.001365125 0.0011971319 0.0010632485 0.0009497374 0.009182782
        0.00910148 0.008996148 0.008845099 0.0086513385 0.008418626 0.008151333
        0.007854276 0.007532545 0.007191335 0.006835788 0.0064708553 0.006101184
        0.0057310252 0.00536417 0.005003899 0.0046529383 0.004313383 0.003986536
        0.003672599 0.003370181 0.0030758083 0.002784148 0.002490338 0.00219515
        0.001909441 0.0016511807 0.0014353113 0.0012641585 0.0011304432 0.0010273439
        0.009187634 0.0091220215 0.009031859 0.0088952 0.008714832 0.008494338
        0.008237946 0.007950372 0.0076366463 0.007301944 0.0069514215 0.0065900795
        0.0062226383 0.0058534453 0.005486403 0.0051249154 0.004771839 0.004429402
        0.00409905 0.0037811336 0.003474422 0.003175605 0.002879478 0.0025812215
        0.0022816018 0.0019916245 0.0017295881 0.0015104414 0.0013367585 0.0012047073
        0.001113315 0.009192497 0.009141206 0.009065028 0.008941767 0.008774002
        0.008565132 0.008319236 0.00804092 0.0077351364 0.007407021 0.007061726
        0.006704277 0.006339448 0.0059716622 0.0056049144 0.005242714 0.004888033
        0.0045432257 0.004209874 0.0038884897 0.0035780303 0.0032754026 0.0029755984
        0.0026738762 0.0023709221 0.0020776908 0.001812616 0.0015907037 0.0014153806
        0.001286679 0.0012082664 0.009197369 0.009159052 0.009095655 0.008984749
        0.008828716 0.008630777 0.008394862 0.008125455 0.007827426 0.007505857
        0.007165879 0.0068125254 0.0064506056 0.006084597 0.005718571 0.005356125
        0.005000332 0.0046536615 0.0043178303 0.003993519 0.00367991 0.003374189
        0.0030716285 0.0027676143 0.002462668 0.0021674405 0.0019002481 0.0016762648
        0.0015004805 0.0013769853 0.001312627 0.009202252 0.009175606 0.0091238
        0.009024192 0.008878975 0.008691205 0.008464665 0.008203723 0.0079131555
        0.007597983 0.0072633037 0.0069141462 0.006555337 0.0061913957 0.0058264495
        0.0054641706 0.005107719 0.004759668 0.0044218674 0.0040951804 0.0037790493
        0.003471016 0.0031667347 0.0028617887 0.0025564458 0.0022607367 0.001992541
        0.0017673817 0.0015926124 0.0014762962 0.0014266571 0.009207145 0.009190938
        0.009149572 0.009060211 0.008924878 0.008746475 0.008528649 0.008275649
        0.0079921605 0.0076831398 0.0073536434 0.0070086843 0.0066530956 0.006291423
        0.0059278384 0.005566072 0.00520936 0.00486037 0.004521083 0.0041925586
        0.0038745445 0.0035650223 0.0032601533 0.0029558144 0.0026519324 0.002357534
        0.002089656 0.001864433 0.0016924483 0.0015853093 0.0015503548 0.009212047
        0.00920513 0.00917311 0.009092979 0.008966609 0.008796758 0.008586947
        0.008341315 0.00806446 0.00776127 0.0074367574 0.0070959125 0.006743566
        0.0063842796 0.006022257 0.005661277 0.005304638 0.0049550957 0.004614763
        0.0042849113 0.0039656437 0.0036554788 0.0033512344 0.0030492125 0.0027489248
        0.0024579335 0.0021919217 0.0019679766 0.0018008203 0.0017047524 0.0016833789
        0.009216958 0.009218271 0.009194572 0.009122703 0.009004401 0.008842293
        0.008639787 0.008400921 0.008130207 0.007832469 0.007512675 0.0071757864
        0.0068266266 0.0064697647 0.0061094286 0.005749434 0.0053931344 0.005043367
        0.004702376 0.0043716677 0.0040517515 0.003741796 0.0034394513 0.0031416253
        0.0028473658 0.002562228 0.0022998902 0.0020788077 0.0019187648 0.0018353817
        0.0018249614 0.009221877 0.009230445 0.009214115 0.009149594 0.009038499
        0.008883346 0.008687436 0.008454717 0.008189625 0.007896921 0.0075815264
        0.0072483774 0.0069022835 0.006547817 0.0061892215 0.005830344 0.0054745832
        0.0051248544 0.0047835386 0.0044523957 0.004132403 0.0038235027 0.0035243863
        0.0032328083 0.0029473545 0.0026709402 0.0024143995 0.0021980258 0.0020475744
        0.0019779904 0.0019738297 0.009226803 0.009241724 0.00923187 0.009173829
        0.009069117 0.008920148 0.008730133 0.008502938 0.008242927 0.007954805
        0.007643454 0.0073137786 0.0069705755 0.0066184164 0.006261555 0.005903863
        0.0055487812 0.0051992987 0.004857937 0.0045267353 0.0042072013 0.0039001883
        0.0036056782 0.0033225915 0.003049135 0.0027848561 0.002536645 0.0023271176
        0.0021888686 0.0021334395 0.0021281673 0.009231737 0.009252155 0.0092479205
        0.0091955215 0.009096385 0.008952839 0.008768016 0.008545707 0.008290217
        0.0080062 0.007698497 0.0073719877 0.007031454 0.0066814627 0.0063262773
        0.0059697875 0.005615473 0.0052663926 0.0049252165 0.004594288 0.004275713
        0.0039714077 0.0036829347 0.0034108078 0.0031530617 0.0029050573 0.0026682739
        0.0024680689 0.0023446945 0.0023027523 0.002285665 0.009236677 0.009262175
        0.009263143 0.009215976 0.009122018 0.008983521 0.008803539 0.0085858
        0.008334551 0.008054395 0.007750139 0.007426637 0.0070886556 0.0067407577
        0.006387213 0.0060319286 0.00567842 0.0053298217 0.0049889595 0.0046585095
        0.004341249 0.004040315 0.0037591767 0.0035004597 0.0032623857 0.0030351963
        0.0028122654 0.002619894 0.0025072114 0.0024738067 0.002435832
      </DataArray>
    </PointData>
    <CellData>
    </CellData>
    <Points>
      <DataArray type="Float32" Name="Points" NumberOfComponents="3" format="ascii" RangeMin="0.9722932283094907" RangeMax="1.1126118609624458">
        0.4419211 -0.015267217 0.86592543 0.45600143 -0.015265687 0.8658387
        0.47000754 -0.015264569 0.8657753 0.48386806 -0.01526382 0.8657328
        0.4975147 -0.015263383 0.865708 0.5108833 -0.015263191 0.86569715
        0.52391493 -0.015263179 0.86569643 0.5365572 -0.01526329 0.86570275
        0.5487646 -0.015263476 0.8657133 0.5604989 -0.015263703 0.8657261
        0.57172966 -0.015263944 0.8657398 0.5824338 -0.015264185 0.8657535
        0.59259576 -0.015264415 0.8657666 0.60220665 -0.01526463 0.86577874
        0.61126417 -0.015264829 0.86579 0.61977154 -0.01526501 0.8658003
        0.62773705 -0.015265177 0.86580974 0.6351732 -0.015265331 0.86581844
        0.6420961 -0.015265474 0.8658266 0.64852464 -0.015265609 0.86583424
        0.6544799 -0.015265738 0.86584157 0.65998465 -0.015265861 0.86584854
        0.6650625 -0.015265981 0.86585534 0.6697378 -0.015266097 0.86586195
        0.674035 -0.01526621 0.86586833 0.6779784 -0.01526632 0.8658746
        0.68159187 -0.015266427 0.86588067 0.6848985 -0.015266531 0.86588657
        0.6879207 -0.015266632 0.86589223 0.69067985 -0.015266728 0.8658977
        0.69319624 -0.015266819 0.8659029 0.4419211 -0.014866746 0.8659324
        0.45600846 -0.014863999 0.8658457 0.47002158 -0.014861728 0.86578226
        0.48388904 -0.014859898 0.86573976 0.49754244 -0.014858448 0.86571497
        0.5109176 -0.014857316 0.8657042 0.5239557 -0.014856436 0.8657035
        0.5366041 -0.014855749 0.86570984 0.5488174 -0.014855208 0.86572045
        0.56055725 -0.014854776 0.8657333 0.5717932 -0.014854424 0.86574703
        0.58250225 -0.014854134 0.8657607 0.59266865 -0.014853896 0.8657738
        0.6022837 -0.014853697 0.865786 0.61134493 -0.014853535 0.8657973
        0.61985564 -0.014853405 0.8658076 0.627824 -0.014853306 0.865817
        0.6352626 -0.014853236 0.8658257 0.6421875 -0.0148532 0.8658339
        0.6486173 -0.014853204 0.8658415 0.6545731 -0.01485327 0.86584884
        0.6600768 -0.014853432 0.8658559 0.66515106 -0.014853758 0.8658626
        0.66981804 -0.01485435 0.8658692 0.67409873 -0.014855322 0.86587554
        0.6780116 -0.014856794 0.86588174 0.68157095 -0.0148590775 0.8658877
        0.6847858 -0.014864274 0.86589336 0.6876747 -0.01488431 0.86589843
        0.6903052 -0.014948015 0.86590254 0.69278663 -0.015063622 0.8659056
        0.4419211 -0.014466272 0.8659392 0.45601556 -0.01446169 0.8658524
        0.4700357 -0.014457637 0.865789 0.48391017 -0.0144540835 0.8657466
        0.49757046 -0.01445097 0.8657219 0.51095235 -0.014448233 0.8657111
        0.52399695 -0.01444581 0.8657105 0.53665173 -0.014443646 0.8657168
        0.54887104 -0.014441688 0.8657275 0.5606167 -0.014439899 0.8657404
        0.57185805 -0.014438254 0.8657541 0.5825722 -0.014436727 0.8657679
        0.5927434 -0.014435309 0.86578095 0.6023628 -0.014433983 0.8657932
        0.611428 -0.014432741 0.86580443 0.6199423 -0.014431579 0.8658148
        0.62791383 -0.014430489 0.8658242 0.6353552 -0.0144294705 0.86583304
        0.64228225 -0.014428529 0.86584115 0.64871377 -0.014427674 0.86584884
        0.6546702 -0.01442695 0.8658562 0.66017306 -0.014426438 0.8658632
        0.6652436 -0.014426276 0.86587 0.6699019 -0.014426673 0.86587656
        0.67416525 -0.014427868 0.8658829 0.6780465 -0.014430083 0.8658891
        0.6815515 -0.014433914 0.86589485 0.68467903 -0.014443298 0.8659003
        0.68744653 -0.014479031 0.86590487 0.68995005 -0.014593245 0.86590785
        0.6923659 -0.014816495 0.8659089 0.4419211 -0.0140657965 0.86594576
        0.45602265 -0.014058852 0.86585903 0.47004992 -0.014052476 0.8657957
        0.48393145 -0.014046638 0.86575323 0.49759874 -0.014041284 0.8657286
        0.51098746 -0.014036357 0.8657178 0.5240388 -0.01403179 0.86571735
        0.53669995 -0.014027528 0.8657237 0.5489255 -0.014023527 0.8657344
        0.5606771 -0.014019744 0.8657474 0.5719242 -0.0140161505 0.86576116
        0.5826437 -0.014012729 0.8657749 0.59281987 -0.014009453 0.86578804
        0.60244393 -0.014006316 0.8658003 0.61151344 -0.014003304 0.86581165
        0.62003154 -0.014000406 0.86582196 0.6280066 -0.013997615 0.8658315
        0.6354509 -0.013994928 0.86584026 0.64238054 -0.013992351 0.8658484
        0.6488139 -0.013989907 0.8658562 0.65477127 -0.013987657 0.8658635
        0.66027343 -0.013985733 0.86587054 0.6653403 -0.013984359 0.86587733
        0.66998965 -0.01398386 0.86588395 0.67423505 -0.013984603 0.86589026
        0.678084 -0.013986896 0.8658964 0.6815351 -0.013991559 0.86590207
        0.6845803 -0.014003997 0.8659073 0.68723774 -0.014051107 0.86591154
        0.6896179 -0.014202102 0.8659137 0.6919394 -0.0145181455 0.8659131
        0.4419211 -0.013665314 0.8659522 0.45602977 -0.013655584 0.86586547
        0.4700642 -0.013646442 0.86580205 0.48395285 -0.013637863 0.86575973
        0.4976272 -0.013629796 0.8657351 0.51102287 -0.013622183 0.86572444
        0.524081 -0.013614967 0.865724 0.5367488 -0.013608091 0.86573046
        0.5489808 -0.013601503 0.8657412 0.56073856 -0.013595174 0.8657542
        0.5719915 -0.013589066 0.8657681 0.5827165 -0.013583163 0.8657819
        0.59289795 -0.013577436 0.865795 0.6025269 -0.013571876 0.86580735
        0.61160094 -0.013566467 0.8658187 0.6201232 -0.013561194 0.86582905
        0.62810194 -0.01355605 0.8658386 0.63554966 -0.013551027 0.8658474
        0.6424821 -0.013546133 0.86585563 0.6489177 -0.013541403 0.86586344
        0.6548763 -0.013536925 0.8658708 0.6603779 -0.0135328835 0.86587787
        0.6654413 -0.013529598 0.8658847 0.6700815 -0.0135275265 0.86589134
        0.6743086 -0.013527159 0.86589766 0.67812496 -0.013528863 0.86590374
        0.68152344 -0.013533585 0.86590934 0.68449193 -0.013547749 0.8659144
        0.68705034 -0.01360183 0.86591834 0.68931293 -0.013775514 0.86591995
        0.69151586 -0.014162174 0.86591816 0.4419211 -0.013264833 0.86595845
        0.45603693 -0.013252001 0.86587167 0.47007856 -0.013239764 0.86580837
        0.4839744 -0.013228099 0.86576605 0.49765587 -0.013216959 0.8657415
        0.5110586 -0.013206291 0.8657309 0.52412367 -0.0131960325 0.86573046
        0.53679824 -0.013186133 0.865737 0.54903674 -0.013176544 0.8657478
        0.5608008 -0.0131672295 0.8657609 0.5720598 -0.013158157 0.8657748
        0.5827906 -0.0131493015 0.86578864 0.59297746 -0.013140644 0.8658019
        0.60261154 -0.013132163 0.86581427 0.61169034 -0.013123843 0.8658256
        0.6202171 -0.013115667 0.865836 0.6281999 -0.013107621 0.8658456
        0.6356512 -0.013099699 0.8658545 0.64258677 -0.013091912 0.8658628
        0.64902484 -0.013084302 0.86587054 0.654985 -0.013076989 0.865878
        0.6604864 -0.013070217 0.86588514 0.66554636 -0.013064411 0.86589205
        0.6701775 -0.013060171 0.86589867 0.67438626 -0.013058113 0.86590505
        0.6781704 -0.013058625 0.865911 0.6815183 -0.013062652 0.86591655
        0.6844164 -0.013077106 0.8659215 0.6868869 -0.01313376 0.86592525
        0.68904036 -0.013316194 0.8659266 0.6911072 -0.013744682 0.86592406
        0.4419211 -0.012864347 0.8659645 0.4560441 -0.012848227 0.86587775
        0.47009298 -0.012832697 0.86581445 0.48399606 -0.012817738 0.8657722
        0.49768475 -0.012803306 0.8657477 0.5110946 -0.012789345 0.86573714
        0.52416664 -0.012775801 0.8657368 0.5368481 -0.012762621 0.8657434
        0.5490933 -0.012749759 0.8657543 0.5608638 -0.012737176 0.8657674
        0.57212895 -0.012724843 0.86578137 0.5828657 -0.012712731 0.8657953
        0.5930582 -0.012700816 0.86580855 0.6026977 -0.012689078 0.865821
        0.6117814 -0.012677496 0.8658324 0.6203128 -0.012666051 0.8658429
        0.6282999 -0.012654727 0.8658525 0.63575506 -0.012643514 0.8658614
        0.64269406 -0.012632423 0.8658697 0.649135 -0.012621514 0.86587757
        0.6550969 -0.012610932 0.865885 0.6605984 -0.012600993 0.86589223
        0.6656552 -0.01259223 0.86589915 0.67027754 -0.012585399 0.8659058
        0.6744682 -0.01258124 0.86591214 0.67822105 -0.012580115 0.86591816
        0.6815214 -0.012582797 0.8659237 0.684356 -0.012596117 0.86592853
        0.68674976 -0.0126511585 0.86593217 0.6888053 -0.012829341 0.86593354
        0.6907287 -0.013266783 0.86593074 0.4419211 -0.012463859 0.8659704
        0.45605132 -0.012444386 0.86588365 0.47010747 -0.01242549 0.86582035
        0.48401785 -0.012407158 0.86577815 0.49771377 -0.012389346 0.86575365
        0.51113087 -0.012372 0.86574316 0.52421 -0.012355067 0.8657429
        0.5368984 -0.012338496 0.8657496 0.5491503 -0.0123222405 0.8657605
        0.56092733 -0.012306265 0.8657737 0.5721988 -0.012290534 0.86578774
        0.58294165 -0.012275019 0.8658017 0.5931399 -0.012259696 0.865815
        0.60278475 -0.012244538 0.8658275 0.61187375 -0.012229523 0.86583894
        0.6204099 -0.012214629 0.8658495 0.6284015 -0.012199834 0.86585915
        0.6358608 -0.012185126 0.8658681 0.6428035 -0.012170522 0.86587644
        0.64924747 -0.012156089 0.86588436 0.65521145 -0.012142013 0.8658919
        0.6607133 -0.0121286735 0.8658991 0.66576725 -0.012116732 0.8659061
        0.6703811 -0.012107099 0.8659128 0.6745544 -0.012100637 0.8659192
        0.6782775 -0.012097628 0.86592513 0.681534 -0.012098488 0.8659306
        0.6843124 -0.012109413 0.8659354 0.6866408 -0.012159151 0.865939
        0.6886119 -0.012322009 0.8659405 0.690396 -0.012735041 0.86593807
        0.4419211 -0.012063367 0.865976 0.45605856 -0.012040619 0.86588925
        0.470122 -0.012018434 0.865826 0.4840397 -0.011996803 0.8657839
        0.49774295 -0.011975682 0.86575943 0.5111672 -0.011955023 0.86574906
        0.5242534 -0.011934771 0.8657488 0.53694886 -0.011914878 0.86575556
        0.5492075 -0.011895296 0.8657666 0.5609912 -0.011875988 0.8657798
        0.5722691 -0.011856921 0.8657939 0.583018 -0.011838064 0.8658079
        0.59322214 -0.011819387 0.86582124 0.60287255 -0.011800864 0.86583376
        0.6119668 -0.011782468 0.86584526 0.6205079 -0.011764172 0.8658558
        0.6285041 -0.011745955 0.8658655 0.6359677 -0.011727801 0.8658745
        0.6429142 -0.011709726 0.86588293 0.6493614 -0.011691815 0.8658909
        0.65532774 -0.011674289 0.86589843 0.6608302 -0.011657599 0.86590576
        0.66588163 -0.011642538 0.8659128 0.6704875 -0.01163018 0.8659195
        0.67464435 -0.011621496 0.86592585 0.6783397 -0.011616631 0.86593187
        0.68155664 -0.011615471 0.8659373 0.6842867 -0.011623073 0.865942
        0.686561 -0.011664629 0.86594564 0.68846303 -0.011803796 0.8659474
        0.69012356 -0.012164167 0.8659457 0.4419211 -0.011662873 0.8659815
        0.45606583 -0.011636993 0.86589473 0.47013658 -0.011611665 0.8658315
        0.48406163 -0.011586882 0.86578935 0.4977722 -0.011562604 0.86576504
        0.5112037 -0.011538781 0.86575466 0.52429706 -0.011515363 0.8657545
        0.53699946 -0.011492298 0.8657613 0.54926497 -0.011469543 0.86577237
        0.5610553 -0.011447058 0.86578566 0.57233953 -0.011424811 0.8657998
        0.5830946 -0.011402764 0.8658138 0.59330463 -0.011380892 0.86582726
        0.6029607 -0.011359163 0.8658397 0.61206025 -0.011337545 0.86585134
        0.62060636 -0.011316011 0.8658619 0.6286073 -0.011294533 0.86587167
        0.6360752 -0.011273094 0.86588067 0.64302564 -0.011251717 0.86588913
        0.64947623 -0.011230499 0.8658971 0.6554451 -0.011209695 0.86590475
        0.6609484 -0.01118984 0.8659121 0.6659976 -0.011171852 0.8659191
        0.6705961 -0.011156977 0.8659259 0.6747376 -0.011146279 0.8659322
        0.6784075 -0.011139714 0.8659382 0.68158937 -0.011136477 0.8659436
        0.6842785 -0.011140089 0.8659483 0.6865093 -0.01117137 0.8659521
        0.68835783 -0.011281308 0.86595416 0.6899183 -0.011567064 0.86595345
        0.4419211 -0.011262377 0.86598676 0.45607314 -0.011233565 0.86590004
        0.47015122 -0.011205302 0.8658368 0.4840836 -0.011177577 0.8657947
        0.49780145 -0.011150355 0.8657704 0.51124024 -0.0111235855 0.86576
        0.52434075 -0.011097221 0.86575997 0.5370501 -0.01107121 0.8657668
        0.5493225 -0.011045508 0.86577797 0.56111944 -0.011020078 0.86579126
        0.5724101 -0.010994883 0.8658054 0.5831713 -0.0109698875 0.8658195
        0.59338725 -0.010945061 0.865833 0.6030489 -0.01092037 0.86584556
        0.6121538 -0.010895782 0.8658571 0.620705 -0.010871264 0.86586773
        0.6287106 -0.010846785 0.8658775 0.6361829 -0.01082233 0.86588657
        0.6431374 -0.01079792 0.8658951 0.6495915 -0.010773669 0.8659031
        0.65556294 -0.010749873 0.8659107 0.6610673 -0.010727143 0.8659181
        0.6661146 -0.010706534 0.8659252 0.67070633 -0.010689456 0.8659319
        0.6748336 -0.010677055 0.8659383 0.6784805 -0.010669043 0.86594427
        0.68163174 -0.010663795 0.86594963 0.6842869 -0.010663012 0.86595434
        0.686484 -0.010682694 0.8659582 0.6882941 -0.010760442 0.8659607
        0.68978345 -0.010957975 0.86596113 0.4419211 -0.010861879 0.8659919
        0.45608044 -0.010830451 0.86590517 0.47016588 -0.010799574 0.86584187
        0.4841056 -0.01076924 0.8657998 0.49783075 -0.010739412 0.8657755
        0.5112768 -0.010710045 0.8657653 0.5243844 -0.010681087 0.8657652
        0.53710073 -0.010652492 0.8657721 0.5493799 -0.010624215 0.8657833
        0.5611834 -0.010596218 0.8657966 0.57248044 -0.01056846 0.8658108
        0.5832478 -0.010540911 0.86582494 0.59346956 -0.010513534 0.8658384
        0.60313684 -0.010486294 0.865851 0.612247 -0.010459156 0.8658626
        0.6208031 -0.010432083 0.8658732 0.62881345 -0.010405044 0.86588305
        0.63629013 -0.010378021 0.8658921 0.64324856 -0.01035104 0.86590064
        0.6497061 -0.01032423 0.8659087 0.65568024 -0.010297924 0.8659164
        0.66118574 -0.010272817 0.86592376 0.66623145 -0.010250089 0.86593086
        0.67081696 -0.010231315 0.86593765 0.6749314 -0.010217702 0.865944
        0.6785578 -0.010208679 0.8659499 0.6816827 -0.010201716 0.8659553
        0.6843104 -0.010196551 0.86596 0.6864828 -0.0102043 0.86596394
        0.68826866 -0.010249681 0.86596686 0.68971825 -0.010357223 0.8659684
        0.4419211 -0.010461378 0.86599684 0.45608774 -0.01042773 0.86591005
        0.47018054 -0.010394644 0.8658468 0.48412758 -0.010362118 0.86580473
        0.49786004 -0.010330111 0.8657805 0.51131326 -0.01029858 0.8657702
        0.52442795 -0.010267475 0.8657702 0.5371512 -0.01023675 0.86577713
        0.5494371 -0.010206362 0.86578834 0.5612471 -0.01017627 0.86580175
        0.5725504 -0.010146437 0.86581594 0.5833238 -0.010116827 0.8658301
        0.59355134 -0.010087402 0.8658436 0.60322404 -0.010058127 0.8658562
        0.6123394 -0.010028962 0.8658678 0.6209004 -0.009999871 0.86587846
        0.6289153 -0.009970819 0.8658883 0.6363962 -0.0099417865 0.86589736
        0.6433586 -0.009912806 0.8659059 0.6498195 -0.0098840175 0.8659139
        0.65579623 -0.009855797 0.8659216 0.6613029 -0.009828909 0.86592907
        0.6663473 -0.009804669 0.86593616 0.6709272 -0.009784794 0.86594296
        0.6750301 -0.009770539 0.86594933 0.6786386 -0.009761018 0.86595523
        0.68174124 -0.009752757 0.86596054 0.6843474 -0.009743513 0.8659653
        0.686503 -0.0097397715 0.86596936 0.6882769 -0.009754686 0.8659726
        0.6897155 -0.009779815 0.8659751 0.4419211 -0.010060875 0.8660016
        0.45609507 -0.010025488 0.86591476 0.4701952 -0.009990689 0.86585146
        0.48414955 -0.009956473 0.86580944 0.49788925 -0.0099228015 0.86578524
        0.5113496 -0.009889631 0.86577505 0.5244713 -0.009856914 0.86577505
        0.5372014 -0.009824606 0.865782 0.5494939 -0.009792659 0.86579317
        0.56131035 -0.009761038 0.8658066 0.5726198 -0.0097297 0.8658208
        0.58339906 -0.009698612 0.865835 0.5936322 -0.009667731 0.8658485
        0.6033102 -0.009637021 0.86586106 0.61243063 -0.009606444 0.86587274
        0.6209964 -0.009575956 0.86588335 0.62901574 -0.009545521 0.8658932
        0.6365008 -0.009515123 0.8659023 0.64346683 -0.009484794 0.8659108
        0.6499311 -0.009454692 0.8659189 0.65591025 -0.009425225 0.86592656
        0.66141814 -0.009397234 0.865934 0.66646147 -0.009372147 0.8659411
        0.6710364 -0.009351821 0.8659479 0.6751291 -0.0093375305 0.8659543
        0.678722 -0.0093280645 0.8659601 0.6818063 -0.009319009 0.8659655
        0.6843961 -0.009306223 0.8659702 0.68654174 -0.009292054 0.8659743
        0.68831414 -0.009279991 0.8659779 0.689765 -0.009236584 0.86598116
        0.4419211 -0.00966037 0.86600614 0.4561024 -0.009623806 0.8659193
        0.47020984 -0.009587866 0.865856 0.48417148 -0.009552541 0.865814
        0.4979184 -0.009517794 0.8657897 0.5113858 -0.009483583 0.8657796
        0.52451444 -0.00944986 0.8657796 0.53725123 -0.00941658 0.86578655
        0.5495503 -0.009383698 0.86579776 0.561373 -0.009351174 0.8658112
        0.57268846 -0.009318968 0.8658254 0.58347344 -0.009287041 0.8658396
        0.5937121 -0.009255353 0.86585313 0.6033953 -0.009223866 0.8658657
        0.6125205 -0.009192534 0.86587733 0.6210908 -0.009161317 0.86588794
        0.6291144 -0.009130174 0.8658978 0.63660336 -0.009099089 0.8659069
        0.643573 -0.009068098 0.8659154 0.6500403 -0.009037373 0.86592346
        0.65602195 -0.009007354 0.86593115 0.66153103 -0.008978949 0.8659386
        0.66657346 -0.008953694 0.8659457 0.6711441 -0.008933562 0.86595243
        0.67522794 -0.008919834 0.8659588 0.6788076 -0.008910969 0.86596465
        0.681877 -0.008901645 0.86596996 0.6844551 -0.008885989 0.8659747
        0.6865965 -0.008862828 0.8659789 0.6883758 -0.008828177 0.8659827
        0.6898553 -0.008732639 0.8659866 0.4419211 -0.009259862 0.86601055
        0.45610973 -0.009222764 0.8659236 0.47022447 -0.009186329 0.8658603
        0.48419335 -0.00915055 0.8658182 0.4979474 -0.009115387 0.865794
        0.5114218 -0.009080798 0.8657838 0.52455723 -0.009046736 0.8657839
        0.5373007 -0.009013155 0.8657909 0.5496061 -0.008980009 0.8658021
        0.5614349 -0.008947258 0.8658155 0.5727563 -0.00891486 0.86582977
        0.5835469 -0.008882774 0.8658439 0.5937907 -0.00885096 0.8658574
        0.6034789 -0.008819375 0.86587 0.6126088 -0.008787974 0.8658816
        0.62118345 -0.008756711 0.86589223 0.62921107 -0.008725547 0.86590207
        0.6367038 -0.008694463 0.8659111 0.6436768 -0.008663498 0.86591965
        0.6501471 -0.008632835 0.8659277 0.65613097 -0.008602947 0.86593544
        0.6616413 -0.008574801 0.86594284 0.66668296 -0.008550026 0.8659499
        0.67125 -0.0085307 0.86595666 0.67532617 -0.008518095 0.865963
        0.67889476 -0.008510337 0.8659688 0.6819525 -0.008501262 0.8659741
        0.68452287 -0.008483462 0.8659789 0.68666494 -0.008452926 0.8659832
        0.6884576 -0.0084004225 0.8659871 0.68997604 -0.008269062 0.86599135
        0.4419211 -0.008859352 0.8660147 0.45611706 -0.008822435 0.8659277
        0.4702391 -0.008786223 0.8658644 0.48421517 -0.008750704 0.8658223
        0.49797627 -0.00871584 0.8657981 0.5114576 -0.008681588 0.8657879
        0.52459973 -0.008647898 0.865788 0.53734964 -0.0086147245 0.865795
        0.54966134 -0.008582021 0.8658062 0.5614961 -0.008549744 0.86581963
        0.57282317 -0.008517853 0.8658339 0.5836191 -0.008486303 0.865848
        0.5938681 -0.00845505 0.8658615 0.603561 -0.008424052 0.86587405
        0.61269534 -0.008393262 0.8658856 0.62127423 -0.0083626285 0.8658963
        0.62930566 -0.008332112 0.86590606 0.63680184 -0.008301691 0.8659151
        0.643778 -0.008271412 0.86592364 0.6502511 -0.008241465 0.8659317
        0.6562372 -0.00821235 0.8659394 0.66174865 -0.008185088 0.86594677
        0.6667898 -0.008161394 0.86595386 0.67135376 -0.008143426 0.86596054
        0.6754236 -0.00813244 0.86596686 0.67898315 -0.008126244 0.86597264
        0.682032 -0.008117895 0.86597794 0.6845981 -0.00809867 0.8659827
        0.6867448 -0.008062391 0.86598706 0.68855584 -0.00799668 0.8659911
        0.69011843 -0.0078442255 0.86599565 0.4419211 -0.008458841 0.8660187
        0.45612437 -0.008422886 0.86593163 0.47025368 -0.008387674 0.8658683
        0.4842369 -0.008353184 0.8658262 0.49800497 -0.008319379 0.865802
        0.51149315 -0.0082862135 0.8657918 0.5246419 -0.008253638 0.86579186
        0.5373981 -0.008221603 0.86579883 0.5497159 -0.008190062 0.86581004
        0.56155646 -0.008158969 0.86582345 0.57288903 -0.008128283 0.8658377
        0.58369017 -0.008097955 0.86585176 0.593944 -0.008067943 0.8658653
        0.6036415 -0.008038198 0.8658778 0.6127801 -0.00800867 0.8658894
        0.62136286 -0.007979311 0.8659 0.6293979 -0.007950076 0.86590976
        0.63689744 -0.007920943 0.8659188 0.6438767 -0.00789196 0.8659273
        0.65035224 -0.007863329 0.8659353 0.6563404 -0.007835572 0.86594296
        0.661853 -0.0078097573 0.86595035 0.66689396 -0.0077876723 0.86595744
        0.6714554 -0.0077715483 0.8659641 0.67552 -0.007762609 0.86597043
        0.67907244 -0.00775836 0.8659762 0.68211484 -0.007751159 0.86598146
        0.68467957 -0.0077311844 0.86598617 0.68683416 -0.00769071 0.8659906
        0.68866706 -0.007616087 0.86599475 0.6902756 -0.0074550863 0.86599934
        0.4419211 -0.008058328 0.8660225 0.4561317 -0.008024189 0.86593544
        0.47026822 -0.007990809 0.865872 0.48425853 -0.007958167 0.8658298
        0.49803355 -0.007926221 0.8658056 0.5115284 -0.007894923 0.86579543
        0.5246836 -0.007864224 0.8657955 0.537446 -0.007834071 0.86580247
        0.5497697 -0.00780442 0.8658137 0.56161594 -0.0077752206 0.8658271
        0.57295376 -0.0077464287 0.86584127 0.5837599 -0.0077179964 0.8658554
        0.5940184 -0.0076898783 0.8658688 0.6037203 -0.007662023 0.8658813
        0.61286294 -0.007634381 0.8658929 0.6214494 -0.0076069003 0.86590344
        0.6294879 -0.007579535 0.86591315 0.63699055 -0.007552263 0.8659222
        0.6439725 -0.0075251344 0.8659307 0.6504506 -0.007498359 0.86593866
        0.6564406 -0.007472482 0.8659463 0.6619544 -0.0074486113 0.8659536
        0.6669952 -0.0074286 0.8659607 0.67155474 -0.0074147345 0.8659674
        0.67561525 -0.007408203 0.86597365 0.67916214 -0.007406226 0.86597943
        0.6822004 -0.007400534 0.8659846 0.6847663 -0.007380417 0.86598945
        0.6869314 -0.007337162 0.86599386 0.68878853 -0.00725745 0.8659981
        0.69044214 -0.007098267 0.8660027 0.4419211 -0.007657813 0.86602616
        0.45613903 -0.0076263985 0.86593896 0.47028276 -0.0075957333 0.8658755
        0.48428008 -0.0075657913 0.86583334 0.49806187 -0.0075365263 0.865809
        0.5115633 -0.0075078923 0.86579883 0.52472484 -0.007479838 0.8657989
        0.53749335 -0.0074523115 0.8658059 0.54982275 -0.007425263 0.86581707
        0.5616744 -0.0073986463 0.8658305 0.5730174 -0.007372414 0.8658446
        0.58382833 -0.007346518 0.8658587 0.5940913 -0.00732091 0.8658721
        0.6037973 -0.0072955405 0.8658846 0.6129438 -0.0072703566 0.8658961
        0.6215338 -0.007245307 0.86590666 0.6295755 -0.0072203428 0.8659164
        0.637081 -0.0071954457 0.8659254 0.6440656 -0.007170666 0.8659338
        0.65054595 -0.0071462234 0.86594176 0.65653783 -0.00712268 0.8659494
        0.6620528 -0.0071011824 0.8659567 0.66709375 -0.007083635 0.86596376
        0.6716518 -0.0070723738 0.86597043 0.6757092 -0.0070685428 0.8659767
        0.6792521 -0.0070690988 0.8659824 0.6822881 -0.0070652193 0.86598766
        0.68485725 -0.007045488 0.8659924 0.68703485 -0.0070006996 0.86599684
        0.6889178 -0.0069191908 0.8660011 0.6906143 -0.006770153 0.86600566
        0.4419211 -0.007257297 0.8660296 0.45614636 -0.00722963 0.8659423
        0.47029722 -0.0072026574 0.8658788 0.48430148 -0.0071763466 0.8658366
        0.49809003 -0.0071506556 0.8658123 0.5115979 -0.007125536 0.8658021
        0.5247656 -0.007100936 0.8658021 0.53754 -0.007076807 0.8658091
        0.54987496 -0.007053099 0.8658202 0.5617319 -0.007029766 0.8658336
        0.57307976 -0.007006761 0.86584777 0.5838953 -0.006984038 0.8658618
        0.5941626 -0.0069615487 0.8658752 0.60387254 -0.006939243 0.8658876
        0.61302257 -0.0069170697 0.8658991 0.62161595 -0.006894976 0.8659096
        0.6296606 -0.006872917 0.8659193 0.6371689 -0.006850872 0.86592823
        0.64415586 -0.0068288986 0.86593664 0.6506383 -0.0068072216 0.8659446
        0.6566319 -0.006786423 0.86595225 0.66214794 -0.0067676785 0.8659595
        0.6671892 -0.0067529404 0.86596656 0.6717463 -0.0067445817 0.8659732
        0.67580146 -0.0067437002 0.8659794 0.6793418 -0.006747008 0.86598516
        0.6823772 -0.006745199 0.86599034 0.6849514 -0.0067263246 0.8659951
        0.68714315 -0.0066811023 0.8659996 0.6890526 -0.0066005727 0.8660039
        0.6907885 -0.006468455 0.86600834 0.4419211 -0.0068567786 0.8660329
        0.45615366 -0.0068338756 0.8659455 0.47031164 -0.006811552 0.8658819
        0.4843228 -0.0067897756 0.86583966 0.49811792 -0.0067685056 0.86581534
        0.51163214 -0.006747698 0.86580515 0.5248059 -0.006727305 0.86580515
        0.53758603 -0.006707281 0.86581206 0.5499264 -0.0066875797 0.8658232
        0.5617884 -0.006668158 0.8658365 0.573141 -0.006648972 0.8658506
        0.58396095 -0.006629979 0.86586463 0.59423226 -0.006611132 0.865878
        0.6039459 -0.0065923845 0.86589044 0.61309946 -0.0065736873 0.8659019
        0.6216959 -0.006554991 0.8659123 0.6297434 -0.0065362514 0.865922
        0.6372542 -0.006517453 0.8659309 0.6442434 -0.006498655 0.8659393
        0.6507278 -0.0064800926 0.86594725 0.656723 -0.0064623626 0.8659548
        0.66224027 -0.0064466703 0.8659621 0.6672819 -0.006435008 0.86596906
        0.6718386 -0.0064297747 0.86597574 0.6758924 -0.006432021 0.8659819
        0.6794313 -0.0064382316 0.8659876 0.68246764 -0.006438682 0.8659928
        0.6850484 -0.0064210347 0.8659976 0.6872555 -0.006376281 0.8660021
        0.68919176 -0.0062990156 0.8660064 0.69096345 -0.0061889156 0.8660107
        0.4419211 -0.0064562596 0.866036 0.45616096 -0.0064395717 0.8659485
        0.47032595 -0.0064232396 0.8658848 0.4843439 -0.0064072385 0.8658425
        0.49814552 -0.0063915406 0.8658182 0.5116659 -0.0063761114 0.8658079
        0.5248455 -0.006360913 0.8658079 0.5376311 -0.0063459105 0.86581475
        0.54997665 -0.006331066 0.8658259 0.56184345 -0.0063163447 0.86583924
        0.5732005 -0.0063017104 0.8658533 0.5840246 -0.006287127 0.86586726
        0.59429973 -0.006272555 0.8658806 0.6040169 -0.006257954 0.865893
        0.61317354 -0.0062432806 0.8659044 0.6217729 -0.00622849 0.8659148
        0.62982297 -0.0062135444 0.8659245 0.6373361 -0.0061984337 0.86593336
        0.6443274 -0.0061832224 0.8659417 0.6508135 -0.0061681573 0.8659496
        0.6568102 -0.006153849 0.86595714 0.66232854 -0.006141528 0.8659644
        0.6673708 -0.0061332206 0.8659714 0.67192733 -0.006131348 0.865978
        0.67598045 -0.0061369087 0.8659842 0.67951906 -0.0061461823 0.86598986
        0.6825575 -0.0061490885 0.86599505 0.68514585 -0.006133036 0.8659998
        0.6873691 -0.006089535 0.86600435 0.6893317 -0.006017224 0.86600864
        0.6911343 -0.0059337704 0.8660129 0.4419211 -0.006055739 0.86603886
        0.45616826 -0.0060461815 0.8659513 0.47034025 -0.006036674 0.8658875
        0.4843649 -0.00602721 0.8658452 0.49817288 -0.006017778 0.8658208
        0.5116993 -0.006008361 0.8658105 0.52488464 -0.005998939 0.86581045
        0.5376757 -0.0059894887 0.86581737 0.55002624 -0.0059799873 0.86582845
        0.5618977 -0.005970413 0.86584175 0.5732592 -0.0059607397 0.86585575
        0.5840872 -0.0059509426 0.86586976 0.59436595 -0.005940992 0.865883
        0.60408646 -0.0059308563 0.86589533 0.6132462 -0.0059205005 0.8659068
        0.6218482 -0.0059098867 0.86591715 0.6299008 -0.0058989865 0.86592674
        0.63741606 -0.005887794 0.8659356 0.64440936 -0.0058763837 0.86594397
        0.6508972 -0.0058650123 0.86595184 0.6568953 -0.005854304 0.86595935
        0.6624147 -0.0058455137 0.8659666 0.66745776 -0.0058406936 0.86597353
        0.6720146 -0.005842281 0.86598015 0.67606777 -0.0058512217 0.8659863
        0.67960703 -0.005863602 0.86599195 0.6826488 -0.0058690323 0.8659972
        0.68524593 -0.005854777 0.86600196 0.6874861 -0.005813114 0.8660065
        0.689475 -0.00574731 0.8660108 0.6913051 -0.005693073 0.8660148
        0.4419211 -0.005655216 0.86604154 0.45617557 -0.005652137 0.8659539
        0.47035462 -0.0056488663 0.8658901 0.48438606 -0.005645407 0.8658477
        0.49820054 -0.0056417612 0.8658233 0.5117331 -0.0056379237 0.86581296
        0.5249243 -0.005633885 0.86581296 0.5377208 -0.0056296336 0.8658198
        0.5500765 -0.005625156 0.8658309 0.5619528 -0.005620439 0.8658442
        0.5733187 -0.005615467 0.86585814 0.5841509 -0.0056102215 0.8658721
        0.5944335 -0.00560468 0.8658854 0.60415745 -0.005598819 0.86589766
        0.6133203 -0.005592609 0.865909 0.62192523 -0.0055860197 0.8659194
        0.6299804 -0.0055790255 0.86592895 0.637498 -0.00557163 0.8659378
        0.64449334 -0.005563912 0.8659461 0.65098304 -0.0055561354 0.865954
        0.6569827 -0.0055489396 0.8659615 0.66250354 -0.0055435956 0.8659687
        0.6675477 -0.005542178 0.8659756 0.67210543 -0.0055471323 0.86598223
        0.67615956 -0.005559344 0.8659884 0.6797007 -0.0055747065 0.86599404
        0.6827473 -0.005582549 0.8659992 0.68535507 -0.0055701206 0.86600405
        0.68761414 -0.0055308808 0.8660086 0.6896304 -0.005473653 0.8660129
        0.69148785 -0.0054487274 0.86601675 0.4419211 -0.005254693 0.86604404
        0.45618293 -0.0052568945 0.86595637 0.47036913 -0.0052587623 0.8658925
        0.48440742 -0.0052603027 0.8658501 0.49822858 -0.005261522 0.86582565
        0.5117675 -0.005262419 0.86581534 0.5249647 -0.0052629886 0.8658153
        0.53776693 -0.005263225 0.86582214 0.55012804 -0.0052631195 0.8658332
        0.5620094 -0.005262663 0.86584646 0.57338 -0.005261843 0.86586046
        0.58421654 -0.005260646 0.86587435 0.59450316 -0.0052590542 0.86588764
        0.6042309 -0.005257046 0.8658999 0.6133972 -0.005254597 0.8659112
        0.6220052 -0.005251679 0.86592156 0.6300632 -0.005248272 0.86593115
        0.6375834 -0.00524438 0.8659399 0.644581 -0.005240088 0.86594826
        0.6510728 -0.005235665 0.86595607 0.6570744 -0.0052317567 0.8659636
        0.662597 -0.0052296496 0.8659708 0.6676428 -0.005231433 0.8659777
        0.67220217 -0.0052395486 0.86598426 0.6762583 -0.0052548153 0.86599046
        0.6798029 -0.005272932 0.8659961 0.6828562 -0.0052829827 0.8660013
        0.68547696 -0.0052723703 0.86600614 0.6877575 -0.0052362843 0.86601067
        0.68980265 -0.005189842 0.86601496 0.691689 -0.0051930863 0.8660187
        0.4419211 -0.0048541687 0.86604637 0.45619032 -0.004860765 0.86595863
        0.47038376 -0.0048669474 0.86589473 0.48442903 -0.004872722 0.8658523
        0.49825692 -0.004878094 0.8658279 0.5118023 -0.0048830644 0.86581755
        0.52500576 -0.004887629 0.86581755 0.53781384 -0.0048917825 0.86582434
        0.5501805 -0.0048955195 0.8658354 0.5620671 -0.004898832 0.86584866
        0.57344264 -0.00490171 0.86586267 0.5842838 -0.00490414 0.86587656
        0.5945747 -0.0049061077 0.8658898 0.60430634 -0.004907592 0.86590207
        0.6134762 -0.0049085706 0.86591333 0.6220876 -0.004909017 0.8659237
        0.63014865 -0.0049089137 0.8659332 0.63767165 -0.0049082655 0.86594206
        0.6446718 -0.00490716 0.8659503 0.6511659 -0.0049058693 0.86595815
        0.6571697 -0.0049050446 0.8659656 0.6626944 -0.0049059773 0.8659728
        0.6677423 -0.0049107643 0.8659797 0.6723042 -0.004921836 0.8659863
        0.67636365 -0.004939938 0.8659925 0.6799133 -0.0049605775 0.86599815
        0.6829755 -0.004972643 0.86600333 0.6856116 -0.004963891 0.8660082
        0.687916 -0.004931755 0.86601275 0.6899915 -0.0048978347 0.86601704
        0.6919075 -0.0049284995 0.86602074 0.4419211 -0.004453643 0.8660486
        0.45619777 -0.00446372 0.8659607 0.47039846 -0.0044733565 0.8658968
        0.48445088 -0.0044825524 0.8658544 0.4982856 -0.004491313 0.86582994
        0.51183766 -0.0044996366 0.86581963 0.5250474 -0.004507519 0.8658196
        0.5378616 -0.0045149554 0.8658264 0.5502341 -0.0045219385 0.8658375
        0.5621261 -0.00452846 0.86585075 0.5735068 -0.00453451 0.86586475
        0.5843528 -0.0045400755 0.8658786 0.5946481 -0.004545142 0.8658918
        0.604384 -0.0045496887 0.8659041 0.61355776 -0.004553693 0.86591536
        0.6221727 -0.00455713 0.8659257 0.63023704 -0.0045599802 0.8659352
        0.637763 -0.004562252 0.865944 0.64476603 -0.0045640315 0.86595225
        0.65126276 -0.0045655915 0.8659601 0.657269 -0.004567583 0.8659676
        0.6627962 -0.0045712986 0.8659747 0.667847 -0.0045788316 0.86598164
        0.67241234 -0.004592591 0.86598825 0.6764765 -0.004613239 0.86599445
        0.6800331 -0.0046361075 0.8660002 0.6831066 -0.0046499544 0.8660054
        0.6857609 -0.0046431236 0.8660103 0.68809175 -0.0046158074 0.86601484
        0.6901992 -0.0045959265 0.8660191 0.69214624 -0.004652659 0.86602277
        0.4419211 -0.004053117 0.86605054 0.45620522 -0.0040658396 0.8659627
        0.47041327 -0.0040781307 0.8658987 0.48447287 -0.0040899864 0.8658563
        0.49831462 -0.0041014096 0.86583185 0.5118734 -0.004112396 0.86582154
        0.52508974 -0.004122939 0.86582154 0.53791016 -0.0041330326 0.8658284
        0.5502886 -0.0041426676 0.8658395 0.56218636 -0.0041518346 0.8658527
        0.5735724 -0.004160523 0.8658667 0.5844234 -0.0041687186 0.8658806
        0.5947235 -0.0041764053 0.8658938 0.6044638 -0.0041835625 0.86590606
        0.6136417 -0.0041901655 0.8659173 0.62226045 -0.004196191 0.86592764
        0.63032836 -0.004201618 0.8659372 0.6378577 -0.004206455 0.86594594
        0.6448637 -0.004210785 0.8659542 0.6513633 -0.004214881 0.86596197
        0.6573725 -0.004219389 0.8659695 0.66290265 -0.0042255935 0.86597663
        0.6679569 -0.004235573 0.86598355 0.6725268 -0.0042517018 0.86599016
        0.67659724 -0.0042745583 0.8659964 0.6801631 -0.0042993147 0.8660021
        0.6832506 -0.0043146843 0.8660074 0.68592614 -0.0043098656 0.8660123
        0.6882863 -0.004288255 0.86601686 0.6904274 -0.00428355 0.86602116
        0.69240683 -0.004364668 0.8660248 0.4419211 -0.0036525894 0.8660523
        0.45621273 -0.0036671758 0.8659644 0.4704282 -0.0036813652 0.8659004
        0.48449507 -0.0036951513 0.86585796 0.4983439 -0.0037085325 0.8658336
        0.51190966 -0.0037215024 0.86582327 0.52513266 -0.003734053 0.86582327
        0.5379596 -0.003746176 0.8658302 0.55034417 -0.0037578607 0.86584127
        0.5622478 -0.0037690955 0.8658545 0.5736394 -0.0037798684 0.8658685
        0.5844957 -0.0037901641 0.8658824 0.59480083 -0.0037999651 0.86589557
        0.6045458 -0.0038092488 0.8659079 0.61372805 -0.0038179914 0.8659192
        0.62235093 -0.0038261672 0.8659295 0.63042265 -0.0038337545 0.86593896
        0.6379555 -0.0038407606 0.8659478 0.64496493 -0.0038472672 0.86595595
        0.65146774 -0.0038535406 0.8659638 0.6574801 -0.00386022 0.86597127
        0.6630138 -0.0038685724 0.8659785 0.66807234 -0.0038806472 0.86598545
        0.6726481 -0.0038987694 0.865992 0.6767267 -0.0039234306 0.86599827
        0.6803043 -0.0039496752 0.86600405 0.683409 -0.0039662793 0.86600935
        0.6861092 -0.003963582 0.8660143 0.6885016 -0.0039485325 0.86601895
        0.69067836 -0.0039597237 0.86602324 0.6926918 -0.004062986 0.8660269
        0.4419211 -0.0032520613 0.86605394 0.45622027 -0.0032677911 0.86596596
        0.47044322 -0.0032831754 0.86590195 0.48451746 -0.0032982037 0.8658595
        0.4983735 -0.003312872 0.86583513 0.5119463 -0.0033271727 0.8658249
        0.52517617 -0.0033410962 0.8658249 0.53800964 -0.0033546314 0.86583185
        0.5504007 -0.003367767 0.86584294 0.5623104 -0.00338049 0.8658562
        0.5737078 -0.0033927863 0.86587024 0.5845697 -0.00340464 0.86588407
        0.59488004 -0.0034160314 0.8658973 0.6046299 -0.003426938 0.8659096
        0.61381686 -0.003437335 0.86592084 0.6224441 -0.0034471934 0.86593115
        0.6305199 -0.0034564945 0.86594063 0.63805664 -0.0034652415 0.86594945
        0.6450697 -0.0034735138 0.8659577 0.6515761 -0.0034815704 0.8659655
        0.6575921 -0.003490035 0.865973 0.6631299 -0.0035001477 0.8659802
        0.66819364 -0.0035139138 0.8659871 0.6727765 -0.0035335948 0.86599374
        0.67686546 -0.0035595924 0.866 0.6804577 -0.0035868655 0.86600584
        0.6835831 -0.0036043858 0.86601126 0.6863118 -0.00360393 0.86601627
        0.6887397 -0.0035961997 0.8660209 0.69095427 -0.0036234888 0.8660252
        0.69300383 -0.0037460467 0.86602896 0.4419211 -0.0028515325 0.8660553
        0.45622784 -0.0028677469 0.86596733 0.4704583 -0.0028836743 0.8659033
        0.48453996 -0.0028993024 0.86586094 0.4984034 -0.0029146255 0.86583656
        0.5119834 -0.0029296346 0.8658263 0.5252202 -0.0029443193 0.86582637
        0.53806055 -0.0029586675 0.8658333 0.5504581 -0.0029726666 0.8658444
        0.5623741 -0.0029863028 0.8658577 0.5737776 -0.002999561 0.8658717
        0.5846452 -0.0030124243 0.8658856 0.59496105 -0.0030248724 0.8658989
        0.6047161 -0.0030368825 0.8659111 0.613908 -0.0030484283 0.8659224
        0.62253994 -0.0030594827 0.8659327 0.6306201 -0.0030700234 0.86594224
        0.638161 -0.0030800533 0.86595106 0.6451781 -0.003089648 0.8659593
        0.6516884 -0.0030990567 0.86596715 0.65770847 -0.0031088819 0.8659746
        0.66325104 -0.0031203248 0.8659818 0.6683209 -0.0031353282 0.8659888
        0.67291254 -0.0031560704 0.86599547 0.6770142 -0.0031828678 0.8660018
        0.6806244 -0.0032106482 0.8660076 0.6837746 -0.0032287366 0.86601305
        0.68653595 -0.003230634 0.8660181 0.68900305 -0.0032308025 0.8660229
        0.6912579 -0.0032737728 0.86602724 0.6933458 -0.00341207 0.86603105
        0.4419211 -0.0024510033 0.86605656 0.45623544 -0.002467104 0.8659685
        0.47047347 -0.002482978 0.8659045 0.48456267 -0.002498612 0.86586213
        0.49843353 -0.0025139994 0.86583775 0.5120208 -0.002529131 0.86582756
        0.5252648 -0.0025439956 0.8658277 0.5381121 -0.0025585813 0.86583465
        0.55051637 -0.0025728748 0.8658458 0.5624389 -0.0025868628 0.8658591
        0.57384866 -0.0026005295 0.86587316 0.5847223 -0.0026138572 0.86588705
        0.59504384 -0.0026268265 0.8659003 0.6048044 -0.002639414 0.86591256
        0.61400145 -0.002651594 0.8659238 0.6226383 -0.0026633395 0.8659342
        0.6307232 -0.002674628 0.8659437 0.6382686 -0.0026854612 0.86595243
        0.64528996 -0.00269591 0.8659608 0.6518046 -0.0027062106 0.8659686
        0.6578292 -0.002716938 0.86597604 0.6633772 -0.002729241 0.8659833
        0.6684543 -0.0027449785 0.8659903 0.6730565 -0.0027662257 0.86599696
        0.67717355 -0.002793218 0.86600333 0.6808056 -0.0028209235 0.8660093
        0.6839851 -0.0028392023 0.86601484 0.68678397 -0.002843527 0.86602
        0.6892941 -0.0028518962 0.8660248 0.6915921 -0.0029093968 0.8660292
        0.6937211 -0.0030591022 0.86603314 0.4419211 -0.0020504731 0.8660576
        0.45624307 -0.002065922 0.86596954 0.4704887 -0.0020812002 0.8659056
        0.48458552 -0.002096296 0.86586314 0.4984639 -0.0021112023 0.8658388
        0.5120586 -0.0021259096 0.86582863 0.52530986 -0.0021404081 0.86582875
        0.53816426 -0.002154686 0.8658358 0.5505755 -0.0021687308 0.86584693
        0.5625047 -0.0021825293 0.8658603 0.57392097 -0.002196066 0.86587435
        0.58480084 -0.0022093249 0.86588824 0.59512836 -0.0022222858 0.8659015
        0.60489464 -0.0022349271 0.8659138 0.6140972 -0.0022472239 0.86592513
        0.6227392 -0.0022591501 0.86593544 0.6308291 -0.0022706839 0.8659449
        0.6383793 -0.0022818262 0.8659538 0.64540535 -0.002292642 0.865962
        0.65192467 -0.0023033526 0.8659699 0.6579544 -0.002314497 0.8659774
        0.6635085 -0.0023271563 0.8659846 0.668594 -0.0023430816 0.8659917
        0.67320865 -0.0023642206 0.8659984 0.6773442 -0.0023907362 0.8660048
        0.6810024 -0.002417728 0.86601084 0.68421656 -0.0024357876 0.86601645
        0.6870582 -0.0024425383 0.8660217 0.68961585 -0.0024590145 0.86602664
        0.6919603 -0.0025290314 0.86603117 0.6941335 -0.0026849895 0.8660353
        0.4419211 -0.0016499428 0.86605847 0.4562507 -0.0016642569 0.8659704
        0.47050405 -0.0016784513 0.8659063 0.4846085 -0.001692514 0.865864
        0.49849448 -0.0017064393 0.86583966 0.5120967 -0.0017202188 0.8658295
        0.5253554 -0.0017338435 0.86582965 0.53821707 -0.0017473032 0.86583674
        0.55063534 -0.001760586 0.86584795 0.56257147 -0.0017736806 0.8658613
        0.5739944 -0.0017865724 0.86587536 0.5848807 -0.0017992461 0.8658894
        0.5952144 -0.0018116839 0.86590254 0.6049867 -0.0018238656 0.8659149
        0.614195 -0.0018357678 0.86592615 0.62284255 -0.0018473663 0.8659366
        0.63093776 -0.001858641 0.86594605 0.638493 -0.0018695922 0.8659549
        0.6455241 -0.0018802788 0.86596316 0.6520485 -0.0018909032 0.865971
        0.65808386 -0.0019019608 0.8659786 0.66364485 -0.0019144466 0.8659859
        0.66874003 -0.0019299765 0.8659929 0.6733693 -0.0019503447 0.8659997
        0.67752683 -0.0019756511 0.86600614 0.68121606 -0.0020012357 0.8660123
        0.6844709 -0.0020186321 0.86601794 0.68736136 -0.002027677 0.86602336
        0.6899715 -0.0020516322 0.8660284 0.69236636 -0.0021311548 0.8660331
        0.6945872 -0.002287371 0.86603737 0.4419211 -0.0012494121 0.8660591
        0.4562584 -0.0012621625 0.86597097 0.47051942 -0.0012748344 0.865907
        0.4846316 -0.0012874183 0.8658646 0.4985253 -0.0012999091 0.8658403
        0.51213515 -0.0013123003 0.86583024 0.52540135 -0.0013245842 0.8658304
        0.5382704 -0.0013367523 0.8658375 0.55069596 -0.0013487951 0.8658488
        0.5626391 -0.0013607021 0.86586213 0.5740689 -0.0013724613 0.86587626
        0.5849619 -0.0013840592 0.8658902 0.59530205 -0.00139548 0.86590344
        0.60508054 -0.0014067057 0.8659158 0.6142948 -0.0014177158 0.8659271
        0.62294817 -0.0014284889 0.8659375 0.6310489 -0.0014390068 0.865947
        0.63860965 -0.0014492697 0.8659558 0.6456461 -0.0014593299 0.8659641
        0.6521761 -0.0014693673 0.865972 0.6582175 -0.0014798237 0.8659796
        0.66378623 -0.0014915891 0.8659869 0.66889244 -0.0015061127 0.865994
        0.6735387 -0.0015250032 0.86600083 0.67772204 -0.0015483125 0.8660073
        0.681448 -0.0015717482 0.8660135 0.68475026 -0.0015879954 0.8660194
        0.6876966 -0.0015990013 0.8660249 0.6903649 -0.0016291108 0.8660301
        0.6928147 -0.0017139926 0.866035 0.6950867 -0.001863667 0.8660395
        0.4419211 -0.0008488812 0.8660596 0.45626608 -0.0008596873 0.86597145
        0.4705349 -0.00087044697 0.86590743 0.4846548 -0.00088115217 0.86586505
        0.49855626 -0.0008917998 0.8658408 0.51217383 -0.00090238504 0.8658307
        0.52544767 -0.00091290224 0.86583096 0.53832424 -0.00092334516 0.86583805
        0.55075717 -0.0009337061 0.8658493 0.5627076 -0.000943977 0.8658628
        0.5741444 -0.0009541481 0.8658769 0.58504426 -0.0009642084 0.8658909
        0.5953911 -0.00097414467 0.86590415 0.60517603 -0.0009839421 0.8659165
        0.6143965 -0.0009935834 0.8659278 0.62305593 -0.0010030505 0.8659382
        0.6311626 -0.0010123285 0.8659477 0.63872904 -0.0010214171 0.86595654
        0.6457712 -0.0010303613 0.8659649 0.6523071 -0.0010393143 0.8659728
        0.65835524 -0.001048654 0.8659804 0.6639325 -0.001059144 0.8659877
        0.66905123 -0.0010720318 0.8659948 0.67371696 -0.0010887039 0.8660017
        0.6779305 -0.0011091793 0.86600834 0.68169945 -0.0011296804 0.86601466
        0.6850572 -0.0011442358 0.8660206 0.6880672 -0.0011565752 0.86602634
        0.6908004 -0.0011906213 0.8660317 0.69331044 -0.0012754388 0.8660368
        0.6956373 -0.0014110649 0.8660416 0.4419211 -0.00044834998 0.8660599
        0.45627376 -0.00045687667 0.86597174 0.47055036 -0.0004653782 0.8659077
        0.48467815 -0.00047384918 0.8658653 0.49858743 -0.0004822878 0.8658411
        0.5122128 -0.0004906916 0.865831 0.5254944 -0.00049905723 0.8658313
        0.5383786 -0.0005073804 0.86583847 0.55081904 -0.00051565625 0.8658498
        0.5627768 -0.0005238789 0.8658632 0.5742209 -0.0005320413 0.8658774
        0.5851278 -0.0005401351 0.86589134 0.59548146 -0.00054815045 0.8659046
        0.605273 -0.0005560757 0.865917 0.61450005 -0.0005638978 0.8659283
        0.6231657 -0.0005716025 0.86593866 0.6312785 -0.0005791782 0.86594826
        0.63885105 -0.00058662496 0.86595714 0.6458993 -0.00059397874 0.8659654
        0.65244144 -0.00060136215 0.86597335 0.65849686 -0.0006090777 0.865981
        0.66408354 -0.0006177386 0.8659884 0.66921633 -0.000628351 0.8659955
        0.67390436 -0.00064203836 0.86600244 0.67815274 -0.00065880176 0.8660092
        0.6819721 -0.0006755407 0.8660156 0.68539447 -0.00068778166 0.86602175
        0.6884774 -0.00070040615 0.86602765 0.6912832 -0.00073504215 0.8660332
        0.6938595 -0.0008129532 0.8660385 0.6962446 -0.0009265092 0.86604357
        0.4419211 -4.7818696e-05 0.86606 0.4562815 -5.377186e-05 0.8659718
        0.47056592 -5.9710917e-05 0.8659077 0.48470157 -6.5633016e-05 0.8658654
        0.49861872 -7.153809e-05 0.8658412 0.512252 -7.742568e-05 0.8658312
        0.52554137 -8.3294726e-05 0.8658315 0.5384333 -8.914351e-05 0.86583865
        0.55088145 -9.496958e-05 0.86585 0.5628468 -0.000100769605 0.86586344
        0.57429814 -0.00010653933 0.8658776 0.58521223 -0.00011227343 0.86589164
        0.59557295 -0.0001179654 0.8659049 0.6053714 -0.00012360749 0.86591727
        0.6146051 -0.00012919072 0.86592865 0.6232774 -0.00013470545 0.865939
        0.63139665 -0.0001401437 0.8659486 0.63897544 -0.00014550582 0.8659575
        0.64603007 -0.00015081737 0.8659658 0.652579 -0.00015616539 0.8659738
        0.6586422 -0.00016176484 0.8659814 0.66423917 -0.00016805291 0.8659888
        0.6693875 -0.00017575092 0.865996 0.6741008 -0.00018566955 0.86600304
        0.67838943 -0.00019780565 0.86600983 0.68226755 -0.00020991208 0.8660164
        0.6857653 -0.00021909561 0.86602265 0.68893206 -0.0002303664 0.8660287
        0.69181967 -0.00026081782 0.86603457 0.69446886 -0.00032342586 0.8660401
        0.6969149 -0.00040669242 0.86604553 0.4419211 0.00035271258 0.86605996
        0.45628926 0.00034958843 0.8659717 0.4705815 0.00034647726 0.8659076
        0.48472506 0.00034337933 0.8658653 0.4986502 0.00034029313 0.8658411
        0.5122914 0.00033721706 0.86583114 0.5255887 0.0003341499 0.86583143
        0.5384885 0.00033109094 0.86583865 0.5509443 0.0003280402 0.86585
        0.5629173 0.00032499837 0.8658635 0.5743762 0.00032196697 0.8658777
        0.58529764 0.0003189482 0.8658917 0.5956656 0.00031594513 0.865905
        0.60547113 0.00031296152 0.8659174 0.61471176 0.00031000187 0.8659287
        0.6233908 0.00030707108 0.8659391 0.6315167 0.00030417327 0.8659487
        0.6391021 0.00030130803 0.86595756 0.6461634 0.00029846182 0.8659659
        0.65271944 0.0002955884 0.8659739 0.65879095 0.00029257336 0.8659815
        0.6643992 0.00028918328 0.86598897 0.6695648 0.00028503043 0.8659962
        0.6743065 0.00027967463 0.8660033 0.67864126 0.0002731157 0.8660102
        0.68258774 0.0002665655 0.8660169 0.6861737 0.00026136733 0.8660234
        0.6894372 0.00025391724 0.86602974 0.69241744 0.00023423755 0.86603576
        0.69514686 0.000197008 0.86604166 0.69765496 0.00015194945 0.8660473
        0.4419211 0.0007532438 0.8660597 0.45629704 0.00075316697 0.8659714
        0.47059715 0.00075311126 0.8659073 0.48474866 0.0007530744 0.865865
        0.49868178 0.0007530534 0.8658408 0.51233095 0.00075304473 0.86583084
        0.5256362 0.000753045 0.8658312 0.53854394 0.0007530513 0.8658384
        0.5510076 0.0007530612 0.8658498 0.56298834 0.00075307296 0.8658633
        0.5744549 0.00075308536 0.8658775 0.5853839 0.0007530975 0.8658915
        0.5957592 0.0007531091 0.86590487 0.605572 0.0007531199 0.8659172
        0.6148197 0.0007531298 0.8659286 0.6235057 0.0007531388 0.86593896
        0.63163847 0.0007531471 0.86594856 0.6392308 0.00075315486 0.86595744
        0.64629906 0.00075316214 0.86596584 0.6528626 0.00075316906 0.8659738
        0.65894294 0.00075317576 0.86598146 0.6645633 0.0007531822 0.8659889
        0.66974777 0.00075318856 0.8659962 0.67452127 0.0007531948 0.86600333
        0.67890877 0.0007532009 0.86601037 0.682935 0.0007532069 0.8660173
        0.6866243 0.0007532128 0.866024 0.6900004 0.0007532185 0.8660306
        0.69308615 0.00075322395 0.86603695 0.69590324 0.0007532293 0.86604303
        0.6984725 0.00075323443 0.86604893
        <InformationKey name="L2_NORM_RANGE" location="vtkDataArray" length="2">
          <Value index="0">
            0.97229322831
          </Value>
          <Value index="1">
            1.112611861
          </Value>
        </InformationKey>
      </DataArray>
    </Points>
  </Piece>
  </StructuredGrid>
</VTKFile>
