<?xml version="1.0"?>
<VTKFile type="StructuredGrid" version="0.1" byte_order="LittleEndian" header_type="UInt32" compressor="vtkZLibDataCompressor">
  <StructuredGrid WholeExtent="0 30 0 40 0 0">
  <Piece Extent="0 30 0 40 0 0">
    <PointData>
      <DataArray type="Float32" Name="orthogonality" format="ascii" RangeMin="0" RangeMax="0.2109249085187912">
        0.19291665 0.19778866 0.20183 0.20505244 0.20750958 0.20926934
        0.21039322 0.21092491 0.21088545 0.21027136 0.2090534 0.20717517
        0.20455301 0.20107988 0.19663729 0.19111738 0.18445176 0.17663555
        0.16773175 0.15784907 0.14710236 0.1355754 0.123303935 0.11028358
        0.096494496 0.08192965 0.066616535 0.050628163 0.034084197 0.017144851
        0 0.18583584 0.19037095 0.19434735 0.1978164 0.20074539
        0.20311221 0.20490247 0.20610437 0.2067028 0.20667326 0.20597608
        0.20455158 0.20231761 0.19917217 0.1950045 0.18971623 0.18324894
        0.17560616 0.16685648 0.15711121 0.14648588 0.13506447 0.1228835
        0.10994017 0.09621677 0.08170858 0.06644519 0.050501443 0.033998612
        0.017098518 7.914189e-06 0.18160559 0.1852308 0.18861549 0.19190189
        0.19495429 0.19765322 0.19990079 0.20161957 0.20274673 0.20322575
        0.20299715 0.20199075 0.2001206 0.197286 0.19338147 0.18831675
        0.18204243 0.17457008 0.16597342 0.15636587 0.14586301 0.13454854
        0.122459404 0.10959418 0.09593728 0.08148629 0.066273004 0.050374135
        0.033912618 0.017051905 1.5999418e-05 0.17864579 0.18192172 0.18490629
        0.1879026 0.1908131 0.1935256 0.19592375 0.19789645 0.19934267
        0.20017071 0.2002931 0.19961959 0.19805194 0.19548403 0.19181067
        0.18694645 0.18084908 0.17353676 0.16508731 0.15561509 0.14523456
        0.134028 0.12203196 0.109246 0.09565646 0.08126325 0.066100396
        0.050246596 0.03382649 0.0170052 2.4161878e-05 0.17641275 0.179527
        0.18227309 0.18504061 0.18777013 0.19038093 0.19277285 0.19483301
        0.19644424 0.19749089 0.19786012 0.1974396 0.19611453 0.19376884
        0.19029404 0.1856067 0.17966981 0.17250691 0.16419877 0.1548594
        0.1446009 0.1335031 0.121601336 0.108895734 0.09537438 0.08103951
        0.06592743 0.0501189 0.03374032 0.016958507 3.2282907e-05 0.17465602
        0.17768519 0.18028566 0.18289097 0.18546246 0.18794529 0.19026268
        0.19231567 0.19398819 0.1951543 0.19568382 0.1954452 0.19430669
        0.19214027 0.18883169 0.18429762 0.17850477 0.17148075 0.16330801
        0.154099 0.14396222 0.13297394 0.1211676 0.10854341 0.09509105
        0.08081506 0.06575412 0.049991086 0.033654165 0.016911909 4.02551e-05
        0.1732375 0.17621773 0.17872524 0.18121688 0.18366303 0.18602474
        0.18824488 0.19024207 0.1919105 0.19312455 0.19374543 0.1936277
        0.19262487 0.19059701 0.18742329 0.18301925 0.17735416 0.1704586
        0.16241547 0.15333435 0.14331889 0.1324408 0.12073093 0.10818913
        0.09480654 0.08058997 0.06558052 0.049863197 0.033568088 0.016865486
        4.7987178e-05 0.172072 0.17502236 0.17746793 0.17987879 0.18222809
        0.18448529 0.18660668 0.18852656 0.19015229 0.19136482 0.19202398
        0.19197622 0.1910639 0.18913688 0.186068 0.18177141 0.17621818
        0.1694409 0.16152169 0.15256597 0.14267138 0.13190408 0.12029158
        0.10783307 0.094520964 0.08036432 0.065406695 0.04973531 0.03348216
        0.016819311 5.540273e-05 0.17110302 0.17403434 0.17643712 0.17878936
        0.18106398 0.183234 0.18526396 0.18709998 0.18866193 0.18984014
        0.19049779 0.1904784 0.18961726 0.18775661 0.18476433 0.18055353
        0.17509682 0.16842797 0.16062719 0.15179446 0.14202024 0.13136418
        0.11984988 0.10747546 0.094234474 0.080138214 0.065232724 0.049607497
        0.033396453 0.016773447 6.243801e-05 0.17029105 0.17320995 0.1755823
        0.17789102 0.18010749 0.18220562 0.18415421 0.1859075 0.1873956
        0.18851852 0.18914552 0.18912108 0.18827735 0.18645205 0.18351011
        0.17936462 0.17398989 0.16742009 0.15973249 0.15102044 0.141366
        0.13082156 0.119406156 0.10711653 0.093947224 0.079911776 0.06505871
        0.049479824 0.033311028 0.016727956 6.9039845e-05 0.16960749 0.17251816
        0.17486833 0.17714404 0.17931464 0.18135336 0.18323077 0.18490593
        0.18631665 0.18737155 0.1879469 0.18789089 0.18703586 0.18521826
        0.18230258 0.17820334 0.17289689 0.16641739 0.15883806 0.15024444
        0.14070922 0.13027667 0.11896074 0.10675651 0.09365939 0.07968511
        0.06488472 0.049352363 0.03322594 0.016682886 7.5163836e-05 0.1690309
        0.17193617 0.17426986 0.17652 0.17865385 0.18064311 0.18245848
        0.18406141 0.18539485 0.18637434 0.1868831 0.18677454 0.18588398
        0.1840497 0.18113843 0.1770679 0.17181712 0.16541986 0.15794429
        0.14946705 0.14005047 0.12972996 0.11851397 0.10639565 0.09337113
        0.079458326 0.06471085 0.049225178 0.03314124 0.016638279 8.0773e-05
        0.16854496 0.1714468 0.17376806 0.17599803 0.1781019 0.18004952
        0.18181057 0.18334721 0.18460529 0.18550538 0.1859369 0.1857592
        0.18481271 0.18294033 0.18001388 0.1759562 0.17074968 0.16442737
        0.15705152 0.14868876 0.13939025 0.12918188 0.11806619 0.10603417
        0.093082614 0.07923155 0.06453716 0.04909832 0.03305698 0.016594175
        8.583661e-05 0.16813698 0.17103682 0.1733486 0.17556238 0.17764135
        0.17955339 0.18126647 0.18274218 0.18392745 0.18474613 0.18509269
        0.18483257 0.18381292 0.18188381 0.1789248 0.17486581 0.16969344
        0.16343969 0.15616001 0.14791009 0.13872907 0.12863286 0.117617734
        0.105672315 0.092793986 0.07900488 0.06436375 0.04897185 0.0329732
        0.016550608 9.032929e-05 0.16779698 0.17069593 0.17300044 0.17520095
        0.17725888 0.17913997 0.18081017 0.18222944 0.18334447 0.18408068
        0.1843364 0.183983 0.1828755 0.18087348 0.1778667 0.1737941
        0.16864714 0.1624565 0.15527001 0.14713149 0.13806745 0.12808335
        0.117168926 0.10531032 0.0925054 0.078778416 0.06419066 0.04884582
        0.032889932 0.016507603 9.42303e-05 0.16751707 0.17041597 0.17271489
        0.1749044 0.17694415 0.17879786 0.18042903 0.18179543 0.18284228
        0.18349524 0.18365526 0.1831994 0.18199147 0.17990254 0.17683491
        0.17273821 0.16760936 0.16147742 0.15438168 0.14635341 0.13740587
        0.12753375 0.11672008 0.1049484 0.09221702 0.07855226 0.06401799
        0.048720267 0.032807216 0.016465187 9.752297e-05 0.16729096 0.17019054
        0.17248519 0.17466538 0.17668912 0.17851803 0.18011305 0.18142913
        0.18240915 0.18297781 0.18303771 0.18247129 0.18115193 0.17896403
        0.17582451 0.17169511 0.16657865 0.16050196 0.15349518 0.14557625
        0.13674481 0.12698449 0.11627152 0.10458677 0.09192899 0.078326516
        0.06384577 0.048595242 0.032725077 0.01642338 0.00010019424 0.16711369
        0.17001458 0.17230597 0.17447811 0.17648743 0.17829338 0.17985415
        0.18112147 0.18203509 0.18251783 0.18247312 0.18178858 0.18034807
        0.17805094 0.1748305 0.17066172 0.1655534 0.15952967 0.15261066
        0.14480045 0.13608472 0.12643597 0.115823545 0.104225665 0.09164144
        0.07810126 0.06367408 0.04847078 0.032643545 0.016382199 0.000102234255
        0.16698138 0.16988412 0.17217308 0.17433815 0.17633413 0.17811827
        0.17964584 0.18086492 0.18171151 0.18210581 0.18195157 0.18114159
        0.17957115 0.17715615 0.17384776 0.16963486 0.16453207 0.15856005
        0.15172823 0.1440264 0.13542604 0.12588856 0.11537645 0.10386527
        0.09135451 0.07787659 0.06350297 0.048346914 0.03256264 0.016341656
        0.000103636135 0.16689105 0.16979614 0.17208333 0.174242 0.17622532
        0.17798822 0.17948276 0.18065304 0.1814308 0.18173306 0.18146357
        0.18052077 0.17881247 0.17627256 0.17287117 0.16861139 0.16351306
        0.15759261 0.15084803 0.14325446 0.13476923 0.12534265 0.11493053
        0.1035058 0.09106834 0.07765258 0.06333248 0.04822368 0.03248238
        0.016301764 0.000104395716 0.16684054 0.16974846 0.17203441 0.17418712
        0.17615806 0.17789963 0.17936048 0.18048026 0.18118607 0.18139134
        0.18099995 0.17991672 0.17806332 0.17539299 0.17189561 0.16758816
        0.16249488 0.1566269 0.14997019 0.14248505 0.13411471 0.12479864
        0.114486076 0.10314745 0.09078305 0.07742932 0.06316268 0.048101105
        0.032402784 0.01626253 0.00010451142 0.16682841 0.16973962 0.17202473
        0.17417172 0.17613012 0.17784968 0.17927521 0.18034157 0.18097076
        0.18107261 0.18055153 0.17931992 0.17731488 0.1745103 0.170916
        0.16656215 0.16147605 0.15566249 0.14909488 0.14171855 0.13346292
        0.12425688 0.11404335 0.10279039 0.09049877 0.07720687 0.0629936
        0.047979213 0.032323863 0.01622396 0.00010398413 0.1668539 0.16976887
        0.17205343 0.17419465 0.17613998 0.17783614 0.17922369 0.18023227
        0.18077849 0.18076871 0.18010888 0.1787206 0.17655823 0.17361733
        0.16992743 0.16553046 0.16045524 0.15469906 0.14822227 0.14095537
        0.13281427 0.12371772 0.11360262 0.10243483 0.09021561 0.07698532
        0.062825285 0.04785803 0.03224563 0.016186057 0.00010281717 0.16691698
        0.16983616 0.1721203 0.17425549 0.1761867 0.1778572 0.17920288
        0.18014766 0.18060257 0.18047106 0.17966208 0.17810862 0.17578427
        0.17270702 0.1689251 0.16449036 0.15943125 0.15373635 0.14735259
        0.1401959 0.13216917 0.123181514 0.11316416 0.10208093 0.08993367
        0.076764725 0.062657766 0.047737572 0.03216809 0.016148819 0.000101016296
        0.16701831 0.16994216 0.17222589 0.17435439 0.17626983 0.17791148
        0.1792099 0.18008283 0.18043578 0.18017031 0.17920044 0.17747332
        0.17498378 0.17177238 0.1679045 0.16343941 0.15840307 0.1527742
        0.14648612 0.13944057 0.13152805 0.1226486 0.11272819 0.10172885
        0.089653075 0.07654515 0.062491085 0.047617853 0.03209125 0.016112244
        9.858976e-05 0.16715935 0.17008829 0.17237145 0.17449221 0.17638943
        0.17799771 0.1792416 0.1800322 0.1802699 0.1798559 0.1787123
        0.17680345 0.17414734 0.17080662 0.1668614 0.16237544 0.15736987
        0.15181254 0.14562315 0.13868979 0.1308913 0.1221193 0.11229497
        0.10137876 0.08937392 0.076326646 0.062325265 0.047498886 0.032015104
        0.016076325 9.5548436e-05 0.16734244 0.17027687 0.17255901 0.17467041
        0.17654593 0.17811465 0.17929435 0.17998916 0.18009514 0.17951569
        0.1781846 0.17608704 0.17326543 0.1698032 0.16579197 0.16129656
        0.15633105 0.15085147 0.14476407 0.137944 0.13025934 0.121593945
        0.11186472 0.10103081 0.08909628 0.07610926 0.06216033 0.047380675
        0.031939656 0.016041053 9.190605e-05 0.16757101 0.17051126 0.17279156
        0.1748912 0.1767401 0.17826085 0.17936353 0.17994535 0.17989959
        0.17913538 0.17760283 0.17531137 0.17232856 0.16875605 0.16469292
        0.16020139 0.15528627 0.1498912 0.14390929 0.13720366 0.12963253
        0.12107283 0.111437656 0.100685135 0.08882024 0.07589305 0.061996303
        0.04726323 0.031864896 0.016006416 8.767944e-05 0.1678498 0.17079608
        0.17307319 0.17515752 0.17697288 0.17843416 0.17944291 0.17988989
        0.17966837 0.17869803 0.17695066 0.17446312 0.1713274 0.1676596
        0.16356145 0.15908886 0.15423547 0.14893205 0.14305928 0.13646926
        0.12901129 0.12055625 0.11101398 0.100341864 0.088545896 0.07567804
        0.06183319 0.04714654 0.03179081 0.015972396 8.288895e-05 0.16818525
        0.17113753 0.1734093 0.17547306 0.17724513 0.17863113 0.17952356
        0.17980818 0.17938258 0.17818344 0.17620993 0.17352846 0.17025304
        0.16650902 0.1623955 0.1579585 0.15317883 0.14797452 0.1422146
        0.13574123 0.12839599 0.120044485 0.11059388 0.10000112 0.088273294
        0.07546427 0.061671004 0.047030605 0.031717386 0.015938971 7.7559016e-05
        0.16858606 0.17154391 0.1738069 0.17584234 0.17755707 0.17884591
        0.17959236 0.17968027 0.17901818 0.17756765 0.17536068 0.17249344
        0.16909732 0.16530043 0.16119379 0.15681022 0.15211684 0.14701921
        0.1413758 0.13502008 0.127787 0.119537786 0.11017752 0.09966299
        0.08800249 0.07525175 0.06150974 0.046915404 0.031644598 0.015906114
        7.171887e-05 0.16906403 0.17202632 0.17427507 0.17627044 0.17790736
        0.17906846 0.17962964 0.17947876 0.1785446 0.17682259 0.1743815
        0.17134444 0.1678532 0.1640311 0.15995583 0.15564457 0.15105027
        0.14606686 0.14054349 0.13430625 0.12718466 0.1190364 0.10976505
        0.099327564 0.08773352 0.07504049 0.061349384 0.04680091 0.031572413
        0.015873792 6.5403554e-05 0.16963542 0.1725997 0.17482533 0.17676246
        0.17829123 0.17928143 0.17960571 0.1791659 0.17792337 0.17591608
        0.17325014 0.17006898 0.16651523 0.16269967 0.15868208 0.15446255
        0.14998014 0.14511834 0.13971832 0.13360025 0.12658928 0.11854052
        0.109356605 0.09899492 0.08746641 0.07483049 0.061189912 0.0466871
        0.031500794 0.01584196 5.8655336e-05 0.17032312 0.17328452 0.17547217
        0.17732212 0.17869663 0.1794547 0.17947543 0.17869012 0.1771071
        0.17481253 0.17194483 0.16865653 0.16508006 0.16130628 0.15737393
        0.15326568 0.14890774 0.14417458 0.13890098 0.1329025 0.12600115
        0.11805033 0.10895226 0.098665066 0.08720115 0.07462171 0.06103129
        0.046573915 0.03142969 0.015810568 5.152571e-05 0.17116043 0.17410928
        0.17623314 0.17794792 0.17909674 0.1795363 0.17917079 0.17798245
        0.1760395 0.17347461 0.17044589 0.16709965 0.16354682 0.15985268
        0.15603371 0.15205595 0.1478345 0.14323653 0.13809207 0.13221338
        0.12542051 0.117565945 0.10855207 0.098338015 0.08693771 0.074414104
        0.060873445 0.046461288 0.031359024 0.015779547 4.4078304e-05 0.17219822
        0.1751146 0.17712682 0.17862342 0.17943442 0.17943679 0.17859104
        0.1769539 0.17465732 0.17186643 0.16873805 0.16539507 0.16191748
        0.15834227 0.15466444 0.15083563 0.14676192 0.14230517 0.13729213
        0.1315332 0.12484748 0.11708739 0.108155996 0.09801369 0.08667601
        0.074207574 0.060716283 0.046349123 0.031288706 0.015748808 3.639346e-05
        0.17351969 0.17635874 0.17816304 0.17929167 0.17959076 0.17900524
        0.17759256 0.17549628 0.17289552 0.16995795 0.16681275 0.16354427
        0.1601967 0.15677966 0.15326966 0.14960702 0.1456914 0.14138119
        0.13650148 0.13086201 0.12428199 0.11661452 0.10776387 0.097691916
        0.08641586 0.07400195 0.060559638 0.04623727 0.0312186 0.01571823
        2.8575652e-05 0.17527665 0.17791948 0.17930193 0.17978819 0.17932478
        0.17799716 0.17598388 0.17349046 0.17069627 0.16772997 0.16466948
        0.16155314 0.15839088 0.15516968 0.15185241 0.14837177 0.14462358
        0.14046465 0.13571984 0.13019939 0.12372354 0.116146855 0.107375234
        0.09737227 0.086156875 0.0737969 0.06040322 0.04612547 0.031148486
        0.015687631 2.076679e-05 0.17780367 0.17984428 0.1802956 0.17967723
        0.17817676 0.17604986 0.17353873 0.17082481 0.16801919 0.1651763
        0.16231385 0.15942867 0.15650493 0.1535148 0.15041322 0.14712912
        0.14355701 0.13955384 0.13494542 0.12954362 0.123170614 0.11568305
        0.106988914 0.09705376 0.08589822 0.0735917 0.060246434 0.046013247
        0.031077977 0.015656719 1.317171e-05 0.18211418 0.1816967 0.18017457
        0.1779649 0.17540732 0.1727301 0.17005618 0.16743094 0.16485405
        0.16230427 0.15975389 0.15717492 0.15453891 0.15181227 0.14894779
        0.14587417 0.14248678 0.13864408 0.13417402 0.128891 0.12261998
        0.11522035 0.10660261 0.09673444 0.08563829 0.07338504 0.060088202
        0.045899726 0.031006403 0.015625002 6.1056885e-06 0.19291665 0.18547837
        0.17957887 0.17496167 0.1713177 0.16834903 0.16580908 0.16351493
        0.1613402 0.15920064 0.1570399 0.15481849 0.15250461 0.15006475
        0.14745325 0.14460085 0.14140521 0.13772738 0.13339816 0.12823513
        0.12206653 0.114754915 0.10621355 0.09641242 0.08537577 0.073176
        0.059927847 0.04578437 0.030933289 0.015592036 0
      </DataArray>
      <DataArray type="Float32" Name="aspect_ratio" format="ascii" RangeMin="1.000494122505188" RangeMax="12.147843360900879">
        2.9847798 2.4970498 2.1205633 1.8025566 1.5337408 1.3063704
        1.113967 1.0514199 1.2297368 1.4360055 1.6738454 1.9470814
        2.2596583 2.6155124 3.0183876 3.471575 3.977555 4.537529
        5.15084 5.8143215 6.521637 7.2626905 8.023218 8.784676
        9.524544 10.217158 10.835119 11.351217 11.74073 11.98377
        12.147843 2.9615688 2.48419 2.1136131 1.799177 1.532442
        1.3062327 1.1144382 1.0505826 1.2284341 1.4342165 1.6715349
        1.944199 2.256139 2.6112833 3.0133793 3.46574 3.9708855
        4.5300646 5.142661 5.8055253 6.5123096 7.252888 8.012962
        8.773966 9.513374 10.20554 10.823083 11.338827 11.728074
        11.970957 12.134926 2.954729 2.47919 2.1100397 1.7969419
        1.5312996 1.3058884 1.114621 1.0500357 1.2274437 1.4327393
        1.6695225 1.941594 2.2528744 2.6072872 3.0085864 3.4601073
        3.964409 4.5227866 5.1346607 5.796898 6.503139 7.243228
        8.002834 8.763369 9.502305 10.194008 10.811123 11.3265
        11.715469 11.958185 12.122039 2.953056 2.4774485 2.1085024
        1.7957867 1.5306 1.3056247 1.1147149 1.0496486 1.2266712
        1.4315127 1.6677746 1.9392543 2.2498686 2.603541 3.0040352
        3.4547114 3.9581678 4.5157433 5.1268935 5.7884984 6.4941874
        7.233775 7.9928985 8.752949 9.491395 10.182615 10.799282
        11.314271 11.70294 11.945466 12.109182 2.9535077 2.477382
        2.108239 1.795487 1.5303907 1.3055809 1.114858 1.0493062
        1.2260125 1.4304504 1.6662233 1.9371288 2.2470844 2.6000178
        2.9997072 3.4495404 3.9521549 4.508932 5.119361 5.7803316
        6.485461 7.224535 7.983161 8.74271 9.480648 10.171368
        10.787564 11.302143 11.690489 11.9328 12.096356 2.9550045
        2.478253 2.1087708 1.7957995 1.5305997 1.3057812 1.1151118
        1.0489383 1.2253909 1.429479 1.6648031 1.9351618 2.2444751
        2.5966792 2.9955702 3.444567 3.9463472 4.5023336 5.112045
        5.772381 6.4769444 7.2154937 7.973608 8.732638 9.470053
        10.160254 10.775961 11.290109 11.67811 11.920185 12.08356
        2.957079 2.4796872 2.109813 1.7965416 1.5311376 1.3062049
        1.1154945 1.0485086 1.2247566 1.4285429 1.66346 1.9333034
        2.2419965 2.5934863 2.991591 3.4397624 3.9407198 4.4959254
        5.104926 5.7646275 6.4686193 7.2066336 7.964222 8.72272
        9.459592 10.149258 10.764459 11.278158 11.665796 11.907618
        12.070794 2.9594984 2.4814777 2.1111934 1.7975872 1.5319273
        1.3068182 1.1160033 1.0480016 1.2240793 1.427603 1.6621509
        1.9315113 2.2396095 2.5904045 2.9877388 3.4351 3.9352493
        4.4896874 5.0979853 5.757055 6.4604707 7.19794 7.954989
        8.712939 9.449255 10.138369 10.753049 11.266284 11.6535425
        11.895095 12.058058 2.9621348 2.4835036 2.112805 1.7988497
        1.5329089 1.3075876 1.1166269 1.0474136 1.2233427 1.4266329
        1.6608434 1.9297509 2.2372801 2.5874023 2.983986 3.430556
        3.9299154 4.483602 5.091208 5.7496486 6.4524846 7.1893992
        7.9458966 8.703284 9.439029 10.127578 10.741722 11.254479
        11.641345 11.882614 12.045352 2.9649127 2.4856896 2.1145782
        1.8002704 1.5340369 1.3084837 1.117351 1.0467472 1.2225388
        1.4256155 1.6595134 1.9279945 2.2349799 2.5844524 2.9803076
        3.4261086 3.9246998 4.477653 5.08458 5.742397 6.44465
        7.181001 7.936934 8.693746 9.4289055 10.116876 10.730471
        11.242738 11.629199 11.870174 12.032676 2.9677854 2.4879875
        2.1164675 1.8018084 1.5352781 1.3094828 1.1181623 1.0460079
        1.2216657 1.4245403 1.6581435 1.9262197 2.2326844 2.581531
        2.976682 3.4217389 3.919586 4.4718266 5.078089 5.735288
        6.436957 7.172736 7.9280925 8.684315 9.418876 10.106255
        10.71929 11.231055 11.617101 11.857773 12.020029 2.9707222
        2.490365 2.1184413 1.8034343 1.5366076 1.3105658 1.1190484
        1.0452021 1.2207241 1.4234012 1.6567214 1.9244093 2.2303734
        2.5786173 2.9730897 3.4174297 3.9145596 4.4661117 5.0717254
        5.7283144 6.4293966 7.164596 7.919364 8.674984 9.408934
        10.09571 10.708174 11.219428 11.605048 11.845408 12.007412
        2.9737036 2.4928002 2.1204784 1.805128 1.5380073 1.3117182
        1.119999 1.0443362 1.2197161 1.4221952 1.6552378 1.9225492
        2.2280304 2.5756936 2.969514 3.4131665 3.9096086 4.460497
        5.06548 5.7214665 6.4219623 7.1565742 7.9107423 8.665747
        9.399074 10.085235 10.697118 11.207851 11.5930395 11.833079
        11.994824 2.9767153 2.4952781 2.1225631 1.8068745 1.5394635
        1.3129284 1.121006 1.0434159 1.2186446 1.4209207 1.6536865
        1.920629 2.2256413 2.572745 2.9659405 3.4089365 3.9047222
        4.454973 5.059345 5.7147384 6.4146466 7.148664 7.9022217
        8.656598 9.389289 10.074825 10.686118 11.196322 11.581071
        11.8207855 11.982267 2.979748 2.4977875 2.1246848 1.8086634
        1.5409664 1.3141881 1.1220626 1.0424458 1.2175124 1.4195772
        1.6520629 1.9186397 2.2231944 2.5697587 2.9623566 3.404729
        3.899891 4.4495335 5.0533133 5.708123 6.4074445 7.1408606
        7.893796 8.647532 9.379577 10.064478 10.675171 11.184839
        11.569141 11.808526 11.969739 2.9827948 2.500321 2.126836
        1.8104868 1.5425087 1.3154907 1.1231637 1.0414299 1.2163218
        1.4181645 1.6503631 1.9165741 2.2206805 2.5667238 2.9587526
        3.4005344 3.8951068 4.4441705 5.047379 5.701616 6.40035
        7.133158 7.8854613 8.638546 9.369933 10.054189 10.664274
        11.1734 11.55725 11.796299 11.95724 2.9858506 2.502873
        2.129011 1.8123394 1.5440854 1.3168317 1.1243058 1.0403708
        1.2150745 1.416682 1.6485841 1.9144266 2.2180912 2.563632
        2.9551194 3.3963456 3.890364 4.4388785 5.0415373 5.695211
        6.393359 7.125552 7.877213 8.629635 9.3603525 10.043954
        10.653425 11.162001 11.545394 11.784104 11.944771 2.9889123
        2.5054398 2.1312058 1.8142176 1.5456927 1.3182081 1.1254867
        1.0392705 1.2137713 1.4151291 1.6467229 1.9121917 2.21542
        2.5604758 2.9514508 3.3921566 3.885657 4.433654 5.0357833
        5.6889043 6.3864675 7.118039 7.8690467 8.620794 9.350833
        10.0337715 10.642619 11.1506405 11.533573 11.771941 11.93233
        2.9919775 2.5080187 2.1334183 1.816119 1.5473288 1.3196181
        1.1267052 1.0381296 1.2124122 1.4135041 1.6447765 1.9098651
        2.2126615 2.5572498 2.9477415 3.3879633 3.8809824 4.4284916
        5.030113 5.682692 6.37967 7.1106143 7.860959 8.612022
        9.341371 10.023638 10.631857 11.1393175 11.521785 11.7598095
        11.919919 2.9950442 2.5106082 2.135647 1.8180424 1.5489926
        1.3210611 1.1279609 1.0369478 1.2109962 1.4118052 1.6427412
        1.9074422 2.209811 2.5539496 2.9439883 3.383763 3.8763373
        4.42339 5.0245237 5.67657 6.3729634 7.1032743 7.8529463
        8.603313 9.331963 10.01355 10.621134 11.12803 11.51003
        11.747707 11.9075365 2.9981115 2.5132074 2.1378915 1.8199878
        1.5506847 1.322538 1.1292553 1.0357243 1.2095212 1.410029
        1.6406133 1.904919 2.2068646 2.5505729 2.9401891 3.379554
        3.87172 4.4183455 5.0190125 5.670535 6.3663445 7.096015
        7.8450046 8.594666 9.322606 10.003506 10.610448 11.1167755
        11.498304 11.735635 11.895184 3.0011785 2.515816 2.1401522
        1.821956 1.5524061 1.3240504 1.1305903 1.0344563 1.2079837
        1.4081717 1.6383884 1.9022915 2.2038198 2.5471177 2.9363441
        3.3753366 3.8671305 4.413358 5.013576 5.664584 6.3598084
        7.088833 7.8371305 8.586075 9.313297 9.993502 10.599798
        11.105554 11.486609 11.723592 11.882859 3.0042453 2.518435
        2.1424303 1.8239492 1.5541596 1.3256016 1.1319693 1.0331404
        1.2063795 1.4062278 1.6360613 1.8995558 2.2006748 2.5435848
        2.9324543 3.371112 3.862569 4.4084263 5.0082135 5.658714
        6.3533525 7.0817237 7.8293204 8.5775385 9.304034 9.983538
        10.589182 11.094362 11.474944 11.711577 11.8705635 3.007312
        2.5210652 2.1447282 1.8259703 1.555949 1.3271958 1.1333975
        1.031772 1.2047026 1.4041911 1.6336267 1.8967085 2.1974285
        2.5399754 2.9285226 3.366883 3.8580368 4.4035497 5.002922
        5.6529217 6.3469734 7.0746846 7.8215704 8.569053 9.294814
        9.973608 10.578597 11.083199 11.463305 11.699591 11.858297
        3.010379 2.5237093 2.1470492 1.8280239 1.5577798 1.3288393
        1.1348811 1.0303445 1.2029454 1.4020543 1.6310785 1.8937464
        2.1940815 2.5362928 2.9245532 3.362653 3.8535357 4.398728
        4.9977 5.647204 6.3406663 7.067711 7.8138766 8.560614
        9.285632 9.963713 10.568042 11.0720625 11.451694 11.687631
        11.846059 3.013448 2.52637 2.149398 1.830116 1.5596592
        1.3305404 1.1364288 1.02885 1.2010987 1.3998084 1.6284103
        1.8906673 2.1906357 2.5325415 2.9205515 3.3584266 3.8490686
        4.393962 4.9925456 5.6415577 6.3344283 7.0607986 7.806236
        8.552218 9.276486 9.953847 10.557512 11.060952 11.440107
        11.675697 11.833849 3.0165205 2.5290523 2.1517816 1.8322552
        1.5615975 1.33231 1.1380517 1.0272782 1.1991518 1.3974438
        1.6256162 1.88747 2.1870944 2.5287285 2.916525 3.3542097
        3.844638 4.3892517 4.9874573 5.6359797 6.328254 7.0539436
        7.798643 8.543863 9.267373 9.944009 10.547008 11.049865
        11.428544 11.663791 11.821667 3.0195992 2.5317621 2.1542082
        1.8344527 1.5636073 1.3341622 1.1397638 1.0256166 1.1970916
        1.3949499 1.6226902 1.884155 2.1834636 2.5248618 2.9124815
        3.3500082 3.840248 4.384598 4.982433 5.630466 6.3221407
        7.047141 7.791094 8.5355425 9.258288 9.934195 10.536525
        11.038798 11.417005 11.651909 11.809513 3.022688 2.5345082
        2.1566901 1.8367238 1.5657067 1.336116 1.1415834 1.0238502
        1.1949033 1.3923155 1.6196278 1.8807247 2.1797512 2.5209517
        2.908431 3.345829 3.8359013 4.3799996 4.97747 5.625013
        6.316082 7.0403852 7.7835827 8.527253 9.2492285 9.9244
        10.52606 11.027751 11.405485 11.640051 11.797388 3.0257924
        2.5373027 2.1592445 1.8390892 1.5679194 1.3381957 1.1435333
        1.02196 1.1925702 1.38953 1.6164265 1.8771846 2.1759677
        2.5170105 2.9043837 3.341679 3.831601 4.3754573 4.9725647
        5.6196156 6.3100724 7.0336704 7.7761045 8.518989 9.240188
        9.914622 10.515611 11.016719 11.393985 11.628217 11.78529
        3.0289204 2.5401626 2.1618946 1.8415779 1.5702773 1.3404342
        1.1456429 1.0199244 1.1900742 1.3865832 1.6130866 1.8735435
        2.1721265 2.5130517 2.9003506 3.337565 3.8273494 4.3709693
        4.967714 5.614268 6.3041058 7.02699 7.768652 8.510742
        9.23116 9.904856 10.505172 11.005701 11.382502 11.616405
        11.77322 3.0320845 2.543113 2.1646745 1.8442309 1.5728254
        1.342875 1.1479492 1.0177176 1.1873971 1.3834685 1.6096128
        1.8698146 2.1682441 2.5090907 2.8963428 3.3334932 3.823148
        4.3665333 4.962912 5.608963 6.298174 7.0203357 7.761217
        8.502507 9.22214 9.895094 10.49474 10.994692 11.371033
        11.604612 11.761178 3.0353026 2.5461905 2.1676338 1.8471072
        1.5756263 1.3455764 1.1504986 1.0153112 1.1845219 1.3801837
        1.606016 1.8660159 2.1643393 2.5051427 2.8923707 3.3294685
        3.8189971 4.3621454 4.958153 5.6036925 6.292267 7.0136976
        7.753791 8.494275 9.213119 9.885331 10.484307 10.983687
        11.359574 11.59284 11.749164 3.038603 2.549452 2.170848
        1.8502948 1.5787693 1.3486167 1.153348 1.0126755 1.1814361
        1.3767341 1.602314 1.8621699 2.1604333 2.5012236 2.8884432
        3.3254936 3.8148942 4.357799 4.9534264 5.598445 6.286373
        7.0070634 7.7463613 8.486034 9.204086 9.875557 10.473867
        10.972682 11.348124 11.581085 11.737177 3.0420325 2.5529885
        2.1744368 1.853928 1.5823838 1.3520998 1.1565636 1.009783
        1.178136 1.3731358 1.5985328 1.8583035 2.1565478 2.4973476
        2.8845668 3.321568 3.8108335 4.3534846 4.9487205 5.5932064
        6.2804775 7.0004177 7.7389126 8.47777 9.195029 9.865761
        10.463411 10.961667 11.336675 11.5693445 11.725217 3.0456698
        2.5569544 2.1785986 1.858219 1.5866575 1.3561594 1.1602175
        1.006616 1.174633 1.3694179 1.5947067 1.8544463 2.1527028
        2.4935248 2.880743 3.3176868 3.8068037 4.349187 4.944016
        5.587956 6.2745576 6.9937387 7.731424 8.469462 9.18593
        9.855926 10.452923 10.950633 11.32522 11.557615 11.713284
        3.0496624 2.5616324 2.1836848 1.8635142 1.5918612 1.3609568
        1.1643723 1.0031773 1.1709602 1.3656247 1.5908759 1.8506268
        2.1489136 2.4897585 2.8769655 3.3138351 3.8027852 4.344881
        4.9392858 5.5826635 6.2685833 6.9869947 7.7238646 8.461082
        9.17676 9.846027 10.442384 10.939563 11.313749 11.54589
        11.701378 3.05433 2.5675983 2.1903584 1.8703837 1.5983611
        1.3666524 1.1690527 1.0004941 1.167177 1.3618121 1.58708
        1.8468655 2.1451836 2.4860382 2.873213 3.3099842 3.7987418
        4.340526 4.9344845 5.5772815 6.262504 6.9801364 7.7161856
        8.452583 9.167477 9.836027 10.431761 10.928431 11.302243
        11.534161 11.689499 3.0605817 2.5762136 2.1999538 1.8797249
        1.6065619 1.3733214 1.1741941 1.0043266 1.163367 1.3580382
        1.5833474 1.8431646 2.1414945 2.4823298 2.8694396 3.3060777
        3.7946093 4.336051 4.9295354 5.571728 6.256237 6.973079
        7.7083044 8.443885 9.158007 9.82586 10.420997 10.917193
        11.290673 11.522411 11.677647 3.0722048 2.5913758 2.2150779
        1.8925892 1.6165849 1.3807511 1.1795657 1.0081774 1.159636
        1.354359 1.5796944 1.8395108 2.1378112 2.4785826 2.865581
        3.3020408 3.7903032 4.3313627 4.9243393 5.565901 6.2496758
        6.9657164 7.7001147 8.434886 9.148253 9.81544 10.410021
        10.905793 11.278998 11.510622 11.665822 3.111255 2.6202946
        2.2360806 1.9073621 1.6268357 1.387869 1.1845566 1.0117263
        1.1562032 1.3509336 1.5762446 1.8360096 2.1342323 2.4748943
        2.861739 3.2979813 3.7859395 4.326586 4.9190283 5.559938
        6.242964 6.9581943 7.6917634 8.42573 9.138353 9.804888
        10.398935 10.894313 11.267276 11.498822 11.654023
      </DataArray>
      <DataArray type="Float32" Name="jacobian" format="ascii" RangeMin="0.0011353535810485482" RangeMax="0.04210466146469116">
        0.0011834623 0.0014057173 0.0016467415 0.0019291507 0.002259691 0.0026460683
        0.0030970403 0.0036224928 0.004233478 0.0049422076 0.005761964 0.0067069023
        0.007791699 0.009030979 0.0104384795 0.012025888 0.013801355 0.015767723
        0.017920585 0.020246293 0.02272009 0.025304504 0.027948303 0.030586326
        0.033140667 0.035523564 0.03764217 0.039405048 0.04072973 0.041550536
        0.04210466 0.0011943977 0.0014169356 0.0016579888 0.0019401415 0.0022702152
        0.0026559716 0.003106201 0.003630795 0.004240792 0.0049483683 0.0057667545
        0.006710042 0.0077928356 0.009029705 0.0104343705 0.012018573 0.013790593
        0.015753455 0.017902927 0.020225467 0.022696326 0.025277967 0.027919067
        0.030554408 0.033106092 0.035486422 0.037602674 0.039363526 0.04068664
        0.041506425 0.042059887 0.0011981258 0.0014226794 0.0016654796 0.0019488295
        0.0022795557 0.002665485 0.0031154908 0.0036395378 0.0042487094 0.004955196
        0.0057722125 0.006713811 0.0077945464 0.009028945 0.0104307225 0.012011675
        0.013780211 0.015739532 0.017885573 0.020204894 0.022672758 0.025251567
        0.027889915 0.030522535 0.033071537 0.035449296 0.03756319 0.039322034
        0.0406436 0.04146239 0.04201522 0.0011994654 0.001425484 0.0016698281
        0.0019546177 0.002286509 0.0026732178 0.0031235735 0.0036475451 0.004256241
        0.0049618753 0.0057776673 0.0067176553 0.007796366 0.0090283025 0.01042719
        0.012004888 0.013769934 0.0157257 0.01786828 0.02018434 0.022649152
        0.025225073 0.027860621 0.03049049 0.0330368 0.03541199 0.037523564
        0.03928044 0.04060052 0.041418392 0.041970663 0.0011997729 0.0014267873
        0.0016722835 0.001958331 0.0022914384 0.0026791666 0.0031302199 0.003654488
        0.004263045 0.004968095 0.0057828575 0.0067213634 0.007798126 0.009027645
        0.010423667 0.011998127 0.013759694 0.015711905 0.017851008 0.02016377
        0.022625485 0.025198465 0.027831169 0.030458253 0.03300186 0.035374504
        0.03748378 0.039238747 0.0405574 0.041374426 0.041926205 0.0011995469
        0.0014272305 0.0016735523 0.0019605996 0.0022947902 0.0026835566 0.0031354597
        0.003660263 0.0042689494 0.0049736686 0.005787612 0.006724793 0.007799719
        0.009026895 0.010420105 0.011991369 0.013749488 0.01569816 0.017833786
        0.020143226 0.022601802 0.025171792 0.027801609 0.030425878 0.03296677
        0.03533687 0.037443884 0.039196976 0.040514257 0.041330498 0.04188185
        0.0011990103 0.001427139 0.0016740423 0.0019618515 0.0022969423 0.002686657
        0.0031394314 0.0036648908 0.004273893 0.004978491 0.0057918136 0.006727839
        0.0078010596 0.009025993 0.010416469 0.011984598 0.013739319 0.015684487
        0.017816646 0.020122753 0.022578156 0.025145112 0.027771996 0.030393422
        0.03293158 0.03529914 0.037403904 0.039155155 0.040471114 0.04128662
        0.041837607 0.0011982786 0.0014266951 0.0016739999 0.0019623751 0.002298183
        0.0026887131 0.0031423043 0.0036684533 0.00427788 0.0049825143 0.0057953885
        0.006730421 0.0078020766 0.009024883 0.010412719 0.011977796 0.013729188
        0.015670901 0.01779962 0.020102387 0.022554591 0.025118474 0.027742386
        0.030360933 0.032896344 0.035261355 0.037363883 0.03911332 0.04042799
        0.041242808 0.041793462 0.0011974173 0.0014260086 0.001673581 0.0019623647
        0.0022987272 0.0026899306 0.0031442447 0.0036710585 0.0042809565 0.004985731
        0.005798295 0.006732482 0.0078027123 0.009023515 0.010408823 0.011970946
        0.01371909 0.015657414 0.017782725 0.02008216 0.022531144 0.025091918
        0.027712816 0.030328453 0.03286109 0.03522355 0.037323847 0.03907149
        0.0403849 0.041199062 0.04174942 0.0011964662 0.0014251492 0.0016728878
        0.001961955 0.0022987328 0.002690473 0.0031454011 0.0036728184 0.004283188
        0.0049881614 0.0058005177 0.006733984 0.007802921 0.0090218475 0.010404747
        0.011964025 0.013709021 0.015644029 0.01776598 0.020062098 0.022507846
        0.025065478 0.027683325 0.030296015 0.032825857 0.035185754 0.037283827
        0.039029688 0.040341854 0.04115539 0.041705485 0.0011954511 0.0014241628
        0.0016719901 0.0019612415 0.002298317 0.0026904705 0.0031459 0.0036738408
        0.0042846487 0.004989842 0.005802059 0.0067349067 0.0078026685 0.009019846
        0.010400462 0.011957016 0.01369897 0.015630748 0.017749397 0.020042216
        0.022484722 0.025039181 0.02765394 0.03026365 0.032790672 0.035147995
        0.037243836 0.038987923 0.04029887 0.041111797 0.041661654 0.0011943892
        0.0014230814 0.0016709368 0.0019602922 0.0022975674 0.002690025 0.003145848
        0.003674222 0.004285414 0.004990818 0.005802934 0.0067352406 0.0078019323
        0.009017481 0.010395941 0.0119499 0.01368893 0.015617575 0.017732982
        0.020022532 0.022461787 0.02501305 0.027624685 0.030231379 0.032755557
        0.03511029 0.0372039 0.03894622 0.040255953 0.041068293 0.041617922
        0.0011932926 0.0014219272 0.001669763 0.0019591576 0.0022965504 0.002689216
        0.0031453315 0.0036740468 0.004285555 0.0049911398 0.005803168 0.0067349873
        0.0078006973 0.009014729 0.010391165 0.01194266 0.0136788925 0.015604506
        0.017716741 0.020003054 0.022439059 0.0249871 0.027595578 0.030199226
        0.032720532 0.03507266 0.03716403 0.03890458 0.04021311 0.04102488
        0.041574296 0.0011921695 0.0014207168 0.0016684942 0.001957875 0.0022953167
        0.002688107 0.0031444228 0.0036733886 0.0042851376 0.0049908566 0.005802789
        0.006734156 0.0077989576 0.00901158 0.010386116 0.011935285 0.013668849
        0.01559154 0.01770068 0.01998379 0.022416549 0.024961347 0.027566636
        0.030167203 0.03268561 0.03503511 0.037124235 0.03886302 0.040170357
        0.040981553 0.04153077 0.0011910262 0.0014194617 0.0016671497 0.0019564729
        0.0022939052 0.0026867478 0.0031431804 0.0036723095 0.0042842203 0.0049900166
        0.0058018286 0.00673276 0.0077967127 0.009008021 0.010380783 0.011927766
        0.013658796 0.015578678 0.017684799 0.019964749 0.022394266 0.024935804
        0.027537873 0.030135328 0.03265081 0.034997664 0.037084527 0.038821544
        0.040127687 0.040938325 0.041487347 0.001189867 0.001418171 0.0016657438
        0.001954973 0.0022923462 0.0026851778 0.0031416516 0.003670862 0.004282855
        0.0049886634 0.0058003194 0.0067308173 0.0077939667 0.00900405 0.010375161
        0.011920095 0.01364873 0.015565918 0.017669102 0.019945933 0.022372218
        0.024910478 0.027509298 0.030103609 0.03261614 0.03496033 0.037044924
        0.03878016 0.04008511 0.040895194 0.041444026 0.0011886955 0.0014168515
        0.0016642876 0.0019533918 0.0022906638 0.0026834288 0.0031398754 0.0036690896
        0.004281086 0.004986838 0.005798293 0.0067283483 0.0077907303 0.00899967
        0.010369247 0.011912273 0.013638649 0.015553261 0.017653592 0.019927349
        0.02235041 0.024885379 0.027480923 0.030072058 0.03258161 0.034923118
        0.037005424 0.03873888 0.04004263 0.04085216 0.041400805 0.001187514
        0.0014155082 0.0016627896 0.0019517425 0.002288876 0.0026815254 0.003137883
        0.0036670286 0.004278952 0.0049845763 0.0057957773 0.0067253727 0.0077870153
        0.008994887 0.010363046 0.011904301 0.013628557 0.01554071 0.017638272
        0.019908998 0.022328848 0.024860512 0.027452752 0.030040685 0.032547228
        0.034886032 0.03696604 0.038697705 0.040000256 0.04080923 0.04135769
        0.0011863245 0.001414145 0.0016612561 0.0019500349 0.002286998 0.0026794875
        0.0031357 0.0036647092 0.0042764843 0.004981909 0.0057928017 0.006721914
        0.007782838 0.008989712 0.010356567 0.0118961865 0.013618458 0.015528267
        0.017623141 0.019890886 0.022307537 0.024835885 0.027424796 0.030009495
        0.032513008 0.034849085 0.03692678 0.03865664 0.039957985 0.0407664
        0.04131467 0.0011851281 0.0014127647 0.0016596921 0.0019482768 0.0022850407
        0.0026773307 0.0031333459 0.0036621548 0.0042737094 0.004978863 0.00578939
        0.006717992 0.0077782166 0.0089841625 0.010349823 0.011887941 0.01360836
        0.015515938 0.017608207 0.019873014 0.022286478 0.024811497 0.027397059
        0.029978497 0.03247895 0.03481228 0.036887646 0.038615692 0.039915822
        0.040723678 0.041271754 0.001183926 0.0014113694 0.0016581013 0.001946474
        0.0022830127 0.002675067 0.0031308364 0.003659384 0.004270649 0.0049754614
        0.0057855654 0.006713631 0.0077731735 0.008978258 0.010342832 0.011879576
        0.0135982735 0.015503732 0.017593471 0.019855384 0.022265675 0.024787357
        0.027369546 0.029947694 0.032445066 0.034775626 0.036848646 0.038574867
        0.039873775 0.04068106 0.04122894 0.0011827186 0.0014099606 0.0016564863
        0.0019446306 0.0022809203 0.002672705 0.0031281828 0.0036564115 0.0042673196
        0.004971722 0.0057813483 0.0067088525 0.0077677327 0.008972023 0.010335616
        0.011871115 0.013588212 0.015491654 0.017578939 0.019838 0.02224513
        0.024763467 0.02734226 0.029917097 0.032411356 0.034739126 0.03680978
        0.038534164 0.03983184 0.040638547 0.04118622 0.001181506 0.001408539
        0.0016548486 0.0019427496 0.0022787675 0.0026702506 0.003125393 0.003653247
        0.0042637335 0.004967661 0.005776758 0.00670368 0.007761921 0.008965487
        0.010328203 0.011862578 0.013578194 0.015479716 0.017564617 0.019820863
        0.022224845 0.02473983 0.027315207 0.029886704 0.03237783 0.03470279
        0.036771063 0.03849359 0.03979002 0.040596142 0.041143604 0.0011802884
        0.001407105 0.001653189 0.0019408321 0.0022765566 0.002667707 0.0031224713
        0.0036498962 0.0042598983 0.00496329 0.005771812 0.0066981385 0.0077557703
        0.008958684 0.010320628 0.011853992 0.0135682365 0.01546793 0.01755051
        0.01980398 0.022204824 0.024716448 0.02728839 0.029856525 0.032344494
        0.03466662 0.03673249 0.03845315 0.039748322 0.04055385 0.041101087
        0.0011790653 0.0014056581 0.0016515073 0.0019388783 0.002274288 0.0026650743
        0.0031194186 0.003646361 0.004255819 0.004958619 0.005766528 0.006692256
        0.007749316 0.008951654 0.010312926 0.011845388 0.013558362 0.015456309
        0.017536625 0.01978735 0.022185069 0.024693325 0.027261814 0.029826565
        0.032311354 0.034630623 0.036694076 0.038412847 0.039706748 0.040511664
        0.041058667 0.001177836 0.0014041974 0.0016498026 0.0019368868 0.0022719598
        0.002662351 0.0031162323 0.0036426398 0.0042514973 0.0049536554 0.005760926
        0.006686063 0.007742599 0.008944441 0.010305139 0.011836801 0.013548593
        0.015444866 0.017522974 0.019770984 0.022165583 0.024670463 0.027235484
        0.029796828 0.03227841 0.034594804 0.03665582 0.038372688 0.039665297
        0.04046959 0.041016348 0.0011765993 0.0014027212 0.0016480723 0.0019348545
        0.002269568 0.0026595306 0.0031129061 0.0036387271 0.004246932 0.0049484083
        0.005755027 0.0066795964 0.0077356678 0.008937096 0.010297315 0.011828267
        0.013538958 0.015433621 0.017509561 0.019754881 0.02214637 0.02464787
        0.027209403 0.02976732 0.03224568 0.034559175 0.03661773 0.038332675
        0.039623976 0.040427633 0.040974125 0.0011753533 0.0014012265 0.0016463129
        0.0019327764 0.0022671053 0.002656605 0.0031094297 0.003634614 0.00424212
        0.0049428875 0.0057488577 0.0066729006 0.007728577 0.008929678 0.010289504
        0.0118198255 0.013529483 0.015422589 0.0174964 0.01973905 0.022127435
        0.024625545 0.02718358 0.02973805 0.032213163 0.034523737 0.03657981
        0.038292814 0.03958279 0.040385786 0.040932003 0.0011740958 0.0013997097
        0.001644519 0.0019306449 0.0022645616 0.002653561 0.0031057887 0.0036302884
        0.0042370586 0.0049371063 0.005742453 0.006666028 0.00772139 0.008922251
        0.010281764 0.011811522 0.0135202 0.0154117895 0.0174835 0.019723501
        0.022108784 0.024603501 0.02715802 0.029709022 0.032180868 0.0344885
        0.036542073 0.03825311 0.03954174 0.04034406 0.040889975 0.0011728232
        0.0013981649 0.0016426826 0.0019284488 0.002261922 0.00265038 0.003101964
        0.0036257366 0.0042317477 0.004931086 0.005735859 0.0066590444 0.0077141817
        0.008914885 0.010274152 0.0118034 0.013511139 0.015401245 0.01747088
        0.01970824 0.022090426 0.024581742 0.027132735 0.029680252 0.03214881
        0.034453478 0.036504526 0.038213573 0.03950083 0.040302448 0.040848043
        0.0011715306 0.0013965842 0.0016407924 0.0019261728 0.0022591662 0.0026470376
        0.003097932 0.0036209445 0.0042261938 0.004924861 0.0057291356 0.0066520283
        0.007707035 0.008907658 0.010266734 0.011795508 0.013502334 0.015390977
        0.01745855 0.019693282 0.022072373 0.024560282 0.027107734 0.02965175
        0.032116994 0.03441868 0.036467176 0.038174212 0.03946007 0.04026096
        0.04080621 0.0011702109 0.0013949559 0.0016388322 0.0019237943 0.0022562656
        0.002643503 0.0030936662 0.0036159016 0.0042204144 0.0049184826 0.005722365
        0.006645076 0.007700047 0.008900654 0.010259576 0.011787897 0.013493824
        0.015381013 0.017446533 0.019678641 0.022054637 0.024539135 0.027083036
        0.029623535 0.03208545 0.03438412 0.036430042 0.038135033 0.039419465
        0.040219598 0.040764473 0.0011688537 0.0013932628 0.001636778 0.0019212819
        0.0022531822 0.0026397367 0.003089139 0.0036106086 0.00421445 0.004912031
        0.005715652 0.0066383025 0.007693323 0.008893961 0.01025275 0.01178062
        0.013485645 0.015371381 0.017434852 0.019664338 0.022037242 0.024518322
        0.02705866 0.029595623 0.032054186 0.03434982 0.03639314 0.038096055
        0.039379023 0.040178362 0.04072283 0.0011674436 0.0013914792 0.0016345948
        0.0019185903 0.0022498644 0.0026356939 0.0030843306 0.0036050885 0.0042083734
        0.00490562 0.005709133 0.006631841 0.007686981 0.0088876765 0.010246328
        0.011773733 0.013477843 0.015362118 0.017423537 0.019650403 0.022020211
        0.024497872 0.027034637 0.02956805 0.032023236 0.03431581 0.03635649
        0.038057294 0.039338756 0.040137265 0.04068128 0.0011659558 0.001389565
        0.0016322286 0.0019156538 0.0022462464 0.0026313292 0.0030792425 0.0035994065
        0.00420231 0.0048994133 0.0057029775 0.006625846 0.0076811495 0.008881901
        0.010240391 0.011767301 0.01347047 0.01535327 0.01741263 0.019636877
        0.022003591 0.024477826 0.027011009 0.029540854 0.031992644 0.03428212
        0.036320124 0.038018774 0.039298687 0.04009631 0.04063983 0.0011643496
        0.0013874542 0.0016295951 0.0019123793 0.0022422508 0.002626617 0.0030739286
        0.0035937007 0.004196459 0.004893629 0.0056973915 0.006620491 0.0076759662
        0.008876745 0.010235026 0.011761397 0.013463593 0.015344897 0.017402193
        0.019623818 0.021987436 0.024458244 0.026987836 0.029514095 0.031962458
        0.034248807 0.03628409 0.037980527 0.039258834 0.04005551 0.040598467
        0.0011625515 0.0013850337 0.0016265591 0.0019086408 0.0022378105 0.0026215948
        0.0030685484 0.0035882255 0.004191114 0.004888551 0.005692616 0.006615969
        0.007671584 0.008872329 0.010230341 0.011756118 0.013457305 0.015337093
        0.017392315 0.019611318 0.021971844 0.024439223 0.026965212 0.029487867
        0.031932775 0.034215946 0.03624845 0.037942614 0.039219234 0.040014885
        0.040557202 0.001160408 0.0013820928 0.0016229078 0.001904301 0.002232942
        0.002616466 0.003063455 0.003583403 0.0041866866 0.0048845303 0.0056889304
        0.0066124992 0.007668181 0.008868813 0.010226481 0.01175161 0.0134517485
        0.015330003 0.017383147 0.019599533 0.02195697 0.02442092 0.026943298
        0.02946232 0.03190373 0.034183666 0.036213316 0.037905116 0.039179947
        0.039974462 0.04051603 0.0011575046 0.0013782197 0.0016183555 0.0018993452
        0.0022279515 0.0026117857 0.0030593106 0.0035798687 0.00418371 0.0048819846
        0.0056866603 0.0066103474 0.0076659927 0.00886642 0.010223672 0.011748104
        0.01344717 0.015323882 0.017374957 0.019588737 0.021943098 0.02440362
        0.026922371 0.029437726 0.031875577 0.03415219 0.03617888 0.03786818
        0.039141078 0.0399343 0.04047495 0.0011522014 0.001372694 0.0016128181
        0.0018943561 0.0022238556 0.0026086892 0.0030571318 0.003578419 0.0041827676
        0.0048813396 0.005686136 0.006609798 0.0076652877 0.008865422 0.010222199
        0.011745903 0.013443886 0.015319067 0.017368091 0.01957929 0.021930594
        0.024387691 0.026902795 0.029414434 0.03184864 0.03412182 0.03614539
        0.03783201 0.039102763 0.039894458 0.040433962 0.0011353536 0.0013609367
        0.0016051948 0.001889907 0.002221689 0.0026080601 0.0030574654 0.0035792943
        0.004183886 0.004882493 0.00568718 0.0066106264 0.00766581 0.008865532
        0.010221748 0.011744657 0.013441514 0.015315136 0.017362095 0.019570708
        0.02191895 0.024372615 0.026884053 0.02939194 0.03182245 0.03409212
        0.036112487 0.03779632 0.039064802 0.039854847 0.04039307
      </DataArray>
    </PointData>
    <CellData>
    </CellData>
    <Points>
      <DataArray type="Float32" Name="Points" NumberOfComponents="3" format="ascii" RangeMin="1.2476568992568542" RangeMax="1.4344507700314046">
        0.89694196 0.03744149 0.8664531 0.8975789 0.037441373 0.8664505
        0.8983275 0.03744124 0.8664474 0.89920694 0.037441082 0.8664437
        0.90023935 0.037440892 0.8664393 0.90145063 0.037440665 0.8664341
        0.90287066 0.037440397 0.86642784 0.9045338 0.03744008 0.8664205
        0.90647954 0.037439704 0.8664118 0.908753 0.037439264 0.8664016
        0.9114053 0.03743875 0.8663898 0.9144944 0.03743816 0.86637616
        0.9180846 0.0374375 0.86636084 0.9222477 0.03743676 0.86634374
        0.92706156 0.03743595 0.86632496 0.9326105 0.037435066 0.8663045
        0.9389834 0.037434116 0.86628246 0.94627196 0.037433095 0.86625886
        0.95456797 0.037432007 0.8662337 0.9639592 0.037430845 0.8662068
        0.9745249 0.03742958 0.8661775 0.9863298 0.03742816 0.86614466
        0.9994172 0.037426494 0.8661061 1.0138023 0.03742444 0.86605865
        1.0294653 0.037421796 0.8659974 1.0463455 0.037418276 0.86591595
        1.064337 0.037413538 0.8658063 1.0832883 0.037407164 0.8656588
        1.1030041 0.037398722 0.86546344 1.1232522 0.03738778 0.86521024
        1.1437727 0.03737398 0.8648908 0.8971929 0.038716666 0.86639607
        0.8978341 0.038712602 0.86639357 0.8985865 0.03870906 0.8663906
        0.8994691 0.038706023 0.86638695 0.9005041 0.038703453 0.86638266
        0.9017174 0.03870132 0.8663775 0.90313876 0.038699597 0.86637133
        0.9048026 0.03869825 0.866364 0.9067484 0.038697265 0.86635536
        0.90902126 0.03869661 0.86634517 0.9116723 0.038696274 0.86633337
        0.91475916 0.03869623 0.8663197 0.9183463 0.038696457 0.86630434
        0.92250514 0.038696922 0.8662873 0.92731357 0.03869757 0.8662686
        0.9328556 0.03869834 0.86624813 0.9392201 0.038699143 0.8662261
        0.9464987 0.038699888 0.86620253 0.9547833 0.038700476 0.8661773
        0.9641619 0.03870081 0.86615044 0.9747137 0.03870083 0.8661211
        0.98650366 0.038700454 0.8660883 0.9995752 0.038699593 0.86604965
        1.0139436 0.038698126 0.86600214 1.0295888 0.038695868 0.86594087
        1.0464503 0.038692564 0.8658594 1.0644221 0.038687874 0.8657497
        1.0833529 0.038681388 0.8656022 1.1030476 0.03867267 0.86540693
        1.123274 0.038661294 0.8651539 1.1437727 0.0386469 0.86483485
        0.8974439 0.03999176 0.86633706 0.89808667 0.039985146 0.86633474
        0.89884096 0.039979037 0.8663318 0.89972574 0.039973546 0.86632836
        0.9007629 0.039968744 0.8663241 0.90197814 0.039964683 0.866319
        0.9034011 0.039961375 0.8663129 0.9050661 0.03995882 0.8663056
        0.9070124 0.039957017 0.86629695 0.9092851 0.039955933 0.8662868
        0.91193527 0.039955556 0.866275 0.91502047 0.039955854 0.8662614
        0.9186049 0.039956775 0.86624604 0.9227599 0.039958254 0.866229
        0.92756313 0.039960194 0.8662103 0.9330986 0.039962452 0.86618984
        0.939455 0.039964866 0.86616784 0.9467239 0.039967235 0.86614424
        0.9549973 0.039969373 0.8661191 0.96436334 0.039971113 0.86609215
        0.97490156 0.03997232 0.8660628 0.9866768 0.03997291 0.8660299
        0.9997326 0.039972797 0.86599135 1.0140843 0.03997187 0.8659438
        1.0297118 0.03996996 0.86588246 1.0465547 0.03996684 0.8658009
        1.0645069 0.03996217 0.8656912 1.0834173 0.039955553 0.8655438
        1.1030909 0.03994655 0.86534864 1.1232958 0.03993473 0.8650958
        1.1437727 0.039919745 0.864777 0.8976948 0.041266758 0.8662762
        0.89833814 0.04125831 0.86627394 0.89909333 0.041250233 0.86627114
        0.8999793 0.041242734 0.86626774 0.90101796 0.041235987 0.8662636
        0.9022347 0.041230127 0.86625856 0.90365905 0.041225255 0.86625254
        0.90532523 0.04122143 0.8662453 0.9072723 0.041218683 0.86623675
        0.9095452 0.04121703 0.86622655 0.91219485 0.041216448 0.86621475
        0.9152786 0.04121691 0.8662012 0.9188607 0.04121836 0.8661859
        0.9230121 0.04122069 0.86616886 0.9278105 0.04122376 0.86615014
        0.9333396 0.04122736 0.8661297 0.939688 0.04123124 0.8661077
        0.9469475 0.041235104 0.8660841 0.95521003 0.041238677 0.866059
        0.9645638 0.041241713 0.86603206 0.97508854 0.041244034 0.8660027
        0.9868492 0.041245513 0.8659698 0.9998895 0.04124609 0.86593115
        1.0142245 0.04124565 0.8658835 1.0298346 0.041244056 0.86582214
        1.0466588 0.041241083 0.8657406 1.0645915 0.041236416 0.86563087
        1.0834816 0.04122965 0.86548346 1.1031342 0.04122035 0.8652884
        1.1233175 0.041208077 0.8650358 1.1437727 0.041192498 0.8647173
        0.8979458 0.04254167 0.8662135 0.8985891 0.042531814 0.8662113
        0.89934456 0.042522192 0.86620855 0.9002311 0.04251305 0.8662053
        0.9012706 0.04250464 0.8662012 0.9024884 0.04249717 0.8661962
        0.9039139 0.042490825 0.86619025 0.90558106 0.04248574 0.8661831
        0.9075288 0.042482007 0.8661745 0.90980196 0.042479686 0.86616445
        0.9124512 0.04247878 0.86615264 0.91553384 0.042479277 0.8661391
        0.91911376 0.042481106 0.8661238 0.9232619 0.042484146 0.86610687
        0.92805564 0.042488206 0.8660881 0.9335786 0.042493008 0.8660677
        0.9399194 0.042498216 0.86604565 0.94716966 0.042503454 0.86602205
        0.95542145 0.04250835 0.86599696 0.96476316 0.04251258 0.86597
        0.9752746 0.042515922 0.8659407 0.9870209 0.04251824 0.8659077
        1.0000457 0.04251944 0.86586905 1.0143644 0.04251945 0.8658214
        1.0299568 0.042518135 0.86575997 1.0467626 0.04251529 0.8656784
        1.0646759 0.0425106 0.86556864 1.0835457 0.04250367 0.86542124
        1.1031773 0.042494062 0.86522627 1.1233392 0.042481337 0.8649739
        1.1437727 0.042465165 0.8646558 0.89819676 0.04381648 0.86614895
        0.89883983 0.043805517 0.86614674 0.89959526 0.043794647 0.8661441
        0.90048194 0.043784156 0.86614084 0.9015218 0.043774333 0.86613685
        0.9027402 0.043765448 0.86613196 0.9041664 0.043757755 0.86612606
        0.90583426 0.04375147 0.86611897 0.9077826 0.043746755 0.86611044
        0.910056 0.043743715 0.8661004 0.91270494 0.04374241 0.8660886
        0.91578645 0.043742836 0.86607516 0.9193644 0.04374493 0.8660599
        0.92350936 0.043748554 0.8660429 0.9282987 0.043753468 0.8660242
        0.9338158 0.043759342 0.8660038 0.94014907 0.04376576 0.86598176
        0.9473903 0.043772254 0.86595815 0.95563155 0.04377836 0.86593306
        0.9649614 0.043783695 0.8659061 0.97545975 0.04378798 0.86587673
        0.9871918 0.043791056 0.8658438 1.0002013 0.043792833 0.86580515
        1.0145036 0.043793246 0.8657574 1.0300788 0.04379218 0.86569595
        1.046866 0.043789435 0.86561435 1.0647601 0.043784708 0.86550456
        1.0836096 0.04377761 0.8653572 1.1032203 0.043767683 0.8651623
        1.1233609 0.043754503 0.8649101 1.1437727 0.04373774 0.8645924
        0.89844775 0.045091193 0.86608243 0.8990904 0.04507933 0.86608034
        0.89984554 0.04506745 0.8660778 0.9007321 0.045055836 0.86607456
        0.90177196 0.04504481 0.8660706 0.9029906 0.045034688 0.8660658
        0.90441716 0.045025792 0.8660599 0.90608543 0.04501839 0.8660529
        0.9080342 0.04501272 0.8660444 0.91030765 0.045008954 0.8660344
        0.91295624 0.04500719 0.8660227 0.9160368 0.04500747 0.86600924
        0.91961277 0.045009732 0.86599404 0.92375475 0.04501383 0.8659771
        0.92853975 0.04501949 0.8659584 0.9340511 0.04502632 0.86593807
        0.94037706 0.04503383 0.865916 0.9476095 0.045041464 0.8658924
        0.9558404 0.04504868 0.86586726 0.9651586 0.045055024 0.8658404
        0.975644 0.045060173 0.865811 0.98736197 0.045063943 0.86577797
        1.0003563 0.045066245 0.8657393 1.0146425 0.045067027 0.86569154
        1.0302004 0.045066174 0.86563003 1.0469693 0.04506351 0.8655484
        1.064844 0.045058735 0.8654386 1.0836734 0.045051448 0.8652913
        1.1032633 0.04504121 0.8650965 1.1233824 0.045027573 0.86484444
        1.1437727 0.045010213 0.86452705 0.8986987 0.046365812 0.86601406
        0.89934087 0.04635321 0.86601204 0.9000956 0.046340488 0.86600953
        0.9009818 0.046327934 0.8660064 0.90202147 0.046315882 0.8660025
        0.90323997 0.046304695 0.86599773 0.90466666 0.046294723 0.86599195
        0.90633506 0.046286304 0.8659849 0.9082839 0.046279736 0.8659765
        0.9105573 0.046275247 0.86596656 0.91320544 0.04627301 0.8659549
        0.9162849 0.04627309 0.8659415 0.9198591 0.046275444 0.86592627
        0.9239981 0.046279926 0.8659094 0.92877895 0.04628623 0.86589074
        0.9342846 0.046293903 0.86587036 0.94060344 0.046302397 0.86584836
        0.94782716 0.04631106 0.86582476 0.95604795 0.046319287 0.8657996
        0.9653546 0.046326548 0.86577266 0.9758273 0.046332486 0.8657433
        0.9875314 0.046336886 0.8657103 1.0005108 0.046339665 0.8656716
        1.0147808 0.046340767 0.8656238 1.0303215 0.046340108 0.86556226
        1.0470722 0.046337504 0.8654806 1.0649277 0.04633266 0.86537075
        1.083737 0.046325188 0.8652234 1.103306 0.046314627 0.86502874
        1.123404 0.046300534 0.86477697 1.1437727 0.0462826 0.8644599
        0.8989496 0.04764032 0.86594385 0.8995913 0.04762711 0.8659419
        0.9003455 0.047613684 0.8659394 0.9012312 0.047600336 0.8659363
        0.9022705 0.04758742 0.86593246 0.9034887 0.04757531 0.86592776
        0.9049151 0.047564387 0.86592203 0.9065834 0.047555048 0.86591506
        0.90853214 0.047547646 0.8659067 0.91080534 0.047542475 0.8658968
        0.91345286 0.047539752 0.8658852 0.91653126 0.047539596 0.8658718
        0.9201035 0.047541983 0.8658567 0.92423964 0.047546774 0.86583984
        0.92901623 0.047553625 0.8658211 0.9345164 0.04756205 0.8658008
        0.9408282 0.04757142 0.8657788 0.9480434 0.04758102 0.86575526
        0.95625424 0.04759016 0.8657301 0.9655496 0.04759825 0.86570317
        0.9760097 0.047604896 0.8656738 0.9877001 0.04760987 0.86564076
        1.0006646 0.047613077 0.865602 1.0149186 0.04761447 0.86555415
        1.0304422 0.04761397 0.8654926 1.0471748 0.047611408 0.86541086
        1.0650111 0.047606487 0.865301 1.0838004 0.047598816 0.8651538
        1.1033487 0.04758793 0.8649592 1.1234255 0.047573388 0.8647076
        1.1437727 0.047554877 0.8643908 0.8992006 0.048914727 0.8658717
        0.8998417 0.048901003 0.8658698 0.9005953 0.04888699 0.8658673
        0.90148044 0.048872977 0.8658643 0.9025191 0.04885932 0.8658605
        0.9037368 0.04884641 0.8658559 0.9051629 0.048834655 0.8658502
        0.9068308 0.048824497 0.8658433 0.9087792 0.04881633 0.865835
        0.91105187 0.04881052 0.8658252 0.91369873 0.048807323 0.86581355
        0.9167758 0.04880691 0.86580026 0.92034614 0.048809297 0.8657852
        0.9244793 0.048814323 0.8657683 0.92925185 0.048821647 0.8657497
        0.9347465 0.048830733 0.8657294 0.9410514 0.04884088 0.8657074
        0.9482582 0.048851315 0.86568385 0.9564593 0.04886127 0.8656587
        0.9657435 0.04887011 0.86563176 0.9761912 0.048877396 0.8656024
        0.987868 0.04888288 0.86556935 1.0008178 0.04888647 0.86553055
        1.015056 0.048888113 0.8654827 1.0305626 0.048887752 0.86542106
        1.0472771 0.04888521 0.8653393 1.0650944 0.048880197 0.8652294
        1.0838637 0.048872326 0.8650822 1.1033914 0.04886112 0.8648877
        1.123447 0.048846137 0.8646363 1.1437727 0.048827056 0.86431986
        0.89945155 0.050189022 0.86579776 0.90009207 0.05017487 0.86579585
        0.900845 0.05016036 0.8657934 0.90172946 0.05014579 0.8657904
        0.90276754 0.0501315 0.86578673 0.9039846 0.0501179 0.86578214
        0.90541005 0.050105423 0.8657765 0.90707743 0.050094537 0.8657696
        0.9090252 0.050085686 0.8657614 0.91129726 0.05007928 0.86575156
        0.9139432 0.050075635 0.86574006 0.91701895 0.050074965 0.8657268
        0.9205872 0.050077308 0.86571175 0.9247174 0.05008253 0.86569494
        0.9294858 0.050090257 0.8656764 0.934975 0.050099917 0.8656561
        0.94127315 0.050110754 0.8656341 0.94847167 0.050121926 0.86561054
        0.9566631 0.05013261 0.8655854 0.9659363 0.050142113 0.86555845
        0.9763718 0.050149966 0.86552906 0.9880352 0.050155904 0.86549604
        1.0009704 0.050159827 0.86545724 1.0151929 0.050161693 0.8654093
        1.0306826 0.050161436 0.8653476 1.0473791 0.050158903 0.8652658
        1.0651774 0.050153796 0.86515594 1.0839268 0.05014571 0.8650087
        1.1034338 0.05013419 0.86481434 1.1234683 0.050118763 0.86456317
        1.1437727 0.05009913 0.864247 0.8997025 0.0514632 0.8657219
        0.9003424 0.05144869 0.86572003 0.9010947 0.051433768 0.8657176
        0.90197843 0.051418725 0.86571467 0.90301573 0.051403895 0.865711
        0.9042321 0.05138971 0.86570644 0.90565675 0.05137661 0.8657009
        0.90732336 0.051365085 0.86569405 0.9092704 0.05135562 0.8656859
        0.9115416 0.05134867 0.8656761 0.9141864 0.05134461 0.86566466
        0.91726065 0.051343683 0.8656515 0.92082673 0.051345978 0.86563647
        0.9249539 0.051351342 0.8656197 0.9297182 0.051359415 0.8656012
        0.935202 0.051369574 0.86558086 0.94149333 0.051381018 0.86555886
        0.94868374 0.05139284 0.8655354 0.9568656 0.05140416 0.8655102
        0.96612805 0.051414248 0.8654833 0.97655153 0.051422596 0.8654539
        0.9882017 0.05142893 0.8654208 1.0011225 0.051433142 0.86538196
        1.0153292 0.051435195 0.8653341 1.0308022 0.051435027 0.86527234
        1.0474808 0.05143248 0.8651905 1.0652602 0.051427264 0.86508065
        1.0839897 0.051418975 0.86493343 1.1034763 0.051407136 0.8647391
        1.1234896 0.051391277 0.8644881 1.1437727 0.051371094 0.8641724
        0.8999535 0.05273727 0.86564416 0.90059274 0.05272246 0.8656423
        0.9013443 0.05270719 0.86564 0.90222734 0.052691743 0.86563706
        0.9032638 0.052676465 0.8656334 0.9044793 0.05266178 0.8656289
        0.9059031 0.05264814 0.8656234 0.9075689 0.05263606 0.8656166
        0.9095149 0.05262606 0.86560845 0.91178507 0.05261863 0.8655988
        0.91442853 0.05261419 0.8655874 0.91750115 0.052613024 0.86557424
        0.9210649 0.05261525 0.8655593 0.92518896 0.052620735 0.86554253
        0.929949 0.0526291 0.86552405 0.9354274 0.052639686 0.8655037
        0.941712 0.052651647 0.8654818 0.9488944 0.05266403 0.8654583
        0.95706695 0.052675907 0.8654332 0.9663187 0.0526865 0.8654062
        0.97673035 0.05269528 0.86537683 0.9883674 0.05270195 0.8653438
        1.0012739 0.052706406 0.8653049 1.0154651 0.052708615 0.86525697
        1.0309215 0.05270851 0.86519516 1.0475823 0.052705936 0.86511326
        1.0653428 0.05270061 0.8650034 1.0840526 0.052692104 0.86485624
        1.1035186 0.052679952 0.86466205 1.1235108 0.052663665 0.8644113
        1.1437727 0.052642945 0.86409587 0.9002044 0.05401122 0.8655645
        0.9008431 0.053996164 0.8655627 0.9015939 0.053980604 0.86556035
        0.90247613 0.05396482 0.8655575 0.90351176 0.05394917 0.8655539
        0.9047263 0.053934056 0.86554945 0.90614915 0.05391996 0.86554396
        0.9078139 0.0539074 0.8655373 0.90975887 0.05389694 0.8655292
        0.9120277 0.05388909 0.8655195 0.9146698 0.053884313 0.8655082
        0.91774046 0.053882927 0.8654951 0.92130184 0.053885084 0.8654802
        0.92542255 0.053890664 0.8654635 0.9301784 0.05389927 0.86544496
        0.93565136 0.053910222 0.86542475 0.94192934 0.05392263 0.8654028
        0.9491037 0.053935494 0.86537933 0.95726705 0.05394784 0.86535424
        0.9665083 0.053958856 0.8653273 0.9769082 0.053967997 0.8652979
        0.9885323 0.053974953 0.86526483 1.0014247 0.053979613 0.8652259
        1.0156006 0.05398194 0.8651779 1.0310403 0.05398188 0.8651161
        1.0476834 0.05397927 0.8650342 1.065425 0.053973813 0.8649243
        1.0841151 0.0539651 0.8647772 1.1035607 0.053952627 0.86458313
        1.123532 0.05393593 0.8643325 1.1437727 0.05391468 0.8640174
        0.9004554 0.055285048 0.865483 0.90109336 0.05526979 0.86548126
        0.90184355 0.05525399 0.86547893 0.9027249 0.055237934 0.8654761
        0.90375966 0.055221967 0.86547256 0.90497327 0.055206496 0.86546814
        0.906395 0.05519202 0.8654627 0.9080586 0.05517907 0.86545604
        0.91000235 0.055168204 0.865448 0.9122698 0.055159993 0.8654384
        0.9149102 0.05515492 0.8654271 0.9179788 0.05515335 0.865414
        0.9215376 0.055155445 0.86539924 0.9256549 0.0551611 0.86538255
        0.93040633 0.055169906 0.8653641 0.9358739 0.055181168 0.86534387
        0.9421452 0.055193953 0.865322 0.94931173 0.05520721 0.8652985
        0.95746595 0.055219945 0.8652735 0.966697 0.055231314 0.8652465
        0.97708523 0.05524075 0.8652171 0.9886965 0.055247936 0.865184
        1.0015749 0.055252753 0.8651451 1.0157355 0.055255175 0.86509705
        1.0311588 0.055255134 0.8650352 1.0477842 0.055252466 0.8649533
        1.0655072 0.055246882 0.86484337 1.0841776 0.05523795 0.86469626
        1.1036028 0.055225182 0.86450225 1.1235533 0.055208065 0.8642519
        1.1437727 0.0551863 0.86393714 0.90070635 0.056558754 0.8653996
        0.9013437 0.056543328 0.8653979 0.9020931 0.056527335 0.8653956
        0.90297365 0.05651106 0.8653928 0.9040075 0.056494836 0.8653893
        0.90522003 0.056479078 0.86538494 0.90664065 0.05646429 0.8653795
        0.90830296 0.056451004 0.8653729 0.91024536 0.05643982 0.8653649
        0.9125112 0.0564313 0.8653553 0.9151498 0.056425992 0.8653441
        0.9182162 0.056424264 0.8653311 0.9217722 0.0564263 0.86531633
        0.925886 0.05643202 0.8652997 0.93063295 0.05644099 0.8652813
        0.936095 0.0564525 0.86526114 0.9423597 0.05646558 0.86523926
        0.94951844 0.05647916 0.86521584 0.95766366 0.056492213 0.86519074
        0.96688443 0.05650386 0.8651638 0.97726136 0.056513518 0.8651344
        0.98886 0.056520883 0.86510134 1.0017245 0.056525823 0.86506236
        1.01587 0.0565283 0.8650143 1.0312768 0.05652826 0.86495245
        1.0478847 0.05652553 0.8648705 1.0655891 0.056519803 0.8647605
        1.08424 0.056510657 0.8646135 1.1036448 0.056497578 0.8644196
        1.1235744 0.056480072 0.86416936 1.1437727 0.056457806 0.863855
        0.9009573 0.057832338 0.86531436 0.901594 0.057816777 0.86531264
        0.9023427 0.05780064 0.86531043 0.9032224 0.05778418 0.8653076
        0.9042553 0.05776775 0.8653041 0.90546674 0.057751767 0.86529976
        0.90688616 0.05773673 0.86529446 0.9085471 0.05772318 0.8652879
        0.910488 0.05771173 0.8652799 0.9127522 0.05770298 0.86527044
        0.91538876 0.05769747 0.86525923 0.9184528 0.057695616 0.8652463
        0.9220057 0.057697617 0.8652315 0.9261158 0.05770339 0.86521494
        0.93085825 0.057712503 0.8651966 0.93631476 0.057724208 0.86517644
        0.94257283 0.057737526 0.86515456 0.94972384 0.057751346 0.8651312
        0.95786023 0.057764627 0.8651061 0.967071 0.057776473 0.8650792
        0.97743666 0.05778631 0.86504984 0.9890228 0.057793804 0.8650167
        1.0018734 0.057798814 0.8649778 1.016004 0.057801317 0.8649297
        1.0313945 0.057801254 0.8648678 1.047985 0.057798445 0.8647858
        1.0656707 0.05779258 0.8646758 1.0843021 0.057783224 0.86452883
        1.1036867 0.05776984 0.864335 1.1235955 0.057751942 0.8640851
        1.1437727 0.05772919 0.86377096 0.9012083 0.05910579 0.86522716
        0.9018443 0.059090134 0.8652255 0.90259224 0.059073873 0.86522335
        0.9034711 0.059057288 0.86522055 0.904503 0.059040707 0.86521715
        0.9057133 0.059024546 0.86521286 0.9071315 0.059009317 0.8652075
        0.90879107 0.05899557 0.865201 0.91073036 0.058983915 0.865193
        0.91299266 0.058974985 0.8651836 0.91562706 0.058969334 0.86517245
        0.9186885 0.0589674 0.8651596 0.9222383 0.058969386 0.86514485
        0.9263445 0.058975197 0.86512834 0.93108225 0.058984417 0.86511
        0.93653315 0.05899627 0.8650899 0.9427846 0.059009753 0.8650681
        0.949928 0.059023753 0.8650447 0.95805556 0.05903718 0.8650197
        0.9672565 0.059049163 0.8649928 0.97761106 0.059059102 0.8649634
        0.98918486 0.05906666 0.8649303 1.0020219 0.059071723 0.8648913
        1.0161375 0.05907423 0.8648432 1.0315119 0.05907412 0.86478126
        1.048085 0.05907122 0.8646992 1.0657521 0.05906521 0.8645892
        1.084364 0.059055626 0.8644423 1.1037284 0.05904196 0.8642486
        1.1236165 0.05902367 0.86399883 1.1437727 0.05900044 0.863685
        0.9014592 0.060379107 0.8651382 0.9020946 0.060363382 0.8651365
        0.9028418 0.06034704 0.86513436 0.9037198 0.060330357 0.8651316
        0.90475065 0.06031367 0.8651282 0.90595984 0.060297396 0.865124
        0.90737677 0.06028203 0.8651187 0.90903485 0.06026814 0.8651122
        0.91097236 0.060256355 0.8651043 0.91323274 0.060247306 0.86509484
        0.91586477 0.06024156 0.8650838 0.91892344 0.06023958 0.86507094
        0.92246985 0.06024157 0.8650563 0.9265721 0.060247425 0.8650398
        0.931305 0.060256723 0.8650215 0.9367502 0.060268678 0.86500144
        0.942995 0.060282268 0.8649796 0.9501308 0.060296364 0.86495626
        0.9582498 0.06030987 0.8649313 0.96744096 0.06032192 0.8649044
        0.9777846 0.0603319 0.8648751 0.9893462 0.06033948 0.864842
        1.0021697 0.060344536 0.86480296 1.0162705 0.060347013 0.8647548
        1.0316288 0.060346846 0.86469287 1.0481845 0.060343843 0.8646108
        1.0658333 0.060337674 0.8645008 1.0844259 0.060327884 0.8643539
        1.1037701 0.06031392 0.8641603 1.1236374 0.06029526 0.86391073
        1.1437727 0.060271565 0.8635973 0.90171015 0.0616523 0.8650473
        0.90234494 0.06163653 0.8650456 0.9030914 0.06162014 0.8650435
        0.90396845 0.061603397 0.8650408 0.9049983 0.06158664 0.86503744
        0.90620637 0.061570294 0.86503315 0.90762186 0.061554853 0.8650279
        0.9092784 0.06154089 0.86502147 0.9112141 0.06152903 0.86501366
        0.91347235 0.061519913 0.86500424 0.91610193 0.061514135 0.8649932
        0.9191576 0.061512146 0.8649804 0.9227005 0.061514147 0.8649658
        0.9267985 0.061520062 0.8649494 0.9315265 0.061529413 0.8649311
        0.93696594 0.06154142 0.8649111 0.94320416 0.061555047 0.8648893
        0.95033246 0.061569165 0.864866 0.9584429 0.06158268 0.86484104
        0.9676244 0.06159473 0.8648142 0.97795725 0.061604686 0.8647849
        0.98950684 0.06161225 0.86475176 1.002317 0.06161726 0.8647127
        1.0164031 0.06161968 0.86466455 1.0317454 0.06161943 0.8646026
        1.0482839 0.061616313 0.8645205 1.0659144 0.06160999 0.8644105
        1.0844876 0.06159998 0.8642636 1.1038116 0.061585736 0.8640701
        1.1236583 0.06156671 0.86382073 1.1437727 0.061542567 0.8635076
        0.90196115 0.06292535 0.86495453 0.9025952 0.06290956 0.86495286
        0.9033409 0.06289315 0.8649508 0.9042171 0.06287639 0.8649481
        0.90524596 0.06285962 0.86494476 0.9064528 0.06284325 0.8649405
        0.9078669 0.06282777 0.8649353 0.9095218 0.06281379 0.86492884
        0.91145563 0.06280192 0.8649211 0.9137116 0.06279279 0.8649117
        0.9163385 0.06278703 0.8649007 0.91939104 0.06278508 0.86488795
        0.9229302 0.06278713 0.8648734 0.9270238 0.06279308 0.864857
        0.9317467 0.06280247 0.8648388 0.93718034 0.06281449 0.8648188
        0.943412 0.062828094 0.8647971 0.95053285 0.06284216 0.8647738
        0.95863485 0.062855616 0.8647489 0.9678069 0.06286758 0.86472213
        0.9781291 0.06287747 0.8646928 0.9896667 0.06288495 0.86465967
        1.0024636 0.06288989 0.8646207 1.0165352 0.06289223 0.86457247
        1.0318615 0.06289188 0.8645104 1.048383 0.06288863 0.8644283
        1.0659951 0.06288214 0.8643183 1.0845491 0.06287191 0.86417145
        1.1038531 0.06285739 0.8639781 1.1236792 0.06283801 0.8637289
        1.1437727 0.06281343 0.8634161 0.9022121 0.064198256 0.8648599
        0.90284556 0.064182475 0.86485827 0.90359044 0.06416608 0.8648562
        0.9044658 0.064149335 0.86485356 0.90549356 0.06413258 0.86485016
        0.9066992 0.064116225 0.864846 0.9081119 0.06410079 0.8648408
        0.909765 0.06408684 0.86483437 0.91169685 0.064075 0.8648266
        0.9139505 0.064065956 0.8648173 0.91657454 0.06406026 0.86480635
        0.91962373 0.06405837 0.8647936 0.92315894 0.0640605 0.8647791
        0.92724806 0.0640665 0.8647627 0.93196577 0.06407589 0.8647446
        0.9373935 0.064087875 0.86472464 0.9436186 0.06410139 0.864703
        0.950732 0.064115345 0.86467975 0.9588257 0.06412865 0.8646549
        0.9679884 0.064140484 0.8646281 0.97830003 0.06415023 0.8645988
        0.98982596 0.06415759 0.8645657 1.0026097 0.06416242 0.8645267
        1.0166668 0.064164646 0.86447847 1.0319774 0.06416418 0.8644164
        1.0484817 0.06416079 0.8643342 1.0660757 0.06415413 0.86422426
        1.0846105 0.06414369 0.86407745 1.1038945 0.06412889 0.86388415
        1.1237 0.06410917 0.8636352 1.1437727 0.06408415 0.86332273
        0.902463 0.06547102 0.8647633 0.90309584 0.06545527 0.86476177
        0.90384 0.06543892 0.8647597 0.90471447 0.06542222 0.86475706
        0.90574116 0.065405525 0.8647537 0.9069455 0.065389246 0.86474955
        0.90835667 0.06537388 0.86474437 0.91000813 0.06536002 0.864738
        0.91193783 0.0653483 0.86473024 0.9141889 0.06533937 0.86472094
        0.91681004 0.065333806 0.86471003 0.91985565 0.06533203 0.86469734
        0.9233868 0.065334246 0.8646829 0.92747116 0.065340295 0.8646666
        0.93218356 0.06534966 0.86464846 0.9376054 0.06536155 0.86462855
        0.9438239 0.06537493 0.864607 0.95092994 0.065388694 0.86458385
        0.9590155 0.0654018 0.864559 0.968169 0.065413415 0.86453223
        0.9784702 0.065422975 0.86450297 0.98998445 0.065430164 0.8644699
        1.0027553 0.06543483 0.8644309 1.016798 0.06543692 0.8643826
        1.0320929 0.06543631 0.8643205 1.0485802 0.06543279 0.8642383
        1.066156 0.065425955 0.86412835 1.0846716 0.0654153 0.86398154
        1.1039357 0.06540023 0.86378837 1.1237208 0.06538017 0.86353964
        1.1437727 0.06535474 0.8632274 0.902714 0.06674365 0.864665
        0.9033461 0.06672796 0.86466336 0.9040895 0.066711664 0.86466134
        0.9049631 0.06669505 0.8646587 0.90598875 0.06667845 0.86465544
        0.9071918 0.06666228 0.8646512 0.90860146 0.06664706 0.8646461
        0.910251 0.06663335 0.8646397 0.9121785 0.06662181 0.86463195
        0.914427 0.066613056 0.8646227 0.91704494 0.06660767 0.86461186
        0.92008686 0.06660605 0.8645992 0.92361367 0.066608384 0.8645848
        0.9276932 0.066614464 0.86456853 0.9324001 0.066623785 0.8645505
        0.93781596 0.066635534 0.86453056 0.94402784 0.06664871 0.86450905
        0.9511267 0.06666221 0.864486 0.95920414 0.06667504 0.8644612
        0.9683485 0.066686384 0.8644345 0.9786396 0.0666957 0.8644053
        0.99014235 0.06670267 0.86437213 1.0029002 0.06670716 0.8643331
        1.0169287 0.06670907 0.8642849 1.032208 0.066708304 0.86422276
        1.0486784 0.066704616 0.86414057 1.0662361 0.066697605 0.86403054
        1.0847327 0.066686735 0.8638838 1.1039768 0.0666714 0.86369073
        1.1237415 0.066651024 0.8634422 1.1437727 0.06662519 0.86313033
        0.90296495 0.06801612 0.8645647 0.90359646 0.06800051 0.8645631
        0.9043391 0.06798432 0.8645611 0.9052117 0.067967825 0.8645585
        0.90623623 0.06795137 0.8645552 0.90743804 0.067935355 0.864551
        0.9088461 0.06792033 0.8645459 0.9104938 0.06790683 0.86453956
        0.91241896 0.067895524 0.8645318 0.9146646 0.067887016 0.86452264
        0.9172792 0.06788186 0.8645117 0.92031723 0.06788045 0.86449915
        0.92383957 0.0678829 0.8644848 0.927914 0.067889005 0.8644685
        0.93261546 0.06789825 0.8644505 0.9380253 0.06790982 0.8644307
        0.9442306 0.06792271 0.86440927 0.95132226 0.06793589 0.8643862
        0.9593918 0.06794836 0.86436146 0.9685272 0.067959376 0.8643348
        0.9788081 0.06796839 0.8643056 0.99029946 0.06797509 0.8642726
        1.0030447 0.06797935 0.86423355 1.017059 0.06798108 0.86418533
        1.0323228 0.06798015 0.86412317 1.0487764 0.06797629 0.864041
        1.0663161 0.067969084 0.8639309 1.0847936 0.067958005 0.8637842
        1.104018 0.06794241 0.8635912 1.1237622 0.06792171 0.8633428
        1.1437727 0.067895494 0.8630314 0.9032159 0.06928845 0.86446255
        0.90384674 0.06927294 0.864461 0.9045886 0.06925688 0.864459
        0.9054603 0.06924053 0.86445636 0.90648377 0.06922426 0.86445314
        0.9076842 0.06920847 0.8644489 0.90909064 0.06919368 0.86444384
        0.91073626 0.06918047 0.86443746 0.91265905 0.06916946 0.8644298
        0.91490173 0.069161266 0.8644206 0.91751283 0.06915639 0.86440974
        0.9205467 0.06915522 0.86439717 0.9240644 0.06915782 0.8643828
        0.92813367 0.06916394 0.86436665 0.9328295 0.06917307 0.8643487
        0.9382333 0.0691844 0.864329 0.94443214 0.069196954 0.8643076
        0.9515167 0.06920972 0.8642845 0.9595783 0.06922178 0.8642599
        0.9687049 0.06923239 0.8642333 0.9789759 0.06924105 0.8642041
        0.990456 0.06924744 0.8641711 1.0031886 0.06925145 0.8641321
        1.0171888 0.06925296 0.8640838 1.0324372 0.06925183 0.86402166
        1.048874 0.06924778 0.8639394 1.0663958 0.06924039 0.8638294
        1.0848542 0.0692291 0.8636827 1.1040589 0.069213256 0.8634898
        1.1237828 0.069192246 0.8632416 1.1437727 0.06916565 0.8629305
        0.9034668 0.07056061 0.86435854 0.9040971 0.07054524 0.864357
        0.90483814 0.07052934 0.86435497 0.9057089 0.0705132 0.8643524
        0.90673125 0.07049715 0.86434907 0.90793025 0.07048163 0.86434495
        0.909335 0.07046715 0.8643398 0.9109786 0.07045429 0.86433345
        0.9128988 0.07044365 0.8643258 0.91513836 0.07043582 0.8643166
        0.91774577 0.07043131 0.8643058 0.9207753 0.07043038 0.8642933
        0.92428815 0.070433125 0.864279 0.9283522 0.07043925 0.8642628
        0.9330423 0.07044823 0.86424494 0.93844 0.07045926 0.86422527
        0.9446324 0.0704714 0.86420393 0.9517099 0.0704837 0.864181
        0.9597638 0.07049528 0.8641564 0.9688817 0.07050543 0.8641299
        0.9791429 0.07051367 0.86410075 0.99061185 0.070519716 0.8640678
        1.0033319 0.070523426 0.86402875 1.0173182 0.07052469 0.8639805
        1.0325512 0.07052336 0.8639183 1.0489713 0.07051912 0.863836
        1.0664753 0.07051154 0.86372596 1.0849148 0.07050002 0.86357933
        1.1040998 0.07048393 0.8633866 1.1238034 0.07046262 0.86313856
        1.1437727 0.07043565 0.8628278 0.9037178 0.07183263 0.8642526
        0.90434736 0.07181742 0.8642511 0.90508765 0.07180172 0.8642491
        0.9059575 0.07178581 0.86424655 0.90697867 0.07177004 0.8642432
        0.90817624 0.07175485 0.8642391 0.9095792 0.07174075 0.864234
        0.9112206 0.071728304 0.8642276 0.9131381 0.07171811 0.8642199
        0.9153744 0.07171072 0.8642108 0.91797787 0.07170659 0.86419994
        0.9210029 0.071705975 0.8641874 0.9245108 0.071708865 0.8641732
        0.9285694 0.07171497 0.8641571 0.93325377 0.07172374 0.8641392
        0.9386455 0.071734406 0.86411965 0.94483143 0.07174607 0.86409837
        0.95190203 0.07175783 0.8640756 0.95994824 0.07176885 0.86405104
        0.9690576 0.07177848 0.8640246 0.9793091 0.071786255 0.86399555
        0.99076706 0.0717919 0.86396253 1.0034747 0.071795285 0.86392355
        1.0174471 0.07179629 0.86387527 1.0326649 0.07179472 0.86381304
        1.0490685 0.07179028 0.8637307 1.0665545 0.07178249 0.86362076
        1.0849752 0.07177077 0.8634741 1.1041405 0.07175443 0.8632814
        1.1238239 0.07173283 0.86303365 1.1437727 0.071705505 0.8627232
        0.90396875 0.073104486 0.86414486 0.9045977 0.07308947 0.8641433
        0.90533715 0.073074006 0.8641413 0.9062061 0.07305838 0.8641387
        0.907226 0.07304295 0.86413544 0.9084221 0.07302816 0.86413133
        0.90982324 0.0730145 0.8641262 0.9114623 0.073002554 0.8641198
        0.91337687 0.072992876 0.86411214 0.9156097 0.072986 0.86410296
        0.9182091 0.072982304 0.8640922 0.9212295 0.072982 0.86407965
        0.92473215 0.07298503 0.8640654 0.92878526 0.07299108 0.86404943
        0.93346393 0.0729996 0.8640316 0.9388496 0.07300983 0.8640121
        0.94502926 0.07302095 0.86399096 0.952093 0.073032096 0.86396825
        0.9601317 0.0730425 0.86394376 0.9692326 0.07305154 0.8639174
        0.97947454 0.0730588 0.8638884 0.9909217 0.07306401 0.8638554
        1.003617 0.07306704 0.86381644 1.0175757 0.07306774 0.86376816
        1.0327783 0.07306593 0.86370593 1.0491652 0.07306127 0.8636236
        1.0666336 0.07305328 0.8635136 1.0850356 0.07304135 0.863367
        1.1041812 0.07302476 0.86317444 1.1238444 0.073002875 0.8629269
        1.1437727 0.0729752 0.86261666 0.9042197 0.07437617 0.86403525
        0.904848 0.07436139 0.8640337 0.90558666 0.07434621 0.8640317
        0.90645456 0.074330926 0.8640291 0.90747327 0.07431589 0.86402583
        0.90866786 0.07430156 0.86402166 0.91006696 0.07428845 0.8640165
        0.9117036 0.07427708 0.86401016 0.9136151 0.074268 0.86400247
        0.9158442 0.074261695 0.8639933 0.91843927 0.07425848 0.8639825
        0.9214548 0.07425851 0.86397004 0.92495227 0.07426166 0.86395586
        0.92899984 0.07426761 0.8639398 0.9336727 0.074275814 0.8639221
        0.93905246 0.07428555 0.86390275 0.94522583 0.07429605 0.86388165
        0.9522829 0.07430651 0.863859 0.9603142 0.07431622 0.8638346
        0.96940684 0.074324615 0.86380833 0.9796393 0.074331306 0.8637793
        0.99107563 0.074336044 0.86374646 1.0037588 0.07433867 0.8637075
        1.0177038 0.07433906 0.8636592 1.0328913 0.07433698 0.863597
        1.0492618 0.074332096 0.8635146 1.0667124 0.07432389 0.8634046
        1.0850956 0.07431173 0.86325806 1.1042217 0.07429492 0.8630656
        1.1238648 0.074272744 0.8628182 1.1437727 0.074244745 0.86250836
        0.9044707 0.07564771 0.8639237 0.90509826 0.0756332 0.8639222
        0.90583616 0.07561835 0.86392015 0.906703 0.07560345 0.8639175
        0.90772045 0.075588904 0.86391425 0.9089133 0.075575136 0.8639101
        0.9103104 0.07556263 0.8639049 0.9119443 0.07555194 0.8638985
        0.9138526 0.07554354 0.8638908 0.9160778 0.07553786 0.8638816
        0.9186683 0.07553516 0.8638708 0.9216789 0.07553551 0.8638584
        0.92517096 0.07553878 0.8638442 0.9292129 0.07554457 0.8638283
        0.9338801 0.07555239 0.86381066 0.939254 0.07556156 0.86379135
        0.94542116 0.07557136 0.8637704 0.9524717 0.07558105 0.86374784
        0.9604957 0.07559 0.8637236 0.9695802 0.075597696 0.86369735
        0.9798033 0.07560376 0.86366844 0.991229 0.07560798 0.8636356
        1.0039 0.07561019 0.8635967 1.0178316 0.07561022 0.8635484
        1.0330039 0.07560787 0.8634861 1.049358 0.07560274 0.8634038
        1.066791 0.07559432 0.86329377 1.0851556 0.075581945 0.8631472
        1.1042621 0.07556489 0.86295485 1.1238852 0.07554245 0.8627077
        1.1437727 0.07551412 0.86239815 0.9047216 0.076919064 0.8638103
        0.90534854 0.076904885 0.8638088 0.9060856 0.076890424 0.8638067
        0.90695137 0.076876014 0.8638041 0.90796745 0.07686202 0.8638008
        0.9091586 0.076848894 0.86379665 0.91055334 0.07683712 0.8637914
        0.9121845 0.0768272 0.86378497 0.9140892 0.07681958 0.8637772
        0.91631025 0.07681458 0.86376804 0.9188961 0.07681242 0.86375725
        0.9219015 0.07681309 0.86374485 0.92538816 0.076816395 0.8637307
        0.9294246 0.07682198 0.8637149 0.9340861 0.07682934 0.86369735
        0.9394542 0.07683786 0.86367804 0.94561535 0.076846875 0.86365724
        0.9526593 0.07685574 0.86363477 0.96067625 0.07686386 0.8636106
        0.9697526 0.07687079 0.8635845 0.9799666 0.07687619 0.86355567
        0.99138176 0.076879844 0.8635229 1.0040408 0.07688159 0.8634839
        1.0179588 0.07688126 0.8634356 1.0331162 0.07687861 0.8633734
        1.0494541 0.07687323 0.863291 1.0668695 0.07686458 0.863181
        1.0852154 0.07685198 0.8630345 1.1043025 0.07683469 0.8628423
        1.1239055 0.076811984 0.8625953 1.1437727 0.07678334 0.86228603
        0.90497255 0.07819025 0.863695 0.9055988 0.07817646 0.8636935
        0.90633494 0.07816247 0.86369145 0.9071996 0.07814862 0.8636888
        0.9082142 0.07813529 0.8636854 0.90940344 0.078122936 0.8636812
        0.9107958 0.078112 0.8636759 0.9124238 0.07810296 0.86366946
        0.91432476 0.07809618 0.8636617 0.91654146 0.07809193 0.8636525
        0.91912234 0.0780903 0.86364174 0.92212254 0.07809126 0.8636293
        0.9256038 0.078094564 0.8636152 0.92963475 0.078099854 0.8635995
        0.93429065 0.078106664 0.863582 0.93965304 0.07811445 0.8635629
        0.9458083 0.0781226 0.86354214 0.95284593 0.07813055 0.86351985
        0.96085584 0.078137785 0.86349577 0.9699243 0.078143895 0.8634698
        0.9801292 0.07814857 0.863441 0.9915339 0.07815162 0.8634082
        1.004181 0.07815288 0.86336935 1.0180857 0.07815216 0.86332107
        1.0332283 0.078149185 0.8632588 1.0495498 0.07814354 0.86317647
        1.0669477 0.078134656 0.8630664 1.085275 0.078121826 0.8629199
        1.1043428 0.0781043 0.8627278 1.1239258 0.07808134 0.86248106
        1.1437727 0.07805238 0.86217207 0.90522355 0.07946128 0.8635779
        0.90584904 0.07944794 0.86357635 0.90658426 0.07943451 0.86357427
        0.9074477 0.07942133 0.8635716 0.9084607 0.079408795 0.8635682
        0.9096478 0.079397336 0.8635639 0.91103745 0.07938739 0.86355853
        0.912662 0.07937934 0.86355203 0.914559 0.07937349 0.8635442
        0.91677105 0.07937 0.863535 0.919347 0.0793689 0.8635242
        0.92234194 0.07937009 0.8635118 0.9258178 0.07937331 0.8634978
        0.9298433 0.07937822 0.8634822 0.9344938 0.07938439 0.8634648
        0.93985057 0.07939133 0.86344576 0.94600004 0.07939854 0.8634252
        0.9530315 0.07940551 0.86340296 0.9610345 0.07941179 0.86337906
        0.9700952 0.07941702 0.86335313 0.98029107 0.07942093 0.86332446
        0.99168545 0.07942333 0.8632918 1.0043209 0.07942406 0.8632529
        1.0182121 0.07942292 0.8632046 1.03334 0.07941962 0.8631424
        1.0496453 0.07941369 0.86306 1.0670258 0.079404555 0.8629499
        1.0853347 0.07939151 0.8628035 1.104383 0.079373755 0.86261153
        1.1239461 0.07935052 0.8623649 1.1437727 0.079321265 0.8620563
        0.9054745 0.080732115 0.8634589 0.9060992 0.08071934 0.8634573
        0.90683347 0.08070659 0.86345524 0.90769553 0.08069423 0.86345243
        0.9087067 0.08068265 0.863449 0.9098915 0.08067226 0.8634446
        0.91127807 0.08066344 0.8634392 0.91289896 0.08065649 0.86343265
        0.9147916 0.080651626 0.8634248 0.91699886 0.08064891 0.8634155
        0.9195697 0.08064829 0.86340475 0.9225594 0.08064962 0.8633924
        0.92603 0.08065266 0.86337847 0.93005025 0.08065709 0.8633629
        0.93469536 0.08066252 0.8633456 0.9400468 0.08066854 0.8633267
        0.94619066 0.08067471 0.8633063 0.953216 0.080680616 0.8632842
        0.9612123 0.08068587 0.8632604 0.97026527 0.08069016 0.8632346
        0.9804523 0.08069326 0.863206 0.9918365 0.08069497 0.86317337
        1.0044602 0.08069516 0.8631345 1.0183382 0.080693565 0.8630863
        1.0334513 0.08068989 0.863024 1.0497406 0.08068367 0.8629417
        1.0671036 0.08067429 0.8628316 1.085394 0.080661006 0.86268526
        1.104423 0.08064301 0.8624933 1.1239662 0.08061954 0.86224693
        1.1437727 0.080589965 0.8619386 0.9057254 0.08200278 0.86333805
        0.90634936 0.08199069 0.8633364 0.9070825 0.081978776 0.86333424
        0.907943 0.08196742 0.86333144 0.9089521 0.081957005 0.86332786
        0.91013414 0.08194788 0.8633234 0.91151726 0.08194035 0.8633179
        0.9131341 0.08193461 0.86331123 0.9150222 0.08193076 0.86330336
        0.9172246 0.08192878 0.86329406 0.9197903 0.081928566 0.8632833
        0.9227749 0.081929944 0.863271 0.9262404 0.08193267 0.8632571
        0.9302555 0.08193648 0.8632417 0.9348955 0.08194106 0.8632245
        0.94024175 0.08194605 0.8632058 0.9463801 0.08195111 0.8631854
        0.95339954 0.08195587 0.86316353 0.9613892 0.08196003 0.86313987
        0.9704346 0.08196333 0.8631142 0.98061293 0.081965566 0.8630857
        0.991987 0.081966564 0.8630531 1.004599 0.08196615 0.86301434
        1.0184639 0.08196408 0.8629661 1.0335623 0.08196003 0.8629038
        1.0498354 0.0819535 0.8628214 1.0671812 0.081943855 0.86271137
        1.0854533 0.08193033 0.8625651 1.104463 0.08191209 0.8623733
        1.1239864 0.081888355 0.862127 1.1437727 0.0818585 0.8618191
        0.90597636 0.08327327 0.8632153 0.9065994 0.08326204 0.8632136
        0.90733117 0.0832512 0.86321133 0.9081899 0.083241105 0.8632084
        0.9091965 0.08323211 0.8632048 0.9103753 0.083224475 0.8632002
        0.9117546 0.083218396 0.8631946 0.91336703 0.08321393 0.86318785
        0.91525036 0.083211094 0.86317986 0.9174478 0.08320977 0.86317056
        0.9200086 0.08320983 0.86315984 0.92298824 0.0832111 0.86314756
        0.9264488 0.08321338 0.86313385 0.930459 0.08321645 0.8631184
        0.9350942 0.08322005 0.8631015 0.94043535 0.08322391 0.8630828
        0.9465684 0.08322775 0.8630627 0.95358205 0.0832313 0.8630409
        0.96156526 0.0832343 0.8630174 0.9706032 0.08323656 0.86299187
        0.98077285 0.08323787 0.86296344 0.9921369 0.0832381 0.86293095
        1.0047374 0.08323707 0.8628922 1.0185893 0.083234504 0.862844
        1.033673 0.08323005 0.8627817 1.0499302 0.08322318 0.86269933
        1.0672587 0.08321326 0.86258936 1.0855123 0.08319947 0.86244303
        1.1045029 0.083180994 0.86225134 1.1240065 0.08315701 0.86200535
        1.1437727 0.08312686 0.8616977 0.9062273 0.08454356 0.86309063
        0.9068492 0.0845335 0.86308885 0.90757936 0.08452406 0.86308646
        0.9084357 0.084515594 0.8630834 0.9094392 0.084508345 0.8630796
        0.91061425 0.08450245 0.86307496 0.9119893 0.084497936 0.86306924
        0.9135971 0.08449476 0.86306244 0.91547567 0.08449284 0.8630544
        0.91766834 0.08449202 0.86304504 0.92022437 0.08449218 0.8630343
        0.92319936 0.084493175 0.86302215 0.9266553 0.08449485 0.8630085
        0.9306609 0.08449703 0.8629933 0.93529135 0.08449952 0.86297643
        0.9406277 0.08450214 0.862958 0.9467556 0.08450468 0.862938
        0.95376366 0.08450692 0.8629164 0.9617405 0.084508695 0.86289304
        0.97077113 0.08450984 0.8628676 0.98093224 0.0845102 0.86283934
        0.9922863 0.084509626 0.8628069 1.0048753 0.08450792 0.86276823
        1.0187142 0.08450483 0.8627201 1.0337834 0.08449994 0.8626578
        1.0500246 0.08449272 0.8625754 1.067336 0.0844825 0.8624654
        1.0855713 0.08446846 0.8623192 1.1045427 0.08444973 0.86212754
        1.1240265 0.08442548 0.86188173 1.1437727 0.08439503 0.86157435
        0.9064783 0.08581368 0.8629642 0.90709865 0.08580524 0.86296225
        0.9078264 0.08579777 0.8629597 0.90867966 0.085791446 0.86295646
        0.9096793 0.08578634 0.8629525 0.91085 0.08578237 0.8629476
        0.91222036 0.08577946 0.8629418 0.9138236 0.085777454 0.8629348
        0.9156976 0.08577624 0.8629268 0.9178858 0.08577571 0.8629175
        0.92043746 0.08577575 0.8629068 0.9234081 0.08577626 0.8628948
        0.9268597 0.08577713 0.86288124 0.930861 0.08577826 0.8628661
        0.93548703 0.08577952 0.8628494 0.9408188 0.08578078 0.8628312
        0.94694173 0.08578191 0.86281145 0.9539443 0.085782774 0.86279
        0.96191496 0.08578326 0.8627668 0.9709384 0.08578323 0.8627415
        0.98109096 0.08578258 0.86271334 0.9924352 0.08578115 0.862681
        1.0050129 0.08577875 0.8626424 1.0188388 0.08577508 0.8625942
        1.0338936 0.085769735 0.86253196 1.0501189 0.08576215 0.8624496
        1.067413 0.085751615 0.8623396 1.08563 0.08573729 0.8621934
        1.1045824 0.08571829 0.8620019 1.1240464 0.08569377 0.86175627
        1.1437727 0.08566303 0.86144924 0.9067292 0.0870836 0.8628358
        0.9073469 0.0870778 0.8628336 0.908071 0.08707325 0.8628308
        0.9089199 0.087069735 0.86282736 0.90991485 0.08706705 0.8628231
        0.91108096 0.08706503 0.8628181 0.91244686 0.08706352 0.86281216
        0.9140458 0.087062396 0.8628052 0.91591567 0.08706161 0.8627971
        0.91809994 0.087061055 0.86278784 0.9206477 0.0870607 0.86277723
        0.9236144 0.087060474 0.8627653 0.9270621 0.087060355 0.8627519
        0.9310594 0.08706025 0.862737 0.9356813 0.08706012 0.8627205
        0.9410086 0.0870599 0.8627024 0.94712687 0.08705953 0.8626828
        0.9541241 0.087058924 0.8626616 0.96208864 0.08705804 0.86263853
        0.9711049 0.08705678 0.86261344 0.98124915 0.08705506 0.8625854
        0.99258363 0.08705273 0.8625532 1.00515 0.08704958 0.8625146
        1.018963 0.08704531 0.86246645 1.0340034 0.08703947 0.8624043
        1.0502129 0.08703148 0.86232185 1.0674899 0.0870206 0.86221194
        1.0856887 0.08700597 0.86206573 1.104622 0.0869867 0.86187434
        1.1240665 0.08696189 0.8616289 1.1437727 0.086930834 0.86132216
        0.90698016 0.088353336 0.86270565 0.90759116 0.08835306 0.8627029
        0.90830934 0.08835273 0.8626997 0.9091529 0.088352345 0.86269593
        0.9101434 0.08835189 0.8626915 0.91130537 0.08835136 0.86268634
        0.9126676 0.08835075 0.8626803 0.914263 0.088350035 0.86267334
        0.9161296 0.08834921 0.8626653 0.9183105 0.08834827 0.8626561
        0.9208549 0.0883472 0.8626456 0.92381823 0.08834599 0.8626338
        0.9272624 0.08834463 0.8626206 0.93125606 0.08834312 0.86260587
        0.9358741 0.08834145 0.8625896 0.9411973 0.08833963 0.8625718
        0.9473109 0.08833764 0.86255234 0.954303 0.088335484 0.8625313
        0.96226156 0.088333145 0.8625085 0.97127086 0.08833059 0.8624835
        0.9814068 0.08832773 0.86245555 0.9927315 0.08832444 0.8624235
        1.0052867 0.0883205 0.862385 1.0190868 0.08831558 0.8623369
        1.0341129 0.0883092 0.86227465 1.0503066 0.088300765 0.8621923
        1.0675665 0.08828951 0.86208236 1.0857472 0.088274546 0.8619363
        1.1046615 0.08825496 0.861745 1.1240864 0.08822984 0.8614997
        1.1437727 0.08819846 0.86119336
        <InformationKey name="L2_NORM_RANGE" location="vtkDataArray" length="2">
          <Value index="0">
            1.2476568993
          </Value>
          <Value index="1">
            1.43445077
          </Value>
        </InformationKey>
      </DataArray>
    </Points>
  </Piece>
  </StructuredGrid>
</VTKFile>
