<?xml version="1.0"?>
<VTKFile type="StructuredGrid" version="0.1" byte_order="LittleEndian" header_type="UInt32" compressor="vtkZLibDataCompressor">
  <StructuredGrid WholeExtent="0 30 0 40 0 0">
  <Piece Extent="0 30 0 40 0 0">
    <PointData>
      <DataArray type="Float32" Name="orthogonality" format="ascii" RangeMin="0" RangeMax="0.2043970674276352">
        0 0.010726879 0.02138675 0.03191381 0.042244773 0.052319948
        0.062084198 0.07148772 0.08048668 0.08904382 0.097129 0.10471994
        0.11180291 0.118373774 0.12443882 0.1300155 0.13513269 0.1398302
        0.14415763 0.14817235 0.15193714 0.15551788 0.15898177 0.16239715
        0.16583529 0.16937616 0.17312141 0.17722522 0.18198441 0.18817753
        0.19864342 4.1541884e-06 0.010758652 0.021446593 0.03200252 0.04236318
        0.05246905 0.06226519 0.071702026 0.08073598 0.08933005 0.09745439
        0.10508699 0.11221449 0.1188331 0.124949545 0.13058177 0.13575917
        0.14052218 0.14492099 0.14901356 0.15286319 0.15653612 0.16009973
        0.16362196 0.1671728 0.17082888 0.17468286 0.17886207 0.18356052
        0.1890549 0.19631326 8.15716e-06 0.0107904095 0.021506557 0.03209149
        0.04248202 0.05261876 0.062447004 0.07191741 0.08098665 0.08961801
        0.09778192 0.10545668 0.11262924 0.11929619 0.12546463 0.13115293
        0.13639095 0.14121957 0.14568943 0.14985885 0.15379137 0.15755321
        0.16121125 0.16483217 0.1684831 0.17223424 0.1761636 0.18036056
        0.18491024 0.18977721 0.1947417 1.1953373e-05 0.010822183 0.02156677
        0.032180957 0.042601615 0.05276955 0.06263027 0.072134696 0.08123978
        0.08990909 0.09811336 0.1058312 0.11304989 0.11976632 0.12598792
        0.13173339 0.13703287 0.14192747 0.14646798 0.15071273 0.15472497
        0.15857019 0.16231379 0.16601951 0.16974887 0.17356089 0.17751001
        0.18163352 0.18590175 0.19007038 0.19361486 1.5522462e-05 0.010853753
        0.021626802 0.03227027 0.04272111 0.05292032 0.06281363 0.07235226
        0.08149343 0.09020102 0.09844607 0.106207505 0.1134729 0.12023943
        0.12651478 0.1323178 0.13767877 0.14263882 0.1472485 0.15156576
        0.15565301 0.1595743 0.16339245 0.16716675 0.17095058 0.1747879
        0.1787045 0.18268374 0.18660617 0.19013937 0.19276586 1.8858074e-05
        0.01088505 0.021686517 0.032359228 0.042840224 0.053070698 0.06299665
        0.07256955 0.08174695 0.09049302 0.09877915 0.10658454 0.11389706
        0.12071411 0.12704355 0.13290426 0.13832645 0.14335096 0.14802788
        0.15241423 0.1565711 0.16056031 0.16444114 0.16826694 0.17208102
        0.17590997 0.1797499 0.1835376 0.18709865 0.19009422 0.1921016
        2.1959178e-05 0.010916063 0.021745896 0.032447793 0.0429589 0.05322062
        0.06317922 0.07278645 0.082000196 0.09078495 0.0991124 0.10696207
        0.11432208 0.12119001 0.12757377 0.1334922 0.13897519 0.14406306
        0.14880502 0.15325682 0.15747759 0.16152623 0.16545759 0.16931792
        0.17313917 0.17692986 0.1806589 0.18422867 0.18744138 0.1899949
        0.19156761 2.482654e-05 0.010946803 0.021804959 0.032535993 0.043077175
        0.05337013 0.06336139 0.073003024 0.08225323 0.091076836 0.09944587
        0.107340135 0.11474799 0.12166715 0.12810548 0.13408162 0.13962494
        0.14477497 0.14957972 0.15409318 0.158372 0.16247156 0.16644141
        0.17031994 0.17412724 0.1778545 0.18144825 0.18478975 0.18768133
        0.18987443 0.19113041 2.7461349e-05 0.010977288 0.021863738 0.032623876
        0.04319511 0.053519297 0.06354325 0.07321936 0.08250615 0.09136881
        0.09977968 0.10771887 0.11517493 0.12214565 0.1286388 0.13467261
        0.14027579 0.14548677 0.15035202 0.15492332 0.15925437 0.1633964
        0.16739315 0.17127462 0.1750492 0.17869288 0.18213569 0.18524969
        0.18785249 0.18975116 0.19076845 2.9864741e-05 0.011007535 0.021922266
        0.032711487 0.043312762 0.05366819 0.06372488 0.073435545 0.08275907
        0.09166098 0.10011396 0.108098395 0.11560303 0.12262567 0.12917386
        0.13526534 0.1409279 0.1461986 0.15112202 0.15574738 0.16012494
        0.16430129 0.16831389 0.17218436 0.17591022 0.17945492 0.18273817
        0.18563254 0.18797903 0.18963537 0.19046724 3.2037675e-05 0.011037558
        0.021980569 0.032798864 0.043430183 0.053816874 0.06390635 0.073651664
        0.08301206 0.09195343 0.100448795 0.108478814 0.11603239 0.1231073
        0.12971078 0.13585988 0.14158133 0.14691058 0.1518899 0.15656562
        0.16098411 0.16518696 0.16920517 0.1730522 0.17671598 0.18015064
        0.18327123 0.18595779 0.18807809 0.1895328 0.19021669 3.398094e-05
        0.011067369 0.022038668 0.03288604 0.043547407 0.053965386 0.064087704
        0.073867775 0.08326519 0.09224623 0.10078425 0.108860195 0.11646309
        0.1235906 0.13024959 0.13645633 0.14223619 0.14762276 0.15265581
        0.15737829 0.16183238 0.16605438 0.17006883 0.17388156 0.17747253
        0.1807898 0.18374857 0.18624102 0.1881618 0.18944667 0.19000956
        3.5695233e-05 0.011096977 0.022096582 0.032973032 0.043664467 0.054113764
        0.06426899 0.07408391 0.0835185 0.092539415 0.101120375 0.109242566
        0.11689513 0.1240756 0.13079034 0.13705467 0.14289251 0.14833528
        0.1534199 0.1581857 0.16267034 0.16690472 0.17090699 0.17467618
        0.17818603 0.18138161 0.18418214 0.18649459 0.18823892 0.18937875
        0.18984048 3.71812e-05 0.011126389 0.022154322 0.03305987 0.043781377
        0.054262035 0.06445023 0.074300095 0.08377201 0.09283301 0.10145717
        0.109625936 0.11732852 0.12456228 0.131333 0.13765492 0.14355029
        0.14904816 0.15418233 0.15898822 0.16349874 0.1677393 0.17172201
        0.17543997 0.1788626 0.18193464 0.18458223 0.18672837 0.18831582
        0.18933007 0.18970545 3.843952e-05 0.01115561 0.0222119 0.033146553
        0.04389816 0.054410208 0.06463143 0.07451635 0.08402573 0.09312702
        0.10179464 0.11001028 0.11776323 0.1250506 0.13187753 0.13825704
        0.14420953 0.1497615 0.15494333 0.1597863 0.16431844 0.16855966
        0.17251647 0.17617702 0.17950818 0.18245673 0.1849577 0.1869503
        0.1883973 0.18930121 0.18960142 3.947097e-05 0.011184644 0.02226932
        0.0332331 0.044014826 0.0545583 0.06481261 0.07473267 0.084279664
        0.09342143 0.102132745 0.110395566 0.11819921 0.12554051 0.13242386
        0.13886099 0.14487025 0.15047535 0.15570311 0.16058046 0.16513038
        0.16936745 0.17329304 0.17689148 0.18012859 0.18295509 0.1853162
        0.18716681 0.18848704 0.18929256 0.18952608 4.027646e-05 0.011213494
        0.022326589 0.033319507 0.044131372 0.054706305 0.06499377 0.074949056
        0.08453379 0.093716204 0.10247146 0.11078175 0.1186364 0.12603194
        0.13297193 0.13946669 0.14553241 0.15118983 0.15646198 0.16137126
        0.16593565 0.17016451 0.17405462 0.17758746 0.18072933 0.18343629
        0.18566437 0.18738328 0.188588 0.18930449 0.18947771 4.085707e-05
        0.011242164 0.022383709 0.033405785 0.04424781 0.054854233 0.06517489
        0.075165495 0.084788084 0.09401133 0.10281075 0.111168765 0.119074725
        0.12652478 0.13352165 0.14007409 0.14619602 0.15190504 0.15722024
        0.1621594 0.16673543 0.17095275 0.17480415 0.17826915 0.18131573
        0.18390635 0.18600805 0.18760426 0.18870264 0.18933734 0.18945502
        4.1214113e-05 0.011270655 0.022440681 0.033491936 0.044364132 0.055002075
        0.06535598 0.07538198 0.085042536 0.09430677 0.10315054 0.11155654
        0.11951409 0.12701896 0.13407293 0.14068314 0.1468611 0.15262114
        0.15797828 0.16294558 0.167531 0.17173424 0.17554462 0.17894062
        0.18189287 0.1843708 0.18635245 0.18783373 0.1888332 0.18939157
        0.18945709 4.134914e-05 0.011298968 0.02249751 0.033577956 0.044480342
        0.055149823 0.06553702 0.07559848 0.08529711 0.09460246 0.103490785
        0.111945 0.119954415 0.12751438 0.13462567 0.14129378 0.14752766
        0.15333828 0.1587365 0.16373064 0.16832371 0.17251109 0.1762791
        0.17960595 0.18246558 0.18483485 0.18670231 0.18807527 0.1889817
        0.18946771 0.18948334 4.1263982e-05 0.011327106 0.022554195 0.033663843
        0.04459643 0.055297475 0.065717995 0.07581497 0.08555177 0.094898365
        0.10383142 0.112334065 0.12039559 0.1280109 0.13517977 0.1419059
        0.1481957 0.15405664 0.15949534 0.16451538 0.169115 0.17328547
        0.17701069 0.1802691 0.18303853 0.18530333 0.18706203 0.18833224
        0.18915012 0.18956648 0.18953349 4.096078e-05 0.011355068 0.022610733
        0.033749603 0.044712394 0.05544502 0.06589889 0.07603144 0.085806474
        0.095194444 0.10417237 0.11272364 0.120837525 0.12850845 0.13573514
        0.1425195 0.14886527 0.15477641 0.16025527 0.16530073 0.16990636
        0.17405966 0.17774248 0.18093404 0.18361628 0.1857809 0.18743579
        0.18860784 0.18934049 0.18968874 0.1896075 4.0441995e-05 0.0113828555
        0.022667129 0.03383522 0.044828232 0.055592444 0.06607969 0.07624785
        0.086061195 0.09549062 0.10451356 0.11311365 0.12128009 0.12900688
        0.13629165 0.14313447 0.1495364 0.15549782 0.16101682 0.16608761
        0.17069934 0.17483592 0.17847759 0.18160462 0.1842032 0.18627204
        0.18782765 0.1889053 0.18955496 0.18983561 0.1897056 3.9710452e-05
        0.011410472 0.022723377 0.033920705 0.04494393 0.055739734 0.066260375
        0.076464176 0.08631588 0.095786855 0.10485493 0.11350397 0.12172319
        0.12950608 0.1368492 0.14375079 0.15020914 0.15622109 0.16178052
        0.16687703 0.17149548 0.17561656 0.17921913 0.1822847 0.18480362
        0.18678118 0.18824169 0.18922791 0.18979584 0.19000839 0.18982825
        3.8769358e-05 0.011437916 0.02277948 0.034006044 0.045059487 0.055886887
        0.06644093 0.076680385 0.086570494 0.09608308 0.10519638 0.11389453
        0.1221667 0.13000593 0.13740769 0.14436837 0.15088353 0.1569465
        0.1625469 0.16766995 0.1722964 0.1764039 0.17997018 0.18297808
        0.18542184 0.18731275 0.18868202 0.18957914 0.19006571 0.19020869
        0.18997617 3.7622318e-05 0.011465191 0.022835433 0.034091238 0.04517489
        0.05603388 0.066621326 0.07689646 0.08682499 0.096379235 0.10553785
        0.114285216 0.1226105 0.13050629 0.137967 0.14498714 0.15155962
        0.15767424 0.16331653 0.1684674 0.17310368 0.17720023 0.1807338
        0.18368854 0.18606216 0.18787122 0.18915294 0.18996276 0.19036752
        0.19043845 0.19015038 3.6273384e-05 0.011492298 0.02289124 0.034176283
        0.045290135 0.056180704 0.06680155 0.077112354 0.08707933 0.09667527
        0.10587924 0.114675924 0.12305448 0.13100706 0.13852702 0.14560707
        0.15223747 0.15840459 0.16408998 0.16927037 0.17391892 0.17800787
        0.18151309 0.18441983 0.1867289 0.18846118 0.18965901 0.1903829
        0.19070463 0.19070002 0.19035214 3.4727072e-05 0.011519238 0.022946896
        0.034261174 0.045405213 0.056327347 0.06698157 0.07732805 0.08733346
        0.0969711 0.10622048 0.11506655 0.12349851 0.13150808 0.13908762
        0.14622808 0.15291713 0.1591378 0.16486779 0.17007987 0.17474368
        0.17882907 0.18231104 0.18517573 0.1874264 0.18908745 0.19020511
        0.19084418 0.19108094 0.19099623 0.1905831 3.2988406e-05 0.011546015
        0.023002405 0.034345906 0.045520116 0.05647379 0.06716138 0.0775435
        0.08758735 0.09726669 0.106561475 0.115457 0.123942465 0.13200922
        0.13964869 0.1468501 0.15359862 0.15987411 0.16565052 0.17089689
        0.17557955 0.1796661 0.18313067 0.18596002 0.1881592 0.18975502
        0.1907966 0.19135182 0.1915011 0.19133049 0.19084525 3.1062966e-05
        0.01157263 0.02305776 0.034430478 0.045634832 0.05662003 0.06734095
        0.077758685 0.08784093 0.09756195 0.10690215 0.11584715 0.124386206
        0.13251036 0.14021009 0.14747304 0.154282 0.16061372 0.16643868
        0.17172235 0.17642802 0.18052112 0.1839749 0.18677644 0.18893181
        0.19046924 0.19143927 0.19191182 0.19197053 0.19170703 0.1911411
        2.895692e-05 0.011599086 0.023112964 0.034514885 0.045749363 0.056766044
        0.06752025 0.07797357 0.08809417 0.09785683 0.10724242 0.11623689
        0.12482962 0.13301134 0.1407717 0.14809681 0.15496725 0.16135685
        0.16723278 0.1725572 0.17729053 0.18139626 0.18484667 0.18762878
        0.18974896 0.19123572 0.19213964 0.19253105 0.19249584 0.19213098
        0.19147366 2.6677122e-05 0.011625387 0.023168016 0.034599118 0.045863688
        0.05691182 0.067699276 0.07818812 0.08834702 0.09815126 0.10758219
        0.11662611 0.12527254 0.133512 0.14133336 0.14872132 0.15565439
        0.16210367 0.16803326 0.17340226 0.17816848 0.18229353 0.18574876
        0.18852071 0.19061543 0.19206044 0.19290483 0.19321755 0.19308496
        0.19260877 0.19184674 2.4231163e-05 0.011651534 0.023222916 0.034683175
        0.045977805 0.05705734 0.06787799 0.078402296 0.08859942 0.09844516
        0.10792136 0.11701469 0.12571485 0.13401219 0.1418949 0.14934644
        0.15634337 0.1628543 0.16884051 0.1742583 0.17906311 0.18321487
        0.18668388 0.18945597 0.1915361 0.19294977 0.19374284 0.19398062
        0.19374758 0.19314854 0.19226503 2.1627502e-05 0.0116775315 0.023277657
        0.03476705 0.046091698 0.05720258 0.068056375 0.07861606 0.08885132
        0.09873846 0.10825983 0.117402494 0.12615637 0.13451171 0.14245614
        0.149972 0.15703411 0.16360882 0.16965486 0.17512602 0.1799756
        0.184162 0.18765455 0.19043809 0.1925159 0.19391038 0.19466244
        0.19483119 0.19449571 0.19376074 0.19273447 1.88756e-05 0.01170338
        0.023332238 0.034850728 0.046205346 0.057347525 0.06823438 0.07882935
        0.08910264 0.09903106 0.108597465 0.11778936 0.12659691 0.13501035
        0.14301686 0.15059781 0.15772647 0.16436721 0.17047651 0.17600591
        0.18090689 0.18513651 0.18866313 0.19147046 0.19355966 0.19494914
        0.19567323 0.19578189 0.19534415 0.19445905 0.19326267 1.5986152e-05
        0.011729081 0.023386648 0.03493419 0.04631872 0.057492122 0.06841194
        0.0790421 0.089353286 0.09932284 0.10893411 0.11817509 0.12703624
        0.13550784 0.14357674 0.15122353 0.15842018 0.16512933 0.17130549
        0.17689832 0.18185769 0.18613963 0.18971157 0.1925561 0.19467202
        0.19607306 0.19678557 0.19684733 0.19631146 0.19526191 0.19385976
        1.2971394e-05 0.011754631 0.023440866 0.035017405 0.046431776 0.057636306
        0.06858899 0.0792542 0.08960312 0.09961361 0.10926956 0.11855941
        0.12747402 0.13600378 0.14413537 0.15184875 0.15911484 0.16589482
        0.1721416 0.17780322 0.18282837 0.18717214 0.19080135 0.19369753
        0.19585706 0.19728883 0.19801018 0.19804403 0.19742069 0.19619475
        0.1945394 9.845637e-06 0.011780016 0.023494856 0.035100307 0.046544418
        0.05777996 0.06876536 0.07946545 0.0898519 0.09990309 0.10960344
        0.11894192 0.12790978 0.13649762 0.14469211 0.15247275 0.15980968
        0.16666296 0.17298417 0.17872015 0.18381861 0.18823414 0.19193313
        0.19489628 0.19711795 0.1986023 0.1993576 0.19939005 0.1987004
        0.19729382 0.19532081 6.626124e-06 0.011805209 0.023548543 0.035182778
        0.046656486 0.057922874 0.06894079 0.07967553 0.09009923 0.1001908
        0.1099352 0.11932193 0.12834269 0.13698843 0.14524588 0.15309435
        0.16050343 0.16743238 0.1738318 0.17964768 0.18482715 0.18932451
        0.19310613 0.19615233 0.19845597 0.20001744 0.20083681 0.20090377
        0.20018505 0.19861256 0.19623217 3.3345736e-06 0.01183015 0.023601789
        0.035264596 0.046767667 0.05806464 0.06911478 0.07988383 0.09034438
        0.10047588 0.11026381 0.119698234 0.12877138 0.1374746 0.14579485
        0.15371148 0.16119379 0.16820052 0.17468172 0.18058288 0.18585083
        0.19044001 0.19431712 0.19746272 0.19986916 0.20153448 0.202453
        0.20260116 0.2019139 0.20023292 0.19731659 0 0.011854876
        0.02365464 0.035345826 0.046878047 0.05820537 0.06928748 0.080090515
        0.09058757 0.10075858 0.110589586 0.120071195 0.12919617 0.13795634
        0.14633895 0.15432347 0.16187908 0.16896424 0.17552857 0.18151723
        0.18687704 0.19156276 0.19554165 0.19879493 0.20131506 0.20309897
        0.20413722 0.20439707 0.20379002 0.20208898 0.19864342
      </DataArray>
      <DataArray type="Float32" Name="aspect_ratio" format="ascii" RangeMin="1.320212483406067" RangeMax="8.071240425109863">
        7.731986 7.6918387 7.6314673 7.5324373 7.396766 7.227165
        7.0269237 6.7997713 6.549737 6.2810082 5.9977956 5.704211
        5.404171 5.1013083 4.7989163 4.4999113 4.2068105 3.9217293
        3.6463945 3.3821628 3.130049 2.8907602 2.6647289 2.452152
        2.2530246 2.0671775 1.8943118 1.7340366 1.5859196 1.4496095
        1.3202125 7.740065 7.6998835 7.6394567 7.5403275 7.4045157
        7.234735 7.0342774 6.8068757 6.5565634 6.2875314 6.0039954
        5.710075 5.4096894 5.106481 4.803751 4.504423 4.2110233
        3.9256752 3.6501124 3.3856962 3.133446 2.8940697 2.6680024
        2.4554417 2.2563882 2.0706832 1.8980541 1.738171 1.590766
        1.4559885 1.3281617 7.7481637 7.7079496 7.6474695 7.548244
        7.412293 7.2423344 7.041662 6.8140135 6.5634246 6.2940917
        6.0102353 5.715979 5.4152513 5.111699 4.8086333 4.5089855
        4.21529 3.9296792 3.6538932 3.3892992 3.1369193 2.8974648
        2.6713712 2.4588385 2.2598717 2.0743232 1.9019421 1.7424431
        1.5956155 1.4614553 1.3337938 7.7562823 7.716039 7.655508
        7.5561876 7.4201007 7.2499666 7.0490828 6.821189 6.570326
        6.3006945 6.0165195 5.7219305 5.420862 5.1169696 4.81357
        4.513605 4.219618 3.9337482 3.6577435 3.3929763 3.1404727
        2.9009452 2.6748312 2.4623318 2.2634542 2.0780578 1.9059016
        1.7467055 1.6002054 1.4660867 1.3380688 7.764421 7.72415
        7.6635685 7.564154 7.427932 7.257623 7.0565286 6.828391
        6.577256 6.3073277 6.0228357 5.7279167 5.42651 5.1222787
        4.818549 4.5182705 4.2239943 3.9378698 3.6616507 3.396715
        3.144092 2.9044967 2.678366 2.4659007 2.2671084 2.0818474
        1.9098717 1.750871 1.6044725 1.4700966 1.3415155 7.7725797
        7.732281 7.6716495 7.5721416 7.435784 7.265301 7.063997
        6.835617 6.5842104 6.313987 6.02918 5.7339325 5.43219
        5.127623 4.8235655 4.522976 4.228415 3.9420388 3.665609
        3.4005084 3.14777 2.908109 2.6819618 2.4695275 2.2708094
        2.0856571 1.913804 1.7548872 1.6084174 1.4736375 1.3444334
        7.780759 7.7404323 7.6797504 7.5801487 7.443656 7.273
        7.071486 6.8428645 6.5911884 6.3206706 6.035551 5.739977
        5.437901 5.1330004 4.828618 4.527721 4.2328773 3.9462526
        3.669615 3.4043522 3.1514997 2.9117734 2.6856077 2.4731965
        2.274535 2.0894566 1.9176631 1.7587293 1.6120659 1.4768184
        1.346998 7.788958 7.748604 7.6878715 7.588176 7.4515486
        7.280719 7.078996 6.8501344 6.59819 6.327379 6.041949
        5.74605 5.4436426 5.1384115 4.833707 4.532504 4.237381
        3.95051 3.6736665 3.4082427 3.1552765 2.9154828 2.6892924
        2.4768925 2.2782648 2.093221 1.9214245 1.7623892 1.6154518
        1.4797184 1.349315 7.7971773 7.7567954 7.6960125 7.596223
        7.4594607 7.2884583 7.0865283 6.8574266 6.6052146 6.3341136
        6.0483737 5.7521524 5.449416 5.1438565 4.838832 4.5373263
        4.2419252 3.9548104 3.6777618 3.412177 3.159095 2.9192295
        2.693006 2.4806015 2.2819815 2.096931 1.9250734 1.7658697
        1.6186087 1.482395 1.3514516 7.8054166 7.7650075 7.7041736
        7.6042905 7.467394 7.2962193 7.094082 6.864742 6.6122637
        6.3408737 6.0548263 5.758285 5.455222 5.149337 4.843994
        4.5421877 4.246511 3.9591522 3.681899 3.4161518 3.1629505
        2.9230065 2.6967385 2.4843106 2.2856698 2.100572 1.9286021
        1.7691792 1.6215671 1.4848908 1.3534508 7.8136764 7.7732396
        7.712355 7.612378 7.4753475 7.3040013 7.1016574 6.8720803
        6.6193376 6.3476605 6.061308 5.7644486 5.4610615 5.1548524
        4.8491945 4.5470886 4.2511373 3.9635355 3.6860764 3.420164
        3.1668384 2.9268072 2.7004805 2.488009 2.2893176 2.1041338
        1.932008 1.7723293 1.6243535 1.4872373 1.3553417 7.8219566
        7.781492 7.720557 7.6204867 7.4833226 7.3118052 7.109256
        6.8794427 6.626437 6.3544745 6.0678186 5.770644 5.466935
        5.160404 4.854433 4.5520296 4.255804 3.9679592 3.6902924
        3.4242105 3.170754 2.9306247 2.7042236 2.4916859 2.2929146
        2.1076093 1.9352916 1.7753319 1.62699 1.4894589 1.3571446
        7.830257 7.7897654 7.72878 7.6286163 7.4913187 7.319631
        7.1168776 6.8868294 6.633563 6.3613167 6.07436 5.776872
        5.4728436 5.1659937 4.859711 4.557011 4.260512 3.9724224
        3.694545 3.428289 3.1746924 2.934453 2.7079604 2.4953332
        2.296453 2.1109943 1.9384562 1.7781988 1.629495 1.4915737
        1.3588738 7.838578 7.7980595 7.7370234 7.6367664 7.4993362
        7.3274794 7.1245227 6.8942413 6.640715 6.3681874 6.0809317
        5.7831335 5.4787874 5.171621 4.8650284 4.5620337 4.2652607
        3.9769247 3.6988328 3.4323957 3.17865 2.9382863 2.7116835
        2.4989436 2.299927 2.114287 1.9415057 1.7809412 1.6318837
        1.4935961 1.3605399 7.8469195 7.806374 7.7452874 7.644938
        7.5073757 7.33535 7.132191 6.901678 6.6478944 6.3750873
        6.0875354 5.789428 5.484768 5.1772866 4.870386 4.5670967
        4.270049 3.9814646 3.7031538 3.4365282 3.1826222 2.9421194
        2.715387 2.5025108 2.3033323 2.1174865 1.944445 1.7835692
        1.6341687 1.4955368 1.3621504 7.855282 7.814709 7.753573
        7.653131 7.5154376 7.3432436 7.1398845 6.9091406 6.655101
        6.3820167 6.0941706 5.795758 5.4907856 5.1829915 4.875785
        4.5722013 4.2748785 3.9860423 3.7075067 3.4406843 3.1866057
        2.9459476 2.7190657 2.5060303 2.306666 2.1205933 1.9472791
        1.7860914 1.6363599 1.4974045 1.3637111 7.863664 7.8230653
        7.761879 7.6613455 7.523521 7.3511605 7.1476016 6.9166293
        6.6623354 6.388976 6.1008387 5.8021226 5.4968405 5.1887364
        4.881224 4.5773473 4.2797475 3.9906564 3.71189 3.4448612
        3.190597 2.949767 2.7227154 2.5094981 2.3099258 2.1236093
        1.950013 1.7885153 1.6384654 1.4992056 1.3652259 7.872068
        7.8314424 7.7702065 7.6695814 7.5316267 7.3591003 7.155343
        6.924144 6.669598 6.395966 6.1075397 5.808523 5.502934
        5.1945214 4.886706 4.582535 4.284657 3.9953065 3.7163024
        3.4490569 3.1945934 2.953574 2.7263317 2.5129113 2.3131113
        2.1265357 1.952651 1.7908473 1.6404916 1.5009451 1.3666979
        7.880492 7.8398404 7.778555 7.677839 7.539755 7.367064
        7.16311 6.9316854 6.6768894 6.402987 6.114274 5.8149595
        5.5090656 5.200347 4.892229 4.5877643 4.289606 3.9999921
        3.7207427 3.4532695 3.198592 2.957365 2.7299125 2.516268
        2.3162217 2.1293743 1.9551973 1.7930926 1.6424435 1.5026268
        1.368129 7.8889375 7.8482594 7.786925 7.6861186 7.5479054
        7.375051 7.1709013 6.9392533 6.68421 6.4100394 6.1210423
        5.8214326 5.515237 5.2062144 4.8977947 4.593036 4.2945952
        4.0047126 3.72521 3.4574976 3.202591 2.9611382 2.7334552
        2.5195668 2.3192575 2.1321278 1.9576555 1.7952554 1.6443251
        1.504253 1.3695202 7.8974037 7.8566995 7.7953157 7.6944194
        7.556079 7.383062 7.178718 6.9468484 6.691559 6.417123
        6.127845 5.827943 5.5214477 5.2121234 4.9034038 4.5983505
        4.2996244 4.009468 3.7297034 3.4617395 3.2065883 2.9648917
        2.7369583 2.522807 2.322219 2.1347973 1.9600285 1.7973391
        1.6461388 1.5058254 1.3708719 7.905891 7.865161 7.8037286
        7.7027426 7.5642753 7.3910966 7.18656 6.9544706 6.698938
        6.4242387 6.134682 5.834491 5.527699 5.2180743 4.9090557
        4.603708 4.3046937 4.0142574 3.7342224 3.4659948 3.2105832
        2.968624 2.740421 2.5259883 2.325107 2.1373856 1.962319
        1.7993459 1.6478863 1.5073446 1.3721838 7.914399 7.8736434
        7.8121624 7.7110877 7.572494 7.399155 7.194428 6.96212
        6.706346 6.4313865 6.1415544 5.8410764 5.5339904 5.2240686
        4.914752 4.6091084 4.309803 4.0190816 3.7387667 3.4702625
        3.2145743 2.9723349 2.7438426 2.5291111 2.3279233 2.139894
        1.9645289 1.8012775 1.6495686 1.5088105 1.3734547 7.922929
        7.8821473 7.820618 7.7194552 7.580736 7.407238 7.2023215
        6.969797 6.713784 6.4385667 6.1484623 5.8477 5.5403233
        5.230106 4.920492 4.6145525 4.314953 4.0239406 3.743336
        3.4745426 3.2185621 2.9760234 2.7472239 2.5321763 2.330669
        2.1423242 1.9666595 1.8031347 1.6511853 1.5102222 1.374683
        7.9314795 7.890672 7.8290954 7.727844 7.589001 7.415345
        7.2102404 6.977502 6.7212524 6.44578 6.1554055 5.8543625
        5.546697 5.2361865 4.926277 4.6200404 4.3201437 4.028834
        3.7479308 3.478835 3.222546 2.9796908 2.750565 2.535185
        2.3333452 2.1446779 1.9687122 1.8049177 1.6527357 1.5115776
        1.3758662 7.940052 7.899219 7.837594 7.736256 7.597289
        7.423476 7.2181854 6.9852347 6.7287507 6.453026 6.1623845
        5.861064 5.553113 5.2423115 4.932107 4.6255727 4.325376
        4.033763 3.7525513 3.4831405 3.2265272 2.9833372 2.7538679
        2.538139 2.335954 2.1469564 1.9706872 1.8066257 1.6542178
        1.5128744 1.3770008 7.9486456 7.907787 7.846114 7.7446895
        7.6056004 7.431632 7.2261567 6.9929957 6.73628 6.460305
        6.1694 5.867805 5.5595713 5.248481 4.9379826 4.6311502
        4.3306503 4.0387273 3.7571983 3.4874594 3.2305064 2.9869647
        2.7571337 2.5410404 2.3384972 2.149161 1.9725848 1.8082577
        1.6556293 1.5141088 1.3780826 7.9572606 7.916376 7.854656
        7.7531457 7.6139345 7.439812 7.2341537 7.0007844 6.7438393
        6.4676175 6.1764517 5.874585 5.5660715 5.254695 4.9439044
        4.6367736 4.3359675 4.043729 3.7618728 3.4917934 3.2344854
        2.9905748 2.7603655 2.5438917 2.3409774 2.151293 1.974405
        1.8098117 1.6569664 1.5152763 1.3791063 7.965897 7.924987
        7.86322 7.761624 7.622292 7.448017 7.242177 7.0086017
        6.751429 6.474963 6.18354 5.881405 5.572615 5.2609544
        4.949873 4.6424427 4.3413277 4.048768 3.7665758 3.496144
        3.238466 2.9941704 2.7635658 2.5466957 2.343397 2.1533542
        1.9761475 1.8112853 1.6582248 1.5163709 1.380065 7.9745555
        7.9336195 7.8718057 7.7701244 7.6306725 7.456246 7.2502265
        7.016447 6.75905 6.4823427 6.190665 5.8882647 5.579201
        5.2672596 4.9558883 4.648159 4.346732 4.053846 3.7713094
        3.500513 3.2424512 2.9977543 2.7667382 2.5494561 2.3457587
        2.155346 1.9778118 1.8126754 1.659399 1.5173857 1.3809505
        7.9832354 7.942273 7.8804126 7.778647 7.6390767 7.4645
        7.258302 7.0243206 6.766701 6.4897556 6.197826 5.895165
        5.585831 5.2736106 4.9619517 4.653923 4.3521824 4.0589643
        3.776075 3.5049033 3.2464435 3.0013304 2.7698865 2.5521772
        2.3480666 2.1572704 1.9793977 1.8139787 1.6604824 1.5183116
        1.3817519 7.991937 7.9509487 7.8890414 7.7871923 7.6475034
        7.472778 7.2664037 7.0322223 6.774383 6.497202 6.2050247
        5.902105 5.5925045 5.280008 4.9680634 4.659735 4.357679
        4.064124 3.7808743 3.509317 3.2504466 3.0049026 2.773016
        2.5548635 2.3503244 2.15913 1.9809046 1.8151914 1.6614673
        1.5191381 1.3824563 8.000661 7.9596457 7.897692 7.7957597
        7.655954 7.4810805 7.274532 7.040152 6.782096 6.504682
        6.21226 5.9090853 5.599221 5.286452 4.974223 4.6655965
        4.3632226 4.0693274 3.7857103 3.513757 3.2544641 3.0084758
        2.7761314 2.5575206 2.3525372 2.1609282 1.9823333 1.8163095
        1.662345 1.5198517 1.3830464 8.009406 7.9683647 7.9063644
        7.804349 7.6644273 7.4894075 7.2826858 7.0481105 6.7898393
        6.5121956 6.2195315 5.916106 5.605982 5.292943 4.9804325
        4.671508 4.3688154 4.074576 3.790585 3.5182273 3.2585008
        3.0120552 2.7792392 2.5601552 2.354711 2.1626694 1.9836849
        1.8173294 1.6631052 1.5204364 1.3835005 8.018173 7.9771047
        7.915058 7.8129606 7.6729236 7.497759 7.2908654 7.056096
        6.797613 6.5197425 6.22684 5.9231668 5.612786 5.299481
        4.986691 4.67747 4.3744583 4.079871 3.7955015 3.5227313
        3.262561 3.0156462 2.7823458 2.562774 2.3568528 2.1643593
        1.984962 1.8182482 1.6637372 1.5208724 1.3837894 8.026962
        7.9858665 7.9237733 7.821594 7.6814427 7.506134 7.299071
        7.06411 6.8054166 6.5273223 6.2341847 5.9302673 5.6196337
        5.3060656 4.9929996 4.6834836 4.380152 4.085216 3.8004622
        3.5272727 3.2666497 3.0192559 2.7854588 2.5653856 2.358971
        2.1660051 1.9861691 1.8190641 1.6642289 1.521135 1.383874
        8.035774 7.9946494 7.93251 7.8302493 7.689984 7.5145326
        7.307301 7.07215 6.81325 6.5349345 6.241565 5.937407
        5.626525 5.3126974 4.9993577 4.689549 4.3858986 4.0906115
        3.8054702 3.5318556 3.2707727 3.0228903 2.7885864 2.5679991
        2.3610759 2.1676168 1.9873135 1.8197784 1.6645691 1.5211939
        1.3837001 8.044607 8.003454 7.9412675 7.838926 7.6985474
        7.522954 7.315556 7.080217 6.8211117 6.5425777 6.24898
        5.9445853 5.6334577 5.319375 5.0057654 4.6956663 4.3916984
        4.0960593 3.8105285 3.5364845 3.2749355 3.026557 2.791737
        2.570625 2.3631785 2.1692064 1.9884062 1.8203964 1.6647487
        1.5210117 1.3831902 8.053463 8.0122795 7.9500456 7.8476224
        7.707132 7.5313973 7.3238335 7.0883083 6.8290005 6.550251
        6.2564282 5.9518003 5.640432 5.3260975 5.012222 4.701835
        4.3975515 4.1015615 3.8156395 3.541163 3.2791433 3.0302632
        2.7949202 2.5732744 2.3652925 2.1707892 1.9894629 1.8209305
        1.6647642 1.5205425 1.3822291 8.062341 8.021125 7.958843
        7.8563385 7.7157354 7.5398607 7.3321323 7.0964227 6.8369136
        6.5579515 6.263907 5.9590497 5.647444 5.332863 5.018725
        4.708055 4.403458 4.1071186 3.8208053 3.545895 3.2834022
        3.0340164 2.7981455 2.57596 2.3674333 2.1723835 1.9905055
        1.821403 1.6646253 1.5197314 1.3806399 8.07124 8.029992
        7.967662 7.8650756 7.72436 7.548346 7.340454 7.1045613
        6.844854 6.5656815 6.271418 5.9663353 5.654497 5.339673
        5.0252776 4.714328 4.409421 4.112734 3.82603 3.5506852
        3.2877169 3.0378225 2.8014197 2.5786886 2.3696096 2.1740012
        1.9915493 1.8218331 1.6643425 1.5184801 1.3781391
      </DataArray>
      <DataArray type="Float32" Name="jacobian" format="ascii" RangeMin="0.004658050835132599" RangeMax="0.02790992148220539">
        0.026736796 0.026602207 0.026401388 0.026070544 0.025616297 0.02504748
        0.024374798 0.023610428 0.022767575 0.021860024 0.020901706 0.019906301
        0.018886898 0.017855708 0.016823862 0.015801253 0.014796461 0.013816734
        0.012868007 0.011954973 0.011081181 0.010249136 0.009460433 0.008715874
        0.008015571 0.0073590656 0.0067453906 0.0061731176 0.0056402693 0.005143743
        0.004658051 0.026764734 0.02662993 0.026428793 0.026097449 0.025642527
        0.025072873 0.024399204 0.023633717 0.022789631 0.021880751 0.02092103
        0.019924168 0.01890328 0.017870609 0.016837312 0.015813312 0.014807222
        0.013826315 0.01287655 0.011962637 0.011088132 0.010255548 0.009466481
        0.008721733 0.008021434 0.00736516 0.006752045 0.0061809067 0.005650515
        0.0051605436 0.0046883426 0.026792739 0.026657715 0.026456254 0.026124403
        0.025668804 0.025098307 0.024423651 0.023657043 0.022811722 0.021901513
        0.020940384 0.019942068 0.018919699 0.017885549 0.016850805 0.015825424
        0.01481805 0.0138359815 0.012885202 0.011970441 0.011095264 0.01026219
        0.009472819 0.008727958 0.0080277575 0.0073718363 0.006759428 0.0061895736
        0.005661476 0.0051751183 0.0047097276 0.026820812 0.02668556 0.026483765
        0.026151402 0.025695117 0.025123775 0.024448127 0.023680393 0.022833833
        0.02192229 0.020959757 0.019959982 0.018936133 0.017900508 0.016864322
        0.015837569 0.0148289185 0.013845705 0.012893936 0.011978358 0.011102551
        0.01026904 0.009479431 0.008734539 0.008034533 0.007379075 0.006767484
        0.006198938 0.0056727524 0.0051885024 0.0047258977 0.026848955 0.02671347
        0.026511343 0.026178466 0.025721496 0.02514931 0.024472667 0.02370381
        0.022856014 0.021943139 0.0209792 0.01997797 0.018952642 0.017915543
        0.016877921 0.0158498 0.014839889 0.013855545 0.0129028065 0.01198644
        0.011110039 0.010276139 0.009486347 0.008741489 0.008041747 0.0073868157
        0.00677606 0.0062086903 0.005683904 0.005200688 0.0047388785 0.026877169
        0.02674145 0.02653899 0.026205603 0.02574795 0.02517492 0.024497287
        0.023727309 0.022878278 0.021964073 0.020998731 0.01999605 0.018969247
        0.017930679 0.016891627 0.015862146 0.014850981 0.013865522 0.012911833
        0.011994704 0.0111177405 0.010283488 0.009493559 0.008748782 0.008049347
        0.0073949606 0.0067849867 0.006218578 0.005694699 0.0052118045 0.0047498164
        0.026905451 0.0267695 0.026566708 0.026232813 0.02577448 0.025200611
        0.024521992 0.023750896 0.022900634 0.021985102 0.021018362 0.020014232
        0.018985959 0.017945925 0.016905447 0.015874615 0.014862204 0.013875642
        0.012921019 0.012003147 0.011125648 0.010291074 0.009501042 0.008756377
        0.0080572665 0.007403403 0.0067941095 0.0062284186 0.0057050325 0.005222011
        0.004759383 0.026933802 0.02679762 0.026594501 0.0262601 0.02580109
        0.025226384 0.024546782 0.023774572 0.02292308 0.022006229 0.021038093
        0.02003252 0.019002777 0.017961284 0.016919384 0.015887206 0.01487356
        0.013885904 0.012930362 0.012011764 0.01113375 0.010298878 0.0095087625
        0.008764225 0.008065432 0.0074120415 0.0068032993 0.00623809 0.0057148733
        0.0052314536 0.004767984 0.026962224 0.026825814 0.026622366 0.02628746
        0.025827779 0.02525224 0.024571657 0.023798337 0.022945622 0.022027452
        0.021057924 0.02005091 0.019019704 0.017976755 0.016933441 0.015899923
        0.0148850465 0.013896307 0.012939854 0.012020543 0.0111420285 0.010306873
        0.009516687 0.0087722745 0.008073773 0.007420784 0.0068124547 0.006247515
        0.005724229 0.0052402555 0.004775876 0.026990715 0.026854075 0.026650304
        0.026314897 0.025854545 0.025278175 0.024596618 0.023822192 0.022968257
        0.022048771 0.021077858 0.020069407 0.019036744 0.017992342 0.016947618
        0.015912764 0.014896663 0.013906845 0.01294949 0.0120294755 0.011150469
        0.0103150355 0.009524778 0.008780476 0.008082224 0.007429552 0.006821499
        0.00625665 0.005733125 0.0052485173 0.0047832257 0.027019277 0.026882408
        0.026678313 0.026342409 0.02588139 0.025304193 0.024621664 0.023846135
        0.022990983 0.022070188 0.021097893 0.02008801 0.019053893 0.018008044
        0.016961912 0.015925728 0.014908407 0.013917516 0.012959262 0.012038548
        0.011159051 0.010323339 0.009532999 0.00878878 0.008090724 0.0074382797
        0.006830377 0.0062654745 0.0057415934 0.005256319 0.0047901454 0.02704791
        0.026910812 0.026706396 0.026369995 0.02590831 0.025330292 0.024646793
        0.023870165 0.023013802 0.022091702 0.021118028 0.02010672 0.019071152
        0.018023862 0.016976327 0.015938815 0.0149202775 0.013928315 0.012969163
        0.012047748 0.011167757 0.010331756 0.009541314 0.008797142 0.008099221
        0.0074469144 0.006839048 0.0062739793 0.005749668 0.0052637225 0.0047967136
        0.027076613 0.026939288 0.02673455 0.026397657 0.025935309 0.025356472
        0.024672007 0.023894284 0.023036715 0.022113314 0.021138268 0.020125536
        0.019088525 0.018039797 0.016990863 0.015952025 0.014932273 0.013939237
        0.012979186 0.012057064 0.011176569 0.010340262 0.0095496895 0.008805518
        0.008107667 0.007455412 0.0068474854 0.0062821647 0.0057573793 0.0052707773
        0.0048029856 0.027105385 0.026967835 0.026762778 0.026425391 0.025962386
        0.025382731 0.024697306 0.02391849 0.023059718 0.022135023 0.021158608
        0.02014446 0.01910601 0.018055849 0.01700552 0.015965357 0.01494439
        0.013950281 0.012989324 0.012066485 0.01118547 0.010348832 0.009558092
        0.008813872 0.008116022 0.0074637383 0.00685567 0.0062900353 0.005764754
        0.005277522 0.0048090024 0.02713423 0.026996452 0.026791079 0.026453203
        0.02598954 0.02540907 0.024722688 0.023942785 0.023082815 0.022156829
        0.021179054 0.020163495 0.01912361 0.018072018 0.017020298 0.015978815
        0.01495663 0.013961441 0.012999569 0.012075998 0.0111944415 0.010357442
        0.009566493 0.008822168 0.008124253 0.007471866 0.0068635885 0.006297597
        0.0057718153 0.005283986 0.0048147934 0.027163146 0.027025143 0.02681945
        0.026481088 0.026016772 0.025435492 0.024748154 0.023967171 0.023106007
        0.022178736 0.021199603 0.02018264 0.019141326 0.018088311 0.0170352
        0.015992396 0.01496899 0.013972714 0.013009914 0.012085592 0.011203467
        0.01036607 0.009574864 0.008830377 0.008132329 0.007479773 0.0068712328
        0.006304858 0.0057785823 0.0052901935 0.0048203813 0.027192134 0.027053906
        0.026847899 0.02650905 0.026044082 0.025461994 0.024773706 0.023991644
        0.023129294 0.022200743 0.02122026 0.020201895 0.019159159 0.018104723
        0.017050225 0.016006099 0.01498147 0.013984096 0.013020353 0.012095258
        0.0112125315 0.010374694 0.009583181 0.00883847 0.008140226 0.007487442
        0.0068785967 0.006311822 0.0057850685 0.0052961605 0.0048257816 0.027221192
        0.02708274 0.02687642 0.026537087 0.02607147 0.025488578 0.024799343
        0.024016209 0.023152674 0.022222849 0.02124102 0.020221267 0.01917711
        0.01812126 0.017065378 0.016019927 0.014994068 0.013995586 0.01303088
        0.0121049825 0.011221618 0.010383296 0.009591418 0.0088464245 0.008147923
        0.0074948585 0.0068856752 0.0063184965 0.005791286 0.0053019 0.0048310063
        0.027250323 0.027111648 0.026905015 0.0265652 0.026098937 0.025515243
        0.024825066 0.024040863 0.02317615 0.022245059 0.021261893 0.02024075
        0.019195184 0.018137923 0.017080657 0.016033882 0.015006784 0.01400718
        0.013041489 0.01211476 0.0112307165 0.0103918575 0.009599559 0.008854218
        0.008155401 0.0075020096 0.006892464 0.006324882 0.005797242 0.0053074216
        0.004836063 0.027279526 0.027140629 0.026933683 0.026593389 0.026126483
        0.025541993 0.024850877 0.024065608 0.023199724 0.022267371 0.021282874
        0.020260353 0.01921338 0.018154712 0.017096065 0.016047962 0.015019619
        0.014018876 0.013052176 0.0121245785 0.011239813 0.010400362 0.009607582
        0.008861833 0.008162644 0.0075088856 0.0068989587 0.0063309814 0.00580294
        0.0053127287 0.0048409556 0.027308801 0.027169682 0.026962427 0.026621656
        0.026154108 0.025568822 0.024876773 0.024090447 0.023223396 0.022289786
        0.021303967 0.020280072 0.019231701 0.01817163 0.017111605 0.01606217
        0.015032572 0.014030672 0.013062935 0.012134433 0.011248896 0.010408798
        0.009615473 0.008869253 0.008169638 0.0075154756 0.0069051543 0.006336792
        0.005808382 0.005317824 0.004845686 0.02733815 0.02719881 0.026991246
        0.026649999 0.026181813 0.025595738 0.024902757 0.024115376 0.023247166
        0.02231231 0.021325171 0.020299911 0.019250149 0.01818868 0.017127275
        0.016076507 0.015045642 0.0140425665 0.013073763 0.012144316 0.011257957
        0.010417152 0.009623217 0.008876465 0.008176372 0.007521771 0.0069110445
        0.006342311 0.005813565 0.0053227055 0.0048502525 0.027367571 0.027228013
        0.027020141 0.02667842 0.026209598 0.025622735 0.02492883 0.0241404
        0.023271035 0.022334937 0.02134649 0.020319873 0.019268723 0.018205864
        0.017143082 0.016090974 0.01505883 0.014054559 0.013084658 0.0121542225
        0.011266987 0.010425413 0.009630805 0.008883457 0.008182834 0.007527762
        0.0069166217 0.006347532 0.0058184844 0.0053273696 0.004854651 0.027397066
        0.02725729 0.027049111 0.02670692 0.026237465 0.025649818 0.024954991
        0.024165519 0.023295006 0.022357674 0.021367924 0.020339958 0.01928743
        0.018223183 0.017159024 0.016105574 0.01507214 0.01406665 0.013095617
        0.012164148 0.011275981 0.010433574 0.009638224 0.008890218 0.008189015
        0.0075334404 0.006921878 0.0063524465 0.005823131 0.0053318073 0.004858875
        0.027426636 0.027286641 0.02707816 0.026735496 0.026265413 0.025676986
        0.024981242 0.024190731 0.023319079 0.02238052 0.021389477 0.020360168
        0.019306269 0.01824064 0.017175106 0.016120307 0.01508557 0.014078838
        0.0131066395 0.012174089 0.011284933 0.010441628 0.009645469 0.00889674
        0.008194906 0.007538796 0.0069268025 0.006357044 0.005827495 0.0053360094
        0.0048629153 0.027456278 0.02731607 0.027107283 0.026764153 0.026293442
        0.025704239 0.025007583 0.024216041 0.023343252 0.022403475 0.021411147
        0.020380506 0.019325243 0.018258236 0.01719133 0.016135179 0.015099123
        0.014091125 0.013117724 0.012184047 0.0112938415 0.010449572 0.009652532
        0.008903017 0.008200498 0.00754382 0.006931383 0.00636131 0.00583156
        0.0053399606 0.0048667584 0.027485993 0.027345572 0.027136484 0.026792888
        0.026321553 0.025731577 0.025034014 0.024241446 0.02336753 0.022426542
        0.021432938 0.020400971 0.019344354 0.018275974 0.017207697 0.016150188
        0.015112801 0.014103512 0.013128874 0.012194018 0.011302704 0.0104574
        0.009659412 0.008909045 0.008205786 0.0075485017 0.006935607 0.0063652275
        0.005835308 0.005343643 0.004870388 0.027515784 0.02737515 0.027165763
        0.026821705 0.026349748 0.025759002 0.025060536 0.024266949 0.023391912
        0.02244972 0.02145485 0.020421568 0.019363603 0.01829386 0.017224211
        0.016165338 0.015126607 0.014116003 0.013140089 0.012204006 0.011311522
        0.010465115 0.009666107 0.008914818 0.008210763 0.0075528314 0.0069394596
        0.0063687777 0.005838716 0.005347034 0.0048737833 0.02754565 0.027404804
        0.027195118 0.0268506 0.026378026 0.025786515 0.025087152 0.02429255
        0.0234164 0.022473013 0.021476885 0.020442298 0.019382993 0.018311892
        0.017240874 0.016180634 0.015140546 0.014128601 0.013151373 0.012214012
        0.011320297 0.010472719 0.009672617 0.008920337 0.008215425 0.0075567993
        0.006942923 0.0063719368 0.005841757 0.005350106 0.0048769186 0.027575588
        0.027434537 0.027224554 0.026879577 0.026406387 0.025814116 0.02511386
        0.02431825 0.023440994 0.022496423 0.021499045 0.020463161 0.019402528
        0.018330073 0.01725769 0.016196078 0.015154618 0.014141309 0.01316273
        0.012224041 0.011329033 0.010480214 0.009678945 0.008925604 0.008219768
        0.0075603956 0.0069459807 0.0063746786 0.005844398 0.0053528245 0.004879761
        0.027605603 0.027464345 0.02725407 0.026908634 0.026434833 0.025841806
        0.025140662 0.02434405 0.023465695 0.022519946 0.02152133 0.020484162
        0.019422207 0.018348407 0.017274663 0.016211675 0.015168831 0.014154132
        0.013174166 0.012234099 0.011337738 0.010487608 0.009685097 0.008930619
        0.008223791 0.007563612 0.0069486136 0.006376974 0.0058466005 0.0053551486
        0.004882271 0.027635694 0.027494231 0.027283663 0.026937775 0.026463365
        0.025869586 0.025167558 0.02436995 0.023490507 0.022543589 0.021543745
        0.0205053 0.019442035 0.018366897 0.017291795 0.016227428 0.015183187
        0.014167077 0.013185686 0.012244194 0.0113464175 0.010494907 0.009691082
        0.00893539 0.008227495 0.007566441 0.0069508017 0.0063787885 0.0058483197
        0.0053570275 0.004884397 0.02766586 0.027524196 0.027313337 0.026966998
        0.026491983 0.025897454 0.02519455 0.024395954 0.023515427 0.022567352
        0.021566287 0.020526579 0.019462014 0.018385548 0.01730909 0.016243342
        0.015197694 0.01418015 0.0131973 0.012254333 0.011355083 0.010502126
        0.009696909 0.008939926 0.008230884 0.0075688767 0.0069525274 0.0063800877
        0.0058495025 0.005358399 0.004886075 0.0276961 0.027554238 0.02734309
        0.026996305 0.026520686 0.025925413 0.025221638 0.02442206 0.02354046
        0.022591235 0.021588963 0.020548001 0.019482147 0.01840436 0.017326554
        0.016259424 0.015212358 0.014193357 0.013209016 0.012264529 0.011363749
        0.010509276 0.009702594 0.008944239 0.008233965 0.007570918 0.0069537726
        0.0063808323 0.005850087 0.0053591854 0.00488722 0.027726417 0.02758436
        0.027372928 0.027025696 0.026549479 0.025953466 0.025248824 0.024448272
        0.023565603 0.02261524 0.02161177 0.020569568 0.019502437 0.01842334
        0.017344188 0.016275678 0.015227186 0.014206709 0.013220844 0.012274794
        0.011372427 0.010516373 0.009708154 0.008948345 0.008236751 0.0075725676
        0.006954523 0.006380982 0.005850002 0.00535929 0.0048877234 0.02775681
        0.027614562 0.027402846 0.02705517 0.02657836 0.02598161 0.02527611
        0.02447459 0.023590865 0.022639371 0.021634717 0.020591283 0.019522885
        0.01844249 0.017362002 0.01629211 0.0152421845 0.014220215 0.013232797
        0.012285142 0.011381137 0.010523439 0.009713609 0.008952265 0.008239259
        0.007573833 0.00695477 0.0063804993 0.0058491663 0.0053585917 0.004887435
        0.02778728 0.027644843 0.027432848 0.027084732 0.02660733 0.026009852
        0.025303498 0.024501016 0.023616243 0.02266363 0.0216578 0.02061315
        0.0195435 0.018461816 0.01738 0.016308729 0.015257365 0.014233888
        0.013244891 0.012295591 0.011389896 0.010530495 0.009718983 0.008956024
        0.008241513 0.0075747324 0.0069545126 0.0063793487 0.0058474904 0.0053569325
        0.004886151 0.027817825 0.027675206 0.027462933 0.027114384 0.026636396
        0.026038192 0.025330989 0.024527555 0.023641743 0.022688022 0.021681031
        0.020635176 0.019564286 0.018481325 0.01739819 0.016325545 0.0152727375
        0.014247741 0.013257138 0.01230616 0.01139873 0.010537568 0.009724308
        0.008959657 0.008243543 0.007575291 0.0069537633 0.006377507 0.005844878
        0.0053541074 0.0048835767 0.027848447 0.027705649 0.027493106 0.027144127
        0.026665557 0.026066635 0.025358591 0.024554214 0.02366737 0.022712553
        0.021704411 0.020657368 0.01958525 0.018501027 0.017416582 0.01634257
        0.0152883185 0.014261789 0.013269563 0.012316872 0.011407664 0.0105446875
        0.009729618 0.008963198 0.008245393 0.0075755497 0.006952551 0.0063749705
        0.005841238 0.0053498447 0.004879278 0.027879147 0.027736178 0.027523369
        0.027173964 0.02669482 0.026095185 0.025386311 0.024580998 0.023693137
        0.022737233 0.021727957 0.020679737 0.019606408 0.018520935 0.017435193
        0.01635982 0.015304126 0.0142760575 0.013282188 0.012327758 0.011416732
        0.010551893 0.009734955 0.008966697 0.008247113 0.007575564 0.0069509307
        0.00637177 0.005836506 0.005343775 0.0048725866 0.027909921 0.027766787
        0.027553717 0.027203891 0.026724176 0.026123838 0.025414139 0.0246079
        0.023719031 0.022762053 0.021751655 0.020702273 0.019627748 0.018541042
        0.017454017 0.016377293 0.015320164 0.014290557 0.013295039 0.012338854
        0.011425989 0.010559259 0.009740416 0.008970276 0.008248857 0.007575524
        0.006949134 0.0063681817 0.0058309496 0.005335732 0.004862431
      </DataArray>
    </PointData>
    <CellData>
    </CellData>
    <Points>
      <DataArray type="Float32" Name="Points" NumberOfComponents="3" format="ascii" RangeMin="0.754268586301928" RangeMax="0.8734212259056853">
        0.48018473 -0.048179667 0.5796745 0.48896784 -0.04822072 0.58016837
        0.49771437 -0.048260257 0.5806441 0.50637996 -0.0482981 0.58109933
        0.51492196 -0.048334092 0.5815324 0.5233001 -0.04836812 0.5819418
        0.53147733 -0.04840009 0.5823264 0.5394203 -0.048429936 0.5826856
        0.54710007 -0.048457634 0.58301884 0.55449194 -0.04848318 0.58332616
        0.5615761 -0.048506603 0.583608 0.56833726 -0.048527952 0.58386487
        0.5747647 -0.0485473 0.5840976 0.580852 -0.048564743 0.5843075
        0.58659655 -0.048580386 0.58449566 0.59199965 -0.04859434 0.58466357
        0.5970655 -0.048606735 0.5848127 0.60180116 -0.048617695 0.58494455
        0.60621583 -0.048627343 0.58506066 0.6103208 -0.04863581 0.5851626
        0.61412865 -0.048643216 0.5852516 0.617653 -0.048649672 0.58532935
        0.6209083 -0.048655286 0.5853969 0.6239094 -0.048660155 0.5854555
        0.6266713 -0.048664372 0.5855062 0.629209 -0.048668016 0.58555007
        0.6315372 -0.048671164 0.5855879 0.6336704 -0.048673876 0.5856205
        0.63562244 -0.048676215 0.58564866 0.6374067 -0.048678227 0.58567286
        0.63903594 -0.04867996 0.5856937 0.48018473 -0.04732743 0.57974464
        0.48897702 -0.04736776 0.5802392 0.4977327 -0.047406577 0.58071536
        0.5064073 -0.047443714 0.5811711 0.51495826 -0.04747901 0.58160466
        0.5233451 -0.047512352 0.5820145 0.5315308 -0.047543652 0.5823995
        0.539482 -0.04757284 0.5827589 0.5471696 -0.04759989 0.58309245
        0.554569 -0.047624793 0.5834 0.56166035 -0.04764758 0.58368206
        0.5684282 -0.0476683 0.5839391 0.57486194 -0.04768702 0.58417195
        0.5809551 -0.047703832 0.58438194 0.58670515 -0.047718845 0.58457017
        0.5921133 -0.04773217 0.5847381 0.5971838 -0.047743935 0.5848872
        0.60192376 -0.04775427 0.58501905 0.60634243 -0.04776331 0.5851351
        0.61045116 -0.047771186 0.58523697 0.61426246 -0.04777804 0.585326
        0.6177902 -0.047783993 0.58540356 0.62104875 -0.04778918 0.58547103
        0.624053 -0.047793716 0.58552957 0.6268181 -0.047797725 0.58558017
        0.6293591 -0.04780132 0.585624 0.63169086 -0.04780462 0.5856617
        0.6338278 -0.047807753 0.5856942 0.63578415 -0.0478109 0.5857222
        0.6375738 -0.04781438 0.5857462 0.639211 -0.04781905 0.58576685
        0.48018473 -0.04647509 0.5798136 0.48898622 -0.04651469 0.5803087
        0.49775106 -0.046552796 0.5807854 0.5064348 -0.046589226 0.58124167
        0.5149946 -0.046623837 0.58167565 0.52339023 -0.046656504 0.58208585
        0.5315844 -0.046687134 0.58247125 0.5395438 -0.046715662 0.582831
        0.54723936 -0.046742067 0.5831648 0.5546463 -0.04676634 0.5834726
        0.5617448 -0.046788502 0.58375484 0.5685194 -0.0468086 0.58401203
        0.5749595 -0.04682671 0.584245 0.58105856 -0.046842907 0.584455
        0.5868141 -0.046857305 0.5846433 0.59222734 -0.046870016 0.5848113
        0.59730256 -0.04688117 0.5849604 0.60204685 -0.046890903 0.5850922
        0.60646963 -0.04689935 0.58520824 0.6105821 -0.04690667 0.58531004
        0.614397 -0.046912994 0.58539903 0.61792815 -0.04691849 0.5854766
        0.62119 -0.046923283 0.58554393 0.62419766 -0.046927538 0.58560234
        0.6269661 -0.046931397 0.5856529 0.6295106 -0.04693501 0.5856966
        0.63184595 -0.04693854 0.5857342 0.6339869 -0.04694219 0.5857666
        0.6359477 -0.04694625 0.5857944 0.6377427 -0.046951212 0.5858183
        0.6393861 -0.04695803 0.5858387 0.48018473 -0.04562265 0.5798813
        0.48899543 -0.045661528 0.580377 0.49776947 -0.04569892 0.58085424
        0.50646234 -0.04573465 0.581311 0.5150311 -0.04576857 0.5817454
        0.5234355 -0.045800563 0.58215606 0.5316382 -0.045830533 0.58254176
        0.53960586 -0.045858417 0.58290184 0.5473093 -0.045884185 0.5832359
        0.55472386 -0.045907836 0.583544 0.5618295 -0.04592938 0.58382636
        0.5686109 -0.045948874 0.5840837 0.5750574 -0.045966372 0.58431685
        0.5811624 -0.04598197 0.5845269 0.5869235 -0.045995772 0.58471525
        0.59234184 -0.046007883 0.5848832 0.5974218 -0.046018444 0.5850323
        0.60217047 -0.046027593 0.5851641 0.60659736 -0.04603548 0.5852801
        0.61071366 -0.04604226 0.58538187 0.61453223 -0.0460481 0.58547074
        0.6180669 -0.046053153 0.5855482 0.6213322 -0.046057608 0.5856155
        0.6243433 -0.04606162 0.58567387 0.6271152 -0.04606538 0.5857243
        0.6296632 -0.046069067 0.58576787 0.6320024 -0.046072897 0.5858054
        0.63414747 -0.04607712 0.58583766 0.6361128 -0.046082117 0.5858653
        0.6379128 -0.046088435 0.58588904 0.63956124 -0.0460969 0.5859092
        0.48018473 -0.044770118 0.57994777 0.4890047 -0.04480826 0.580444
        0.49778792 -0.04484494 0.58092177 0.5064899 -0.044879977 0.581379
        0.51506764 -0.044913217 0.58181393 0.52348083 -0.044944536 0.58222497
        0.5316921 -0.044973847 0.582611 0.539668 -0.045001093 0.58297145
        0.54737943 -0.045026235 0.5833058 0.5548016 -0.04504927 0.58361405
        0.56191444 -0.04507021 0.58389664 0.5687027 -0.045089107 0.58415407
        0.5751556 -0.04510602 0.58438736 0.5812666 -0.045121025 0.5845975
        0.5870333 -0.045134243 0.5847859 0.59245676 -0.04514578 0.58495384
        0.5975415 -0.045155767 0.585103 0.6022947 -0.045164358 0.5852347
        0.6067257 -0.045171704 0.5853507 0.6108459 -0.045177974 0.5854524
        0.6146682 -0.045183353 0.5855412 0.61820644 -0.045188006 0.58561856
        0.6214753 -0.045192152 0.58568585 0.62448984 -0.04519597 0.585744
        0.62726533 -0.045199674 0.5857944 0.6298171 -0.045203477 0.58583784
        0.6321602 -0.04520765 0.5858753 0.63430935 -0.045212485 0.5859074
        0.63627917 -0.045218386 0.58593494 0.6380837 -0.045225903 0.5859585
        0.63973635 -0.045235667 0.58597845 0.48018473 -0.04391748 0.5800129
        0.48901397 -0.043954905 0.5805097 0.49780643 -0.043990877 0.58098805
        0.5065175 -0.04402522 0.5814458 0.5151043 -0.044057775 0.58188117
        0.52352625 -0.044088423 0.5822926 0.53174615 -0.044117093 0.58267903
        0.53973037 -0.0441437 0.58303976 0.54744977 -0.044168223 0.5833744
        0.55487955 -0.04419065 0.5836829 0.5619997 -0.044211 0.58396566
        0.5687948 -0.04422931 0.5842233 0.57525414 -0.044245645 0.5844566
        0.5813711 -0.04426009 0.58466685 0.5871434 -0.044272736 0.58485526
        0.59257215 -0.04428371 0.5850232 0.59766173 -0.044293147 0.58517236
        0.6024194 -0.044301193 0.5853041 0.6068546 -0.04430803 0.58542
        0.6109788 -0.044313814 0.58552164 0.61480486 -0.044318754 0.58561033
        0.6183468 -0.04432305 0.5856877 0.6216192 -0.044326916 0.5857548
        0.62463737 -0.04433057 0.5858129 0.62741655 -0.044334255 0.5858632
        0.6299721 -0.044338226 0.58590657 0.63231903 -0.044342767 0.5859438
        0.63447237 -0.044348206 0.5859758 0.6364464 -0.04435496 0.58600324
        0.6382551 -0.04436351 0.58602655 0.6399115 -0.044374324 0.58604646
        0.48018473 -0.04306476 0.5800769 0.48902324 -0.043101452 0.5805743
        0.49782497 -0.043136716 0.5810531 0.50654525 -0.04317036 0.5815113
        0.51514107 -0.04320224 0.58194715 0.52357185 -0.043232236 0.58235896
        0.5318003 -0.043260258 0.5827458 0.5397929 -0.043286238 0.5831068
        0.5475203 -0.043310147 0.58344173 0.55495775 -0.04333198 0.5837505
        0.56208515 -0.04335175 0.58403337 0.5688872 -0.043369487 0.58429116
        0.57535297 -0.04338526 0.58452463 0.5814761 -0.043399144 0.5847349
        0.587254 -0.043411244 0.5849233 0.592688 -0.043421675 0.5850914
        0.5977825 -0.043430578 0.5852404 0.60254467 -0.04343811 0.58537215
        0.60698414 -0.043444443 0.585488 0.61111236 -0.043449778 0.5855895
        0.61494225 -0.043454308 0.5856783 0.6184879 -0.043458268 0.58575547
        0.621764 -0.043461893 0.5858225 0.62478584 -0.04346542 0.5858806
        0.6275687 -0.043469124 0.5859307 0.6301281 -0.04347328 0.5859739
        0.632479 -0.0434782 0.5860111 0.6346363 -0.043484226 0.586043
        0.6366144 -0.043491762 0.5860702 0.6384269 -0.04350121 0.5860934
        0.64008653 -0.04351289 0.58611315 0.48018473 -0.04221193 0.5801396
        0.48903257 -0.04224791 0.5806375 0.49784356 -0.042282466 0.58111686
        0.506573 -0.04231542 0.58157563 0.5151779 -0.042346627 0.5820118
        0.52361757 -0.042375967 0.5824241 0.5318546 -0.042403348 0.5828113
        0.5398556 -0.04242871 0.5831726 0.54759103 -0.04245202 0.5835078
        0.5550362 -0.042473264 0.58381677 0.5621709 -0.042492457 0.5840999
        0.56897986 -0.042509634 0.5843578 0.57545215 -0.042524856 0.5845913
        0.58158135 -0.0425382 0.58480173 0.587365 -0.04254977 0.5849902
        0.5928043 -0.042559676 0.5851582 0.5979037 -0.042568065 0.58530724
        0.6026705 -0.042575102 0.5854389 0.6071143 -0.042580966 0.5855548
        0.6112466 -0.04258587 0.5856562 0.6150804 -0.042590022 0.58574486
        0.6186298 -0.042593673 0.585822 0.6219097 -0.04259708 0.5858889
        0.6249352 -0.042600513 0.58594686 0.62772185 -0.042604256 0.5859969
        0.630285 -0.042608615 0.58604 0.6326398 -0.04261391 0.58607703
        0.6348011 -0.0426205 0.5861088 0.636783 -0.04262873 0.58613586
        0.63859904 -0.04263895 0.586159 0.64026165 -0.042651337 0.58617854
        0.48018473 -0.04135902 0.58020097 0.4890419 -0.04139427 0.5806995
        0.49786222 -0.041428126 0.58117944 0.5066009 -0.04146039 0.58163863
        0.51521486 -0.04149093 0.5820753 0.5236634 -0.04151962 0.582488
        0.53190917 -0.041546367 0.58287555 0.5399185 -0.041571118 0.58323723
        0.54766196 -0.04159383 0.5835726 0.5551148 -0.041614495 0.58388186
        0.56225693 -0.04163313 0.5841651 0.56907284 -0.04164976 0.5844232
        0.5755517 -0.041664448 0.58465683 0.58168703 -0.041677266 0.58486724
        0.58747643 -0.04168832 0.58505577 0.592921 -0.041697714 0.5852238
        0.59802544 -0.041705616 0.58537287 0.6027969 -0.04171218 0.5855044
        0.607245 -0.0417176 0.5856202 0.6113815 -0.041722093 0.5857216
        0.61521924 -0.041725893 0.5858102 0.6187725 -0.04172926 0.5858872
        0.6220561 -0.041732475 0.585954 0.6250854 -0.041735835 0.5860119
        0.62787586 -0.04173964 0.58606184 0.6304428 -0.04174421 0.5861048
        0.6328015 -0.041749876 0.5861417 0.63496655 -0.041756973 0.5861733
        0.63695204 -0.041765835 0.5862003 0.6387714 -0.04177671 0.58622324
        0.64043677 -0.041789696 0.5862427 0.48018473 -0.040506013 0.5802612
        0.48905125 -0.040540554 0.58076024 0.4978809 -0.040573698 0.5812407
        0.5066289 -0.04060528 0.58170044 0.5152519 -0.04063515 0.5821375
        0.52370936 -0.040663194 0.58255064 0.53196377 -0.040689312 0.58293855
        0.5399815 -0.040713456 0.5833005 0.5477331 -0.040735587 0.5836362
        0.5551937 -0.04075569 0.58394563 0.5623432 -0.040773768 0.5842291
        0.5691661 -0.040789865 0.58448726 0.5756516 -0.04080403 0.584721
        0.58179307 -0.040816333 0.58493155 0.58758825 -0.04082689 0.5851201
        0.59303826 -0.0408358 0.58528805 0.5981477 -0.04084323 0.5854371
        0.6029238 -0.040849335 0.58556867 0.6073764 -0.040854335 0.5856844
        0.611517 -0.04085844 0.5857857 0.61535877 -0.040861916 0.5858742
        0.6189159 -0.04086503 0.5859511 0.62220335 -0.04086808 0.58601785
        0.6252364 -0.04087138 0.5860756 0.62803066 -0.040875256 0.58612543
        0.6306014 -0.040880036 0.58616835 0.63296384 -0.040886052 0.5862051
        0.63513255 -0.040893625 0.58623654 0.6371215 -0.040903036 0.5862634
        0.6389439 -0.04091446 0.58628625 0.6406119 -0.040927954 0.58630556
        0.48018473 -0.03965293 0.58032006 0.48906064 -0.03968674 0.5808197
        0.49789965 -0.039719187 0.58130074 0.5066568 -0.039750088 0.58176094
        0.515289 -0.03977929 0.5821985 0.52375543 -0.03980669 0.58261204
        0.53201854 -0.03983219 0.58300024 0.5400447 -0.039855737 0.5833625
        0.5478045 -0.039877288 0.5836985 0.5552729 -0.039896827 0.58400816
        0.5624297 -0.039914373 0.58429176 0.5692597 -0.039929945 0.5845501
        0.5757518 -0.0399436 0.584784 0.5818995 -0.039955415 0.58499455
        0.5877005 -0.039965484 0.5851831 0.5931559 -0.03997393 0.5853511
        0.5982704 -0.039980903 0.5855001 0.6030513 -0.039986588 0.58563167
        0.60750836 -0.03999118 0.5857473 0.6116532 -0.039994925 0.5858485
        0.615499 -0.039998095 0.5859369 0.61906004 -0.040000975 0.5860138
        0.62235135 -0.04000388 0.58608043 0.6253882 -0.04000714 0.58613807
        0.6281862 -0.040011093 0.5861878 0.6307607 -0.040016077 0.5862305
        0.63312685 -0.040022418 0.5862672 0.6352991 -0.04003042 0.5862985
        0.6372913 -0.040040307 0.5863252 0.6391166 -0.04005221 0.5863479
        0.640787 -0.04006612 0.58636713 0.48018473 -0.03879975 0.58037776
        0.48907006 -0.038832843 0.58087796 0.49791843 -0.03886459 0.5813595
        0.5066849 -0.03889481 0.5818202 0.51532626 -0.038923357 0.5822582
        0.5238016 -0.038950115 0.5826721 0.5320735 -0.038975004 0.58306074
        0.5401081 -0.038997956 0.5834233 0.547876 -0.039018933 0.58375955
        0.5553522 -0.039037928 0.58406943 0.56251657 -0.039054945 0.5843532
        0.5693536 -0.039070006 0.5846117 0.57585233 -0.039083168 0.58484566
        0.58200634 -0.039094504 0.5850563 0.58781314 -0.03910411 0.58524483
        0.5932741 -0.03911211 0.58541286 0.59839374 -0.039118655 0.5855619
        0.6031794 -0.039123923 0.58569336 0.6076409 -0.03912814 0.58580893
        0.61179006 -0.039131552 0.58591014 0.6156399 -0.03913443 0.58599836
        0.61920494 -0.0391371 0.5860751 0.62250006 -0.039139878 0.58614165
        0.62554073 -0.039143108 0.58619916 0.6283425 -0.03914714 0.58624876
        0.6309207 -0.039152317 0.58629143 0.6332904 -0.039158955 0.58632797
        0.63546604 -0.03916733 0.5863592 0.63746136 -0.03917763 0.5863857
        0.6392894 -0.03918993 0.5864083 0.6409621 -0.039204188 0.58642745
        0.48018473 -0.037946492 0.58043414 0.4890795 -0.037978865 0.58093494
        0.49793726 -0.038009916 0.581417 0.50671303 -0.038039453 0.5818782
        0.5153636 -0.038067345 0.5823167 0.52384794 -0.03809347 0.58273095
        0.5321286 -0.03811775 0.5831199 0.5401717 -0.038140114 0.58348286
        0.54794776 -0.038160536 0.5838193 0.55543184 -0.038178988 0.5841294
        0.56260365 -0.038195487 0.5844134 0.56944776 -0.03821005 0.58467203
        0.57595325 -0.038222734 0.58490604 0.5821135 -0.038233608 0.58511674
        0.58792627 -0.038242765 0.5853054 0.5933927 -0.03825034 0.58547336
        0.59851754 -0.03825647 0.5856223 0.603308 -0.03826135 0.5857538
        0.60777414 -0.038265213 0.58586925 0.61192757 -0.038268313 0.58597034
        0.61578155 -0.038270928 0.58605856 0.61935055 -0.0382734 0.5861352
        0.62264955 -0.03827606 0.58620167 0.62569404 -0.038279273 0.58625907
        0.6284995 -0.03828338 0.58630854 0.63108134 -0.03828874 0.58635104
        0.6334545 -0.038295645 0.58638746 0.6356334 -0.038304348 0.5864185
        0.63763165 -0.038314987 0.586445 0.63946223 -0.038327627 0.58646744
        0.64113724 -0.038342167 0.58648646 0.48018473 -0.037093148 0.58048934
        0.48908895 -0.037124805 0.5809907 0.49795613 -0.037155155 0.5814733
        0.5067413 -0.03718402 0.5819349 0.51540095 -0.037211254 0.5823739
        0.52389437 -0.037236758 0.5827886 0.53218377 -0.037260428 0.5831779
        0.54023546 -0.037282217 0.5835411 0.5480197 -0.037302088 0.58387786
        0.55551165 -0.03732001 0.5841882 0.56269103 -0.037336 0.58447236
        0.5695423 -0.03735008 0.58473104 0.57605445 -0.0373623 0.5849652
        0.58222115 -0.03737273 0.585176 0.5880398 -0.03738146 0.58536464
        0.5935119 -0.037388615 0.5855326 0.5986419 -0.037394363 0.58568156
        0.60343724 -0.03739888 0.5858129 0.60790795 -0.037402406 0.5859283
        0.61206573 -0.037405208 0.58602935 0.6159239 -0.03740759 0.58611745
        0.6194969 -0.03740988 0.586194 0.62279975 -0.03741244 0.5862603
        0.625848 -0.03741563 0.5863176 0.62865716 -0.03741982 0.58636695
        0.6312425 -0.03742533 0.58640933 0.63361907 -0.037432466 0.5864456
        0.6358011 -0.037441447 0.5864766 0.6378022 -0.037452385 0.58650297
        0.63963526 -0.03746529 0.5865253 0.64131236 -0.037480053 0.58654416
        0.48018473 -0.03623973 0.5805432 0.48909843 -0.036270663 0.58104515
        0.49797505 -0.03630032 0.5815283 0.50676954 -0.036328513 0.5819905
        0.5154385 -0.0363551 0.5824298 0.5239409 -0.036379974 0.5828449
        0.53223914 -0.03640305 0.5832346 0.54029936 -0.036424268 0.58359814
        0.5480919 -0.03644359 0.58393514 0.55559176 -0.036460996 0.5842457
        0.56277865 -0.036476493 0.58453006 0.56963706 -0.036490105 0.58478886
        0.5761561 -0.036501873 0.5850231 0.58232915 -0.03651187 0.5852339
        0.58815384 -0.03652019 0.5854226 0.5936315 -0.036526956 0.5855906
        0.59876674 -0.03653233 0.58573943 0.60356706 -0.036536504 0.5858708
        0.60804236 -0.03653972 0.58598614 0.61220455 -0.036542248 0.58608705
        0.6160669 -0.0365444 0.586175 0.61964387 -0.036546532 0.5862515
        0.6229506 -0.036549002 0.5863177 0.6260026 -0.03655218 0.5863749
        0.6288154 -0.03655643 0.5864241 0.6314042 -0.036562085 0.5864664
        0.633784 -0.03656942 0.58650255 0.63596904 -0.036578625 0.58653337
        0.63797283 -0.036589794 0.5865596 0.6398083 -0.036602914 0.5865818
        0.6414875 -0.036617856 0.58660066 0.48018473 -0.035386227 0.5805959
        0.48910794 -0.035416447 0.5810984 0.49799404 -0.035445407 0.581582
        0.5067979 -0.03547293 0.58204466 0.5154761 -0.03549887 0.58248454
        0.5239876 -0.035523124 0.58290005 0.5322947 -0.03554561 0.58329004
        0.54036343 -0.035566263 0.5836539 0.54816425 -0.035585046 0.58399117
        0.5556721 -0.035601947 0.5843019 0.56286657 -0.03561696 0.58458644
        0.56973225 -0.03563011 0.5848454 0.57625806 -0.035641447 0.5850797
        0.5824375 -0.035651032 0.5852906 0.5882683 -0.03565896 0.58547926
        0.5937516 -0.035665356 0.5856473 0.59889215 -0.03567038 0.5857961
        0.6036975 -0.03567423 0.58592737 0.6081774 -0.035677154 0.5860427
        0.612344 -0.03567943 0.5861435 0.6162106 -0.03568138 0.5862314
        0.61979157 -0.03568336 0.5863077 0.6231022 -0.035685744 0.5863738
        0.6261579 -0.035688907 0.58643085 0.6289742 -0.035693213 0.58647996
        0.63156646 -0.035698984 0.58652216 0.6339494 -0.03570648 0.58655816
        0.6361373 -0.03571587 0.58658886 0.63814366 -0.035727225 0.58661497
        0.63998145 -0.035740506 0.58663714 0.6416626 -0.03575557 0.5866558
        0.48018473 -0.03453265 0.5806473 0.48911744 -0.034562156 0.58115035
        0.49801305 -0.03459042 0.5816346 0.50682634 -0.03461727 0.5820977
        0.5155138 -0.03464257 0.58253795 0.5240344 -0.03466621 0.5829539
        0.53235036 -0.03468811 0.5833442 0.54042774 -0.034708206 0.5837084
        0.54823685 -0.034726463 0.58404595 0.5557527 -0.034742862 0.5843569
        0.5629548 -0.034757406 0.58464164 0.5698277 -0.034770112 0.5849007
        0.57636034 -0.034781028 0.5851351 0.58254635 -0.034790214 0.585346
        0.5883832 -0.03479777 0.5855347 0.5938722 -0.03480381 0.5857027
        0.5990181 -0.034808513 0.5858515 0.60382843 -0.034812063 0.58598274
        0.60831314 -0.034814715 0.5860979 0.61248416 -0.034816757 0.5861987
        0.61635494 -0.03481852 0.5862865 0.61994 -0.034820367 0.58636266
        0.6232544 -0.03482267 0.58642864 0.6263138 -0.034825817 0.58648556
        0.6291336 -0.034830164 0.58653456 0.6317291 -0.034836024 0.5865766
        0.6341151 -0.034843642 0.5866125 0.6363058 -0.034853175 0.5866431
        0.63831466 -0.034864664 0.5866691 0.6401546 -0.034878053 0.58669114
        0.6418377 -0.034893204 0.5867097 0.48018473 -0.033679 0.5806974
        0.489127 -0.033707786 0.5812011 0.49803212 -0.03373536 0.5816858
        0.50685483 -0.03376155 0.58214945 0.51555157 -0.033786207 0.5825901
        0.5240813 -0.033809237 0.58300644 0.5324062 -0.033830553 0.58339715
        0.5404922 -0.033850104 0.58376163 0.5483097 -0.03386784 0.5840995
        0.5558335 -0.03388375 0.5844106 0.5630433 -0.033897832 0.5846955
        0.56992346 -0.03391011 0.5849547 0.57646304 -0.03392062 0.5851892
        0.58265555 -0.03392943 0.58540016 0.58849853 -0.033936627 0.5855889
        0.5939933 -0.03394234 0.58575684 0.59914464 -0.03394673 0.5859056
        0.60396004 -0.03395 0.5860368 0.60844946 -0.033952404 0.5861519
        0.612625 -0.033954233 0.58625257 0.61649996 -0.033955824 0.58634025
        0.620089 -0.03395754 0.58641636 0.6234073 -0.033959776 0.58648217
        0.62647027 -0.033962898 0.58653903 0.6292935 -0.03396727 0.58658785
        0.6318922 -0.0339732 0.58662975 0.63428116 -0.033980906 0.5866655
        0.63647455 -0.033990532 0.586696 0.63848585 -0.03400211 0.5867219
        0.6403279 -0.034015566 0.5867438 0.6420128 -0.03403075 0.5867623
        0.48018473 -0.032825276 0.5807463 0.48913658 -0.03285335 0.5812505
        0.49805123 -0.032880235 0.5817358 0.5068834 -0.032905754 0.58219993
        0.5155895 -0.032929774 0.58264107 0.5241284 -0.0329522 0.58305776
        0.5324622 -0.032972943 0.5834488 0.54055685 -0.032991946 0.5838136
        0.5483827 -0.033009175 0.5841517 0.5559146 -0.03302461 0.58446306
        0.56313205 -0.033038244 0.5847481 0.57001954 -0.033050105 0.5850075
        0.5765661 -0.033060223 0.5852421 0.58276516 -0.033068668 0.5854531
        0.58861434 -0.03307553 0.5856418 0.59411496 -0.03308093 0.58580977
        0.5992717 -0.033085037 0.5859585 0.6040922 -0.03308805 0.58608955
        0.60858643 -0.033090226 0.5862046 0.61276644 -0.03309186 0.5863052
        0.6166457 -0.033093292 0.5863927 0.6202387 -0.033094898 0.58646876
        0.6235608 -0.03309706 0.58653444 0.6266274 -0.033100154 0.5865911
        0.62945396 -0.03310454 0.5866399 0.63205576 -0.033110503 0.58668166
        0.6344476 -0.033118267 0.5867173 0.6366435 -0.03312795 0.58674765
        0.6386571 -0.033139564 0.58677346 0.6405012 -0.033153042 0.5867952
        0.6421879 -0.03316822 0.5868136 0.48018473 -0.031971484 0.5807939
        0.48914617 -0.03199884 0.5812987 0.4980704 -0.03202503 0.5817845
        0.50691205 -0.03204989 0.58224916 0.5156275 -0.03207328 0.5826907
        0.5241755 -0.032095104 0.5831078 0.5325183 -0.032115277 0.5834993
        0.5406217 -0.032133747 0.5838644 0.54845595 -0.032150477 0.5842027
        0.5559959 -0.032165438 0.5845143 0.5632211 -0.03217864 0.5847995
        0.570116 -0.032190096 0.585059 0.5766696 -0.03219984 0.58529365
        0.58287525 -0.032207943 0.5855047 0.58873063 -0.03221449 0.5856935
        0.5942371 -0.0322196 0.5858614 0.5993993 -0.032223437 0.58601004
        0.604225 -0.032226212 0.5861411 0.60872406 -0.03222818 0.5862561
        0.6129086 -0.03222964 0.5863565 0.6167921 -0.03223093 0.58644396
        0.6203891 -0.03223243 0.58651984 0.6237149 -0.03223452 0.58658546
        0.62678504 -0.032237582 0.58664197 0.6296149 -0.03224196 0.5866906
        0.63221973 -0.03224794 0.58673227 0.6346143 -0.032255717 0.5867678
        0.6368127 -0.032265414 0.586798 0.6388285 -0.032277025 0.58682364
        0.64067453 -0.032290477 0.5868454 0.642363 -0.03230561 0.5868637
        0.48018473 -0.031117618 0.5808403 0.4891558 -0.031144263 0.5813457
        0.4980896 -0.031169768 0.581832 0.5069408 -0.031193968 0.5822971
        0.5156656 -0.031216728 0.5827391 0.52422285 -0.031237952 0.58315665
        0.5325746 -0.031257566 0.5835484 0.5406867 -0.031275507 0.58391386
        0.5485294 -0.03129174 0.5842524 0.5560774 -0.03130625 0.58456427
        0.56331044 -0.031319022 0.5848496 0.5702128 -0.03133009 0.58510923
        0.57677335 -0.031339478 0.58534396 0.5829857 -0.03134725 0.5855551
        0.58884734 -0.031353496 0.58574384 0.5943597 -0.03135834 0.58591175
        0.59952754 -0.031361934 0.5860604 0.6043583 -0.031364493 0.58619136
        0.6088623 -0.03136627 0.5863062 0.61305135 -0.03136757 0.5864066
        0.6169391 -0.031368736 0.5864939 0.6205402 -0.03137014 0.58656967
        0.6238697 -0.031372163 0.5866352 0.6269433 -0.031375185 0.5866916
        0.62977636 -0.03137954 0.5867401 0.6323841 -0.0313855 0.58678156
        0.6347813 -0.031393263 0.58681697 0.6369821 -0.031402927 0.58684707
        0.639 -0.031414494 0.58687264 0.640848 -0.031427883 0.5868942
        0.6425382 -0.031442925 0.58691245 0.48018473 -0.030263688 0.5808854
        0.48916543 -0.030289618 0.58139133 0.49810886 -0.030314438 0.5818782
        0.5069696 -0.030337976 0.5823438 0.5157038 -0.030360114 0.5827863
        0.5242703 -0.030380744 0.5832042 0.53263104 -0.0303998 0.58359635
        0.5407519 -0.03041722 0.5839621 0.54860306 -0.030432971 0.58430094
        0.55615926 -0.030447029 0.58461297 0.5634001 -0.030459395 0.5848985
        0.5703099 -0.030470084 0.5851582 0.57687753 -0.030479131 0.5853931
        0.58309656 -0.030486593 0.5856042 0.5889646 -0.030492561 0.58579296
        0.5944829 -0.030497149 0.58596087 0.5996563 -0.030500524 0.58610946
        0.60449237 -0.030502893 0.58624035 0.60900116 -0.030504502 0.5863551
        0.6131948 -0.030505665 0.58645535 0.6170869 -0.030506717 0.5865426
        0.6206919 -0.030508032 0.5866182 0.62402517 -0.03050999 0.5866836
        0.6271021 -0.030512959 0.58673984 0.6299383 -0.030517267 0.58678824
        0.63254887 -0.030523188 0.5868296 0.6349486 -0.0305309 0.5868648
        0.6371517 -0.030540494 0.58689487 0.63917166 -0.030551972 0.5869203
        0.64102143 -0.03056525 0.58694184 0.6427133 -0.030580165 0.5869599
        0.48018473 -0.029409692 0.5809293 0.4891751 -0.02943491 0.5814358
        0.49812818 -0.029459042 0.5819232 0.5069984 -0.029481929 0.58238924
        0.5157421 -0.02950344 0.5828322 0.5243178 -0.029523484 0.5832505
        0.5326876 -0.02954199 0.583643 0.54081726 -0.029558897 0.58400905
        0.54867697 -0.029574173 0.58434814 0.55624133 -0.029587794 0.5846604
        0.56349003 -0.029599762 0.5849461 0.5704073 -0.029610088 0.5852059
        0.5769821 -0.029618809 0.5854409 0.5832079 -0.02962598 0.58565205
        0.5890823 -0.029631685 0.5858408 0.5946066 -0.029636048 0.58600867
        0.5997856 -0.02963922 0.58615726 0.60462695 -0.029641414 0.58628803
        0.60914075 -0.02964288 0.5864027 0.613339 -0.02964392 0.5865029
        0.6172353 -0.029644871 0.58659 0.6208443 -0.029646104 0.5866655
        0.62418115 -0.029647997 0.5867307 0.6272615 -0.029650906 0.5867869
        0.6301007 -0.029655155 0.5868351 0.63271403 -0.029661005 0.58687633
        0.6351163 -0.029668627 0.5869115 0.63732153 -0.029678116 0.58694136
        0.63934344 -0.029689463 0.5869667 0.641195 -0.029702587 0.5869881
        0.6428884 -0.029717334 0.5870061 0.48018473 -0.028555632 0.5809719
        0.4891848 -0.028580138 0.58147895 0.49814755 -0.028603587 0.5819669
        0.5070274 -0.028625818 0.58243346 0.5157805 -0.028646711 0.58287686
        0.5243655 -0.028666174 0.5832956 0.5327444 -0.028684134 0.58368844
        0.5408829 -0.028700534 0.5840547 0.54875106 -0.028715344 0.5843941
        0.5563237 -0.02872854 0.58470654 0.5635803 -0.02874012 0.5849924
        0.5705051 -0.0287501 0.5852524 0.57708704 -0.028758507 0.5854874
        0.58331966 -0.028765403 0.5856986 0.58920044 -0.028770871 0.58588743
        0.59473085 -0.028775023 0.5860553 0.5999155 -0.02877802 0.5862038
        0.6047622 -0.02878006 0.5863345 0.60928094 -0.028781403 0.58644915
        0.61348385 -0.028782338 0.58654916 0.61738443 -0.028783204 0.5866361
        0.62099737 -0.028784364 0.5867115 0.62433785 -0.028786188 0.58677655
        0.62742144 -0.02878903 0.5868326 0.6302636 -0.028793203 0.5868807
        0.6328796 -0.028798953 0.5869218 0.6352842 -0.028806455 0.58695686
        0.6374916 -0.028815791 0.58698654 0.63951534 -0.028826967 0.5870118
        0.64136857 -0.028839896 0.5870331 0.64306355 -0.028854432 0.58705103
        0.48018473 -0.02770151 0.58101326 0.4891945 -0.027725305 0.5815209
        0.49816695 -0.027748073 0.5820094 0.5070564 -0.027769653 0.58247644
        0.515819 -0.027789928 0.58292025 0.52441335 -0.027808813 0.5833394
        0.5328013 -0.027826231 0.5837326 0.5409486 -0.027842134 0.5840992
        0.5488254 -0.027856486 0.5844388 0.55640626 -0.027869267 0.5847515
        0.5636708 -0.027880473 0.5850375 0.5706032 -0.02789012 0.5852976
        0.57719237 -0.027898233 0.58553267 0.58343184 -0.027904876 0.58574396
        0.5893191 -0.02791012 0.5859328 0.5948556 -0.027914086 0.5861006
        0.60004604 -0.027916925 0.58624905 0.60489804 -0.027918842 0.5863797
        0.6094218 -0.027920075 0.5864942 0.61362934 -0.027920926 0.58659416
        0.6175342 -0.02792172 0.586681 0.6211511 -0.027922813 0.5867562
        0.62449515 -0.027924573 0.5868212 0.627582 -0.027927335 0.5868771
        0.63042706 -0.02793141 0.586925 0.6330456 -0.027937036 0.586966
        0.63545245 -0.027944382 0.58700085 0.6376618 -0.027953532 0.58703053
        0.6396874 -0.027964488 0.5870556 0.64154226 -0.02797718 0.58707684
        0.64323866 -0.02799146 0.58709466 0.48018473 -0.026847329 0.5810533
        0.48920426 -0.026870413 0.58156157 0.4981864 -0.026892498 0.58205056
        0.5070855 -0.02691343 0.5825181 0.5158576 -0.026933094 0.5829624
        0.52446127 -0.0269514 0.5833819 0.5328584 -0.02696829 0.58377546
        0.54101455 -0.026983703 0.5841424 0.54889995 -0.026997605 0.58448225
        0.55648917 -0.027009983 0.5847952 0.5637616 -0.027020827 0.58508134
        0.5707016 -0.027030151 0.5853416 0.5772981 -0.027037991 0.5855767
        0.58354443 -0.027044391 0.5857881 0.58943826 -0.027049437 0.58597684
        0.5949809 -0.027053237 0.5861447 0.6001771 -0.027055943 0.58629304
        0.60503453 -0.02705775 0.58642364 0.60956335 -0.027058901 0.586538
        0.61377555 -0.027059684 0.58663785 0.6176847 -0.02706042 0.5867246
        0.62130547 -0.027061457 0.5867997 0.6246531 -0.027063146 0.5868645
        0.6277431 -0.027065825 0.58692026 0.630591 -0.027069783 0.58696806
        0.63321203 -0.027075263 0.5870089 0.635621 -0.027082415 0.58704364
        0.6378323 -0.027091336 0.58707315 0.6398596 -0.02710203 0.5870981
        0.64171594 -0.027114436 0.5871192 0.6434138 -0.027128423 0.587137
        0.48018473 -0.025993088 0.5810922 0.48921403 -0.026015462 0.58160096
        0.4982059 -0.026036866 0.5820905 0.50711465 -0.026057154 0.5825586
        0.5158963 -0.026076207 0.5830033 0.5245093 -0.026093949 0.5834232
        0.5329156 -0.026110306 0.5838171 0.5410807 -0.026125237 0.58418435
        0.5489747 -0.0261387 0.5845245 0.55657226 -0.026150683 0.58483756
        0.5638527 -0.026161179 0.5851239 0.5708004 -0.026170202 0.58538425
        0.5774042 -0.026177777 0.5856195 0.5836575 -0.02618396 0.58583087
        0.5895579 -0.026188822 0.5860197 0.5951068 -0.026192479 0.5861875
        0.60030884 -0.026195074 0.5863358 0.6051717 -0.026196796 0.5864663
        0.60970557 -0.026197884 0.5865806 0.6139224 -0.026198614 0.5866803
        0.6178359 -0.026199307 0.5867669 0.62146056 -0.026200296 0.5868419
        0.6248117 -0.02620192 0.58690655 0.62790483 -0.026204504 0.58696216
        0.6307555 -0.026208334 0.5870098 0.63337886 -0.026213631 0.5870505
        0.63578993 -0.026220564 0.5870851 0.63800305 -0.026229214 0.5871146
        0.64003193 -0.026239606 0.5871394 0.64188975 -0.02625168 0.5871604
        0.6435889 -0.02626532 0.58717805 0.48018473 -0.025138792 0.5811297
        0.4892238 -0.02516046 0.5816391 0.49822545 -0.025181184 0.5821292
        0.5071439 -0.025200823 0.58259773 0.51593506 -0.025219271 0.5830429
        0.52455753 -0.025236448 0.5834632 0.532973 -0.025252286 0.5838575
        0.54114705 -0.025266739 0.584225 0.54904974 -0.025279773 0.5845654
        0.55665565 -0.025291376 0.5848787 0.56394416 -0.025301535 0.5851652
        0.57089955 -0.025310265 0.5854257 0.5775107 -0.025317598 0.58566105
        0.583771 -0.025323577 0.5858724 0.58967805 -0.025328282 0.58606124
        0.59523314 -0.025331816 0.58622897 0.6004411 -0.025334321 0.58637726
        0.6053095 -0.025335982 0.5865077 0.60984844 -0.025337027 0.5866219
        0.61407006 -0.02533773 0.5867215 0.6179878 -0.02533839 0.58680797
        0.62161636 -0.02533934 0.58688277 0.624971 -0.0253409 0.5869473
        0.62806714 -0.025343383 0.58700275 0.63092047 -0.025347061 0.58705026
        0.6335462 -0.025352158 0.58709085 0.6359592 -0.02535883 0.58712536
        0.63817406 -0.025367172 0.5871546 0.6402044 -0.025377212 0.58717936
        0.6420636 -0.025388908 0.5872003 0.643764 -0.025402153 0.5872178
        0.48018473 -0.024284443 0.5811661 0.48923364 -0.0243054 0.58167607
        0.49824506 -0.024325447 0.5821666 0.50717324 -0.024344442 0.5826357
        0.515974 -0.024362292 0.5830813 0.5246059 -0.024378905 0.583502
        0.5330305 -0.02439423 0.5838966 0.5412136 -0.024408214 0.58426446
        0.54912496 -0.02442083 0.5846051 0.5567393 -0.024432056 0.58491856
        0.5640359 -0.02444189 0.5852053 0.570999 -0.024450347 0.5854659
        0.5776176 -0.024457451 0.5857013 0.58388495 -0.024463251 0.5859127
        0.5897987 -0.024467815 0.58610153 0.5953601 -0.024471246 0.58626926
        0.600574 -0.024473688 0.5864175 0.60544795 -0.02447531 0.58654785
        0.609992 -0.024476336 0.58666193 0.61421835 -0.024477027 0.5867614
        0.61814046 -0.024477674 0.5868478 0.6217729 -0.02447859 0.5869224
        0.62513095 -0.02448009 0.58698684 0.62823015 -0.024482464 0.58704215
        0.63108605 -0.02448598 0.5870895 0.63371396 -0.024490848 0.5871299
        0.6361289 -0.02449723 0.5871643 0.6383453 -0.024505222 0.5871934
        0.6403771 -0.024514861 0.5872181 0.64223754 -0.024526127 0.58723885
        0.64393914 -0.024538929 0.5872563 0.48018473 -0.02343004 0.5812012
        0.48924348 -0.023450289 0.58171165 0.49826473 -0.023469657 0.5822028
        0.5072026 -0.023488015 0.58267236 0.516013 -0.023505265 0.5831184
        0.5246543 -0.023521323 0.5835395 0.5330882 -0.023536138 0.5839345
        0.54128027 -0.023549663 0.5843026 0.5492004 -0.023561865 0.58464354
        0.55682313 -0.023572732 0.58495724 0.5641279 -0.023582257 0.58524406
        0.57109886 -0.023590453 0.5855048 0.5777249 -0.023597345 0.58574027
        0.58399934 -0.023602981 0.58595175 0.5899198 -0.023607425 0.5861406
        0.59548765 -0.02361078 0.5863083 0.6007075 -0.023613177 0.5864564
        0.60558707 -0.023614783 0.5865867 0.61013633 -0.023615813 0.5867007
        0.6143674 -0.023616511 0.58680004 0.6182938 -0.023617161 0.5868863
        0.6219301 -0.023618056 0.58696085 0.6252916 -0.023619495 0.58702505
        0.62839377 -0.023621758 0.58708024 0.63125217 -0.023625094 0.58712745
        0.6338822 -0.023629714 0.5871677 0.63629895 -0.02363577 0.5872019
        0.6385169 -0.02364337 0.5872309 0.64054996 -0.023652563 0.5872555
        0.6424116 -0.023663342 0.58727616 0.64411426 -0.023675645 0.58729357
        0.48018473 -0.022575587 0.581235 0.48925334 -0.022595128 0.5817461
        0.49828443 -0.022613823 0.5822377 0.50723207 -0.02263154 0.58270776
        0.5160521 -0.022648193 0.58315426 0.5247029 -0.022663703 0.5835758
        0.5331461 -0.022678014 0.58397114 0.5413472 -0.022691086 0.58433956
        0.5492761 -0.022702886 0.5846807 0.5569073 -0.022713402 0.5849946
        0.56422025 -0.02272263 0.5852816 0.57119906 -0.02273058 0.58554244
        0.5778326 -0.022737278 0.58577806 0.5841142 -0.022742769 0.58598953
        0.59004146 -0.022747116 0.58617836 0.5956157 -0.022750415 0.58634603
        0.60084164 -0.022752792 0.58649415 0.6057268 -0.022754408 0.5866243
        0.61028135 -0.02275546 0.5867382 0.6145172 -0.022756191 0.5868374
        0.61844796 -0.022756858 0.58692354 0.62208813 -0.022757743 0.5869979
        0.625453 -0.022759123 0.587062 0.6285581 -0.022761269 0.587117
        0.63141894 -0.022764418 0.5871641 0.6340511 -0.022768764 0.5872042
        0.6364695 -0.022774462 0.5872383 0.6386888 -0.02278163 0.58726716
        0.64072305 -0.022790322 0.5872916 0.6425857 -0.02280056 0.58731216
        0.6442894 -0.022812303 0.5873295 0.48018473 -0.021721086 0.58126754
        0.48926324 -0.021739917 0.58177924 0.4983042 -0.021757938 0.5822714
        0.50726163 -0.021775022 0.5827419 0.5160913 -0.02179108 0.5831889
        0.5247516 -0.021806045 0.5836108 0.53320414 -0.02181986 0.5840064
        0.54141426 -0.021832485 0.5843752 0.549352 -0.021843895 0.5847166
        0.55699176 -0.02185407 0.5850308 0.5643129 -0.021863014 0.5853179
        0.57129955 -0.021870732 0.58557886 0.57794064 -0.021877252 0.58581454
        0.5842295 -0.021882616 0.5860261 0.59016365 -0.021886887 0.5862149
        0.5957444 -0.021890156 0.58638257 0.60097635 -0.021892536 0.58653057
        0.60586727 -0.021894183 0.5866607 0.610427 -0.02189529 0.58677447
        0.6146678 -0.021896068 0.5868736 0.6186029 -0.02189677 0.58695954
        0.6222469 -0.021897655 0.58703375 0.6256151 -0.02189899 0.5870977
        0.6287231 -0.021901017 0.58715254 0.6315864 -0.021903962 0.58719945
        0.6342205 -0.021908013 0.58723944 0.6366405 -0.021913327 0.5872734
        0.63886106 -0.021920012 0.58730215 0.64089644 -0.021928158 0.58732647
        0.64276 -0.021937791 0.587347 0.6444645 -0.021948906 0.58736414
        0.48018473 -0.020866536 0.5812988 0.48927316 -0.020884661 0.58181113
        0.49832398 -0.020902008 0.5823038 0.50729126 -0.020918459 0.5827748
        0.5161306 -0.020933928 0.5832222 0.5248005 -0.02094835 0.5836445
        0.5332623 -0.020961676 0.5840406 0.54148155 -0.020973863 0.5844096
        0.5494281 -0.020984888 0.5847513 0.55707645 -0.020994738 0.5850656
        0.56440586 -0.021003408 0.58535296 0.57140046 -0.021010913 0.585614
        0.5780492 -0.02101727 0.58584976 0.5843453 -0.021022528 0.58606136
        0.5902863 -0.021026745 0.5862502 0.5958736 -0.021030001 0.5864178
        0.6011117 -0.021032412 0.5865658 0.60600835 -0.021034118 0.5866958
        0.6105735 -0.021035293 0.58680946 0.61481905 -0.021036146 0.58690846
        0.61875856 -0.0210369 0.58699423 0.6224065 -0.021037806 0.5870683
        0.6257781 -0.021039097 0.5871321 0.62888885 -0.021041004 0.5871868
        0.6317545 -0.02104374 0.5872336 0.6343905 -0.021047479 0.5872734
        0.636812 -0.021052372 0.5873072 0.6390338 -0.02105854 0.5873358
        0.64107 -0.021066077 0.58736 0.6429344 -0.02107504 0.58738035
        0.6446397 -0.021085454 0.5873975 0.48018473 -0.02001194 0.58132887
        0.4892831 -0.02002936 0.5818417 0.49834383 -0.020046033 0.58233494
        0.50732094 -0.020061852 0.58280647 0.5161701 -0.020076739 0.58325434
        0.5248495 -0.020090625 0.583677 0.53332067 -0.020103464 0.5840734
        0.5415491 -0.020115223 0.5844428 0.5495045 -0.020125875 0.5847847
        0.5571614 -0.020135406 0.5850992 0.5644991 -0.020143814 0.58538675
        0.57150173 -0.02015112 0.58564794 0.5781581 -0.020157335 0.58588374
        0.5844615 -0.020162508 0.58609533 0.5904095 -0.020166686 0.5862842
        0.59600335 -0.020169958 0.58645177 0.6012477 -0.02017242 0.5865997
        0.60615015 -0.02017421 0.58672965 0.6107207 -0.020175483 0.5868432
        0.61497116 -0.020176433 0.586942 0.618915 -0.020177264 0.58702767
        0.6225669 -0.020178197 0.58710164 0.6259418 -0.020179458 0.5871653
        0.62905544 -0.020181248 0.58721983 0.6319234 -0.020183766 0.5872664
        0.6345612 -0.020187177 0.5873061 0.6369841 -0.020191623 0.58733976
        0.63920695 -0.020197226 0.58736825 0.641244 -0.020204099 0.5873923
        0.64310896 -0.020212324 0.58741254 0.6448148 -0.020221952 0.5874296
        0.48018473 -0.019157303 0.58135766 0.48929307 -0.019174017 0.5818711
        0.49836373 -0.019190017 0.5823649 0.5073507 -0.019205207 0.58283687
        0.5162096 -0.01921951 0.5832852 0.5248986 -0.019232865 0.5837083
        0.53337914 -0.01924523 0.584105 0.54161674 -0.019256566 0.5844747
        0.5495811 -0.019266851 0.5848169 0.5572466 -0.019276073 0.58513165
        0.56459266 -0.01928424 0.5854193 0.5716033 -0.019291358 0.58568054
        0.5782674 -0.019297447 0.58591646 0.58457816 -0.01930255 0.5861281
        0.5905332 -0.01930672 0.58631694 0.5961337 -0.019310027 0.5864845
        0.6013844 -0.019312572 0.5866324 0.60629267 -0.019314466 0.5867622
        0.6108686 -0.019315863 0.5868757 0.61512405 -0.019316932 0.5869744
        0.6190724 -0.01931786 0.5870599 0.6227281 -0.019318841 0.5871337
        0.6261064 -0.01932008 0.5871972 0.6292228 -0.01932176 0.58725154
        0.6320931 -0.019324057 0.587298 0.6347326 -0.019327123 0.5873375
        0.63715684 -0.019331092 0.587371 0.6393806 -0.019336093 0.58739936
        0.6414183 -0.019342242 0.58742326 0.64328367 -0.019349644 0.5874435
        0.6449899 -0.019358402 0.58746034 0.48018473 -0.018302625 0.58138525
        0.48930305 -0.01831863 0.5818992 0.4983837 -0.01833396 0.5823935
        0.50738055 -0.018348526 0.582866 0.5162492 -0.01836225 0.5833148
        0.5249478 -0.018375078 0.58373827 0.53343785 -0.018386967 0.58413535
        0.5416846 -0.018397888 0.5845053 0.54965794 -0.01840782 0.58484775
        0.55733216 -0.01841675 0.5851627 0.56468654 -0.018424682 0.58545053
        0.5717053 -0.018431628 0.58571196 0.57837707 -0.018437611 0.58594793
        0.5846953 -0.018442666 0.58615965 0.5906574 -0.018446844 0.5863485
        0.59626466 -0.018450212 0.58651596 0.6015217 -0.018452857 0.5866638
        0.6064359 -0.018454889 0.58679354 0.6110173 -0.018456435 0.5869069
        0.6152777 -0.01845765 0.5870055 0.6192305 -0.018458696 0.58709085
        0.6228902 -0.018459747 0.5871645 0.62627184 -0.018460978 0.5872278
        0.6293911 -0.018462554 0.587282 0.63226354 -0.018464629 0.58732826
        0.63490486 -0.018467339 0.58736765 0.6373303 -0.018470809 0.58740103
        0.63955486 -0.018475166 0.58742917 0.64159304 -0.018480528 0.587453
        0.64345866 -0.018487025 0.58747303 0.645165 -0.018494805 0.5874899
        0.48018473 -0.017447906 0.58141154 0.48931307 -0.017463205 0.58192605
        0.4984037 -0.017477866 0.58242095 0.50741047 -0.017491804 0.5828939
        0.51628894 -0.017504953 0.5833431 0.5249972 -0.017517261 0.583767
        0.5334967 -0.017528687 0.58416444 0.5417527 -0.0175392 0.5845347
        0.549735 -0.017548783 0.5848774 0.5574179 -0.01755743 0.58519256
        0.5647808 -0.017565142 0.5854806 0.57180756 -0.017571934 0.5857421
        0.5784872 -0.017577825 0.58597815 0.58481294 -0.017582852 0.58618987
        0.59078217 -0.01758706 0.5863787 0.5963962 -0.017590513 0.5865462
        0.6016596 -0.017593289 0.58669394 0.60657984 -0.017595481 0.5868236
        0.6111668 -0.017597204 0.5869369 0.6154322 -0.01759859 0.5870353
        0.61938953 -0.01759978 0.58712053 0.6230532 -0.01760092 0.587194
        0.6264382 -0.017602162 0.58725715 0.6295603 -0.017603645 0.5873112
        0.63243496 -0.0176055 0.5873573 0.63507795 -0.017607847 0.5873965
        0.6375046 -0.0176108 0.5874297 0.6397298 -0.01761447 0.5874578
        0.6417683 -0.017618984 0.58748144 0.6436339 -0.017624486 0.5875014
        0.64534014 -0.017631164 0.58751816 0.48018473 -0.01659315 0.5814365
        0.4893231 -0.01660774 0.5819516 0.49842378 -0.016621735 0.58244705
        0.5074405 -0.01663505 0.58292055 0.51632875 -0.016647628 0.58337015
        0.5250467 -0.016659416 0.5837945 0.5335557 -0.016670382 0.5841922
        0.541821 -0.016680496 0.58456284 0.54981226 -0.016689744 0.5849058
        0.55750394 -0.016698118 0.5852212 0.56487525 -0.016705623 0.5855093
        0.57191026 -0.016712274 0.58577096 0.5785977 -0.016718093 0.5860071
        0.58493096 -0.016723111 0.5862189 0.59090745 -0.016727373 0.5864077
        0.59652835 -0.016730936 0.58657515 0.6017982 -0.016733866 0.58672285
        0.60672444 -0.016736247 0.58685243 0.611317 -0.016738176 0.58696556
        0.6155876 -0.01673976 0.5870639 0.61954945 -0.01674112 0.58714896
        0.6232171 -0.016742373 0.5872223 0.6266056 -0.016743643 0.5872853
        0.6297304 -0.016745046 0.58733916 0.63260734 -0.016746689 0.58738506
        0.635252 -0.016748672 0.5874241 0.6376797 -0.016751088 0.5874572
        0.6399056 -0.01675404 0.5874851 0.6419441 -0.016757643 0.5875086
        0.6438095 -0.016762048 0.5875284 0.64551526 -0.016767478 0.58754504
        0.48018473 -0.015738359 0.5814603 0.48933318 -0.015752243 0.581976
        0.49844387 -0.015765566 0.58247197 0.50747055 -0.015778262 0.5829459
        0.51636875 -0.01579027 0.58339596 0.52509636 -0.015801547 0.58382064
        0.5336149 -0.015812058 0.5842188 0.5418894 -0.015821781 0.5845897
        0.5498898 -0.015830701 0.5849329 0.5575903 -0.015838815 0.5852485
        0.5649701 -0.015846126 0.58553684 0.5720133 -0.015852652 0.5857986
        0.5787087 -0.015858414 0.58603483 0.5850495 -0.015863445 0.5862466
        0.5910332 -0.015867783 0.5864355 0.59666103 -0.015871478 0.58660287
        0.6019374 -0.01587459 0.5867505 0.6068698 -0.01587719 0.58688
        0.611468 -0.015879352 0.586993 0.61574376 -0.015881164 0.5870912
        0.6197103 -0.01588272 0.58717614 0.623382 -0.015884113 0.58724934
        0.6267739 -0.015885435 0.5873121 0.6299016 -0.015886776 0.58736587
        0.6327808 -0.01588822 0.5874116 0.63542706 -0.01588984 0.58745044
        0.6378558 -0.01589171 0.58748335 0.6400822 -0.015893918 0.5875111
        0.6421207 -0.01589655 0.58753455 0.64398557 -0.015899748 0.58755416
        0.64569044 -0.015903749 0.5875707 0.48018473 -0.014883532 0.58148277
        0.4893433 -0.01489671 0.58199906 0.49846405 -0.014909368 0.58249557
        0.5075007 -0.014921443 0.58297 0.51640874 -0.014932885 0.5834205
        0.5251461 -0.014943654 0.5838456 0.5336742 -0.014953718 0.58424413
        0.5419581 -0.014963057 0.5846153 0.5499675 -0.014971658 0.5849588
        0.55767685 -0.014979521 0.58527464 0.5650652 -0.014986652 0.5855631
        0.5721167 -0.014993068 0.58582497 0.57882005 -0.014998791 0.58606124
        0.58516854 -0.015003853 0.58627313 0.5911596 -0.0150082875 0.58646196
        0.5967943 -0.015012142 0.58662933 0.60207736 -0.015015464 0.5867769
        0.6070159 -0.015018309 0.5869063 0.6116199 -0.015020735 0.5870192
        0.6159008 -0.015022807 0.5871173 0.61987203 -0.015024588 0.5872021
        0.62354785 -0.015026149 0.5872751 0.6269433 -0.015027549 0.5873377
        0.63007385 -0.01502885 0.58739126 0.6329553 -0.015030108 0.5874368
        0.63560325 -0.015031375 0.5874755 0.6380331 -0.015032701 0.58750826
        0.64025986 -0.015034139 0.58753586 0.6422982 -0.015035752 0.5875591
        0.64416224 -0.015037635 0.58757865 0.64586556 -0.015039981 0.5875951
        0.48018473 -0.014028673 0.58150405 0.4893534 -0.014041143 0.58202094
        0.49848425 -0.014053133 0.5825179 0.507531 -0.01406459 0.58299285
        0.5164489 -0.014075471 0.5834439 0.5251961 -0.014085735 0.58386934
        0.53373367 -0.014095359 0.5842682 0.54202694 -0.01410432 0.58463967
        0.55004555 -0.014112612 0.5849834 0.5577637 -0.014120236 0.58529943
        0.5651607 -0.0141272005 0.5855881 0.57222044 -0.014133521 0.5858501
        0.5789318 -0.014139223 0.58608645 0.585288 -0.014144335 0.58629835
        0.5912864 -0.014148891 0.58648723 0.59692824 -0.014152928 0.5866546
        0.6022179 -0.014156487 0.58680207 0.6071628 -0.014159607 0.5869314
        0.61177254 -0.014162328 0.5870442 0.61605877 -0.01416469 0.5871421
        0.62003475 -0.014166732 0.58722675 0.62371475 -0.01416849 0.5872996
        0.62711376 -0.014169997 0.58736205 0.63024724 -0.014171284 0.5874154
        0.63313097 -0.014172379 0.5874608 0.63578063 -0.014173307 0.5874993
        0.6382115 -0.0141740935 0.58753186 0.64043874 -0.014174756 0.58755934
        0.6424768 -0.0141753135 0.58758247 0.6443397 -0.014175782 0.5876019
        0.6460407 -0.014176175 0.5876182
        <InformationKey name="L2_NORM_RANGE" location="vtkDataArray" length="2">
          <Value index="0">
            0.7542685863
          </Value>
          <Value index="1">
            0.87342122591
          </Value>
        </InformationKey>
      </DataArray>
    </Points>
  </Piece>
  </StructuredGrid>
</VTKFile>
