<?xml version="1.0"?>
<VTKFile type="StructuredGrid" version="0.1" byte_order="LittleEndian" header_type="UInt32" compressor="vtkZLibDataCompressor">
  <StructuredGrid WholeExtent="0 30 0 40 0 0">
  <Piece Extent="0 30 0 40 0 0">
    <PointData>
      <DataArray type="Float32" Name="orthogonality" format="ascii" RangeMin="0" RangeMax="0.9813149571418762">
        0 0.0073417434 0.0145822 0.021663012 0.028533014 0.035144404
        0.041452534 0.047416054 0.05299689 0.05816009 0.062873416 0.06710666
        0.070830405 0.0740137 0.0766185 0.078586474 0.079808086 0.080055125
        0.07884628 0.07520466 0.06726159 0.051664036 0.022741942 0.028608935
        0.11604034 0.2558053 0.45035568 0.6598208 0.82633185 0.93000853
        0.98131496 8.2467035e-05 0.0074336003 0.0146869905 0.02178467 0.028675687
        0.03531217 0.04164934 0.047645684 0.053262945 0.058465965 0.063222274
        0.06750141 0.07127371 0.07450785 0.07716521 0.079186335 0.080459155
        0.080749854 0.079565614 0.07590883 0.06788223 0.052120723 0.023060387
        0.027869567 0.11265648 0.2442364 0.42418846 0.623797 0.7962544
        0.9129988 0.9769295 0.00023095564 0.007597301 0.014869589 0.021990448
        0.02890922 0.03557805 0.04195214 0.047989924 0.053653084 0.05890639
        0.06371731 0.068055324 0.071890704 0.07519201 0.07792038 0.08001557
        0.08136349 0.08172554 0.080598794 0.07696758 0.0689109 0.053060044
        0.023968663 0.026403338 0.10848219 0.23222257 0.39810836 0.58640206
        0.76284236 0.89446807 0.9732432 0.00043654328 0.007829248 0.015131931
        0.022288153 0.02924775 0.03596311 0.042389646 0.048485994 0.054214068
        0.059538882 0.064428195 0.06885182 0.07278041 0.076182954 0.079020925
        0.08123411 0.08270756 0.08319969 0.08220075 0.07868316 0.07071391
        0.05494275 0.026079135 0.023342412 0.10224553 0.21805689 0.3706195
        0.5474559 0.7258146 0.8722981 0.96767217 0.0006890092 0.008120172
        0.015465757 0.022670617 0.029685296 0.03646266 0.042958602 0.04913227
        0.05494611 0.060365763 0.065359674 0.069898464 0.0739537 0.07749541
        0.08048614 0.082866676 0.08452253 0.085211344 0.08442042 0.0811174
        0.07337053 0.057871636 0.02952283 0.01853424 0.093799375 0.20157772
        0.34139052 0.50656736 0.6846359 0.8454353 0.9591516 0.000977098
        0.0084591955 0.015860599 0.023127798 0.030212266 0.037067607 0.04365047
        0.04992082 0.055842005 0.06138067 0.06650641 0.07119113 0.07540793
        0.07912851 0.08231737 0.08491732 0.08681589 0.08777243 0.087275684
        0.08429662 0.07691935 0.06190227 0.03437454 0.011895095 0.0830772
        0.18270852 0.31017867 0.4633528 0.6386754 0.81251913 0.9461998
        0.0012880609 0.00883253 0.016301582 0.02364365 0.030811334 0.03775921
        0.044444952 0.05082963 0.05687783 0.06255756 0.067839995 0.07269883
        0.07710921 0.081045225 0.08447408 0.08734172 0.08953922 0.09083028
        0.09070982 0.08816084 0.081298746 0.0669733 0.04057124 0.0035039338
        0.07019758 0.16157144 0.27695286 0.41758496 0.58731943 0.7718891
        0.9267498 0.0016096451 0.009225953 0.0167724 0.02419961 0.031461462
        0.038513698 0.045315225 0.051828466 0.058019504 0.06385805 0.06931716
        0.07437276 0.0790025 0.0831834 0.086886086 0.09006054 0.0926029
        0.09428371 0.09460881 0.0925821 0.08636576 0.07292441 0.04792734
        0.006407186 0.055466767 0.13851939 0.2419889 0.36941427 0.53032416
        0.72173274 0.89808816 0.0019274836 0.009620509 0.017249307 0.024766807
        0.032128233 0.0392906 0.046214156 0.052862804 0.059204265 0.06521009
        0.07085546 0.076118685 0.08098019 0.08542025 0.08941329 0.092914
        0.09582465 0.09792483 0.098735675 0.09729038 0.091812655 0.079403214
        0.056032754 0.017346758 0.03948115 0.1142254 0.20594227 0.3194625
        0.4679815 0.6605609 0.8568177 0.002233804 0.010003097 0.01771364
        0.025320677 0.03278074 0.040052094 0.047096334 0.05387883 0.06036893
        0.066540025 0.07236938 0.07783771 0.082928225 0.08762443 0.09190467
        0.095728554 0.09900515 0.10152468 0.10282721 0.101982534 0.09728845
        0.08599877 0.064395905 0.028709656 0.022993539 0.08958937 0.16983782
        0.26898775 0.4017036 0.5874374 0.79819685 0.00252122 0.0103634475
        0.018152107 0.025844678 0.033398908 0.040774245 0.047933545 0.054843556
        0.061475165 0.06780349 0.07380775 0.07947093 0.08477886 0.08971814
        0.09427089 0.09840164 0.102026604 0.10494787 0.10672743 0.10647787
        0.10258172 0.092458665 0.07270561 0.040099014 0.00651251 0.065234944
        0.13443159 0.21908894 0.33334035 0.5024416 0.71649605 0.002776723
        0.010684884 0.018544205 0.026314242 0.033953782 0.04142332 0.048686814
        0.055712216 0.062471744 0.06894203 0.07510402 0.08094265 0.086446084
        0.09160367 0.096400954 0.10080714 0.104745604 0.10803112 0.11024998
        0.11056278 0.1074453 0.0984923 0.08061188 0.051083107 0.009428391
        0.04180605 0.10052386 0.17098172 0.2652762 0.40864247 0.60898554
        0.0029904463 0.010954146 0.018873166 0.026708879 0.0344209 0.041970555
        0.04932268 0.056446176 0.063314326 0.06990495 0.076200366 0.08218709
        0.08785513 0.09319612 0.09819851 0.10283568 0.10703796 0.11063314
        0.11323351 0.11405141 0.11166199 0.10383966 0.08779378 0.061256062
        0.024315687 0.019941887 0.06894324 0.12595588 0.2001615 0.3115059
        0.47865736 0.0031528014 0.011160825 0.019127747 0.027016474 0.034787215
        0.042401914 0.049826045 0.057029203 0.063985445 0.07067344 0.07707653
        0.0831824 0.08898246 0.0944701 0.09963615 0.104457684 0.10887164
        0.112719014 0.11563932 0.11689961 0.11517857 0.10843192 0.09415677
        0.0704863 0.037975363 0.00014039324 0.039993502 0.084625505 0.13974822
        0.21692315 0.33556718 0.0032560085 0.011298459 0.019302862 0.027233386
        0.03505063 0.04271696 0.05019829 0.057464685 0.06449072 0.07125567
        0.07774354 0.083942875 0.0898461 0.09544793 0.10074114 0.10570605
        0.11028598 0.114335306 0.11752176 0.11916933 0.118063234 0.11234011
        0.09976968 0.07883756 0.050472237 0.018520247 0.013596057 0.047053535
        0.08481937 0.1294105 0.19357397 0.0032931922 0.011362807 0.01939699
        0.027360931 0.03521546 0.042923223 0.050450426 0.057767436 0.06484917
        0.071675286 0.07823029 0.084503286 0.09048745 0.09617853 0.10157093
        0.10664795 0.111359134 0.11557246 0.118984796 0.12097887 0.12044847
        0.115709774 0.10479017 0.0864831 0.062009823 0.03545578 0.010570425
        0.0129188765 0.03536992 0.051343337 0.064562865 0.0032584073 0.011350714
        0.019409837 0.027401768 0.03528746 0.04302975 0.050595034 0.05795387
        0.0650814 0.07195757 0.07856719 0.08489979 0.09094913 0.096711785
        0.10218359 0.10735067 0.11216877 0.116519704 0.12013026 0.12244333
        0.12246263 0.118681796 0.109371774 0.09359457 0.0727946 0.05121535
        0.032857362 0.018201975 0.008979826 0.016672911 0.045150585 0.0031464407
        0.0112593165 0.019340925 0.02735785 0.0352711 0.043043654 0.05064203
        0.058036927 0.06520364 0.07212228 0.07877794 0.08516045 0.09126403
        0.097086 0.10262348 0.10786536 0.11277358 0.117244065 0.12103409
        0.12364773 0.12419928 0.12135726 0.11362315 0.10029337 0.08297609
        0.06600182 0.05354598 0.04668644 0.048710957 0.07508564 0.13445643
        0.002951935 0.011085124 0.019188631 0.02722942 0.035168514 0.042968996
        0.05059749 0.05802479 0.06522631 0.07218232 0.07887807 0.085303694
        0.0914538 0.09732634 0.1029197 0.10822546 0.1132118 0.11778891
        0.121745005 0.12464592 0.12571661 0.12379751 0.11760868 0.10665161
        0.09264775 0.07995194 0.0728408 0.07283729 0.084296286 0.12482286
        0.2052382 0.002670483 0.010825074 0.018951217 0.027015993 0.034980427
        0.04280771 0.050464544 0.057921823 0.06515505 0.07214461 0.07887594
        0.085339375 0.09152988 0.097446024 0.103087366 0.10844816 0.11350282
        0.11817587 0.12228665 0.12546284 0.12703943 0.12602514 0.12134741
        0.11268723 0.101836346 0.09311878 0.090843216 0.09684008 0.116108574
        0.1668968 0.2604349 0.0022920098 0.010470998 0.018622352 0.026712945
        0.034703825 0.04255831 0.050243214 0.05772952 0.06499284 0.07201368
        0.07877762 0.08527523 0.091501795 0.09745644 0.10313991 0.10854908
        0.1136646 0.118425354 0.122681856 0.12612353 0.1281945 0.12806831
        0.124870084 0.11843889 0.1106003 0.10559762 0.10770519 0.11893764
        0.14459108 0.20239612 0.30299115 0.0018181173 0.0100242775 0.018203154
        0.026320979 0.034338873 0.042220302 0.049932208 0.057445683 0.06473643
        0.07178509 0.07857736 0.085103996 0.09136058 0.09734674 0.10306431
        0.10851274 0.11367875 0.118515424 0.12290395 0.12659451 0.1291379
        0.12986726 0.12809438 0.12379638 0.11880139 0.11722983 0.12326433
        0.13900208 0.16976623 0.23193967 0.33538425 0.0012066349 0.00944962
        0.01766487 0.025817279 0.033868227 0.04178149 0.049524255 0.057067838
        0.06438813 0.07146596 0.07828721 0.08484287 0.09112883 0.09714529
        0.10289518 0.108380474 0.113594055 0.11850312 0.123019494 0.12695377
        0.12996243 0.13153556 0.13116515 0.12895237 0.12670165 0.12836799
        0.13797973 0.15762308 0.1924575 0.25680882 0.35965073 0.00051048584
        0.008806248 0.017073093 0.025274158 0.033371404 0.041329175 0.049115162
        0.056701116 0.064063355 0.07118307 0.078046575 0.08464531 0.0909757
        0.097038716 0.102838665 0.10838039 0.11366328 0.11866926 0.12334169
        0.12755309 0.13106799 0.13353625 0.13463174 0.13457556 0.13513136
        0.14005265 0.15315893 0.17645334 0.21478114 0.27994183 0.37884775
        0.00011363589 0.008237619 0.016559094 0.024812734 0.03296108 0.040969085
        0.048804976 0.056441028 0.06385404 0.07102574 0.07794296 0.084597744
        0.09098726 0.09711345 0.10298227 0.10860177 0.11397838 0.11910964
        0.12397209 0.12850311 0.13258031 0.13602051 0.13868712 0.14092311
        0.14443862 0.15275349 0.16943397 0.19634293 0.23784062 0.30312136
        0.39610833 0.00061410124 0.0077839657 0.01615212 0.024451712 0.032645725
        0.04069957 0.04858193 0.05626551 0.06372756 0.070950255 0.07792096
        0.0846323 0.091082186 0.09727358 0.10321413 0.108915284 0.11439087
        0.119654946 0.12471909 0.12958932 0.13426286 0.13873343 0.14306429
        0.1477232 0.15435046 0.16619267 0.18651305 0.2169708 0.2612739
        0.32618582 0.4130479 0.0010221703 0.0074153827 0.015823452 0.024163099
        0.03239766 0.040492933 0.04841797 0.056145847 0.06365421 0.07092567
        0.07794806 0.08471461 0.0912239 0.09747997 0.10349219 0.109275565
        0.11485172 0.12025219 0.12552582 0.1307517 0.13605484 0.14161816
        0.1477187 0.15495437 0.16487695 0.18041071 0.20445073 0.23837201
        0.28509727 0.34905723 0.42961589 0.0013365665 0.007135344 0.01557861
        0.02395427 0.032225974 0.040359855 0.048325304 0.05609575 0.063649215
        0.07096873 0.07804261 0.08486464 0.09143418 0.09775629 0.10384219
        0.109710574 0.115391314 0.120934404 0.1264281 0.13202904 0.13799822
        0.14472069 0.15270254 0.16267909 0.17609498 0.1954985 0.22334264
        0.2606267 0.3093738 0.37189063 0.44594947 0.0015660949 0.006936004
        0.01541062 0.023818947 0.032124925 0.040295 0.048298888 0.05611035
        0.06370777 0.0710746 0.078199625 0.08507722 0.09170749 0.098096594
        0.10425764 0.1102132 0.11600179 0.12169286 0.12741631 0.13341106
        0.14008287 0.1480333 0.15801553 0.17091247 0.18804236 0.21151593
        0.24325609 0.28378353 0.33413872 0.39474633 0.46218666 0.0017170808
        0.006812197 0.015315402 0.023754014 0.032092262 0.0402969 0.04833795
        0.05618951 0.06383033 0.07124428 0.078420624 0.08535435 0.09204631
        0.09850381 0.104741916 0.11078723 0.11668734 0.122532114 0.1284954
        0.13490306 0.14231494 0.15156482 0.16367367 0.17968586 0.20077407
        0.22854154 0.26427758 0.30791208 0.3594539 0.41774598 0.47852805
        0.001796553 0.006757688 0.015287459 0.023754628 0.032123722 0.040361796
        0.048439186 0.05633032 0.06401433 0.07147549 0.0787036 0.085694216
        0.09244901 0.09897643 0.105293594 0.111431286 0.11744654 0.12345062
        0.12966348 0.13650283 0.14469215 0.15531452 0.16968285 0.1890215
        0.21433929 0.24665181 0.286493 0.33308256 0.38538814 0.4410143
        0.49519446 0.0018113066 0.0067663034 0.0153212 0.023815723 0.032214712
        0.040485524 0.048598807 0.05652934 0.06425662 0.071765386 0.07904592
        0.086094424 0.09291337 0.0995124 0.10591072 0.112143464 0.11827749
        0.12444632 0.13091817 0.13820732 0.14721073 0.15927924 0.17604567
        0.19893888 0.22878732 0.2659275 0.3099948 0.3593742 0.4120263
        0.46469575 0.51242745 0.001767973 0.006831829 0.015410795 0.023931816
        0.03236006 0.04066318 0.048812155 0.05678211 0.06455294 0.072109826
        0.079443574 0.08655103 0.093435496 0.10010785 0.10658943 0.11291984
        0.11917607 0.12551473 0.13225427 0.14001006 0.14986256 0.16345005
        0.18275765 0.20945066 0.24416417 0.28645095 0.33488002 0.38687414
        0.43946666 0.48894253 0.5304664 0.0016728692 0.0069481973 0.015550402
        0.024097258 0.032554273 0.04088941 0.04907398 0.05708346 0.06489816
        0.07250371 0.07989146 0.0870589 0.094010204 0.10075748 0.107324265
        0.11375473 0.120136246 0.12664923 0.13366409 0.14190151 0.15263523
        0.16781203 0.18980645 0.22056171 0.2605119 0.30830675 0.3612517
        0.4156785 0.46781904 0.51390606 0.54952806 0.0015319238 0.0071095824
        0.015734272 0.024306353 0.03279168 0.041158546 0.04937858 0.05742764
        0.065286435 0.072941065 0.08038345 0.087611735 0.09463095 0.101454474
        0.10810807 0.11464054 0.12114987 0.12784076 0.13513702 0.14386843
        0.15551141 0.1723432 0.19717036 0.23226725 0.27786753 0.33158177
        0.38921955 0.44589165 0.49719855 0.53972125 0.5697794 0.00135062
        0.007310477 0.015956853 0.02455348 0.033066574 0.04146474 0.049719952
        0.05780844 0.06571133 0.0734152 0.08091252 0.08820214 0.09528994
        0.10219057 0.10893203 0.11556782 0.12220658 0.1290777 0.13665943
        0.14589368 0.15846829 0.17701365 0.20481695 0.24455124 0.29626235
        0.3563664 0.41890112 0.4776237 0.5277149 0.5664866 0.5913072
        0.0011339758 0.007545729 0.016212834 0.024833145 0.03337324 0.041802034
        0.05009185 0.058219284 0.06616589 0.07391872 0.081470825 0.0888217
        0.09597813 0.10295603 0.10978562 0.11652505 0.12329369 0.13034569
        0.13821429 0.14795576 0.16147707 0.1817848 0.21270168 0.25738502
        0.31572226 0.3827568 0.45042285 0.51098484 0.55945617 0.59423923
        0.6140862 0.0008865585 0.007810534 0.016497152 0.025139987 0.033705987
        0.04216437 0.050487794 0.058653224 0.06664263 0.07444355 0.082049586
        0.08946091 0.096685156 0.1037395 0.11065636 0.11749848 0.12439583
        0.13162716 0.13978072 0.1500283 0.16450225 0.18660827 0.22076651
        0.27072608 0.33626884 0.41085893 0.48392075 0.5460754 0.5924668
        0.622927 0.63794774 0.0006125382 0.008100375 0.016804917 0.025468716
        0.034059078 0.042545505 0.050900977 0.059102826 0.06713342 0.07498076
        0.08263899 0.09010892 0.09739905 0.10452774 0.111529544 0.1184717
        0.1254945 0.13290085 0.14133334 0.15207927 0.16750076 0.19142486
        0.22893843 0.2845171 0.35792217 0.44079462 0.5195396 0.5829702
        0.62671936 0.6523794 0.6625527 0.0003157826 0.008410921 0.017131304
        0.025813974 0.03442656 0.04293884 0.051324088 0.059559967 0.067629226
        0.07552031 0.08322785 0.090753295 0.0981059 0.105305195 0.11238775
        0.11942506 0.1265674 0.13414103 0.14284149 0.15407006 0.17042096
        0.19616336 0.23712796 0.2986856 0.38070628 0.47271058 0.55742896
        0.6216939 0.662082 0.6822786 0.6873669 0 0.00873985
        0.017475419 0.026176343 0.03481057 0.043348137 0.051762614 0.060031984
        0.068139374 0.07607363 0.08382992 0.091410264 0.09882467 0.1060938
        0.113256186 0.12038754 0.12764788 0.1353865 0.14435136 0.15605722
        0.17333174 0.200896 0.2453547 0.31301102 0.40375042 0.50461996
        0.5945631 0.65903056 0.69598687 0.71081275 0.7107857
      </DataArray>
      <DataArray type="Float32" Name="aspect_ratio" format="ascii" RangeMin="1.3999443054199219" RangeMax="21.65762710571289">
        20.925081 20.791952 20.611057 20.332743 19.962152 19.506077
        18.972702 18.371286 17.711832 17.004747 16.260515 15.489411
        14.701247 13.905178 13.109564 12.321898 11.548833 10.796284
        10.069662 9.374164 8.714983 8.097011 7.5229807 6.9878125
        6.4649925 5.884463 5.1480904 4.295433 3.5992868 3.3062522
        3.531887 20.930632 20.758883 20.539589 20.22368 19.816883
        19.326515 18.761223 18.130648 17.445095 16.715178 15.951504
        15.164382 14.363586 13.558161 12.756293 11.965247 11.191377
        10.44021 9.716634 9.025102 8.369741 7.753925 7.1783156
        6.6354675 6.098785 5.511263 4.8144116 4.0662894 3.4747403
        3.2230995 3.4308398 20.936195 20.728458 20.473475 20.122711
        19.682428 19.16043 18.565786 17.908484 17.199093 16.448412
        15.667145 14.865624 14.053575 13.239926 12.432696 11.6389265
        10.86468 10.115115 9.39461 8.706904 8.055114 7.4412146
        6.8641067 6.3146863 5.767385 5.177124 4.514125 3.8445952
        3.3280141 3.1049705 3.2798219 20.941776 20.70356 20.41825
        20.037762 19.568815 19.019636 18.399654 17.719173 16.988998
        16.220093 15.423265 14.608881 13.786633 12.965368 12.152971
        11.356297 10.581165 9.832407 9.113942 8.428853 7.7793264
        7.166106 6.586666 6.0309496 5.475357 4.885427 4.2508745
        3.6382372 3.1728232 2.968586 3.086434 20.947386 20.6849
        20.37536 19.971027 19.478992 18.907822 18.267246 17.567825
        16.820564 16.03658 15.226765 14.401527 13.57055 12.742621
        11.925526 11.125975 10.349589 9.600921 8.883478 8.199746
        7.551067 6.9370937 6.3541813 5.7918973 5.229195 4.640709
        4.0287967 3.455379 3.0196462 2.8203924 2.8652058 20.953028
        20.67325 20.346367 19.924871 19.41612 18.828934 18.17327
        17.459875 16.699915 15.904623 15.084971 14.251406 13.4136095
        12.580343 11.759324 10.957161 10.179323 9.430127 8.712727
        8.029061 7.3796964 6.7633243 6.1754327 5.605659 5.035798
        4.4480534 3.8525133 3.303818 2.8794005 2.6688979 2.6335378
        20.958715 20.668936 20.331924 19.900288 19.381552 18.784685
        18.119795 17.397749 16.629822 15.827324 15.001293 14.162208
        13.319768 12.482724 11.658761 10.854425 10.075077 9.324849
        8.606585 7.9217243 7.270115 6.6495843 6.054954 5.4762554
        4.8982215 4.309254 3.7238355 3.188308 2.7608383 2.5232015
        2.4069118 20.96445 20.672457 20.333038 19.8988 19.377316
        18.77761 18.109844 17.384935 16.614208 15.80902 14.980442
        14.138985 13.294373 12.455366 11.629653 10.823756 10.042973
        9.291297 8.571302 7.8839736 7.2284756 6.6018343 5.9983444
        5.4086466 4.820388 4.2270513 3.6454222 3.113669 2.6725664
        2.3933494 2.200339 20.970243 20.682518 20.347134 19.916586
        19.398407 18.801588 18.136269 17.41336 16.644184 15.840108
        15.012225 14.171069 13.326394 12.486991 11.660574 10.853674
        10.071564 9.318134 8.595725 7.9048896 7.244136 6.609732
        5.995553 5.3930116 4.792623 4.192122 3.6093712 3.075064
        2.6144207 2.2845209 2.0177827 20.976093 20.697086 20.370161
        19.947632 19.436922 18.846935 18.187733 17.470179 16.705559
        15.905231 15.080293 14.241298 13.398032 12.559332 11.732952
        10.925457 10.142117 9.386744 8.661467 7.9664207 7.2994747
        6.6561723 6.0300574 5.413458 4.7997327 4.1902905 3.6034088
        3.0632856 2.5817077 2.1976259 1.8535818 20.981997 20.717709
        20.405205 19.996532 19.498915 18.921087 18.272968 17.565311
        16.809322 16.016317 15.197373 14.363064 13.5232115 12.686709
        11.861378 11.053843 10.269403 9.511827 8.783053 8.082814
        7.4083357 6.754436 6.1143613 5.481429 4.85181 4.230253
        3.6352892 3.085802 2.5825353 2.14417 1.7235243 20.987951
        20.745113 20.453737 20.065487 19.587297 19.027636 18.3962
        17.703568 16.960812 16.179165 15.369669 14.542903 13.708731
        12.876121 12.052982 11.2460375 10.460649 9.700572 8.967582
        8.261015 7.577439 6.9109173 6.2543893 5.602196 4.953321
        4.315737 3.7084038 3.1461253 2.6210515 2.1326473 1.6425854
        20.99395 20.778296 20.513744 20.151495 19.6981 19.161686
        18.551662 17.878368 17.152708 16.385792 15.5886135 14.771749
        13.945111 13.117755 12.297707 11.491809 10.705522 9.942615
        9.204723 8.49079 7.7967057 7.1157446 6.4405265 5.7664533
        5.0953655 4.438487 3.815528 3.2383356 2.6927843 2.1623864
        1.6136458 20.999985 20.816628 20.583965 20.252647 19.828773
        19.320063 18.73557 18.085354 17.380104 16.630795 15.848351
        15.0433445 14.225748 13.404718 12.588419 11.783845 10.996579
        10.23044 9.4869375 8.7646265 8.0587015 7.3616204 6.6656656
        5.9673367 5.2714067 4.592461 3.951345 3.3579419 2.7939153
        2.2316062 1.6393048 21.006046 20.859293 20.66274 20.36643
        19.975943 19.498533 18.942863 18.31867 17.636406 16.906893
        16.14098 15.349241 14.541717 13.727686 12.915476 12.112256
        11.323767 10.553896 9.804052 9.072411 8.353464 7.638831
        6.920452 6.1959605 5.4731436 4.7700825 4.109126 3.4990172
        2.9189482 2.3352776 1.7163699 21.012129 20.905731 20.748915
        20.491066 20.137192 19.694044 19.169855 18.574015 17.916727
        17.208649 16.460562 15.683049 14.886235 14.079544 13.271489
        12.469445 11.679335 10.905145 10.148206 9.406325 8.673298
        7.939895 7.1977167 6.445559 5.69429 4.9656167 4.283721
        3.6568744 3.0631974 2.4677558 1.8383424 21.01823 20.955435
        20.841442 20.624939 20.310322 19.90381 19.413183 18.847471
        18.21662 17.53113 16.801718 16.038998 15.253198 14.453906
        13.649852 12.8486395 12.056404 11.277259 10.512477 9.759522
        9.011499 8.258341 7.491304 6.7103662 5.929518 5.1741986
        4.470702 3.8273616 3.2223 2.6229105 1.996383 21.024343
        21.008217 20.93991 20.767378 20.494385 20.126585 19.671291
        19.137178 18.53393 17.8719 17.16176 16.414167 15.639479
        14.847477 14.04713 13.246302 12.451367 11.666592 10.89322
        10.128393 9.364547 8.590778 7.7980075 6.9873867 6.1760445
        5.3932433 4.667637 4.008054 3.3934002 2.7957838 2.1822245
        21.030472 21.063833 21.0438 20.91757 20.688251 20.360926
        19.94244 19.4411 18.866348 18.228403 17.537907 16.805588
        16.041956 15.257015 14.459998 13.659058 12.860831 12.069765
        11.287102 10.5096855 9.729304 8.934234 8.115044 7.2740397
        6.43148 5.620519 4.872396 4.196789 3.5739179 2.9818723
        2.3884182 21.03661 21.123646 21.155745 21.079319 20.89679
        20.612648 20.23326 19.766571 19.22179 18.60902 17.938898
        17.222254 16.46978 15.691739 14.897664 14.096031 13.29378
        12.495569 11.70267 10.911659 10.113696 9.296234 8.44947
        7.5768175 6.7016606 5.8611608 5.089411 4.3972864 3.7666411
        3.1818712 2.613017 21.04276 21.185913 21.272306 21.247562
        21.113413 20.873762 20.5345 20.103235 19.588955 19.001665
        18.35203 17.651 16.909481 16.138014 15.346459 14.543642
        13.736822 12.930896 12.127189 11.322037 10.505994 9.665704
        8.790955 7.886214 6.977933 6.10733 5.311558 4.602956
        3.9651685 3.3886015 2.8475275 21.048923 21.259914 21.411497
        21.448423 21.371647 21.184433 20.892176 20.502123 20.023064
        19.464945 18.838501 18.154875 17.425259 16.660553 15.8710375
        15.065964 14.253001 13.437357 12.620472 11.798479 10.961326
        10.094791 9.188181 8.246957 7.300741 6.395154 5.570943
        4.8423667 4.1948524 3.6237876 3.1114879 21.055098 21.330854
        21.544584 21.640223 21.618006 21.4806 21.232933 20.881933
        20.436205 19.905651 19.301083 18.633831 17.915363 17.156937
        16.369223 15.561887 14.742991 13.918042 13.0886 12.250609
        11.393444 10.50205 9.565221 8.589296 7.606894 6.667928
        5.816805 5.0698605 4.414264 3.8493838 3.3678126 21.06129
        21.340864 21.558344 21.657627 21.638893 21.504759 21.260109
        20.91184 20.46853 19.940063 19.337246 18.671404 17.954016
        17.196344 16.409077 15.601894 14.782851 13.957421 13.127068
        12.287534 11.427864 10.532607 9.590364 8.608009 7.6197433
        6.677536 5.8272147 5.085886 4.442505 3.9001205 3.4513886
        21.06752 21.29026 21.453403 21.501553 21.4355 21.258354
        20.97538 20.593727 20.1221 19.570398 18.94933 18.270031
        17.543718 16.781328 15.99318 15.188562 14.37514 13.558019
        12.738354 11.911677 11.066955 10.188776 9.265871 8.305279
        7.341321 6.4257345 5.603475 4.8911076 4.2794423 3.7742376
        3.3564656 21.073786 21.233704 21.33664 21.328005 21.209278
        20.984148 20.658318 20.239235 19.735771 19.157852 18.5161
        17.821459 17.084852 16.31687 15.527431 14.725396 13.918005
        13.109972 12.302136 11.489845 10.662039 9.803412 8.902812
        7.967281 7.030953 6.145001 5.3532777 4.6717935 4.09311
        3.6237636 3.2346067 21.080082 21.185728 21.236317 21.178003
        21.012922 20.745306 20.381294 19.928648 19.396425 18.79462
        18.133812 17.424807 16.678308 15.904615 15.113316 14.31291
        13.510272 12.709781 11.91201 11.112153 10.299129 9.457698
        8.576729 7.6631527 6.7509007 5.8907576 5.1257725 4.471674
        3.9225364 3.4839747 3.120485 21.086407 21.139849 21.13986
        21.033339 20.823076 20.513872 20.112316 19.626503 19.065702
        18.44001 17.759989 17.036331 16.27955 15.499684 14.706006
        13.906678 13.108233 12.314736 11.526522 10.738659 9.940075
        9.115599 8.254056 7.362116 6.4733477 5.6381054 4.898737
        4.2708 3.749541 3.3385425 2.99727 21.092756 21.09829
        21.051666 20.900492 20.648188 20.300102 19.863274 19.346134
        18.758186 18.10964 17.411072 16.673101 15.906078 15.119818
        14.32332 13.524447 12.729425 11.942043 11.16243 10.385566
        9.600409 8.7918415 7.948564 7.0768266 6.209719 5.3972235
        4.681191 4.0771613 3.5811658 3.1939328 2.8716238 21.09913
        21.06055 20.970814 20.77818 20.48668 20.102186 19.632177
        19.085428 18.47167 17.801254 17.084795 16.332859 15.555668
        14.762845 13.963155 13.164189 12.371904 11.589848 10.817978
        10.051223 9.278597 8.485025 7.6589947 6.8061614 5.9589925
        5.167145 4.4722023 3.8898158 3.4164057 3.0493572 2.742748
        21.105524 21.026794 20.897657 20.666994 20.339394 19.921234
        19.420408 18.846024 18.208052 17.516989 16.783503 16.018133
        15.231004 14.431579 13.628414 12.828874 12.038675 11.261162
        10.496163 9.738589 8.977537 8.197968 7.3880525 6.552665
        5.7234807 4.949898 4.2735033 3.7102036 3.2564461 2.9060562
        2.61218 21.11194 20.996923 20.832056 20.56678 20.206207
        19.757177 19.227982 18.628042 17.96757 17.257202 16.507679
        15.729534 14.932814 14.126851 13.32003 12.519514 11.730822
        10.957128 10.19817 9.448882 8.698476 7.931937 7.137024
        6.3176003 5.50435 4.7464757 4.0858808 3.5389025 3.101722
        2.7646444 2.4809139 21.118376 20.97082 20.773808 20.477299
        20.086874 19.609798 19.054731 18.431393 17.750217 17.021994
        16.257536 15.467384 14.661531 13.849204 13.038643 12.236841
        11.449154 10.678622 9.924935 9.183092 8.442454 7.6880302
        6.9070544 6.1021295 5.3026905 4.5577917 3.9100254 3.3763855
        2.9526076 2.6257415 2.3500826 21.124828 20.948292 20.722576
        20.398094 19.980856 19.478514 18.900059 18.255487 17.555447
        16.81087 16.032648 15.23134 14.416903 13.598477 12.784184
        11.980881 11.193785 10.425844 9.676738 8.941576 8.209914
        7.466786 6.6987934 5.906984 5.1192093 4.384397 3.74626
        3.222773 2.8091927 2.4897718 2.2206979 21.1313 20.929111
        20.67793 20.328575 19.887432 19.3625 18.763071 18.0994
        17.38232 16.622906 15.832129 15.02057 14.198161 13.37398
        12.556049 11.751113 10.964285 10.198453 9.453328 8.72418
        8.00081 7.2682915 6.512488 5.73255 4.954312 4.2265353
        3.5945747 3.077856 2.6713054 2.3569784 2.0936308 21.137789
        20.913025 20.639393 20.268057 19.805746 19.26076 18.642668
        17.961945 17.229605 16.45685 15.654728 14.833846 14.004125
        13.174587 12.353182 11.546561 10.759763 9.995648 9.254001
        8.530306 7.8146663 7.0922337 6.348026 5.578911 4.8081284
        4.084151 3.454609 2.9410691 2.5384896 2.2273989 1.9695364
        21.144293 20.899775 20.606459 20.215826 19.734892 19.172228
        18.537645 17.841818 17.095924 16.311275 15.498994 14.66972
        13.833363 12.99891 12.174246 11.365956 10.579024 9.8163185
        9.077738 8.359042 7.650704 6.938006 6.205037 5.445936
        4.680595 3.9569352 3.3256598 2.8114872 2.4100056 2.100853
        1.8487965 21.15081 20.889114 20.578665 20.171202 19.674002
        19.095873 18.446833 17.737736 16.979898 16.18474 15.363448
        14.526693 13.684383 12.845476 12.017809 11.207915 10.420752
        9.65922 8.92338 8.209325 7.5079856 6.8048525 6.0830235
        5.333407 4.5715556 3.8443809 3.2066844 2.687813 2.2848268
        1.9769346 1.73146 21.157341 20.880844 20.555613 20.133615
        19.622343 19.030813 18.36922 17.648577 16.880325 16.075977
        15.2467785 14.40343 13.555842 12.712951 11.882558 11.071162
        10.283713 9.523178 8.789821 8.080132 7.3856006 6.6920323
        5.9815125 5.2411594 4.4808893 3.7458403 3.0962832 2.568351
        2.1616352 1.8549986 1.6171902 21.163883 20.87483 20.537045
        20.102682 19.579418 18.976444 18.304115 17.573574 16.79637
        15.984096 15.148056 14.298976 13.446772 12.600367 11.767536
        10.954762 10.167006 9.407327 8.676237 7.9707003 7.2828712
        6.599019 5.900244 5.1692657 4.408652 3.6605647 2.9926388
        2.4509475 2.0388017 1.7341466 1.5052241 21.170435 20.86993
        20.5207 20.075066 19.540873 18.927473 18.245361 17.505804
        16.72045 15.900966 15.058704 14.204419 13.34803 12.498448
        11.66343 10.849443 10.061473 9.302692 8.573894 7.872577
        7.1916957 6.5182247 5.8326187 5.1132445 4.3543215 3.5935378
        2.9059384 2.3485124 1.9286727 1.6235168 1.3999443
      </DataArray>
      <DataArray type="Float32" Name="jacobian" format="ascii" RangeMin="0.00037248205626383424" RangeMax="0.010952149517834187">
        0.01076544 0.010724185 0.01065335 0.01052707 0.010348094 0.010120161
        0.009847834 0.009536321 0.009191284 0.00881863 0.008424338 0.008014273
        0.0075940466 0.0071688914 0.006743564 0.006322271 0.0059086136 0.0055055264
        0.0051152227 0.0047391234 0.004377801 0.0040309657 0.0036975944 0.0033763025
        0.003065791 0.002763231 0.0024518655 0.0020733303 0.0015510517 0.0009196524
        0.00037248206 0.010768295 0.010746937 0.010696014 0.010589314 0.010429256
        0.010219277 0.009963674 0.009667428 0.009336022 0.008975237 0.008590972
        0.008189062 0.0077751307 0.00735446 0.0069318837 0.0065117027 0.0060976017
        0.005692564 0.005298757 0.004917398 0.0045486153 0.0041913823 0.0038436393
        0.0035027151 0.0031659075 0.002829961 0.0024843626 0.0020944746 0.0016107408
        0.0010372283 0.00046027772 0.010771157 0.010768418 0.010736218 0.010648016
        0.010505923 0.010313089 0.01007355 0.009792068 0.009473945 0.009124829
        0.008750533 0.008356847 0.007949393 0.007533488 0.007114024 0.0066953767
        0.0062812967 0.005874789 0.005477941 0.0050917133 0.0047157193 0.0043481104
        0.003985745 0.0036247943 0.0032617298 0.0028940726 0.0025180576 0.0021188862
        0.0016687912 0.0011487227 0.00054296135 0.0107740285 0.01078712 0.010770988
        0.010698815 0.010572452 0.010394791 0.010169637 0.009901549 0.009595653
        0.009257465 0.0088926945 0.008507076 0.008106204 0.0076953997 0.0072795874
        0.006863182 0.0064499653 0.006042923 0.0056440155 0.005253884 0.0048715463
        0.0044942503 0.0041177473 0.0037372387 0.0033490038 0.002952458 0.0025506574
        0.0021439276 0.0017217365 0.0012562964 0.0006417737 0.010776912 0.010802651
        0.010799458 0.010740309 0.01062684 0.010461739 0.010248617 0.009991856
        0.009696436 0.009367745 0.009011401 0.008633069 0.008238307 0.007832425
        0.00742035 0.007006512 0.006594693 0.006187823 0.0057876944 0.005394578
        0.0050068386 0.0046207737 0.0042310623 0.0038321866 0.003420869 0.0029992964
        0.002577123 0.002165793 0.0017673146 0.0013558287 0.000757877 0.010779813
        0.0108145885 0.010820714 0.010771017 0.010666984 0.010511155 0.010306999
        0.010058766 0.009771317 0.009449945 0.009100187 0.008727649 0.008337853
        0.007936081 0.0075272573 0.0071158023 0.0067054722 0.006299118 0.005898333
        0.00550299 0.005110779 0.004717061 0.0043155556 0.003900345 0.0034691854
        0.003027611 0.0025913022 0.0021794417 0.0018021419 0.0014418077 0.0008873477
        0.0107827345 0.0108227525 0.0108343335 0.010790226 0.01069183 0.010541596
        0.010342905 0.010099927 0.0098174475 0.009500695 0.0091551505 0.00878638
        0.008399871 0.008000886 0.0075943307 0.007184606 0.006775428 0.0063695502
        0.005968356 0.005571318 0.005175477 0.0047753383 0.0043638544 0.00393507
        0.0034882594 0.0030325255 0.0025886586 0.0021807435 0.0018232098 0.0015088689
        0.0010212095 0.010785681 0.010826874 0.010839738 0.010797008 0.010700065
        0.010551332 0.010354165 0.010112705 0.009831714 0.009516393 0.009172201
        0.008804683 0.008419307 0.00802132 0.0076156086 0.007206549 0.006797806
        0.0063920296 0.0059903963 0.005592008 0.00519333 0.004788164 0.0043689567
        0.003930086 0.0034726746 0.0030092504 0.0025645087 0.0021650754 0.0018267707
        0.0015518302 0.0011436036 0.010788655 0.01082763 0.010838287 0.010793404
        0.010694394 0.01054371 0.010344728 0.010101611 0.009819133 0.009502505
        0.009157188 0.008788728 0.008402588 0.008004002 0.007597841 0.00718845
        0.0067794416 0.0063733617 0.0059711966 0.0055717234 0.0051709316 0.004762094
        0.004337417 0.003891909 0.0034286722 0.0029632382 0.0025229424 0.0021351227
        0.0018148944 0.0015714313 0.0012448471 0.0107916575 0.010826087 0.010832149
        0.010782701 0.010679226 0.010524239 0.010321177 0.010074248 0.00978827
        0.009468485 0.009120376 0.0087495 0.008361323 0.007961074 0.0075536054
        0.007143232 0.0067335106 0.00632689 0.005924186 0.0055239005 0.0051216427
        0.004710317 0.0042820997 0.0038328147 0.0033674987 0.002904151 0.0024716384
        0.0020967475 0.0017924871 0.0015711151 0.0013212387 0.010794687 0.010821442
        0.010819709 0.010762475 0.010651343 0.0104889395 0.010278802 0.010025234
        0.009733126 0.00940778 0.009054727 0.00867955 0.008287728 0.007884487
        0.0074746595 0.0070625283 0.00665159 0.0062442017 0.0058410335 0.0054403734
        0.0050375694 0.0046253405 0.0041960487 0.00374646 0.0032833705 0.0028265766
        0.0024054176 0.002045209 0.0017561192 0.0015494155 0.0013613632 0.010797743
        0.01081332 0.010800232 0.010731658 0.010609373 0.01043617 0.010215739
        0.009952514 0.009651504 0.0093181 0.008957899 0.008576527 0.008179481
        0.0077719865 0.0073588537 0.0069443206 0.0065318206 0.006123621 0.0057202717
        0.0053199115 0.004917753 0.004506511 0.00407892 0.0036327343 0.003176216
        0.002730231 0.0023236584 0.0019797315 0.0017056172 0.0015088989 0.0013617522
        0.010800823 0.010802256 0.010774855 0.010692032 0.010555788 0.010369122
        0.010135918 0.009860776 0.009548845 0.009205625 0.008836792 0.00844802
        0.008044824 0.00763242 0.007215585 0.006798502 0.00638453 0.0059758457
        0.005572896 0.0051737255 0.0047735064 0.004365085 0.003941673 0.0035019615
        0.0030553315 0.0026230789 0.002232958 0.0019058354 0.0016460738 0.0014565559
        0.00133116 0.010803922 0.010788588 0.010744313 0.0106447935 0.010492289
        0.010290048 0.010042171 0.009753451 0.009429189 0.0090750065 0.008696658
        0.008299859 0.007890136 0.007472678 0.0070522134 0.0066328514 0.0062178625
        0.0058093243 0.005407593 0.005010656 0.004613716 0.0042098374 0.0037927495
        0.00336197 0.0029276495 0.0025110005 0.002138233 0.0018277986 0.0015816533
        0.0013983012 0.0012806682 0.010807037 0.010772751 0.010709553 0.010591453
        0.010421006 0.010201727 0.009937953 0.009634677 0.009297359 0.008931729
        0.008543614 0.008138758 0.0077226725 0.0073005045 0.006876908 0.0064558964
        0.0060406323 0.005633085 0.0052335216 0.0048398934 0.004447478 0.004049598
        0.0036404904 0.003220355 0.0027998083 0.00239962 0.0020442551 0.0017498746
        0.0015164977 0.0013392727 0.0012216113 0.010810166 0.010755049 0.010671248
        0.010533111 0.010343506 0.010106226 0.009825852 0.009507567 0.009156978
        0.008779914 0.008382248 0.007969725 0.0075478223 0.0071216123 0.006695648
        0.0062738247 0.0058591748 0.0054535465 0.005057114 0.004667806 0.004280994
        0.0038902725 0.003490343 0.0030819422 0.0026759082 0.0022923378 0.0019539054
        0.0016746932 0.0014532468 0.0012824791 0.001161648 0.010813305 0.010735758
        0.010630009 0.01047076 0.010261197 0.010005388 0.009708146 0.009374831
        0.009011171 0.008623066 0.008216405 0.0077969073 0.0073699765 0.0069405846
        0.006513156 0.00609144 0.0056783226 0.005275515 0.0048830966 0.0044989744
        0.004118625 0.003735906 0.0033459289 0.0029498339 0.0025584968 0.0021912153
        0.0018689242 0.0016038776 0.0013935618 0.0012295593 0.0011051462 0.010816455
        0.010714988 0.010586115 0.010404888 0.010174804 0.009900197 0.009586081
        0.009237968 0.008861677 0.008463137 0.008048222 0.007622584 0.0071915244
        0.0067598796 0.006331919 0.0059112245 0.005500514 0.0051013534 0.0047137206
        0.004335505 0.0039622854 0.0035881693 0.0032086216 0.002825073 0.0024483022
        0.002096746 0.0017897004 0.0015378346 0.0013379223 0.001180834 0.00105363
        0.010819613 0.010692882 0.010539895 0.010336045 0.010085119 0.009791682
        0.009460919 0.009098454 0.0087101525 0.008301938 0.007879623 0.007448758
        0.0070145056 0.006581539 0.006153945 0.005735118 0.0053275963 0.00493279
        0.004550573 0.0041788155 0.0038131997 0.0034480626 0.0030791708 0.0027081524
        0.0023455925 0.002009052 0.0017163106 0.0014766759 0.0012864851 0.0011362848
        0.001007428 0.01082278 0.010668769 0.010490112 0.010262516 0.009990027
        0.009677404 0.009329962 0.008953382 0.008553533 0.00813628 0.00770733
        0.0072720866 0.0068355375 0.006402157 0.0059758234 0.0055597224 0.005156194
        0.004766483 0.0043903547 0.004025661 0.0036681837 0.0033124774 0.0029545652
        0.0025961953 0.0022476811 0.0019256957 0.0016465993 0.0014185132 0.00123755
        0.0010941874 0.00096477906 0.010825954 0.010643551 0.010438559 0.010186947
        0.009892965 0.009561509 0.009197963 0.008808017 0.008397482 0.007972119
        0.0075374874 0.0070988084 0.006660863 0.006227904 0.005803584 0.005390867
        0.004991891 0.004607732 0.004238049 0.003880677 0.0035314944 0.003185255
        0.0028381988 0.0024921347 0.0021570611 0.0018487939 0.0015824019 0.0013649894
        0.0011926065 0.0010558302 0.00092677027 0.010829136 0.010612615 0.010376563
        0.010097146 0.009778744 0.00942631 0.009045213 0.008641061 0.008219524
        0.007786174 0.00734634 0.006904988 0.0064666243 0.0060352213 0.0056141526
        0.0052061183 0.004813018 0.0044357353 0.004073806 0.0037250426 0.0033854218
        0.0030498954 0.0027148966 0.0023822323 0.0020614995 0.0017675961 0.0015143051
        0.0013077791 0.0011441349 0.0010143018 0.0008864521 0.010832323 0.010583393
        0.010318245 0.010013131 0.009672471 0.009301193 0.00890458 0.008488104
        0.008057252 0.007617375 0.0071735578 0.006730501 0.006292438 0.0058630686
        0.005445503 0.005042194 0.004654823 0.0042841 0.0039294544 0.0035886841
        0.0032578593 0.002932107 0.0026080192 0.0022873743 0.0019793883 0.0016981424
        0.0014563081 0.0012592452 0.0011032196 0.000979614 0.00085338036 0.010835515
        0.0105845 0.010317415 0.010010519 0.009668242 0.00929552 0.008897642
        0.008480078 0.008048315 0.007607699 0.0071633044 0.0067198235 0.0062814765
        0.0058519524 0.0054343473 0.0050311047 0.004643901 0.00427345 0.0039192024
        0.0035790002 0.0032489847 0.0029243696 0.0026018273 0.002283192 0.0019776844
        0.0016992459 0.0014601905 0.0012656183 0.0011119802 0.0009906727 0.0008657658
        0.010838722 0.0106157875 0.010373727 0.010088725 0.009765209 0.0094081685
        0.009022999 0.008615316 0.008190794 0.007754992 0.0073132208 0.0068704174
        0.0064310553 0.0059990697 0.005577798 0.0051699085 0.0047772853 0.0044008265
        0.0040401365 0.003693172 0.0033561403 0.0030242756 0.0026942748 0.00236812
        0.002055411 0.0017705812 0.0015262784 0.0013278129 0.0011718153 0.0010492521
        0.0009256491 0.010841943 0.010650274 0.010436461 0.010176516 0.009874779
        0.009536221 0.009166284 0.008770697 0.008355291 0.007925828 0.0074878535
        0.0070465626 0.0066066966 0.0061724638 0.005747469 0.005334638 0.004936096
        0.0045529585 0.004185017 0.003830375 0.003485329 0.0031451466 0.0028065466
        0.0024716542 0.0021504746 0.0018580252 0.0016074198 0.0014042824 0.0012454145
        0.0011214513 0.0009994359 0.010845179 0.01068067 0.010491832 0.010254427
        0.009972627 0.009651307 0.009295875 0.008912086 0.008505856 0.008083079
        0.00764947 0.007210422 0.006770895 0.0063353265 0.005907554 0.0054907342
        0.005087212 0.0046983147 0.0043240236 0.003962608 0.0036104897 0.0032630048
        0.0029169053 0.0025744194 0.0022458758 0.001946802 0.0016907569 0.0014836815
        0.0013225435 0.0011978911 0.0010778456 0.010848428 0.010710197 0.010545877
        0.010330926 0.010069288 0.009765678 0.00942541 0.009054212 0.008658029
        0.008242844 0.007814499 0.0073785526 0.0069401604 0.006503969 0.006074038
        0.0056537464 0.0052456628 0.004851332 0.0044709463 0.00410297 0.0037439868
        0.0033894393 0.0030361223 0.0026863338 0.0023506687 0.0020451415 0.0017837997
        0.0015729549 0.0014097551 0.0012847986 0.0011674907 0.0108516915 0.010737702
        0.010596328 0.010402691 0.010160474 0.009874187 0.009549007 0.009190581
        0.008804837 0.008397795 0.007975383 0.007543284 0.007106809 0.0066707865
        0.00623947 0.005816446 0.0054044947 0.0050053783 0.0046195127 0.0042455858
        0.0038803904 0.0035195225 0.0031598387 0.0028036619 0.0024617543 0.0021505419
        0.0018845614 0.0016705281 0.0015057987 0.0013811871 0.0012674404 0.010854968
        0.010763411 0.0106435465 0.010470153 0.01024663 0.009977259 0.009667039
        0.009321505 0.008946528 0.008548117 0.008132249 0.0077046948 0.007270886
        0.006835801 0.0064038658 0.005978851 0.00556374 0.0051605096 0.0047698133
        0.0043905973 0.0040199165 0.003653579 0.0032885324 0.0029270754 0.002580017
        0.0022640876 0.0019942962 0.0017777942 0.0016121926 0.0014886713 0.0013795369
        0.010858256 0.010787216 0.010687259 0.010532826 0.010327034 0.010073918
        0.0097782845 0.009445525 0.009081419 0.00869194 0.008283073 0.00786064
        0.007430163 0.006996739 0.0065649375 0.006138695 0.005721179 0.005314581
        0.004919805 0.0045360914 0.0041608196 0.0037900845 0.0034209671 0.0030556936
        0.002704968 0.002385667 0.0021132182 0.001895229 0.0017296259 0.0016080992
        0.0015047101 0.010861556 0.01080914 0.01072745 0.010590608 0.01040145
        0.01016377 0.00988217 0.009561881 0.009208573 0.008828156 0.008426591
        0.008009725 0.0075831395 0.0071520195 0.0067210523 0.006294317 0.005875152
        0.0054659583 0.0050679035 0.004680564 0.004301716 0.003927832 0.00355619
        0.0031889006 0.0028363848 0.0025154494 0.0022418345 0.0020236066 0.0018590832
        0.001740586 0.0016440877 0.010864868 0.010829224 0.010764143 0.0106434515
        0.010469725 0.010246521 0.009978237 0.00966994 0.009327176 0.008955769
        0.008561643 0.00815064 0.007728373 0.0073000933 0.0068705794 0.0064440314
        0.006023943 0.00561292 0.0052124094 0.004822369 0.004441055 0.0040654284
        0.0036930544 0.0033259036 0.002973909 0.0026535233 0.0023806193 0.0021636975
        0.00200155 0.001887203 0.0017985706 0.01086819 0.010847542 0.010797441
        0.010691443 0.010531884 0.010322098 0.01006629 0.009769362 0.009436729
        0.009074124 0.0086874105 0.008282412 0.007864752 0.007439724 0.007012177
        0.0065864115 0.0061660632 0.005753939 0.005351783 0.004959983 0.004577369
        0.0042015263 0.0038304324 0.0034659232 0.0031172263 0.00280007 0.0025301813
        0.0023164223 0.0021581382 0.0020490475 0.001968832 0.010871522 0.010864198
        0.010827504 0.01073476 0.010588082 0.010390604 0.010146346 0.009860054
        0.00953701 0.009182855 0.008803383 0.008404385 0.007991479 0.0075699827
        0.007144797 0.0067203077 0.006300278 0.0058877147 0.005484678 0.0050920406
        0.0047093113 0.004334859 0.0039672456 0.0036082258 0.0032661036 0.0029554167
        0.0026913257 0.0024829078 0.0023301118 0.0022272004 0.0021551542 0.010874863
        0.010879309 0.010854534 0.01077365 0.0106385825 0.01045228 0.010218597
        0.00994213 0.009628043 0.009281871 0.008909347 0.008516214 0.008108078
        0.0076902644 0.0072677135 0.00684488 0.006425647 0.0060132216 0.0056099994
        0.0052173976 0.004835719 0.0044643036 0.004102523 0.003752182 0.0034204635
        0.0031201362 0.002865176 0.0026646035 0.0025189568 0.0024226995 0.0023572622
        0.010878212 0.010892996 0.010878748 0.010808401 0.010683707 0.010507458
        0.010283355 0.010015862 0.009710025 0.009371291 0.009005318 0.008617807
        0.008214338 0.007800241 0.0073804804 0.0069595715 0.006541508 0.0061296998
        0.005726902 0.005335135 0.0049556224 0.004588892 0.004235422 0.0038972965
        0.003580443 0.0032951545 0.0030533175 0.0028634197 0.002726453 0.0026364876
        0.0025741025 0.010881567 0.010905374 0.010900358 0.010839294 0.01072379
        0.010556496 0.010340979 0.010081585 0.009783254 0.009451346 0.009091454
        0.0087092295 0.0083102295 0.007899777 0.007482856 0.007064033 0.0066474085
        0.006236598 0.0058347397 0.00544452 0.0050682165 0.0047077923 0.0043652067
        0.004043207 0.003746439 0.0034818714 0.003257985 0.0030819136 0.0029547617
        0.0028693383 0.0028035892 0.010884929 0.01091654 0.010919541 0.010866573
        0.01075912 0.010599709 0.010391793 0.010139611 0.00984801 0.009522272
        0.009167927 0.008790585 0.0083957715 0.007988803 0.007574677 0.007158006
        0.006742994 0.0063334666 0.005932968 0.005544914 0.005172774 0.0048202258
        0.0044911853 0.004189642 0.0039191325 0.0036823093 0.0034823194 0.0033235361
        0.0032065234 0.0031217518 0.003042329 0.010888297 0.010926556 0.01093641
        0.010890392 0.010789877 0.01063729 0.010435987 0.010190113 0.009904437
        0.00958417 0.009234787 0.008861855 0.008470875 0.008067152 0.007655695
        0.007241158 0.0068278452 0.0064198 0.0060209935 0.005635628 0.005268512
        0.0049253423 0.004612586 0.004336329 0.004099499 0.0038993133 0.003730741
        0.0035929866 0.0034849674 0.0033938312 0.003285396 0.010891668 0.010936011
        0.0109521495 0.010912514 0.010818388 0.010672101 0.010476918 0.010236899
        0.00995674 0.009641587 0.009296863 0.008928095 0.00854076 0.008140151
        0.007731287 0.0073188627 0.006907288 0.0065008295 0.006103911 0.0057215896
        0.0053601535 0.0050276434 0.004733705 0.004487435 0.0042915894 0.004136236
        0.0040039257 0.0038851546 0.0037776085 0.0036687392 0.0035165015
      </DataArray>
    </PointData>
    <CellData>
    </CellData>
    <Points>
      <DataArray type="Float32" Name="Points" NumberOfComponents="3" format="ascii" RangeMin="0.7542685842219339" RangeMax="0.8748791963600014">
        0.48018473 -0.014028673 0.58150405 0.4893534 -0.014041143 0.58202094
        0.49848425 -0.014053133 0.5825179 0.507531 -0.01406459 0.58299285
        0.5164489 -0.014075471 0.5834439 0.5251961 -0.014085735 0.58386934
        0.53373367 -0.014095359 0.5842682 0.54202694 -0.01410432 0.58463967
        0.55004555 -0.014112612 0.5849834 0.5577637 -0.014120236 0.58529943
        0.5651607 -0.0141272005 0.5855881 0.57222044 -0.014133521 0.5858501
        0.5789318 -0.014139223 0.58608645 0.585288 -0.014144335 0.58629835
        0.5912864 -0.014148891 0.58648723 0.59692824 -0.014152928 0.5866546
        0.6022179 -0.014156487 0.58680207 0.6071628 -0.014159607 0.5869314
        0.61177254 -0.014162328 0.5870442 0.61605877 -0.01416469 0.5871421
        0.62003475 -0.014166732 0.58722675 0.62371475 -0.01416849 0.5872996
        0.62711376 -0.014169997 0.58736205 0.63024724 -0.014171284 0.5874154
        0.63313097 -0.014172379 0.5874608 0.63578063 -0.014173307 0.5874993
        0.6382115 -0.0141740935 0.58753186 0.64043874 -0.014174756 0.58755934
        0.6424768 -0.0141753135 0.58758247 0.6443397 -0.014175782 0.5876019
        0.6460407 -0.014176175 0.5876182 0.48018473 -0.013698929 0.5815119
        0.48935583 -0.013710386 0.5820289 0.49848908 -0.013721448 0.5825261
        0.50753814 -0.0137320645 0.5830012 0.51645845 -0.013742192 0.5834523
        0.5252078 -0.013751785 0.58387786 0.53374755 -0.013760819 0.58427685
        0.5420429 -0.013769271 0.5846484 0.5500634 -0.013777131 0.5849922
        0.5577833 -0.013784395 0.5853082 0.5651819 -0.013791069 0.5855969
        0.5722431 -0.013797168 0.58585894 0.57895577 -0.013802712 0.5860953
        0.5853131 -0.013807725 0.58630717 0.5913124 -0.01381224 0.586496
        0.5969549 -0.0138162915 0.58666337 0.602245 -0.013819921 0.5868108
        0.6071899 -0.013823177 0.5869401 0.61179924 -0.013826123 0.5870528
        0.6160843 -0.01382885 0.5871507 0.6200575 -0.013831492 0.5872352
        0.62373215 -0.013834244 0.5873079 0.62712145 -0.013837379 0.5873701
        0.6302381 -0.013841235 0.58742315 0.6330938 -0.013846188 0.587468
        0.63569844 -0.013852812 0.5875058 0.6380618 -0.013863328 0.5875374
        0.64020073 -0.013885513 0.5875634 0.64215106 -0.013932619 0.58758473
        0.64396733 -0.014008818 0.58760214 0.6456944 -0.014094186 0.5876169
        0.48018473 -0.01336918 0.5815196 0.48935828 -0.013379011 0.5820368
        0.49849397 -0.013388519 0.58253413 0.5075454 -0.013397662 0.58300936
        0.51646805 -0.013406387 0.58346057 0.52521974 -0.013414658 0.58388627
        0.5337617 -0.0134224435 0.5842853 0.5420591 -0.01342972 0.584657
        0.55008155 -0.013436478 0.5850008 0.55780333 -0.01344271 0.58531696
        0.56520367 -0.013448419 0.58560574 0.5722664 -0.013453619 0.58586776
        0.57898045 -0.013458325 0.58610415 0.58533895 -0.01346256 0.58631605
        0.59133923 -0.013466356 0.5865049 0.59698254 -0.0134697445 0.58667225
        0.6022731 -0.013472769 0.58681965 0.6072182 -0.013475492 0.5869489
        0.6118272 -0.013478 0.5870616 0.616111 -0.013480445 0.58715934
        0.6200814 -0.013483068 0.5872438 0.6237506 -0.013486247 0.58731633
        0.62712985 -0.013490523 0.5873783 0.6302292 -0.013496568 0.587431
        0.6330565 -0.013505116 0.5874754 0.63561755 -0.013517249 0.5875125
        0.6379184 -0.013536907 0.58754313 0.63997805 -0.013577414 0.587568
        0.6418454 -0.013662396 0.58758765 0.6436022 -0.01380517 0.5876032
        0.6453305 -0.013980714 0.5876162 0.48018473 -0.013039426 0.58152705
        0.48936072 -0.013047096 0.5820445 0.49849886 -0.013054503 0.58254194
        0.5075528 -0.013061603 0.58301735 0.5164778 -0.013068351 0.5834687
        0.5252318 -0.013074708 0.58389455 0.533776 -0.013080643 0.5842937
        0.5420756 -0.013086129 0.5846655 0.55010015 -0.013091157 0.58500946
        0.55782384 -0.013095721 0.58532566 0.5652259 -0.013099819 0.58561444
        0.57229036 -0.013103464 0.5858766 0.57900584 -0.013106671 0.586113
        0.58536565 -0.01310946 0.58632493 0.59136707 -0.013111859 0.58651376
        0.5970112 -0.013113901 0.58668107 0.60230243 -0.013115634 0.58682853
        0.60724777 -0.013117129 0.58695775 0.61185646 -0.01311851 0.5870704
        0.61613905 -0.01311999 0.58716816 0.62010676 -0.013121935 0.5872525
        0.6237703 -0.013124928 0.58732486 0.6271393 -0.013129805 0.58738667
        0.630221 -0.013137607 0.587439 0.63302016 -0.013149421 0.5874829
        0.6355391 -0.013166775 0.58751935 0.6377824 -0.013194873 0.58754915
        0.63977116 -0.013250741 0.5875729 0.64156103 -0.013365498 0.5875913
        0.6432487 -0.0135637345 0.5876051 0.6449515 -0.013828674 0.58761615
        0.48018473 -0.012709668 0.5815344 0.4893632 -0.012714737 0.58205193
        0.4985038 -0.012719581 0.58254963 0.5075602 -0.012724167 0.58302516
        0.5164876 -0.012728448 0.5834767 0.525244 -0.012732383 0.5839027
        0.5337905 -0.012735941 0.584302 0.5420924 -0.012739102 0.5846739
        0.55011904 -0.01274185 0.585018 0.55784476 -0.012744176 0.58533424
        0.5652487 -0.012746085 0.58562315 0.5723149 -0.012747582 0.58588535
        0.579032 -0.012748682 0.5861218 0.5853932 -0.012749404 0.58633375
        0.5913958 -0.012749772 0.58652264 0.59704095 -0.012749823 0.58669
        0.60233295 -0.012749605 0.5868374 0.60727865 -0.012749209 0.58696663
        0.61188716 -0.012748787 0.5870793 0.6161687 -0.012748633 0.587177
        0.62013364 -0.012749242 0.58726126 0.6237916 -0.012751428 0.5873335
        0.6271502 -0.012756356 0.5873951 0.6302143 -0.01276545 0.5874471
        0.6329858 -0.012780154 0.58749056 0.63546467 -0.012802343 0.5875263
        0.63765526 -0.012838033 0.5875554 0.6395809 -0.012906426 0.58757824
        0.64129955 -0.013043353 0.5875955 0.6429121 -0.013284346 0.587608
        0.6445626 -0.013630826 0.587617 0.48018473 -0.012379907 0.5815415
        0.48936567 -0.012382035 0.58205926 0.49850878 -0.012383967 0.5825571
        0.50756764 -0.012385668 0.58303285 0.51649755 -0.012387095 0.5834846
        0.5252564 -0.012388208 0.5839107 0.5338053 -0.012388977 0.5843102
        0.54210943 -0.012389378 0.58468217 0.5501383 -0.012389397 0.5850263
        0.55786616 -0.012389025 0.5853427 0.5652721 -0.012388263 0.5856317
        0.5723401 -0.012387117 0.585894 0.5790589 -0.012385599 0.5861305
        0.58542156 -0.012383727 0.5863425 0.59142554 -0.012381525 0.58653146
        0.5970718 -0.012379026 0.58669883 0.60236466 -0.012376288 0.5868463
        0.6073109 -0.01237341 0.5869755 0.6119194 -0.012370592 0.58708817
        0.6161999 -0.012368196 0.5871858 0.62016225 -0.012366875 0.58727
        0.62381464 -0.012367688 0.5873422 0.627163 -0.012372151 0.58740354
        0.6302098 -0.012382091 0.5874553 0.63295454 -0.012399286 0.58749825
        0.63539594 -0.012425833 0.5875335 0.6375388 -0.012468136 0.5875618
        0.6394087 -0.01254628 0.58758396 0.64106286 -0.012698287 0.5876004
        0.6425984 -0.012968344 0.5876117 0.6441723 -0.013381028 0.5876188
        0.48018473 -0.012050141 0.58154845 0.48936817 -0.0120491125 0.5820664
        0.49851382 -0.012047898 0.5825644 0.5075752 -0.012046472 0.58304036
        0.5165077 -0.01204479 0.5834922 0.525269 -0.012042812 0.5839185
        0.5338203 -0.01204051 0.5843181 0.5421268 -0.0120378565 0.5846903
        0.5501579 -0.012034838 0.58503455 0.5578879 -0.012031446 0.58535105
        0.56529593 -0.012027678 0.58564013 0.5723659 -0.01202354 0.58590245
        0.5790864 -0.012019043 0.5861391 0.58545077 -0.0120142 0.58635116
        0.59145623 -0.012009033 0.5865401 0.5971037 -0.012003579 0.58670753
        0.60239756 -0.011997898 0.58685505 0.6073445 -0.011992106 0.5869843
        0.61195314 -0.011986441 0.58709687 0.6162329 -0.01198135 0.58719456
        0.62019277 -0.011977645 0.5872787 0.6238399 -0.011976645 0.5873507
        0.6271783 -0.011980237 0.58741194 0.63020843 -0.011990654 0.5874633
        0.63292783 -0.012009971 0.58750594 0.6353347 -0.012040363 0.5875406
        0.637435 -0.0120882 0.5875684 0.6392563 -0.012173393 0.5875899
        0.64085335 -0.012333961 0.5876057 0.6423139 -0.012619208 0.58761615
        0.6437932 -0.013076452 0.5876218 0.48018473 -0.011720371 0.5815551
        0.4893707 -0.011716082 0.5820733 0.4985189 -0.011711612 0.58257157
        0.50758284 -0.011706941 0.5830476 0.5165178 -0.0117020225 0.5834997
        0.52528167 -0.011696818 0.5839262 0.5338355 -0.011691299 0.5843259
        0.54214436 -0.011685438 0.58469814 0.5501778 -0.011679221 0.5850426
        0.5579101 -0.011672638 0.5853592 0.56532025 -0.011665685 0.5856484
        0.57239217 -0.011658366 0.5859108 0.5791146 -0.011650689 0.5861475
        0.58548075 -0.011642665 0.5863596 0.5914877 -0.011634315 0.5865486
        0.5971367 -0.011625676 0.58671606 0.60243165 -0.011616811 0.5868636
        0.60737944 -0.011607854 0.58699286 0.61198837 -0.011599081 0.5871055
        0.61626756 -0.011591028 0.58720315 0.62022525 -0.01158467 0.58728725
        0.6238674 -0.011581594 0.5873592 0.6271965 -0.011584064 0.5874202
        0.6302109 -0.011594708 0.5874713 0.6329068 -0.011615845 0.5875135
        0.6352824 -0.011649579 0.5875478 0.63734555 -0.011701866 0.587575
        0.6391252 -0.011791603 0.58759606 0.6406729 -0.0119550275 0.58761144
        0.6420641 -0.012242562 0.5876214 0.6434396 -0.012718821 0.58762604
        0.48018473 -0.0113905985 0.5815617 0.48937327 -0.011383078 0.58208007
        0.49852404 -0.011375384 0.58257854 0.5075906 -0.011367496 0.5830548
        0.5165281 -0.011359369 0.583507 0.5252945 -0.011350965 0.5839336
        0.53385085 -0.011342252 0.5843335 0.5421622 -0.011333207 0.5847059
        0.550198 -0.01132381 0.5850504 0.5579326 -0.011314052 0.58536714
        0.5653449 -0.011303931 0.5856564 0.572419 -0.011293442 0.5859189
        0.5791434 -0.011282594 0.58615565 0.58551127 -0.0112713985 0.58636785
        0.59151995 -0.0112598725 0.5865569 0.5971704 -0.011248052 0.5867244
        0.6024667 -0.011236003 0.586872 0.60741544 -0.01122388 0.58700126
        0.6120249 -0.011211993 0.5871139 0.61630374 -0.011200972 0.58721155
        0.6202596 -0.011191951 0.58729553 0.62389725 -0.011186786 0.5873674
        0.6272177 -0.011188105 0.5874283 0.6302176 -0.011198907 0.5874791
        0.6328924 -0.011221693 0.58752096 0.63524044 -0.011258351 0.5875548
        0.6372718 -0.011314097 0.58758163 0.63901675 -0.0114061935 0.5876023
        0.64052314 -0.011567767 0.58761746 0.6418537 -0.011846481 0.5876272
        0.6431269 -0.012317141 0.58763134 0.48018473 -0.011060821 0.58156806
        0.48937583 -0.011050178 0.5820866 0.4985292 -0.011039368 0.5825853
        0.5075984 -0.011028372 0.5830617 0.5165385 -0.011017146 0.58351403
        0.5253075 -0.011005653 0.58394086 0.53386635 -0.010993861 0.5843409
        0.5421802 -0.010981744 0.5847134 0.55021846 -0.010969286 0.58505803
        0.5579554 -0.010956474 0.5853749 0.56536996 -0.0109433 0.5856642
        0.57244617 -0.010929766 0.58592683 0.5791726 -0.010915873 0.58616364
        0.5855424 -0.010901631 0.58637583 0.59155285 -0.010887057 0.58656496
        0.59720486 -0.010872183 0.58673245 0.6025026 -0.010857084 0.5868801
        0.60745245 -0.010841924 0.5870094 0.6120626 -0.010827062 0.587122
        0.61634135 -0.010813205 0.5872196 0.62029564 -0.010801651 0.5873036
        0.6239294 -0.010794515 0.5873754 0.627242 -0.010794775 0.587436
        0.63022894 -0.010805769 0.5874867 0.63288486 -0.0108301155 0.58752817
        0.63520914 -0.010869365 0.58756167 0.6372138 -0.010927758 0.5875882
        0.6389304 -0.011020506 0.5876086 0.6404035 -0.011176811 0.5876236
        0.64168406 -0.011438415 0.5876334 0.64286405 -0.011880996 0.5876375
        0.48018473 -0.01073104 0.58157426 0.48937842 -0.010717449 0.582093
        0.4985344 -0.0107037015 0.5825918 0.5076062 -0.010689783 0.5830684
        0.516549 -0.010675648 0.58352095 0.5253206 -0.010661261 0.5839479
        0.533882 -0.010646589 0.584348 0.54219836 -0.010631606 0.5847207
        0.5502391 -0.010616294 0.5850654 0.5579784 -0.010600639 0.58538234
        0.56539524 -0.010584635 0.5856718 0.57247365 -0.010568277 0.58593446
        0.5792021 -0.010551566 0.58617127 0.5855739 -0.010534514 0.5863836
        0.59158623 -0.01051713 0.5865727 0.5972399 -0.0104994485 0.58674026
        0.6025391 -0.01048155 0.5868879 0.60749024 -0.010463614 0.5870172
        0.61210126 -0.010446033 0.58712983 0.6163801 -0.010429603 0.58722734
        0.6203332 -0.010415771 0.5873113 0.62396353 -0.010406903 0.587383
        0.62726927 -0.010406303 0.58744353 0.63024473 -0.010417615 0.5874939
        0.6328842 -0.010443515 0.5875352 0.6351882 -0.010485126 0.58756834
        0.6371711 -0.010545547 0.5875946 0.63886523 -0.010637714 0.58761483
        0.6403128 -0.010786526 0.5876298 0.6415548 -0.011025868 0.5876398
        0.6426569 -0.011422212 0.5876444 0.48018473 -0.010401256 0.5815803
        0.48938105 -0.010385013 0.5820992 0.4985397 -0.010368638 0.58259815
        0.50761414 -0.010352112 0.58307487 0.5165596 -0.010335395 0.58352757
        0.52533376 -0.01031845 0.58395463 0.53389776 -0.010301242 0.58435494
        0.54221666 -0.010283747 0.5847277 0.5502598 -0.010265945 0.5850726
        0.5580015 -0.010247824 0.58538955 0.5654207 -0.010229371 0.58567905
        0.57250124 -0.010210586 0.58594173 0.57923186 -0.010191466 0.58617866
        0.5856056 -0.010172017 0.586391 0.5916198 -0.0101522505 0.5865802
        0.59727526 -0.010132202 0.58674777 0.60257596 -0.010111953 0.58689535
        0.60752845 -0.010091699 0.5870246 0.6121404 -0.010071869 0.5871373
        0.61641955 -0.010053335 0.5872348 0.6203718 -0.010037687 0.5873187
        0.6239993 -0.010027522 0.5873903 0.62729913 -0.010026438 0.5874507
        0.63026464 -0.010038342 0.5875008 0.6328901 -0.010065917 0.5875419
        0.6351774 -0.010109799 0.5875748 0.6371429 -0.010171869 0.5876008
        0.63882005 -0.010262714 0.587621 0.64024925 -0.010402923 0.587636
        0.6414642 -0.010617882 0.58764625 0.64250857 -0.010958331 0.5876516
        0.48018473 -0.010071468 0.58158606 0.4893837 -0.010052965 0.58210516
        0.498545 -0.010034363 0.5826042 0.5076221 -0.010015646 0.5830812
        0.51657015 -0.009996771 0.583534 0.525347 -0.009977703 0.5839612
        0.53391355 -0.009958408 0.58436155 0.54223496 -0.009938861 0.58473444
        0.55028063 -0.009919041 0.58507943 0.55802464 -0.009898934 0.58539647
        0.56544614 -0.00987853 0.585686 0.5725289 -0.009857822 0.58594877
        0.5792616 -0.00983681 0.58618575 0.58563733 -0.0098154945 0.5863981
        0.59165335 -0.009793891 0.5865873 0.59731054 -0.009772027 0.58675486
        0.6026129 -0.009749995 0.58690244 0.6075667 -0.009727998 0.5870318
        0.61217976 -0.009706504 0.5871444 0.61645937 -0.0096864505 0.5872418
        0.62041104 -0.009669558 0.5873257 0.62403613 -0.009658629 0.58739716
        0.6273309 -0.009657526 0.58745736 0.63028806 -0.009670367 0.5875074
        0.63290185 -0.009699811 0.5875482 0.6351756 -0.009745975 0.5875809
        0.63712764 -0.009809514 0.5876068 0.6387927 -0.009898732 0.5876268
        0.6402099 -0.01003015 0.587642 0.6414082 -0.010220991 0.5876527
        0.64241546 -0.010503426 0.5876589 0.48018473 -0.009741678 0.58159167
        0.48938635 -0.009721393 0.58211094 0.4985503 -0.009701056 0.5826102
        0.50763005 -0.00968065 0.58308727 0.5165808 -0.009660135 0.5835402
        0.52536017 -0.009639471 0.5839675 0.53392935 -0.009618627 0.584368
        0.54225326 -0.009597577 0.58474094 0.5503013 -0.0095763 0.585086
        0.5580477 -0.009554779 0.58540314 0.5654714 -0.009533004 0.5856927
        0.5725564 -0.009510966 0.5859555 0.57929116 -0.009488665 0.5861925
        0.58566886 -0.009466098 0.58640486 0.59168667 -0.009443277 0.58659405
        0.5973456 -0.009420234 0.5867616 0.6026495 -0.009397059 0.58690923
        0.60760474 -0.009373972 0.58703846 0.6122188 -0.009351468 0.58715105
        0.616499 -0.009330545 0.5872485 0.6204503 -0.009313041 0.58733225
        0.62407357 -0.009301935 0.58740366 0.62736416 -0.009301313 0.58746374
        0.6303143 -0.009315469 0.58751357 0.63291854 -0.009347007 0.58755416
        0.63518155 -0.009395531 0.5875867 0.63712364 -0.009460522 0.58761245
        0.6387807 -0.009548157 0.5876325 0.64019126 -0.009671291 0.5876478
        0.64138174 -0.009839928 0.5876589 0.64237064 -0.010068267 0.58766603
        0.48018473 -0.0094118845 0.5815971 0.489389 -0.009390368 0.5821165
        0.49855563 -0.009368858 0.5826159 0.50763804 -0.009347335 0.5830931
        0.5165914 -0.0093257595 0.58354616 0.5253734 -0.009304089 0.5839736
        0.5339451 -0.009282294 0.5843742 0.54227144 -0.009260349 0.5847472
        0.55032194 -0.009238226 0.58509225 0.5580706 -0.009215913 0.58540946
        0.56549656 -0.009193394 0.58569914 0.5725836 -0.009170663 0.58596194
        0.5793204 -0.00914771 0.5861989 0.5857 -0.009124537 0.5864113
        0.5917196 -0.0091011515 0.5866005 0.59738016 -0.009077586 0.58676803
        0.60268563 -0.009053932 0.58691555 0.60764223 -0.009030419 0.5870448
        0.61225736 -0.009007566 0.5871573 0.61653817 -0.0089864265 0.5872547
        0.62048936 -0.008968936 0.5873384 0.6241111 -0.008958226 0.5874097
        0.6273984 -0.008958572 0.5874697 0.6303428 -0.008974403 0.58751935
        0.63293934 -0.009008255 0.5875598 0.63519406 -0.009059249 0.5875921
        0.6371291 -0.009125777 0.5876178 0.6387815 -0.009212095 0.5876379
        0.64018977 -0.009327885 0.58765334 0.6413794 -0.00947712 0.5876648
        0.6423652 -0.009658737 0.5876728 0.48018473 -0.009082087 0.58160233
        0.48939168 -0.009059954 0.58212185 0.49856097 -0.0090378905 0.58262146
        0.507646 -0.009015876 0.5830987 0.516602 -0.008993867 0.5835519
        0.5253865 -0.008971825 0.58397937 0.5339607 -0.0089497175 0.5843801
        0.5422895 -0.008927513 0.58475316 0.5503423 -0.008905189 0.58509827
        0.55809325 -0.0088827275 0.58541554 0.56552136 -0.008860111 0.5857052
        0.5726105 -0.00883733 0.585968 0.5793492 -0.008814376 0.586205
        0.5857306 -0.008791244 0.5864174 0.591752 -0.008767941 0.5866065
        0.5974142 -0.008744498 0.58677405 0.6027211 -0.008721008 0.5869216
        0.60767895 -0.008697708 0.58705074 0.6122952 -0.0086751385 0.5871632
        0.6165767 -0.0086544 0.58726054 0.62052786 -0.008637507 0.58734417
        0.62414855 -0.008627721 0.58741534 0.6274331 -0.00862947 0.5874752
        0.630373 -0.008647299 0.5875247 0.63296354 -0.008683659 0.587565
        0.63521206 -0.008737236 0.5875973 0.63714254 -0.008805441 0.5876229
        0.638793 -0.008890843 0.58764297 0.64020234 -0.009000448 0.5876586
        0.6413966 -0.009133446 0.58767045 0.6423906 -0.009277091 0.58767927
        0.48018473 -0.008752287 0.5816074 0.48939434 -0.008730202 0.5821271
        0.4985663 -0.00870825 0.5826267 0.507654 -0.0086864075 0.58310413
        0.5166125 -0.00866463 0.5835574 0.5253996 -0.008642877 0.583985
        0.53397626 -0.008621114 0.58438575 0.54230744 -0.008599307 0.5847589
        0.5503625 -0.008577432 0.58510405 0.55811566 -0.008555466 0.58542126
        0.56554586 -0.008533393 0.585711 0.57263696 -0.008511198 0.5859738
        0.57937753 -0.008488868 0.5862108 0.5857607 -0.0084664 0.5864231
        0.59178376 -0.008443794 0.5866122 0.59744745 -0.008421083 0.5867798
        0.6027558 -0.008398358 0.58692724 0.60771495 -0.008375863 0.58705634
        0.6123322 -0.008354156 0.58716875 0.6166144 -0.008334372 0.587266
        0.6205657 -0.008318599 0.58734953 0.6241857 -0.0083102 0.5874206
        0.62746817 -0.008313732 0.58748037 0.6304046 -0.008333825 0.5875298
        0.63299054 -0.008372855 0.58756995 0.63523465 -0.008429117 0.58760214
        0.6371625 -0.00849916 0.58762765 0.63881326 -0.008584103 0.5876478
        0.6402265 -0.008688749 0.5876636 0.6414291 -0.008808681 0.58767575
        0.6424393 -0.008923056 0.5876853 0.48018473 -0.008422486 0.5816122
        0.48939702 -0.0084011555 0.58213204 0.4985716 -0.008380019 0.5826318
        0.50766194 -0.008359043 0.5831093 0.516623 -0.008338182 0.5835627
        0.52541256 -0.008317393 0.58399034 0.53399163 -0.008296638 0.5843911
        0.54232514 -0.008275881 0.5847643 0.5503825 -0.008255096 0.5851095
        0.5581378 -0.008234258 0.5854268 0.56557 -0.008213345 0.5857165
        0.57266295 -0.008192342 0.5859793 0.57940537 -0.008171232 0.5862162
        0.5857903 -0.008150009 0.5864286 0.5918149 -0.008128673 0.58661765
        0.59748 -0.00810725 0.5867851 0.6027897 -0.008085834 0.5869325
        0.60775006 -0.008064675 0.5870615 0.61236835 -0.008044342 0.58717394
        0.61665124 -0.008026002 0.5872711 0.62060285 -0.008011798 0.58735454
        0.62422234 -0.008005181 0.58742553 0.6275034 -0.008010811 0.5874852
        0.6304372 -0.008033385 0.5875345 0.63301986 -0.00807521 0.5875746
        0.6352612 -0.008134238 0.58760667 0.63718814 -0.008206288 0.5876321
        0.6388409 -0.008291234 0.5876523 0.64026 -0.008392116 0.5876683
        0.641474 -0.008501948 0.5876808 0.6425053 -0.008594967 0.5876909
        0.48018473 -0.008092679 0.58161694 0.4893997 -0.008072863 0.58213687
        0.49857694 -0.008053278 0.5826367 0.5076698 -0.008033888 0.5831143
        0.51663345 -0.008014646 0.58356774 0.5254255 -0.007995505 0.58399546
        0.5340069 -0.007976423 0.58439624 0.54234266 -0.0079573635 0.5847695
        0.55040216 -0.007938297 0.5851147 0.55815953 -0.007919196 0.585432
        0.5655937 -0.007900037 0.5857217 0.5726885 -0.0078807995 0.58598447
        0.57943267 -0.007861467 0.5862214 0.5858192 -0.0078420285 0.5864337
        0.5918453 -0.007822482 0.5866228 0.5975118 -0.007802852 0.58679014
        0.6028228 -0.007783235 0.5869375 0.6077843 -0.0077638803 0.5870665
        0.6124036 -0.0077453703 0.58717877 0.61668724 -0.007728898 0.58727586
        0.6206392 -0.007716649 0.58735925 0.6242585 -0.0077121467 0.5874301
        0.6275387 -0.0077201324 0.5874897 0.6304707 -0.0077453577 0.5875389
        0.6330512 -0.00779007 0.5875789 0.635291 -0.007851935 0.5876109
        0.6372184 -0.0079261465 0.5876364 0.6388747 -0.008011546 0.5876566
        0.6403012 -0.008109776 0.5876727 0.64152855 -0.008212182 0.5876855
        0.6425837 -0.0082907295 0.58769614 0.48018473 -0.0077628717 0.58162147
        0.48940235 -0.0077453586 0.58214146 0.49858224 -0.007728088 0.5826414
        0.50767773 -0.007711021 0.5831191 0.5166438 -0.007694105 0.58357257
        0.52543825 -0.007677292 0.5840003 0.53402203 -0.007660538 0.5844012
        0.54236 -0.007643805 0.58477443 0.55042166 -0.0076270606 0.58511966
        0.558181 -0.007610275 0.58543694 0.565617 -0.0075934236 0.5857266
        0.5727137 -0.0075764842 0.5859894 0.5794594 -0.0075594382 0.5862263
        0.5858475 -0.0075422726 0.58643854 0.591875 -0.0075249835 0.58662754
        0.5975429 -0.0075075957 0.58679485 0.602855 -0.007490204 0.58694214
        0.60781765 -0.0074730627 0.58707106 0.61243784 -0.007456762 0.5871833
        0.61672235 -0.007442515 0.58728033 0.6206748 -0.0074325446 0.58736366
        0.62429416 -0.0074304296 0.5874345 0.62757385 -0.007440977 0.5874939
        0.6305049 -0.0074689845 0.5875431 0.63308424 -0.0075166486 0.58758295
        0.63532364 -0.007581398 0.58761495 0.6372527 -0.007657908 0.5876404
        0.6389137 -0.0077441717 0.5876607 0.6403488 -0.0078407535 0.58767694
        0.6415907 -0.007938057 0.58769 0.64267105 -0.008007922 0.58770096
        0.48018473 -0.0074330615 0.58162576 0.48940504 -0.007418729 0.58214587
        0.49858755 -0.007404609 0.5826459 0.50768554 -0.007390656 0.5831236
        0.51665413 -0.0073768185 0.58357716 0.52545094 -0.0073630465 0.584005
        0.53403693 -0.007349298 0.5844059 0.5423771 -0.0073355343 0.58477914
        0.5504408 -0.0073217195 0.5851244 0.558202 -0.007307828 0.58544165
        0.5656399 -0.0072938306 0.58573127 0.57273823 -0.0072797076 0.58599406
        0.5794856 -0.007265439 0.58623093 0.5858751 -0.007251011 0.5864431
        0.591904 -0.00723642 0.5866321 0.59757316 -0.0072216894 0.5867993
        0.60288644 -0.007206917 0.58694655 0.6078501 -0.0071923593 0.5870754
        0.6124712 -0.0071786144 0.5871875 0.61675644 -0.007166912 0.5872845
        0.62070954 -0.0071595036 0.5873677 0.6243292 -0.0071600107 0.58743846
        0.62760884 -0.0071732965 0.5874979 0.6305395 -0.007204192 0.58754694
        0.63311857 -0.0072548566 0.58758676 0.6353586 -0.007322527 0.5876187
        0.63729024 -0.007401464 0.58764416 0.63895684 -0.0074889823 0.58766454
        0.6404014 -0.0075848354 0.58768094 0.64165866 -0.0076790815 0.5876942
        0.64276415 -0.007745188 0.5877055 0.48018473 -0.0071032485 0.5816299
        0.48940772 -0.0070929546 0.58215004 0.49859282 -0.0070827887 0.5826502
        0.50769335 -0.0070727025 0.583128 0.5166643 -0.0070626475 0.58358157
        0.5254635 -0.0070525776 0.5840094 0.5340517 -0.0070424518 0.5844103
        0.542394 -0.0070322333 0.5847836 0.5504596 -0.007021892 0.58512884
        0.5582228 -0.0070113987 0.58544606 0.5656624 -0.0070007313 0.58573574
        0.57276237 -0.006989868 0.5859985 0.5795112 -0.0069787917 0.5862352
        0.58590215 -0.00696749 0.5864474 0.59193236 -0.0069559608 0.5866363
        0.59760267 -0.0069442294 0.5868035 0.6029171 -0.0069323936 0.58695066
        0.60788167 -0.006920717 0.58707947 0.6125037 -0.006909803 0.5871915
        0.61678976 -0.0069008935 0.58728844 0.62074345 -0.0068962635 0.5873716
        0.62436366 -0.0068995696 0.5874422 0.62764364 -0.006915718 0.5875016
        0.6305745 -0.0069495686 0.5875506 0.6331541 -0.0070032505 0.5875904
        0.6353955 -0.0070738522 0.5876223 0.6373307 -0.0071553118 0.58764774
        0.6390036 -0.0072444035 0.5876682 0.6404582 -0.0073402873 0.5876847
        0.64173126 -0.0074331244 0.58769816 0.6428614 -0.0074993684 0.5877097
        0.48018473 -0.0067734327 0.5816338 0.4894104 -0.006768406 0.58215404
        0.49859807 -0.00676332 0.58265424 0.5077011 -0.006758138 0.5831321
        0.51667446 -0.006752821 0.58358574 0.52547586 -0.006747332 0.5840136
        0.5340662 -0.0067416388 0.58441454 0.5424105 -0.006735713 0.5847878
        0.5504781 -0.006729531 0.5851331 0.558243 -0.006723072 0.5854503
        0.56568426 -0.006716318 0.58573985 0.5727858 -0.006709254 0.5860025
        0.5795361 -0.006701869 0.58623934 0.5859283 -0.0066941534 0.5864514
        0.5919597 -0.0066861096 0.58664024 0.59763116 -0.006677769 0.5868074
        0.6029465 -0.006669233 0.58695453 0.60791206 -0.0066607683 0.5870832
        0.612535 -0.0066529866 0.5871952 0.61682177 -0.0066471426 0.587292
        0.62077624 -0.0066455286 0.5873751 0.6243971 -0.0066518276 0.58744574
        0.62767774 -0.006670979 0.587505 0.63060933 -0.0067078667 0.5875539
        0.63319 -0.0067645996 0.5875937 0.6354336 -0.0068381606 0.5876256
        0.63737285 -0.0069222553 0.58765113 0.63905245 -0.0070132706 0.5876716
        0.64051735 -0.0071099647 0.5876882 0.641806 -0.0072029103 0.58770186
        0.64295936 -0.007272934 0.58771366 0.48018473 -0.0064436165 0.58163756
        0.48941305 -0.0064446055 0.5821579 0.4986033 -0.006445281 0.5826582
        0.5077088 -0.006445619 0.583136 0.51668453 -0.0064455983 0.58358973
        0.52548814 -0.0064451965 0.5840176 0.5340806 -0.0064443974 0.58441854
        0.5424269 -0.006443184 0.58479184 0.5504963 -0.006441543 0.585137
        0.55826294 -0.0064394656 0.5854542 0.56570584 -0.006436943 0.58574384
        0.57280886 -0.0064339684 0.58600646 0.5795605 -0.006430538 0.5862432
        0.585954 -0.0064266506 0.5864553 0.5919866 -0.006422314 0.58664405
        0.59765905 -0.0064175655 0.5868111 0.6029754 -0.0064125126 0.58695817
        0.60794187 -0.006407428 0.5870868 0.61256564 -0.006402931 0.58719873
        0.61685324 -0.006400284 0.5872955 0.6208085 -0.006401794 0.5873785
        0.62443024 -0.0064111645 0.587449 0.6277118 -0.0064333607 0.5875082
        0.6306446 -0.0064732865 0.58755714 0.633227 -0.0065330393 0.5875969
        0.63547343 -0.0066095227 0.5876288 0.6374174 -0.006696281 0.58765435
        0.63910425 -0.0067894156 0.58767486 0.6405798 -0.0068874033 0.5876916
        0.6418841 -0.00698146 0.58770543 0.6430596 -0.0070575555 0.5877173
        0.48018473 -0.0061137965 0.5816411 0.48941576 -0.006120173 0.58216155
        0.49860862 -0.0061260415 0.58266187 0.50771654 -0.0061313896 0.58313984
        0.51669466 -0.0061362074 0.58359355 0.5255006 -0.0061404826 0.58402145
        0.5340952 -0.006144206 0.58442247 0.5424435 -0.006147371 0.5847957
        0.5505148 -0.0061499737 0.58514094 0.5582833 -0.006152008 0.58545816
        0.5657279 -0.006153476 0.5857477 0.5728324 -0.0061543747 0.58601034
        0.57958555 -0.006154705 0.586247 0.58598036 -0.006154471 0.586459
        0.59201413 -0.006153687 0.58664775 0.5976877 -0.0061523924 0.58681476
        0.6030052 -0.006150699 0.58696175 0.60797256 -0.0061488845 0.5870903
        0.6125972 -0.0061475714 0.5872022 0.6168858 -0.0061480263 0.58729887
        0.620842 -0.006152564 0.58738184 0.62446487 -0.0061649024 0.5874523
        0.6277479 -0.00619002 0.5875115 0.6306825 -0.00623284 0.58756036
        0.6332674 -0.0062954514 0.58760005 0.6355176 -0.006374699 0.587632
        0.6374672 -0.0064639985 0.5876576 0.6391624 -0.006559205 0.58767825
        0.64064974 -0.006658584 0.58769506 0.6419708 -0.0067542703 0.58770907
        0.6431692 -0.0068370644 0.58772105 0.48018473 -0.005783975 0.5816445
        0.48941848 -0.005794642 0.582165 0.49861395 -0.0058047036 0.58266544
        0.50772446 -0.0058141486 0.5831435 0.51670504 -0.005822969 0.58359724
        0.52551323 -0.005831158 0.58402526 0.5341101 -0.005838708 0.5844263
        0.54246056 -0.005845615 0.5847996 0.5505339 -0.0058518783 0.5851448
        0.55830425 -0.0058574956 0.585462 0.5657506 -0.0058624684 0.5857516
        0.5728568 -0.005866797 0.58601415 0.5796115 -0.005870486 0.58625084
        0.5860077 -0.0058735404 0.5864628 0.59204286 -0.0058759754 0.58665144
        0.5977177 -0.005877833 0.5868184 0.6030363 -0.0058792243 0.5869653
        0.6080048 -0.0058804294 0.5870939 0.6126305 -0.005882069 0.58720565
        0.6169201 -0.0058854106 0.5873023 0.6208776 -0.005892767 0.5873852
        0.624502 -0.0059078555 0.58745563 0.62778693 -0.005935664 0.58751476
        0.6307242 -0.0059811245 0.58756363 0.6333126 -0.0060463245 0.5876034
        0.6355677 -0.006128066 0.58763534 0.6375243 -0.0062196655 0.58766097
        0.63922924 -0.0063167587 0.5876817 0.64073 -0.006417465 0.5876987
        0.6420696 -0.0065151146 0.5877128 0.6432922 -0.006604502 0.58772504
        0.48018473 -0.0054541524 0.58164763 0.4894212 -0.0054682842 0.58216834
        0.49861935 -0.0054817726 0.58266884 0.50773245 -0.005494603 0.583147
        0.5167155 -0.005506767 0.5836009 0.52552617 -0.005518256 0.5840289
        0.5341253 -0.0055290656 0.58443 0.54247797 -0.0055391905 0.5848033
        0.55055344 -0.005548627 0.5851486 0.55832577 -0.005557377 0.5854658
        0.56577396 -0.0055654394 0.58575535 0.5728819 -0.0055728154 0.5860179
        0.57963824 -0.00557951 0.5862546 0.586036 -0.005585526 0.5864665
        0.59207255 -0.00559088 0.58665514 0.59774876 -0.0055956133 0.5868221
        0.6030686 -0.0055998373 0.58696896 0.6080383 -0.005603827 0.5870974
        0.6126652 -0.005608202 0.58720917 0.6169561 -0.005614221 0.5873058
        0.62091506 -0.005624188 0.5873886 0.62454134 -0.005641807 0.58745897
        0.6278289 -0.00567206 0.5875181 0.6307696 -0.005719884 0.587567
        0.6333626 -0.00578737 0.5876067 0.6356238 -0.005871301 0.58763874
        0.6375888 -0.005964928 0.5876645 0.639305 -0.006063709 0.58768535
        0.64082074 -0.0061657117 0.58770245 0.6421803 -0.0062656202 0.5877168
        0.64342815 -0.006361764 0.5877291 0.48018473 -0.0051243277 0.5816507
        0.48942396 -0.0051410827 0.5821715 0.49862477 -0.0051572025 0.5826721
        0.5077405 -0.005172669 0.5831503 0.51672614 -0.0051874705 0.5836043
        0.5255393 -0.0052015986 0.5840324 0.5341408 -0.0052150437 0.58443356
        0.5424958 -0.0052278005 0.584807 0.5505734 -0.0052398643 0.58515227
        0.55834776 -0.0052512325 0.5854695 0.565798 -0.0052619036 0.58575904
        0.57290775 -0.005271879 0.58602166 0.57966584 -0.005281158 0.5862583
        0.5860653 -0.0052897455 0.5864702 0.59210336 -0.0052976543 0.58665884
        0.59778094 -0.0053049256 0.5868257 0.6031022 -0.005311665 0.58697253
        0.60807323 -0.0053181467 0.587101 0.61270154 -0.005324979 0.5872126
        0.6169939 -0.005333407 0.5873092 0.62095463 -0.0053457133 0.587392
        0.6245833 -0.005365576 0.58746237 0.6278741 -0.005397954 0.5875215
        0.6308192 -0.005447779 0.58757037 0.633418 -0.0055171554 0.5876102
        0.63568693 -0.005602871 0.5876422 0.63766193 -0.0056981524 0.58766806
        0.6393911 -0.0057983296 0.58768904 0.6409237 -0.005901513 0.5877063
        0.64230496 -0.006003855 0.5877209 0.6435792 -0.006106591 0.5877334
        0.48018473 -0.004794501 0.5816535 0.48942673 -0.00481311 0.5821744
        0.4986303 -0.0048311246 0.58267516 0.50774866 -0.004848524 0.58315355
        0.5167369 -0.0048652925 0.5836076 0.5255526 -0.004881419 0.5840358
        0.5341566 -0.004896891 0.584437 0.5425139 -0.0049117 0.5848105
        0.5505938 -0.00492584 0.58515584 0.55837035 -0.0049393056 0.5854731
        0.5658226 -0.004952092 0.5857627 0.5729344 -0.0049641975 0.5860253
        0.5796943 -0.0049756216 0.5862619 0.58609545 -0.004986364 0.5864738
        0.5921352 -0.0049964357 0.5866624 0.59781444 -0.0050058747 0.5868293
        0.60313714 -0.0050147832 0.58697605 0.60810965 -0.0050234273 0.58710444
        0.61273944 -0.0050324025 0.58721614 0.61703354 -0.005042934 0.58731264
        0.6209964 -0.0050572674 0.58739537 0.6246279 -0.0050790366 0.58746576
        0.6279227 -0.005113159 0.5875249 0.6308734 -0.0051645497 0.58757377
        0.6334795 -0.005235333 0.58761364 0.63575774 -0.0053223358 0.5876458
        0.63774455 -0.0054188035 0.5876718 0.6394887 -0.005519996 0.5876929
        0.6410401 -0.0056241713 0.58771044 0.6424449 -0.0057289856 0.58772516
        0.6437466 -0.0058379713 0.58773786 0.48018473 -0.0044646724 0.5816561
        0.4894295 -0.004484419 0.58217716 0.49863583 -0.0045036334 0.58267814
        0.50775695 -0.004522291 0.58315665 0.51674783 -0.004540375 0.5836108
        0.5255661 -0.004557871 0.5840391 0.53417265 -0.004574764 0.58444035
        0.5425324 -0.004591043 0.5848139 0.55061466 -0.0046067 0.5851593
        0.5583935 -0.0046217246 0.58547664 0.5658479 -0.0046361117 0.58576626
        0.5729617 -0.004649856 0.5860289 0.5797236 -0.004662953 0.5862655
        0.5861266 -0.004675401 0.5864774 0.59216815 -0.004687209 0.586666
        0.5978491 -0.004698408 0.5868328 0.60317343 -0.0047090985 0.58697957
        0.6081476 -0.0047195335 0.58710796 0.6127791 -0.0047302935 0.58721954
        0.6170751 -0.0047425735 0.587316 0.62104046 -0.0047585694 0.58739877
        0.6246754 -0.0047818483 0.5874691 0.62797505 -0.0048172614 0.5875283
        0.6309325 -0.004869692 0.5875773 0.6335476 -0.0049412926 0.5876172
        0.63583714 -0.0050289636 0.5876495 0.63783795 -0.0051260255 0.58767563
        0.6395993 -0.005227736 0.58769697 0.64117175 -0.0053326003 0.5877146
        0.6426019 -0.005439737 0.5877296 0.6439324 -0.005554304 0.5877425
        0.48018473 -0.004134843 0.58165854 0.4894323 -0.0041550687 0.5821798
        0.4986414 -0.0041748374 0.5826808 0.5077653 -0.0041941213 0.5831595
        0.51675886 -0.0042129024 0.5836138 0.5255798 -0.004231163 0.5840422
        0.534189 -0.0042488873 0.58444357 0.5425512 -0.004266063 0.5848172
        0.55063593 -0.0042826775 0.5851627 0.55841714 -0.0042987205 0.58548003
        0.5658738 -0.0043141837 0.58576965 0.5729898 -0.0043290583 0.58603233
        0.57975376 -0.0043433383 0.58626896 0.5861588 -0.0043570204 0.58648086
        0.59220225 -0.0043701082 0.58666945 0.59788495 -0.0043826303 0.5868363
        0.6032111 -0.0043946803 0.586983 0.6081871 -0.0044065 0.58711135
        0.61282045 -0.0044186492 0.58722293 0.61711866 -0.004432279 0.5873194
        0.62108684 -0.004449523 0.5874021 0.6247258 -0.0044738557 0.5874725
        0.6280314 -0.0045100297 0.5875317 0.63099706 -0.004562876 0.58758074
        0.633623 -0.0046345834 0.58762085 0.63592607 -0.0047221696 0.5876533
        0.6379434 -0.0048190923 0.5876796 0.63972443 -0.004920681 0.58770114
        0.6413204 -0.0050257817 0.5877191 0.64277804 -0.0051348507 0.5877343
        0.6441385 -0.0052539594 0.58774734 0.48018473 -0.0038050124 0.5816608
        0.4894351 -0.0038251185 0.5821822 0.498647 -0.003844847 0.58268344
        0.5077737 -0.003864168 0.5831622 0.51677006 -0.0038830624 0.5836166
        0.5255937 -0.0039015121 0.5840452 0.53420556 -0.0039195013 0.58444667
        0.5425704 -0.0039370144 0.58482033 0.55065763 -0.003954039 0.58516586
        0.5584413 -0.003970562 0.5854833 0.5659003 -0.003986574 0.585773
        0.5730186 -0.004002065 0.58603567 0.57978475 -0.0040170257 0.58627236
        0.5861919 -0.0040314514 0.58648425 0.59223735 -0.004045343 0.58667284
        0.5979221 -0.0040587257 0.5868397 0.60325015 -0.0040716855 0.58698636
        0.6082281 -0.0040844507 0.5871147 0.61286354 -0.0040975544 0.5872263
        0.61716425 -0.0041120974 0.5873227 0.6211357 -0.004130127 0.58740544
        0.62477946 -0.004154995 0.58747584 0.6280919 -0.004191322 0.5875351
        0.6310674 -0.0042438577 0.58758426 0.63370633 -0.00431483 0.58762455
        0.6360256 -0.004401423 0.58765715 0.63806224 -0.004497302 0.5876837
        0.639866 -0.0045979586 0.5877055 0.6414882 -0.0047026444 0.5877236
        0.64297545 -0.004812947 0.5877391 0.6443673 -0.0049351067 0.5877524
        0.48018473 -0.0034751801 0.5816629 0.48943794 -0.003494627 0.58218443
        0.4986527 -0.0035137725 0.5826858 0.50778216 -0.003532587 0.58316475
        0.5167814 -0.0035510527 0.5836193 0.5256078 -0.003569151 0.584048
        0.53422236 -0.0035868657 0.5844495 0.5425899 -0.003604181 0.5848233
        0.55067974 -0.003621084 0.58516896 0.5584659 -0.0036375616 0.5854865
        0.5659274 -0.0036536022 0.5857762 0.57304806 -0.0036691953 0.5860389
        0.5798166 -0.003684331 0.58627564 0.5862259 -0.0036990026 0.58648753
        0.5922736 -0.003713209 0.5866761 0.5979604 -0.0037269723 0.58684295
        0.60329056 -0.0037403705 0.58698964 0.6082706 -0.0037536176 0.58711797
        0.6129084 -0.003767213 0.58722955 0.6172119 -0.003782195 0.58732593
        0.6211871 -0.0038005044 0.5874087 0.62483627 -0.0038253355 0.5874791
        0.62815684 -0.00386113 0.5875385 0.631144 -0.003912519 0.5875878
        0.63379836 -0.0039817723 0.58762825 0.63613683 -0.004066289 0.5876611
        0.6381962 -0.0041600275 0.5876879 0.6400259 -0.0042587323 0.58770996
        0.6416775 -0.0043620975 0.5877284 0.64319676 -0.004472549 0.5877441
        0.6446214 -0.0045957547 0.58775765 0.48018473 -0.003145347 0.58166474
        0.4894408 -0.00316365 0.5821865 0.4986584 -0.0031817218 0.58268803
        0.50779074 -0.003199535 0.5831671 0.5167928 -0.0032170722 0.5836218
        0.525622 -0.0032343164 0.5840506 0.53423935 -0.0032512513 0.5844523
        0.54260963 -0.0032678628 0.5848262 0.55070215 -0.003284137 0.5851719
        0.558491 -0.0033000617 0.58548945 0.56595504 -0.003315625 0.58577925
        0.5730782 -0.0033308167 0.58604205 0.5798491 -0.0033456262 0.58627874
        0.58626086 -0.0033600463 0.5864907 0.5923108 -0.0033740746 0.58667934
        0.5979999 -0.0033877296 0.5868461 0.6033323 -0.003401083 0.5869928
        0.60831463 -0.0034143303 0.5871211 0.612955 -0.0034279318 0.58723265
        0.6172615 -0.0034428525 0.5873291 0.6212409 -0.0034609 0.5874119
        0.62489635 -0.0034850712 0.5874824 0.6282263 -0.0035195746 0.5875418
        0.6312271 -0.003568874 0.58759135 0.6338998 -0.003635269 0.587632
        0.6362609 -0.0037164327 0.58766514 0.6383468 -0.00380671 0.5876922
        0.6402065 -0.003902189 0.58771455 0.6418909 -0.004003006 0.5877333
        0.6434448 -0.0041120537 0.5877493 0.6449037 -0.004233735 0.5877632
        0.48018473 -0.0028155127 0.5816664 0.48944363 -0.0028322407 0.58218837
        0.4986641 -0.0028487986 0.58269006 0.5077993 -0.002865163 0.5831693
        0.5168043 -0.0028813162 0.5836241 0.5256364 -0.0028972442 0.58405304
        0.5342566 -0.0029129316 0.58445483 0.54262966 -0.0029283653 0.58482885
        0.550725 -0.002943533 0.5851747 0.5585165 -0.0029584235 0.5854923
        0.56598324 -0.0029730257 0.5857822 0.573109 -0.0029873291 0.58604497
        0.5798824 -0.0030013246 0.5862818 0.5862966 -0.003015004 0.58649373
        0.592349 -0.003028366 0.5866823 0.59804046 -0.0030414255 0.5868492
        0.60337526 -0.003054246 0.5869959 0.60836005 -0.0030670038 0.58712417
        0.6130032 -0.0030801147 0.5872357 0.61731315 -0.003094454 0.5873321
        0.6212973 -0.0031116707 0.587415 0.6249597 -0.003134518 0.58748555
        0.6283005 -0.0031669054 0.5875451 0.6313171 -0.0032130636 0.5875948
        0.6340113 -0.0032753034 0.58763576 0.6363992 -0.0033516234 0.58766925
        0.6385161 -0.0034368592 0.5876967 0.64041024 -0.0035275337 0.5877194
        0.6421314 -0.0036241706 0.58773845 0.6437227 -0.0037297048 0.5877548
        0.6452175 -0.003846702 0.58776885 0.48018473 -0.0024856776 0.58166796
        0.4894465 -0.002500449 0.58219004 0.49866986 -0.0025151016 0.5826919
        0.507808 -0.0025296141 0.5831713 0.51681584 -0.0025439723 0.5836263
        0.5256509 -0.0025581638 0.5840553 0.534274 -0.0025721749 0.5844573
        0.5426499 -0.0025859943 0.58483136 0.55074805 -0.0025996116 0.58517724
        0.5585424 -0.0026130164 0.585495 0.56601185 -0.0026261997 0.5857849
        0.5731403 -0.0026391519 0.58604777 0.57991636 -0.0026518656 0.5862846
        0.5863332 -0.0026643332 0.5864966 0.5923881 -0.0026765526 0.58668524
        0.59808207 -0.0026885378 0.5868521 0.6034194 -0.0027003435 0.58699876
        0.6084069 -0.002712123 0.5871271 0.613053 -0.0027242426 0.5872386
        0.61736673 -0.0027374723 0.5873351 0.62135607 -0.0027532727 0.58741796
        0.6250264 -0.0027741005 0.5874886 0.62837946 -0.002803491 0.5875483
        0.63141435 -0.0028453567 0.5875982 0.63413364 -0.0029019758 0.5876395
        0.636553 -0.002971724 0.5876734 0.63870627 -0.0030500398 0.5877012
        0.64064014 -0.003133959 0.58772427 0.64240247 -0.003224285 0.58774376
        0.6440343 -0.003323553 0.5877604 0.6455664 -0.0034321279 0.5877747
        0.48018473 -0.0021558418 0.5816693 0.48944938 -0.0021683208 0.5821915
        0.49867567 -0.002180721 0.5826936 0.50781673 -0.0021930246 0.5831731
        0.5168276 -0.0022052196 0.58362824 0.5256655 -0.002217295 0.5840574
        0.53429157 -0.002229241 0.5844595 0.5426704 -0.0022410473 0.5848337
        0.5507715 -0.0022527054 0.5851797 0.55856866 -0.0022642077 0.5854975
        0.56604093 -0.002275546 0.5857875 0.57317215 -0.0022867133 0.5860504
        0.579951 -0.0022977032 0.58628726 0.58637047 -0.0023085098 0.58649933
        0.592428 -0.0023191317 0.586688 0.5981247 -0.0023295805 0.5868548
        0.6034647 -0.0023399019 0.58700156 0.60845506 -0.002350226 0.5871299
        0.6131044 -0.002360859 0.5872414 0.6174221 -0.0023724525 0.58733785
        0.62141716 -0.0023862452 0.58742076 0.6250964 -0.00240434 0.5874915
        0.62846327 -0.0024298078 0.5875514 0.6315191 -0.0024661336 0.5876016
        0.63426757 -0.0025154932 0.58764327 0.6367238 -0.0025766764 0.5876776
        0.6389197 -0.0026458423 0.58770585 0.6408994 -0.0027205998 0.5877294
        0.6427081 -0.002801875 0.58774924 0.64438385 -0.0028914018 0.5877662
        0.6459545 -0.0029873035 0.5877808 0.48018473 -0.0018260052 0.58167034
        0.48945224 -0.0018358987 0.58219284 0.4986815 -0.0018457416 0.58269507
        0.50782555 -0.00185552 0.5831747 0.5168393 -0.0018652243 0.58362997
        0.5256803 -0.0018748458 0.5840593 0.53430927 -0.0018843767 0.5844615
        0.5426912 -0.0018938099 0.58483577 0.55079514 -0.0019031384 0.5851819
        0.55859524 -0.0019123565 0.58549976 0.5660704 -0.0019214585 0.58578986
        0.5732045 -0.0019304393 0.58605283 0.57998616 -0.0019392943 0.58628976
        0.58640844 -0.0019480195 0.58650184 0.5924688 -0.0019566144 0.58669055
        0.59816825 -0.0019650888 0.5868574 0.6035111 -0.0019734788 0.5870041
        0.6085044 -0.0019818863 0.5871324 0.61315715 -0.0019905535 0.58724403
        0.61747926 -0.0019999947 0.5873405 0.6214805 -0.002011194 0.58742344
        0.62516946 -0.0020258368 0.58749425 0.62855184 -0.002046423 0.5875544
        0.63163143 -0.002075875 0.5876049 0.6344137 -0.0021161553 0.58764696
        0.6369133 -0.00216648 0.5876818 0.6391594 -0.0022238446 0.5877106
        0.64119226 -0.002286468 0.58773464 0.6430532 -0.0023552044 0.5877549
        0.6447762 -0.0024307345 0.58777213 0.6463862 -0.0025093427 0.5877869
        0.48018473 -0.001496168 0.5816713 0.48945513 -0.0015032213 0.582194
        0.49868733 -0.0015102414 0.5826963 0.5078343 -0.0015172176 0.58317614
        0.5168511 -0.0015241432 0.5836316 0.52569515 -0.0015310118 0.58406097
        0.53432715 -0.0015378175 0.5844633 0.54271203 -0.0015445558 0.58483773
        0.550819 -0.0015512218 0.5851839 0.5586221 -0.0015578117 0.5855019
        0.56610024 -0.0015643223 0.58579206 0.57323724 -0.0015707506 0.5860551
        0.5800218 -0.0015770937 0.586292 0.586447 -0.0015833502 0.58650416
        0.5925102 -0.00158952 0.58669287 0.5982126 -0.0015956108 0.58685976
        0.6035584 -0.0016016485 0.5870065 0.6085549 -0.0016077051 0.58713484
        0.6132113 -0.0016139501 0.5872464 0.61753803 -0.0016207439 0.5873429
        0.62154603 -0.0016287799 0.58742595 0.6252456 -0.0016392578 0.58749694
        0.6286451 -0.0016539873 0.58755726 0.6317516 -0.0016751526 0.5876081
        0.6345729 -0.0017043387 0.5876506 0.6371233 -0.0017411585 0.587686
        0.63942856 -0.0017835498 0.58771545 0.6415234 -0.0018303489 0.58774
        0.6434433 -0.0018821505 0.5877607 0.64521724 -0.0019386121 0.5877783
        0.6468665 -0.0019951884 0.5877932 0.48018473 -0.0011663302 0.5816721
        0.48945805 -0.0011703249 0.58219486 0.49869317 -0.0011742929 0.5826974
        0.5078432 -0.0011782277 0.5831774 0.516863 -0.0011821244 0.58363295
        0.52571005 -0.0011859791 0.5840625 0.5343451 -0.0011897881 0.5844649
        0.5427331 -0.0011935484 0.58483946 0.55084306 -0.0011972578 0.58518577
        0.55864924 -0.0012009143 0.5855038 0.5661304 -0.0012045166 0.58579403
        0.57327044 -0.001208064 0.5860571 0.5800579 -0.0012115557 0.5862941
        0.5864861 -0.0012149919 0.5865063 0.5925523 -0.001218374 0.586695
        0.59825766 -0.0012217069 0.58686197 0.6036066 -0.0012250053 0.5870087
        0.6086064 -0.0012283082 0.587137 0.6132665 -0.0012317047 0.5872486
        0.61759824 -0.0012353851 0.5873451 0.62161344 -0.0012397155 0.5874282
        0.6253245 -0.0012453356 0.5874993 0.62874293 -0.0012532288 0.5875599
        0.6318796 -0.0012646232 0.5876111 0.63474584 -0.0012804853 0.5876542
        0.63735604 -0.0013007274 0.58769023 0.6397315 -0.0013243078 0.58772033
        0.64189905 -0.00135066 0.58774555 0.6438856 -0.0013800174 0.58776665
        0.64571375 -0.0014115428 0.5877844 0.64740074 -0.0014416269 0.58779943
        0.48018473 -0.0008364922 0.58167267 0.48946097 -0.0008372443 0.58219564
        0.498699 -0.0008379672 0.5826983 0.5078521 -0.0008386577 0.58317846
        0.5168749 -0.000839313 0.58363414 0.525725 -0.00083993096 0.5840638
        0.5343632 -0.00084050983 0.5844664 0.54275423 -0.0008410486 0.584841
        0.5508673 -0.00084154675 0.5851874 0.55867654 -0.00084200426 0.58550555
        0.5661608 -0.0008424217 0.5857958 0.5733039 -0.00084280013 0.586059
        0.58009446 -0.00084314105 0.586296 0.5865257 -0.0008434462 0.5865082
        0.5925949 -0.00084371766 0.586697 0.5983034 -0.0008439577 0.58686393
        0.6036555 -0.00084416877 0.5870107 0.60865873 -0.0008443533 0.587139
        0.61332285 -0.00084451376 0.5872506 0.61765975 -0.00084465265 0.58734715
        0.62168264 -0.0008447722 0.5874303 0.62540597 -0.00084487465 0.5875015
        0.62884504 -0.0008449621 0.5875623 0.6320155 -0.00084503635 0.587614
        0.63493323 -0.0008450992 0.5876577 0.6376141 -0.0008451521 0.58769447
        0.6400736 -0.00084519654 0.58772534 0.642327 -0.0008452337 0.5877512
        0.6443891 -0.00084526464 0.5877727 0.6462739 -0.00084529043 0.58779067
        0.64799494 -0.0008453119 0.5878056
        <InformationKey name="L2_NORM_RANGE" location="vtkDataArray" length="2">
          <Value index="0">
            0.75426858422
          </Value>
          <Value index="1">
            0.87487919636
          </Value>
        </InformationKey>
      </DataArray>
    </Points>
  </Piece>
  </StructuredGrid>
</VTKFile>
