<?xml version="1.0"?>
<VTKFile type="StructuredGrid" version="0.1" byte_order="LittleEndian" header_type="UInt32" compressor="vtkZLibDataCompressor">
  <StructuredGrid WholeExtent="0 240 0 4 0 0">
  <Piece Extent="0 240 0 4 0 0">
    <PointData>
      <DataArray type="Float32" Name="orthogonality" format="ascii" RangeMin="9.089682180274394e-07" RangeMax="0.44377365708351135">
        0.00040274733 0.052044373 0.07584486 0.08545468 0.08741576 0.08522048
        0.081036694 0.07648265 0.072934106 0.07204864 0.07492398 0.085968345
        0.09972453 0.1487191 0.18538938 0.15401058 0.14500478 0.13624491
        0.12625721 0.11520473 0.103144705 0.0903067 0.07700898 0.063671105
        0.05077106 0.0387924 0.028158823 0.01917511 0.011988208 0.006578042
        0.0027787199 0.00032280013 0.0011037971 0.001809701 0.0020595198 0.0020541137
        0.0019289033 0.0017647285 0.0016039992 0.0014651497 0.0013537807 0.001270122
        0.0012124019 0.0011782012 0.0011648113 0.001169047 0.0011869058 0.0012132049
        0.0012411962 0.0012624151 0.0012661478 0.0012418717 0.0011874494 0.0011022759
        0.0009912546 0.00083926466 0.00070179964 0.00043527418 0.0004668861 0.00024328385
        0.00046381637 0.0004939044 7.528729e-05 0.0003210297 0.00022068576 0.00020619312
        0.00017449616 0.00013203509 7.705492e-05 1.8526569e-05 1.99189e-05 1.3153251e-05
        4.2393425e-05 0.0001389581 0.0002590061 0.00037844173 0.00047707133 0.0005445523
        0.0005825437 0.00060488057 0.000627845 0.00066332344 0.0007216676 0.0008128165
        0.0009471654 0.0011357123 0.0013892687 0.0017163287 0.0021194064 0.0025901305
        0.0031040434 0.0036166122 0.00406207 0.0043562143 0.0044032936 0.0041060024
        0.0033768388 0.0021486469 0.0003834129 0.0019244093 0.004739386 0.008011808
        0.011588176 0.015540294 0.019110877 0.023783406 0.027627053 0.033303943
        0.03842572 0.04519327 0.05239488 0.060056314 0.067387365 0.0735152
        0.0771909 0.07698428 0.0715569 0.059994284 0.042822108 0.02138598
        0.00033413363 0.020694057 0.04206383 0.059145235 0.070612594 0.07595547
        0.07609505 0.072370045 0.066207394 0.05885115 0.051170893 0.04395048
        0.037170038 0.032017794 0.02634387 0.022476003 0.017823871 0.014260409
        0.010344079 0.006813608 0.0036015473 0.00085773587 0.0013694004 0.0030464423
        0.004180598 0.0048113833 0.0050071636 0.004856386 0.0044570793 0.0039055566
        0.0032864683 0.0026659076 0.0020885621 0.0015788056 0.0011446633 0.00078308047
        0.0004850255 0.00023948346 3.6052614e-05 0.00013363638 0.00027524997 0.00039127967
        0.00048057485 0.00053634745 0.0005510059 0.00052404567 0.000463367 0.00038671034
        0.00031857583 0.0002808277 0.00028656155 0.0003363858 0.00040776125 0.00047794546
        0.00053523574 0.00058760453 0.0005668585 0.0005586791 0.00040533673 0.000657497
        0.0006673846 0.000489523 5.631962e-05 7.648896e-05 7.789423e-05 0.00015099485
        0.00022704637 0.00027218924 0.00029402174 0.00028867056 0.00025466087 0.00019219669
        0.000108709755 1.2146802e-05 9.116159e-05 0.00019637587 0.00030019166 0.00040065206
        0.0004968896 0.00058877503 0.00067638495 0.00075908663 0.00083338865 0.0008882457
        0.0008968997 0.00080316636 0.0005039774 0.00016572498 0.0014393857 0.0036090105
        0.0069949334 0.011897151 0.01853695 0.02700242 0.037212633 0.048911855
        0.061697636 0.07507692 0.0885358 0.10160578 0.11391122 0.1251926
        0.13531041 0.14419894 0.15207367 0.15933827 0.19106379 0.15219066
        0.100485034 0.08485055 0.0722892 0.068373434 0.06866639 0.07205685
        0.07685383 0.0816251 0.084667906 0.08369804 0.07507087 0.052040864
        0.0008514478 0.359752 0.26593807 0.18654625 0.12580867 0.07815081
        0.039662663 0.0074189394 0.020982703 0.04766303 0.07476517 0.10405544
        0.13870244 0.17727508 0.23404564 0.27237022 0.24919389 0.22204393
        0.20445597 0.18295898 0.16120476 0.13899446 0.117080554 0.09604848
        0.0764988 0.058937002 0.043734614 0.031092323 0.021028569 0.013391857
        0.007895134 0.0041652718 0.0017980369 0.0004081963 0.0003337304 0.0006824768
        0.0008162648 0.00084764155 0.0008403906 0.0008263769 0.0008179269 0.0008181702
        0.00082811347 0.0008481671 0.0008781227 0.00091712445 0.00096345635 0.0010142609
        0.0010652314 0.0011102589 0.0011413153 0.0011480256 0.0011210468 0.0010609182
        0.00096911995 0.0008511864 0.00069193245 0.00054730556 0.00027300246 0.00029776484
        0.00041782635 0.00060489186 0.00068996416 0.00027455142 0.0005168073 0.00039613698
        0.00035899668 0.00030550323 0.00023340122 0.00013628701 2.126576e-05 8.1902326e-05
        0.00013603822 0.0001274656 5.7261248e-05 5.8413545e-05 0.0001896801 0.00030483518
        0.00037873868 0.0003988707 0.00037060966 0.00030586458 0.00021066189 8.6362874e-05
        6.988076e-05 0.00026496386 0.0005104449 0.0008238817 0.001230904 0.0017677941
        0.0024840327 0.003443936 0.004726361 0.006421625 0.008625322 0.01142945
        0.014912006 0.019126609 0.024093948 0.029795708 0.03617417 0.04312776
        0.050538655 0.058197517 0.06609636 0.07351849 0.08167833 0.08951542
        0.098138 0.10592152 0.11438283 0.12229819 0.12931646 0.13444243
        0.13659881 0.13448396 0.12679592 0.112524495 0.09128492 0.06396623
        0.032380648 0.0001049065 0.03256643 0.06408644 0.091315426 0.1124622
        0.12665609 0.13429257 0.13638487 0.1342323 0.12913042 0.122150406
        0.11427934 0.10586849 0.098123685 0.08956091 0.08176909 0.07366973
        0.06629397 0.058456585 0.050858703 0.04350994 0.036615644 0.030291898
        0.024638655 0.01971297 0.015533344 0.012080123 0.009301397 0.007121295
        0.005450047 0.0041940976 0.0032647566 0.002584268 0.002088871 0.001729125
        0.0014682806 0.0012796439 0.0011437485 0.0010458307 0.0009737581 0.0009163551
        0.0008618411 0.0007965799 0.00070412306 0.0005770131 0.00042661084 0.00027544095
        0.00015115812 7.91923e-05 7.2686176e-05 0.0001311382 0.00024050471 0.00036361007
        0.0004710499 0.0005533501 0.00062118063 0.00059750734 0.0005792801 0.00041619272
        0.00066763384 0.0006226777 0.00047400733 1.7430297e-05 1.9837942e-05 0.00016031691
        0.00025826856 0.00036151605 0.00043475567 0.0004860748 0.0005110132 0.0005057992
        0.00046795773 0.00040460116 0.00032442313 0.00023430826 0.00013936771 4.2912856e-05
        5.3338787e-05 0.00014902152 0.0002448253 0.00034204 0.0004416413 0.00054177886
        0.00063353474 0.0006965303 0.00068935053 0.00053283386 9.198463e-05 0.0008395249
        0.0025460017 0.00538141 0.009742868 0.016027484 0.024578923 0.035633374
        0.049275365 0.06541204 0.08377107 0.10392197 0.12532033 0.14735126
        0.16943741 0.19085921 0.21185216 0.22881584 0.25539047 0.2785479
        0.23865731 0.17978035 0.13938181 0.10325526 0.07290397 0.045198258
        0.018375048 0.00974563 0.041363884 0.07899973 0.12572584 0.18561822
        0.26442805 0.35824978 0.44377366 0.37419432 0.30330604 0.2383273
        0.18047814 0.12980534 0.085578874 0.046616774 0.011564442 0.02094769
        0.051941607 0.082582586 0.111942425 0.1433572 0.16401532 0.15049915
        0.12089032 0.10584601 0.087873675 0.07186044 0.05722286 0.044418976
        0.033530742 0.024579069 0.017472215 0.012041023 0.008059417 0.005269942
        0.0034081242 0.002224872 0.0015044082 0.001075475 0.00081449957 0.000641291
        0.00050968054 0.00039644798 0.00029147865 0.00019079556 9.2903945e-05 1.4763924e-06
        9.146406e-05 0.0001782136 0.00026362864 0.00034915213 0.00043541906 0.0005220032
        0.00060717406 0.0006876372 0.00075821887 0.00081178476 0.00083879614 0.0008306931
        0.00078867585 0.00071449764 0.00061387423 0.00047145027 0.00034346004 8.467678e-05
        0.00012455271 0.0005734409 0.00069906155 0.0008368573 0.00041747288 0.0006579877
        0.0005342297 0.00049642986 0.00044267636 0.00037050617 0.00027266992 0.00015524398
        4.730228e-05 1.378276e-05 1.3828754e-05 4.6917154e-05 0.00015319214 0.00027565836
        0.0003825867 0.0004479557 0.00045750345 0.00041465618 0.00032946243 0.00020554353
        4.1326064e-05 0.00016961108 0.00043833995 0.00078087085 0.001218596 0.0017786653
        0.0024939803 0.0034025253 0.0045458586 0.0059667733 0.0077063246 0.009800555
        0.01227728 0.015153244 0.018431868 0.022101885 0.02613639 0.030494725
        0.035118524 0.039953716 0.044884592 0.04997215 0.054714713 0.060157385
        0.065898135 0.07131386 0.075576745 0.07973448 0.082892 0.084800124
        0.08488347 0.082664594 0.077738285 0.06992303 0.05934562 0.04641267
        0.03179808 0.016068613 0.00040560722 0.01687716 0.032600507 0.04720582
        0.0601271 0.07069312 0.07850126 0.08342835 0.08565777 0.085594304
        0.08371377 0.080587976 0.076466255 0.07223388 0.06686196 0.061171245
        0.05576732 0.05104493 0.04597758 0.041058287 0.036228262 0.03160204
        0.02723405 0.023183089 0.019490836 0.016185641 0.01328062 0.010774482
        0.00865273 0.0068897526 0.005451484 0.004298482 0.0033890957 0.0026823734
        0.002140366 0.0017295886 0.0014215878 0.0011927285 0.0010234232 0.0008970103
        0.00079846464 0.00071287836 0.0006241323 0.0005136863 0.00037358986 0.00021652071
        6.597703e-05 5.073883e-05 0.00011015773 0.00010230632 3.05958e-05 8.922317e-05
        0.00021901954 0.0003300314 0.0004140951 0.00048372775 0.00045998115 0.00044376164
        0.00027830756 0.0005357597 0.00044331446 0.00035123885 0.00010649982 9.951874e-05
        0.00028212607 0.00038168207 0.0004894788 0.00056921126 0.0006297968 0.00066695176
        0.0006769601 0.0006571127 0.0006145878 0.0005581677 0.00049479486 0.00042967242
        0.0003662442 0.00030640262 0.00025071116 0.00019863236 0.00014877465 9.921782e-05
        4.869709e-05 2.1855246e-06 5.3240932e-05 0.00010553427 0.00015739663 0.0001989679
        0.00020376641 0.00011759208 0.0001530438 0.0007495086 0.0018632296 0.0037295015
        0.006613124 0.01078784 0.016512139 0.024003936 0.03341488 0.044810504
        0.058136724 0.073275775 0.08972676 0.10808135 0.12322258 0.15339781
        0.16696486 0.14607231 0.114284165 0.08445054 0.053392205 0.022075282
        0.010616827 0.04568832 0.084518656 0.12849921 0.17886898 0.23642485
        0.3011841 0.371975 0.44166392 0.3711784 0.32523757 0.27593446
        0.23077144 0.1900304 0.15374507 0.12175302 0.09375631 0.069386244
        0.048216816 0.029845001 0.01356331 0.0007921494 0.01577328 0.02711531
        0.019052507 0.007090206 0.0147748655 0.022463737 0.026362991 0.02784928
        0.027222145 0.025033146 0.021770215 0.017904144 0.013853768 0.009969428
        0.0065153837 0.003659556 0.001472742 6.0777515e-05 0.0010222882 0.0015312776
        0.0017175677 0.0016988135 0.0015670968 0.0013851159 0.0011896216 0.0009986433
        0.0008202639 0.00065681385 0.0005064122 0.0003659544 0.00023278814 0.00010515127
        1.7572256e-05 0.00013464075 0.00024373444 0.0003406753 0.00041937694 0.00047135426
        0.00048872334 0.0004725292 0.0004241145 0.000349136 0.00023233159 0.00012926046
        0.00010382754 4.399957e-05 0.0007082798 0.000773388 0.00095073786 0.0005318174
        0.0007676197 0.00064949685 0.00061971764 0.00057448435 0.00051425723 0.00043256686
        0.00033489344 0.00024691375 0.00020139563 0.00020932936 0.0002690694 0.00036613623
        0.00047431563 0.000566425 0.0006211013 0.0006273536 0.0005893217 0.0005163562
        0.00041139268 0.00027278857 9.473731e-05 0.00013231786 0.00042148257 0.0007889436
        0.0012529052 0.0018316205 0.002540452 0.0033882593 0.004373795 0.005483015
        0.00668817 0.00794916 0.009217137 0.010439725 0.01156713 0.012557545
        0.013383346 0.014029381 0.014512595 0.0148210125 0.01511455 0.015099011
        0.015763506 0.017009052 0.017324613 0.016412692 0.015153511 0.013112911
        0.010421678 0.0071380944 0.0035126086 7.3654206e-05 0.0031203232 0.005109462
        0.0056825452 0.004765918 0.0027593619 0.00062391686 0.0015035891 0.0034872491
        0.0043720244 0.0037660624 0.0017495081 0.0013158788 0.0049121473 0.008540953
        0.011823774 0.0145126395 0.016550453 0.017808754 0.018717825 0.01840888
        0.017189553 0.01652613 0.016520804 0.016196616 0.015844857 0.015308984
        0.014602521 0.013710912 0.012651581 0.011454478 0.010163622 0.0088308565
        0.007510388 0.006252669 0.005099177 0.0040788217 0.0032065806 0.0024843824
        0.0019037412 0.0014492911 0.0011023057 0.00084350776 0.000654831 0.00052014337
        0.0004251373 0.00035667856 0.00030167343 0.00024594407 0.00017235008 7.256048e-05
        4.3521606e-05 0.00015674518 0.0002440757 0.00028494594 0.0002700752 0.0002013577
        9.109595e-05 2.7241756e-05 0.0001284307 0.00020511479 0.00027075488 0.00024862326
        0.00023856433 7.640105e-05 0.00033653458 0.00021106753 0.00017508077 0.00026946614
        0.0002525676 0.00042743012 0.00052023405 0.0006239488 0.00070225634 0.00076473824
        0.0008076239 0.0008281821 0.00082448375 0.0008038469 0.00077482674 0.00074421143
        0.0007172261 0.0006975133 0.0006873364 0.00068778754 0.00069897436 0.0007201213
        0.00074940524 0.00078396284 0.000818966 0.00084128935 0.00082171155 0.0007091738
        0.00042515853 0.00013689615 0.0011034535 0.002602729 0.0047386684 0.007562244
        0.011046496 0.015070656 0.019415904 0.023772301 0.027753837 0.030919017
        0.032788556 0.03288078 0.03066106 0.025875298 0.01712167 0.008609405
        0.019552663 0.027984453 0.016900256 0.002203691 0.01184154 0.027775902
        0.045815147 0.0667066 0.09088714 0.11880269 0.15082473 0.18723571
        0.22816676 0.2735447 0.32305256 0.36924455 0.00025838986 0.0630819
        0.111944735 0.14537066 0.164294 0.17138542 0.17023726 0.16458938
        0.15782195 0.15274137 0.15155165 0.15589428 0.1669132 0.18489186
        0.18866424 0.16624784 0.15518318 0.13294765 0.115133576 0.09814323
        0.08253828 0.06805573 0.054746702 0.04267657 0.031957306 0.022697648
        0.01497315 0.008798302 0.004111629 0.0007755668 0.001408954 0.0026772378
        0.0032711492 0.0034118968 0.0032808038 0.0030108509 0.0026884722 0.0023623628
        0.0020551165 0.0017753426 0.0015240985 0.0012978456 0.0010919652 0.0009024421
        0.0007262636 0.00056164037 0.00040817272 0.0002670257 0.00014116854 3.5392066e-05
        4.3181324e-05 8.770303e-05 9.92853e-05 7.904227e-05 3.2516193e-05 5.4977507e-05
        0.00013009307 0.0003308905 0.00025340423 0.00086475216 0.00086795713 0.0010823422
        0.00067654124 0.00089988596 0.0007892741 0.00076655165 0.0007295341 0.00068089453
        0.0006147455 0.0005357294 0.00046594877 0.0004336774 0.00044735047 0.00050460425
        0.00059227715 0.0006874906 0.00076733425 0.0008144464 0.0008203224 0.00078907795
        0.0007288495 0.0006415039 0.00052489137 0.00037319987 0.00017743053 7.420033e-05
        0.0003953725 0.00079988467 0.0012985995 0.0018949967 0.0025796425 0.0033243701
        0.0040773703 0.0047605513 0.005270384 0.0054829805 0.005263344 0.0044780844
        0.003009282 0.0007699237 0.002289923 0.0061577824 0.010814941 0.01605601
        0.022035563 0.027835023 0.033223696 0.040208943 0.048906084 0.058610033
        0.069254205 0.08016685 0.09038828 0.09855179 0.10300569 0.10202793
        0.094194874 0.07885897 0.05660564 0.029516658 0.00093340396 0.027628575
        0.054660782 0.07683959 0.09210385 0.09988484 0.10083913 0.09639152
        0.08825931 0.078086205 0.06723029 0.056643847 0.046992857 0.03834194
        0.031391475 0.026006939 0.02025174 0.014336323 0.009175698 0.0046132533
        0.00085100014 0.0020958108 0.0042183762 0.0055701854 0.0062415423 0.006353239
        0.0060410346 0.005441772 0.0046806857 0.003862232 0.003065096 0.0023414283
        0.0017195335 0.0012087828 0.0008053929 0.0004978779 0.00027137576 0.00011051706
        9.089682e-07 7.047319e-05 0.00011559732 0.00014627258 0.00017507048 0.00021770543
        0.00028240948 0.00036133674 0.0004390084 0.0004964274 0.0005163315 0.0004909569
        0.0004216459 0.00031811383 0.00020936108 0.00011693236 4.710339e-05 1.4114957e-05
        5.635484e-06 1.03320535e-05 0.00016440803 8.7966655e-05 6.647132e-05 4.719999e-05
        0.0004661563 0.00044409453 0.00060913793 0.0006965305 0.00079744356 0.00087688956
        0.0009447779 0.0009979571 0.0010346186 0.0010535168 0.0010618811 0.0010678878
        0.0010780932 0.0010977107 0.0011305894 0.0011794089 0.0012458692 0.0013308527
        0.001434467 0.0015556802 0.0016918387 0.0018370955 0.001974955 0.0020682428
        0.0020499753 0.0018132215 0.0012055496 3.2251748e-05 0.0019296613 0.004907931
        0.0091063585 0.014677267 0.021701692 0.030182328 0.04005135 0.05119126
        0.06346569 0.07674852 0.09097128 0.10607939 0.122354425 0.13912866
        0.16041903 0.16808955 0.1903848 0.18573911 0.1663535 0.15382591
        0.14805686 0.14806014 0.15232834 0.15874983 0.16455908 0.16635281
        0.16029397 0.14261663 0.11041658 0.06250856 0.00044276883
      </DataArray>
      <DataArray type="Float32" Name="aspect_ratio" format="ascii" RangeMin="4.435163497924805" RangeMax="730.5936279296875">
        24.98191 21.626482 19.557995 18.121712 17.080832 16.307299
        15.727912 15.298111 14.993931 14.789415 14.708613 14.62166
        14.952042 14.140398 9.540663 5.0836964 4.701688 5.691544
        6.469673 7.453276 8.557764 9.820471 11.247022 12.848849
        14.63421 16.611343 18.789259 21.179377 23.796787 26.661036
        29.796236 33.230526 36.995087 41.122917 45.647633 50.60245
        56.01936 61.928444 68.35719 75.328926 82.86049 90.9605
        99.62798 108.849976 118.59893 128.82991 139.478 150.45583
        161.6518 172.9288 184.12375 195.04906 205.50415 215.28847
        224.2075 232.06769 238.70207 243.92223 247.66693 249.69933
        243.17018 235.09532 232.5332 228.75441 223.74678 217.71873
        210.79271 203.13919 194.94159 186.38974 177.64008 168.77893
        159.83672 150.82306 141.75095 132.65947 123.622086 114.73798
        106.114555 97.84384 89.98814 82.58397 75.64959 69.18987
        63.19981 57.667152 52.574436 47.900547 43.622005 39.714005
        36.15127 32.908752 29.962215 27.288609 24.866333 22.675304
        20.696903 18.913855 17.30995 15.870195 14.579516 13.4266405
        12.390829 11.483258 10.629847 9.936069 9.786189 10.147096
        10.576887 10.961814 11.38203 11.825725 12.317295 12.863028
        13.4657955 14.111801 14.768602 15.373424 15.855495 16.122974
        16.185654 16.116331 15.842887 15.355837 14.746948 14.086632
        13.437266 12.831001 12.281487 11.785862 11.337873 10.91343
        10.524091 10.090984 9.726091 9.869008 10.551775 11.390784
        12.281902 13.297705 14.426752 15.68888 17.094454 18.657383
        20.391241 22.310476 24.430206 26.766386 29.335842 32.15621
        35.245754 38.623005 42.306244 46.312897 50.658764 55.357292
        60.418808 65.84988 71.65287 77.82598 84.36392 91.26001
        98.51018 106.12083 114.114265 122.51481 131.32188 140.48581
        149.89046 159.3542 168.64992 177.53221 185.78252 193.24066
        199.78748 205.31537 209.76273 213.07333 215.2752 216.2887
        222.62679 227.8131 225.39925 221.95541 217.46242 212.03499
        205.72353 198.61073 190.77979 182.3293 173.36476 163.99744
        154.34908 144.5519 134.73906 125.035706 115.55276 106.3833
        97.601105 89.26091 81.39974 74.03895 67.18664 60.840614
        54.990524 49.618744 44.701576 40.210873 36.11551 32.38283
        28.98026 25.876862 23.044846 20.460655 18.10544 15.964777
        14.027658 12.28504 10.728137 9.347709 8.131127 7.071469
        6.1304307 5.392127 4.4351635 4.867101 9.430911 14.1181755
        14.931727 14.575774 14.638893 14.693872 14.874289 15.158071
        15.573483 16.14668 16.924261 17.981268 19.447495 21.561783
        24.977776 18.93853 18.09639 17.412384 16.833235 16.342949
        15.923311 15.555801 15.221905 14.904764 14.5829115 14.250186
        13.846834 13.484627 12.701368 10.236904 7.344533 7.1256995
        8.391218 9.348126 10.514698 11.781054 13.18691 14.737981
        16.450691 18.342157 20.433117 22.747538 25.312658 28.15852
        31.317244 34.822166 38.707035 43.005424 47.750492 52.975
        58.711403 64.99176 71.84729 79.30749 87.39802 96.13771
        105.53623 115.59218 126.290306 137.59843 149.46423 161.81224
        174.54106 187.52122 200.59395 213.57051 226.23404 238.35245
        249.69405 260.03333 269.14777 276.84006 282.9034 287.23886
        289.62253 282.0505 272.6909 269.75046 265.36642 259.57346
        252.58798 244.55812 235.68088 226.16876 216.24129 206.08047
        195.78694 185.39777 174.92612 164.38881 153.83234 143.34233
        133.03334 123.0289 113.4346 104.3218 95.73247 87.68763
        80.19293 73.242676 66.82292 60.913826 55.49156 50.529797
        46.000904 41.87683 38.129734 34.73238 31.658352 28.882149
        26.379229 24.126015 22.099949 20.279476 18.644339 17.174776
        15.854569 14.661254 13.596422 12.601515 11.744215 11.554596
        11.992143 12.464577 12.87654 13.277103 13.648088 13.992274
        14.298636 14.556199 14.753982 14.889527 14.971596 15.0262785
        15.080369 15.108322 15.077195 15.019644 14.9609165 14.874163
        14.73343 14.530178 14.267051 13.95515 13.60553 13.229259
        12.82372 12.406973 11.930666 11.489147 11.670728 12.514683
        13.493271 14.539264 15.710094 17.003643 18.441406 20.038515
        21.813366 23.784548 25.971571 28.39449 31.073816 34.030376
        37.285164 40.859154 44.773098 49.047146 53.70037 58.750122
        64.21122 70.09513 76.40916 83.15587 90.33303 97.934395
        105.95195 114.38053 123.22664 132.51492 142.27254 152.4983
        163.13504 174.04907 185.0313 195.81998 206.13194 215.71388
        224.38025 231.99162 238.42392 243.59906 247.46098 250.02167
        251.22115 258.59012 264.61664 261.83026 257.8248 252.61064
        246.30286 238.96777 230.6992 221.59517 211.77042 201.34834
        190.45874 179.24371 167.85733 156.45447 145.1805 134.16415
        123.51337 113.31361 103.6282 94.49995 85.953575 77.99869
        70.63338 63.847008 57.621655 51.933857 46.756428 42.059536
        37.811333 33.97832 30.52581 27.418625 24.622074 22.10305
        19.83104 17.778837 15.922916 14.243216 12.723361 11.347547
        10.11074 8.972442 8.047538 6.794811 7.085872 10.065353
        12.536321 13.31606 13.6805 14.087444 14.426617 14.757539
        15.086311 15.434046 15.817073 16.253328 16.76087 17.357656
        18.059456 18.920113 15.382226 15.915242 16.35729 16.688942
        16.913881 17.032026 17.041245 16.938269 16.72022 16.383163
        15.932736 15.355789 14.723599 13.848733 12.048423 10.084232
        10.320705 11.784628 12.950278 14.314979 15.784178 17.40079
        19.179546 21.146564 23.330275 25.76346 28.4823 31.525719
        34.934307 38.74914 43.010765 47.758507 53.030403 58.863583
        65.29493 72.361595 80.101074 88.550545 97.74553 107.717255
        118.488754 130.07187 142.46477 155.64856 169.58347 184.2049
        199.41975 215.10307 231.09537 247.20107 263.1879 278.789
        293.71854 307.69156 320.42996 331.66125 341.13806 348.61792
        353.94913 356.91122 347.5729 336.0371 332.44144 327.03073
        319.9025 311.29742 301.4041 290.4647 278.741 266.5031
        253.97578 241.28294 228.47122 215.55789 202.56465 189.54953
        176.61853 163.91264 151.58363 139.7609 128.53185 117.94808
        108.03553 98.80128 90.238556 82.33049 75.05307 68.37744
        62.271767 56.70261 51.636005 47.038097 42.875546 39.115696
        35.726635 32.677235 29.937181 27.47716 25.26895 23.285868
        21.502323 19.896194 18.441969 17.132038 15.9186735 14.840155
        14.602739 15.164915 15.735971 16.232998 16.686281 17.078402
        17.40565 17.656513 17.823475 17.906185 17.91869 17.890663
        17.865744 17.885592 17.909592 17.880724 17.855623 17.874554
        17.89579 17.875902 17.785557 17.611027 17.352892 17.018803
        16.620323 16.161264 15.658975 15.083609 14.517394 14.745333
        15.8075 17.00138 18.288645 19.715994 21.290258 23.035788
        24.97334 27.126802 29.520788 32.18097 35.13357 38.405144
        42.022266 46.01134 50.398403 55.20888 60.467255 66.19655
        72.41761 79.14822 86.40207 94.18782 102.50836 111.36073
        120.73701 130.62706 141.02417 151.93556 163.39061 175.42204
        188.02824 201.1392 214.59111 228.12726 241.42609 254.13937
        265.95465 276.64355 286.03342 293.97253 300.3582 305.13242
        308.288 309.78677 318.87485 326.30325 322.88425 317.93796
        311.51306 303.73206 294.68497 284.48477 273.2537 261.1332
        248.27602 234.8424 221.00809 206.96332 192.89922 178.99504
        165.4095 152.27556 139.69846 127.75612 116.501205 105.9641
        96.15669 87.07676 78.71146 71.03939 64.03299 57.660942
        51.88952 46.683105 42.004147 37.81304 34.068268 30.727036
        27.746367 25.084385 22.701572 20.561798 18.632832 16.887148
        15.299636 13.8570385 12.515745 11.379137 9.912694 9.742614
        11.793846 13.585313 14.45186 15.0865965 15.67406 16.143295
        16.505842 16.75416 16.889816 16.91315 16.82504 16.62577
        16.314486 15.887655 15.366524 13.724258 14.796298 15.826833
        16.758978 17.544907 18.151926 18.562366 18.770365 18.77806
        18.591526 18.222914 17.678335 17.001595 16.126173 14.748794
        13.747949 14.539962 16.12736 17.600023 19.294565 21.166239
        23.257402 25.59431 28.211716 31.147177 34.4422 38.14146
        42.29218 46.943233 52.144318 57.945316 64.39603 71.54628
        79.446365 88.147385 97.70132 108.16043 119.57606 131.9966
        145.46411 160.00931 175.64761 192.37576 210.16739 228.96785
        248.6891 269.2048 290.34586 311.8971 333.5954 355.1291
        376.14084 396.24796 415.0689 432.23038 447.36874 460.14755
        470.254 477.45325 481.50693 468.9377 453.41287 448.63962
        441.37753 431.80933 420.226 406.89227 392.13318 376.30032
        359.7559 342.80386 325.6155 308.26144 290.77307 273.18655
        255.5842 238.10959 220.95049 204.30742 188.35077 173.1955
        158.90976 145.5279 133.05933 121.49506 110.81262 100.97991
        91.95825 83.704765 76.17423 69.32045 63.097195 57.458878
        52.36091 47.75993 43.613976 39.882584 36.52697 33.510155
        30.797283 28.35544 26.155085 24.166178 22.370243 20.728104
        19.248863 18.85371 19.48306 20.077213 20.571606 20.984085
        21.307228 21.541704 21.686136 21.744402 21.728323 21.661425
        21.578463 21.52187 21.530525 21.553596 21.524569 21.509605
        21.55919 21.634336 21.692734 21.6999 21.632614 21.479319
        21.236336 20.905178 20.48532 19.98424 19.38439 18.74999
        19.133741 20.59339 22.212248 23.980707 25.936886 28.098156
        30.493103 33.149513 36.09812 39.37112 43.00223 47.02626
        51.478832 56.39604 61.814137 67.76914 74.29642 81.43001
        89.20187 97.64087 106.77149 116.61257 127.17598 138.4657
        150.47754 163.2004 176.6196 190.72432 205.52087 221.04428
        237.3342 254.38596 272.10577 290.27664 308.55865 326.52536
        343.71353 359.70435 374.18927 386.93155 397.72504 406.41992
        412.93985 417.25238 419.34552 431.68625 441.77225 437.1873
        430.49695 421.8058 411.26035 398.99246 385.15405 369.9139
        353.46573 336.01923 317.7946 299.0326 279.99268 260.93433
        242.10023 223.7047 205.92685 188.90814 172.75298 157.53156
        143.28403 130.02544 117.75163 106.44361 96.07037 86.59238
        77.964874 70.14025 63.069344 56.70198 50.987164 45.873165
        41.30789 37.239563 33.617622 30.393724 27.52262 24.962702
        22.67667 20.63018 18.797888 17.136566 15.698454 14.111792
        13.373265 14.446334 15.813578 16.683952 17.36692 17.927748
        18.321898 18.541355 18.571505 18.403372 18.03178 17.45982
        16.703108 15.793374 14.778699 13.717946 14.551691 16.551863
        18.588501 20.470621 22.105354 23.430548 24.419138 25.07227
        25.40527 25.432924 25.15926 24.574356 23.658392 22.397331
        20.803314 20.601456 21.908403 23.545086 25.507399 27.82544
        30.52697 33.64584 37.218956 41.286503 45.89168 51.080944
        56.90439 63.416306 70.67567 78.74647 87.697784 97.60352
        108.541885 120.59456 133.8456 148.38004 164.28203 181.63249
        200.50618 220.967 243.06085 266.81003 292.20822 319.21378
        347.74216 377.6582 408.7688 440.8166 473.4751 506.34628
        538.9601 570.779 601.2276 629.732 655.72943 678.674
        698.05396 713.41046 724.35645 730.5936 711.5818 688.0974
        680.97626 670.03345 655.5961 638.0662 617.8576 595.4615
        571.40814 546.24396 520.4314 494.23825 467.7849 441.13327
        414.34967 387.56573 360.9998 334.93222 309.6601 285.4349
        262.42612 240.73448 220.41078 201.46878 183.89476 167.65474
        152.70009 138.97202 126.40511 114.93005 104.47584 94.97139
        86.34675 78.53399 71.46779 65.08579 59.328835 54.14105
        49.469868 45.266052 41.48369 38.0802 35.01634 32.25628
        29.767126 27.52023 26.831287 27.60564 28.286827 28.839096
        29.276968 29.616432 29.873713 30.065144 30.206831 30.31447
        30.403204 30.487658 30.58242 30.703169 30.768454 30.693905
        30.563917 30.459806 30.3658 30.267248 30.14951 29.997473
        29.795527 29.5277 29.177847 28.729977 28.168386 27.478855
        26.697239 27.371231 29.592701 32.051292 34.774612 37.79423
        41.144337 44.862183 48.987873 53.564278 58.6369 64.253716
        70.46497 77.322945 84.88156 93.19592 102.32159 112.31365
        123.22555 135.10757 148.00514 161.95683 176.99234 193.13046
        210.37769 228.72774 248.1631 268.66 290.1989 312.7839
        336.46057 361.28162 387.23535 414.18008 441.79297 469.56934
        496.87488 523.0184 547.37006 569.4607 588.9254 605.447
        618.78235 628.81116 635.4591 638.7512 657.62006 673.043
        666.126 655.9511 642.7196 626.6353 607.9104 586.77686
        563.4971 538.3702 511.72083 483.89017 455.25015 426.19916
        397.1338 368.42377 340.39453 313.31754 287.40637 262.8182
        239.65811 217.98543 197.82123 179.15689 161.96053 146.18091
        131.75266 118.60134 106.64756 95.81007 86.00816 77.16352
        69.20144 62.051746 55.649223 49.933666 44.849567 40.345642
        36.37431 32.89133 29.8556 27.229452 24.97835 23.074188
        21.485659 20.218353 20.427042 22.010195 23.275557 24.206648
        24.814484 25.11701 25.123243 24.828682 24.217766 23.273527
        21.99213 20.39733 18.548273 16.536081 14.551466
      </DataArray>
      <DataArray type="Float32" Name="jacobian" format="ascii" RangeMin="7.134604675229639e-05" RangeMax="0.01639304682612419">
        0.0014536412 0.0016547639 0.0018206524 0.0019470938 0.002038879 0.0021000486
        0.002134351 0.0021451772 0.002136112 0.002108598 0.0020698733 0.0020046579
        0.0019735494 0.0017754479 0.0011239249 0.000566613 0.0005035508 0.0005803178
        0.0006278508 0.000687654 0.00075092306 0.00082081335 0.0008979439 0.000983796
        0.0010798876 0.001187914 0.0013096436 0.0014468646 0.001601328 0.0017747154
        0.001968632 0.0021846292 0.0024242469 0.002689063 0.0029807328 0.003301004
        0.003651705 0.0040347027 0.004451835 0.004904771 0.005394798 0.0059226896
        0.0064886184 0.007091995 0.0077312835 0.0084038 0.009105509 0.009830824
        0.010572434 0.011321157 0.012065828 0.012793352 0.01348963 0.014140715
        0.01473312 0.01525344 0.015690101 0.016030293 0.016269773 0.016393047
        0.0159512 0.015406994 0.015223209 0.014959701 0.014618384 0.014215194
        0.013756794 0.013254684 0.012721488 0.012170201 0.011611072 0.011048327
        0.010481722 0.009909525 0.009330606 0.008746418 0.00816173 0.007583843
        0.0070210677 0.0064806594 0.0059675104 0.005484471 0.005032976 0.0046134535
        0.0042256154 0.0038686707 0.0035414798 0.0032426738 0.002970741 0.0027240913
        0.002501101 0.0023001414 0.0021195966 0.0019578768 0.0018134264 0.0016847338
        0.0015703401 0.0014688513 0.0013789404 0.0012993811 0.0012289587 0.0011668028
        0.0011112557 0.0010635027 0.0010170008 0.0009817806 0.0009986095 0.0010723053
        0.0011615504 0.0012546232 0.0013612396 0.0014806093 0.0016159125 0.0017674116
        0.0019336949 0.002109346 0.002284415 0.00244313 0.0025685013 0.0026414657
        0.0026612435 0.0026391172 0.0025640193 0.0024368935 0.00227686 0.0021008712
        0.0019246052 0.0017579115 0.0016061241 0.0014706046 0.0013510555 0.0012443117
        0.0011511047 0.0010618775 0.0009880941 0.00097065105 0.0010046498 0.0010495818
        0.001095593 0.0011490548 0.0012087629 0.0012762811 0.0013523898 0.0014381871
        0.0015347609 0.0016432705 0.0017649083 0.0019008914 0.0020524417 0.0022207687
        0.0024070507 0.0026124166 0.0028379261 0.0030845448 0.0033531166 0.003644331
        0.003958688 0.0042964704 0.0046577295 0.005042309 0.0054499255 0.0058803568
        0.0063337917 0.0068114563 0.007316012 0.007850276 0.008414973 0.009006819
        0.009617191 0.01023238 0.010835374 0.011408142 0.011935254 0.012406547
        0.012815094 0.0131548 0.013423012 0.013619462 0.013745778 0.013796524
        0.014187853 0.014507078 0.014345314 0.014121595 0.013834718 0.0134917535
        0.013095484 0.012650598 0.012161728 0.011634464 0.0110747535 0.010488721
        0.009883288 0.009266386 0.008646286 0.00803097 0.007427656 0.006842523
        0.006280563 0.0057455683 0.005240196 0.004766084 0.00432401 0.003914112
        0.0035360341 0.0031889854 0.002871839 0.0025832653 0.002321827 0.0020860338
        0.0018743569 0.0016852162 0.001516956 0.0013678282 0.0012359957 0.0011195597
        0.0010166112 0.00092529657 0.00084387424 0.0007708141 0.0007046554 0.0006448015
        0.0005881741 0.00054353825 0.00046951664 0.0005357375 0.0010978094 0.0017523968
        0.0019486791 0.0019764407 0.0020380935 0.0020733275 0.0020980132 0.0021055555
        0.0020950774 0.0020633833 0.0020071643 0.00192237 0.0018042604 0.0016470166
        0.0014534001 0.0008103499 0.0008732194 0.00091948884 0.00094923587 0.00096634746
        0.00097347476 0.00097242807 0.0009643232 0.0009497764 0.00092860457 0.0009012145
        0.00086428673 0.00082543195 0.0007556133 0.0005896919 0.00041532502 0.00039745859
        0.00045960696 0.0005034319 0.00055699074 0.0006144127 0.000677827 0.00074762834
        0.00082480523 0.0009104088 0.0010056788 0.0011119966 0.0012308592 0.0013638342
        0.0015125138 0.0016784739 0.0018632498 0.002068332 0.0022951802 0.0025452492
        0.0028200087 0.003120947 0.0034495513 0.0038072586 0.004195348 0.004614778
        0.0050660716 0.005549228 0.0060635875 0.0066076764 0.007179051 0.0077741416
        0.008388109 0.009014725 0.009646296 0.010273609 0.01088601 0.011472064
        0.012020404 0.012519978 0.012959878 0.013330437 0.01362158 0.01382848
        0.013940373 0.013572222 0.013117777 0.012971892 0.0127565535 0.012474199
        0.012135885 0.011748345 0.01132115 0.010864694 0.010389693 0.009904903
        0.009414762 0.008920426 0.0084218625 0.007919328 0.007414749 0.006912234
        0.006417516 0.005936897 0.005475797 0.005037875 0.004625275 0.004239073
        0.0038795676 0.003546494 0.0032391797 0.0029566665 0.0026978054 0.0024613298
        0.002245912 0.0020502037 0.0018728621 0.0017125646 0.0015680168 0.0014379546
        0.0013211467 0.0012163984 0.001122557 0.0010385157 0.00096323394 0.000895698
        0.0008350813 0.000780235 0.0007312784 0.0006851466 0.00064547395 0.0006419584
        0.00067422685 0.0007100984 0.0007441058 0.0007791018 0.0008139338 0.0008485912
        0.0008820801 0.00091321487 0.0009405931 0.00096315966 0.0009804859 0.0009933105
        0.0010026599 0.0010064034 0.0010022743 0.0009925326 0.0009792998 0.0009615537
        0.0009385692 0.00091078994 0.0008792805 0.0008454462 0.0008104726 0.000775351
        0.0007400981 0.0007058543 0.0006698096 0.00063736207 0.0006404242 0.0006793005
        0.00072446815 0.00077232235 0.0008258621 0.0008849394 0.0009506475 0.0010237521
        0.0011051901 0.0011959095 0.0012969035 0.0014091878 0.0015337911 0.001671744
        0.0018240692 0.001991772 0.002175831 0.0023771825 0.002596703 0.0028351808
        0.0030932827 0.0033715165 0.0036701972 0.0039894227 0.004329078 0.004688881
        0.00506851 0.005467846 0.005887433 0.0063288016 0.006793609 0.0072820154
        0.0077912584 0.008314618 0.008841521 0.009358774 0.009852203 0.010309311
        0.010721268 0.01108162 0.011384664 0.0116270315 0.011807003 0.011925095
        0.011978343 0.01232602 0.012610076 0.012475007 0.012282875 0.01203418
        0.0117343385 0.011386392 0.010994643 0.010563577 0.010098466 0.00960497
        0.009089001 0.008557099 0.008016463 0.0074744197 0.006937898 0.00641308
        0.0059051784 0.0054183505 0.004955701 0.0045193546 0.0041105673 0.003729869
        0.0033772446 0.0030522677 0.0027541686 0.0024819218 0.0022343379 0.0020101196
        0.0018078841 0.0016261636 0.0014634049 0.0013179785 0.0011882065 0.0010724058
        0.00096894254 0.0008762839 0.0007930429 0.00071799813 0.0006501325 0.00058849616
        0.0005327419 0.00048072595 0.00043857392 0.00037714015 0.00039859003 0.0005767684
        0.00074236566 0.00081186066 0.0008507929 0.00088784075 0.0009155503 0.0009372596
        0.00095261016 0.00096180895 0.00096423994 0.00095875695 0.0009434872 0.0009156821
        0.00087131036 0.0008100632 0.00044310122 0.00044384206 0.0004431761 0.00043952424
        0.0004337064 0.0004265724 0.00041878124 0.00041071657 0.00040250606 0.0003940105
        0.00038511626 0.00037510015 0.0003651679 0.00035019993 0.00031124734 0.000264837
        0.0002744004 0.000317903 0.00035494383 0.0003989875 0.00044748865 0.0005016132
        0.0005616776 0.00062826887 0.0007020051 0.0007836222 0.0008739762 0.0009740538
        0.0010849632 0.001207912 0.0013441748 0.0014950598 0.0016618811 0.0018459432
        0.002048534 0.0022709225 0.0025143512 0.0027800149 0.0030690257 0.0033823377
        0.0037206376 0.0040842555 0.0044730883 0.0048864926 0.0053231693 0.005781044
        0.0062571564 0.0067475624 0.0072472645 0.007750172 0.0082490975 0.008735834
        0.009201606 0.009637638 0.010035358 0.0103863655 0.010683026 0.010917833
        0.011086076 0.011180834 0.010890856 0.0105322115 0.010422603 0.0102560995
        0.010035239 0.009767124 0.00945792 0.009115154 0.008746915 0.008361559
        0.00796614 0.007564821 0.0071594995 0.0067511774 0.0063409163 0.005930746
        0.0055239936 0.0051249214 0.0047380403 0.004367172 0.004014899 0.0036827507
        0.0033714937 0.003081329 0.0028120358 0.0025630838 0.002333718 0.0021230304
        0.0019300166 0.0017536214 0.0015927727 0.0014464076 0.0013134883 0.0011930107
        0.0010840079 0.0009855505 0.0008967454 0.00081673753 0.0007447086 0.00067988597
        0.00062152755 0.0005689885 0.00052152236 0.00047889043 0.0004397145 0.00040504284
        0.00039373123 0.0004034525 0.0004124526 0.00041860336 0.0004227833 0.00042471214
        0.000424539 0.00042230843 0.00041823916 0.0004127559 0.0004065893 0.00040073053
        0.00039635503 0.00039448048 0.00039426115 0.00039446505 0.0003963122 0.000400638
        0.00040641942 0.00041248093 0.00041783525 0.00042175726 0.000423828 0.00042383405
        0.0004217354 0.00041738866 0.0004110759 0.00040193135 0.00039207094 0.00040312947
        0.0004373941 0.00047607787 0.0005181293 0.0005649007 0.0006166099 0.000673973
        0.00073759904 0.0008081849 0.0008864475 0.00097313616 0.0010690213 0.0011748914
        0.0012915481 0.0014198029 0.0015604713 0.001714365 0.0018822779 0.0020649664
        0.0022631227 0.0024773425 0.0027080907 0.0029556686 0.0032201877 0.0035015626
        0.003799533 0.0041137384 0.004443878 0.004790017 0.005152842 0.005533137
        0.0059306975 0.0063433344 0.006766113 0.0071913432 0.0076093664 0.008009654
        0.00838263 0.008721077 0.00901941 0.009272687 0.009477412 0.009631107
        0.009733569 0.009783657 0.010073246 0.010310153 0.010203721 0.010048311
        0.009845455 0.009599071 0.009312088 0.008988193 0.008631379 0.008246254
        0.007837799 0.0074112676 0.0069723735 0.006527228 0.0060819066 0.005642073
        0.005212709 0.0047979658 0.0044011106 0.0040245447 0.0036698733 0.0033380012
        0.0030292503 0.0027434947 0.0024802652 0.002238813 0.0020181807 0.0018172689
        0.0016348816 0.0014697501 0.0013205536 0.001185941 0.0010645628 0.0009551103
        0.00085635734 0.0007671941 0.0006866469 0.0006138814 0.00054818625 0.0004889657
        0.00043564747 0.0003879365 0.00034462014 0.000308475 0.00026495004 0.00025732254
        0.00030641851 0.0003454825 0.000360444 0.00037057395 0.0003809181 0.00039025416
        0.00039926596 0.00040803113 0.00041665405 0.00042497498 0.00043258353 0.0004388023
        0.000442776 0.0004436953 0.00044316347 0.00023520937 0.00022355061 0.0002136777
        0.00020498839 0.00019754583 0.00019136786 0.00018641046 0.00018256986 0.00017970211
        0.00017763577 0.00017622516 0.00017524727 0.00017481572 0.00017392305 0.00016833076
        0.00016510846 0.00018226154 0.00021102466 0.00023972432 0.00027280935 0.00030964604
        0.00035077287 0.0003964696 0.00044712378 0.0005031609 0.0005650794 0.0006334574
        0.00070896005 0.0007923392 0.0008844259 0.0009861178 0.001098362 0.0012221383
        0.0013584407 0.0015082633 0.0016725844 0.0018523503 0.0020484522 0.0022616978
        0.0024927617 0.0027421159 0.0030099647 0.0032961871 0.00360026 0.0039211754
        0.004257359 0.004606592 0.0049659503 0.005331761 0.0056995866 0.006064237
        0.006419835 0.0067601097 0.007078766 0.007369633 0.007626697 0.007844388
        0.008017491 0.0081420615 0.008214018 0.008003252 0.0077423113 0.007665209
        0.0075456095 0.0073858835 0.0071903546 0.00696393 0.0067120646 0.0064405925
        0.0061555444 0.0058621108 0.0055636195 0.0052619036 0.0049581574 0.0046535456
        0.004349778 0.004049314 0.0037551366 0.003470317 0.0031974257 0.002938205
        0.002693695 0.0024644202 0.0022505147 0.0020518184 0.0018679505 0.0016983683
        0.0015424164 0.0013993651 0.0012684435 0.001148865 0.001039847 0.00094062637
        0.00085046823 0.000768672 0.0006945732 0.00062754354 0.0005669897 0.0005123516
        0.00046310303 0.0004187461 0.00037882995 0.00034289208 0.00031063345 0.0002814537
        0.00025543853 0.0002443984 0.0002460128 0.00024615473 0.00024412625 0.00024030395
        0.0002348393 0.00022804854 0.00022029033 0.00021201867 0.00020376667 0.00019613
        0.0001897154 0.00018508626 0.00018267112 0.00018206572 0.00018269684 0.00018513195
        0.00018977064 0.0001961809 0.00020379746 0.00021201333 0.00022023387 0.00022792803
        0.0002346445 0.00024002754 0.00024376428 0.00024570606 0.00024548086 0.00024378627
        0.00025470112 0.0002805253 0.00030947145 0.0003414471 0.00037704085 0.0004165386
        0.00046038596 0.0005090127 0.00056289055 0.00062251254 0.0006883975 0.0007610873
        0.0008411464 0.0009291603 0.0010257326 0.0011314797 0.001247022 0.0013729703
        0.0015099089 0.0016583739 0.0018188278 0.0019916336 0.0021770294 0.0023751075
        0.0025858036 0.0028089075 0.0030441051 0.0032910798 0.0035497055 0.0038202303
        0.004102976 0.004397644 0.0047026435 0.005014563 0.005328118 0.0056366315
        0.005932748 0.00620963 0.0064619114 0.0066853003 0.0068760114 0.007031095
        0.007148271 0.0072270324 0.007267271 0.0074848416 0.007662947 0.0075857216
        0.0074709365 0.0073204013 0.007136723 0.0069223125 0.0066799712 0.0064128195
        0.006124413 0.005818612 0.0054995096 0.0051715183 0.0048392774 0.0045073438
        0.004179923 0.0038606846 0.003552665 0.003258233 0.002979112 0.0027164356
        0.0024708216 0.002242459 0.0020311996 0.0018366339 0.0016581394 0.0014949382
        0.0013461466 0.0012108136 0.0010879503 0.00097655464 0.0008756349 0.00078423356
        0.00070144923 0.00062645524 0.0005585119 0.0004969714 0.00044127562 0.0003909444
        0.00034556736 0.00030476524 0.0002682673 0.00023551 0.00020722434 0.00017844935
        0.0001620748 0.00016637676 0.00017207587 0.000173062 0.00017366062 0.00017486291
        0.00017653791 0.00017888685 0.00018203206 0.00018612265 0.00019128363 0.00019760581
        0.00020512812 0.00021383689 0.00022368366 0.00023529633 0.00012217215 0.00010609913
        9.435798e-05 8.573294e-05 7.967061e-05 7.563794e-05 7.3162206e-05 7.185683e-05
        7.143295e-05 7.170116e-05 7.2568306e-05 7.403197e-05 7.617371e-05 7.9139274e-05
        8.355611e-05 9.419668e-05 0.00011154362 0.00013083797 0.00015202285 0.00017525954
        0.00020071129 0.00022858608 0.00025913585 0.0002926619 0.00032951668 0.00037010325
        0.00041487228 0.00046431695 0.00051896716 0.0005793838 0.0006461539 0.0007198861
        0.00080120715 0.0008907558 0.0009891758 0.0010971047 0.0012151606 0.0013439236
        0.0014839142 0.0016355619 0.0017991633 0.0019748386 0.0021624907 0.0023617586
        0.0025719614 0.0027920485 0.0030205513 0.0032555438 0.0034946199 0.0037348876
        0.003972983 0.004205114 0.0044272407 0.0046352968 0.0048252884 0.004993339
        0.0051358077 0.0052494104 0.0053313426 0.005379398 0.005242184 0.005072226
        0.005023074 0.0049457625 0.004842125 0.004714615 0.0045666085 0.004401647
        0.00422351 0.004036104 0.0038428267 0.0036459595 0.0034468675 0.0032465083
        0.0030457932 0.0028459276 0.0026485315 0.0024555034 0.0022687619 0.0020898974
        0.0019199913 0.0017596952 0.0016093389 0.0014690071 0.0013385979 0.0012178676
        0.001106469 0.0010039803 0.00090993015 0.0008238175 0.00074512744 0.0006733439
        0.0006079596 0.00054848334 0.0004944457 0.00044540287 0.000400939 0.00036066736
        0.0003242304 0.00029129893 0.00026157044 0.00023476714 0.00021063362 0.00018893415
        0.00016945181 0.00015198332 0.00014353867 0.0001423494 0.00013982486 0.00013584143
        0.00013060126 0.00012436497 0.00011744932 0.00011021695 0.00010305835 9.636639e-05
        9.050691e-05 8.579088e-05 8.245332e-05 8.064031e-05 8.013918e-05 8.066834e-05
        8.250686e-05 8.586521e-05 9.059532e-05 9.646054e-05 0.000103148894 0.000110294284
        0.00011750436 0.00012438977 0.00013058948 0.00013578864 0.00013972855 0.00014220901
        0.00014335518 0.00015174299 0.00016913153 0.00018851408 0.00021008914 0.00023406756
        0.00026067742 0.00029016452 0.00032279466 0.0003588551 0.00039865595 0.0004425309
        0.0004908368 0.00054395245 0.0006022757 0.00066621916 0.00073620456 0.0008126547
        0.0008959838 0.0009865855 0.0010848194 0.0011909949 0.0013053545 0.0014280573
        0.001559165 0.0016986331 0.0018463151 0.002001986 0.0021654014 0.0023364106
        0.0025150736 0.0027015025 0.0028954467 0.0030958753 0.0033006393 0.0035064188
        0.003708999 0.0039037047 0.004086131 0.004252734 0.0044006296 0.0045272843
        0.0046306187 0.0047089704 0.0047618514 0.0047895336 0.004933822 0.0050519686
        0.00500179 0.0049263733 0.0048272256 0.0047059255 0.0045641605 0.004403796
        0.0042269467 0.004036005 0.0038335735 0.003622421 0.0034055193 0.0031859635
        0.0029667725 0.0027507178 0.0025402072 0.0023372234 0.0021433064 0.001959569
        0.0017867369 0.0016251971 0.0014750567 0.0013362005 0.0012083373 0.0010910382
        0.0009837765 0.00088596233 0.00079697045 0.0007161606 0.00064289226 0.0005765355
        0.00051647756 0.00046212904 0.00041292855 0.00036834853 0.0003279012 0.00029114416
        0.0002576847 0.00022718206 0.00019934663 0.00017393744 0.00015075573 0.00012964665
        0.000110447836 9.325386e-05 8.2696715e-05 7.835013e-05 7.548555e-05 7.347045e-05
        7.21561e-05 7.1451715e-05 7.134605e-05 7.191655e-05 7.333773e-05 7.588702e-05
        7.9945086e-05 8.598539e-05 9.4548275e-05 0.00010619983 0.00012217026
      </DataArray>
    </PointData>
    <CellData>
    </CellData>
    <Points>
      <DataArray type="Float32" Name="Points" NumberOfComponents="3" format="ascii" RangeMin="0.8706811805507696" RangeMax="0.9996643262747023">
        0.8064633 0.031286076 0.5898667 0.8064781 0.031751946 0.5898421
        0.806441 0.03221627 0.5898162 0.806353 0.032672208 0.5897894
        0.806216 0.03311324 0.5897622 0.80603313 0.033533476 0.5897349
        0.80580807 0.03392778 0.589708 0.80554533 0.034291938 0.5896818
        0.80524945 0.0346226 0.5896568 0.80492526 0.03491742 0.58963305
        0.8045779 0.035174355 0.589611 0.80421025 0.035393495 0.58959067
        0.8038336 0.03557097 0.58957255 0.8034272 0.03571619 0.5895558
        0.80308557 0.03580467 0.5895437 0.80292785 0.0358374 0.5895386
        0.8028254 0.035858385 0.5895353 0.80269206 0.035885546 0.589531
        0.80254704 0.035914917 0.58952636 0.8023835 0.035947826 0.58952105
        0.80220056 0.035984375 0.58951515 0.8019957 0.036025 0.58950865
        0.8017664 0.036070075 0.58950126 0.8015098 0.036120035 0.5894931
        0.80122286 0.036175337 0.5894839 0.80090207 0.036236454 0.5894737
        0.80054367 0.0363039 0.58946234 0.8001434 0.036378197 0.58944964
        0.79969674 0.03645991 0.5894355 0.79919857 0.036549605 0.5894198
        0.79864335 0.036647864 0.5894023 0.79802513 0.036755286 0.5893829
        0.7973373 0.036872476 0.5893613 0.7965726 0.037000027 0.5893373
        0.7957235 0.037138514 0.58931065 0.7947815 0.037288487 0.58928114
        0.79373777 0.037450433 0.5892484 0.79258275 0.037624743 0.5892122
        0.79130626 0.03781165 0.58917207 0.7898977 0.038011197 0.5891277
        0.7883459 0.038223054 0.58907866 0.7866393 0.038446456 0.5890246
        0.78476626 0.038679983 0.588965 0.7827152 0.038921397 0.58889955
        0.78047484 0.039167374 0.58882785 0.7780344 0.039413247 0.5887495
        0.7753841 0.03965269 0.5886645 0.7725159 0.03987745 0.5885726
        0.7694235 0.040077027 0.58847415 0.7661035 0.0402386 0.58836967
        0.7625558 0.040346965 0.58826005 0.75878453 0.040384877 0.5881467
        0.7547987 0.04033371 0.58803153 0.75061244 0.04017444 0.58791685
        0.746245 0.0398888 0.5878055 0.7417205 0.039460532 0.5877006
        0.7370677 0.038876742 0.5876053 0.7323188 0.038129047 0.5875225
        0.72751045 0.037214972 0.58745486 0.7226764 0.03613737 0.58740395
        0.7178604 0.034907732 0.58737075 0.7133534 0.033619143 0.58735526
        0.70892316 0.032226894 0.5873542 0.70458835 0.0307491 0.5873658
        0.7003734 0.029207882 0.58738804 0.69629455 0.027622905 0.58741844
        0.6923666 0.026012028 0.58745474 0.6886015 0.024391074 0.5874947
        0.68500775 0.022773327 0.5875363 0.68159074 0.02116906 0.5875778
        0.6783529 0.019585317 0.58761805 0.6752953 0.018026618 0.58765596
        0.67241865 0.016496422 0.5876907 0.6697239 0.014998353 0.5877219
        0.66721165 0.013537008 0.587749 0.6648816 0.012118167 0.587772
        0.66273165 0.01074832 0.58779085 0.66075736 0.009433823 0.5878057
        0.6589518 0.008180031 0.5878168 0.6573061 0.0069906856 0.58782446
        0.65580994 0.005867852 0.5878291 0.6544528 0.0048121256 0.58783126
        0.653224 0.0038228869 0.58783126 0.65211296 0.0028985506 0.58782953
        0.6511098 0.0020368074 0.5878264 0.650205 0.0012348242 0.58782214
        0.6493897 0.0004894198 0.58781713 0.64865553 -0.00020279623 0.5878115
        0.64799494 -0.0008453119 0.5878056 0.64740074 -0.0014416269 0.58779943
        0.6468665 -0.0019951884 0.5877932 0.6463862 -0.0025093427 0.5877869
        0.6459545 -0.0029873035 0.5877808 0.6455664 -0.0034321279 0.5877747
        0.6452175 -0.003846702 0.58776885 0.6449037 -0.004233735 0.5877632
        0.6446214 -0.0045957547 0.58775765 0.6443673 -0.0049351067 0.5877524
        0.6441385 -0.0052539594 0.58774734 0.6439324 -0.005554304 0.5877425
        0.6437466 -0.0058379713 0.58773786 0.6435792 -0.006106591 0.5877334
        0.64342815 -0.006361764 0.5877291 0.6432922 -0.006604502 0.58772504
        0.6431692 -0.0068370644 0.58772105 0.6430596 -0.0070575555 0.5877173
        0.64295936 -0.007272934 0.58771366 0.6428614 -0.0074993684 0.5877097
        0.64276415 -0.007745188 0.5877055 0.64267105 -0.008007922 0.58770096
        0.6425837 -0.0082907295 0.58769614 0.6425053 -0.008594967 0.5876909
        0.6424393 -0.008923056 0.5876853 0.6423906 -0.009277091 0.58767927
        0.6423652 -0.009658737 0.5876728 0.64237064 -0.010068267 0.58766603
        0.64241546 -0.010503426 0.5876589 0.64250857 -0.010958331 0.5876516
        0.6426569 -0.011422212 0.5876444 0.64286405 -0.011880996 0.5876375
        0.6431269 -0.012317141 0.58763134 0.6434396 -0.012718821 0.58762604
        0.6437932 -0.013076452 0.5876218 0.6441723 -0.013381028 0.5876188
        0.6445626 -0.013630826 0.587617 0.6449515 -0.013828674 0.58761615
        0.6453305 -0.013980714 0.5876162 0.6456944 -0.014094186 0.5876169
        0.6460407 -0.014176175 0.5876182 0.6463689 -0.014232932 0.5876198
        0.6466793 -0.014269642 0.5876217 0.64697284 -0.0142905265 0.5876238
        0.64724964 -0.014298926 0.5876259 0.6475121 -0.014297552 0.58762825
        0.6477567 -0.014288699 0.5876305 0.6479917 -0.014273795 0.58763283
        0.6482347 -0.014252253 0.5876354 0.6484935 -0.014222943 0.5876382
        0.64876616 -0.014185481 0.58764124 0.6490555 -0.014138927 0.58764464
        0.6493628 -0.014082426 0.5876484 0.6496903 -0.014014927 0.5876525
        0.6500401 -0.013935265 0.58765703 0.6504147 -0.013842117 0.587662
        0.6508168 -0.013734005 0.58766735 0.65124935 -0.013609274 0.5876733
        0.6517156 -0.013466095 0.58767974 0.65221906 -0.013302446 0.58768684
        0.6527636 -0.013116123 0.58769447 0.6533533 -0.012904728 0.5877028
        0.6539926 -0.012665684 0.5877118 0.65468633 -0.012396245 0.5877216
        0.6554395 -0.012093513 0.587732 0.6562576 -0.011754479 0.5877432
        0.6571463 -0.011376058 0.58775514 0.6581115 -0.010955153 0.5877678
        0.65915966 -0.010488726 0.587781 0.6602971 -0.009973887 0.58779484
        0.6615306 -0.009408003 0.5878092 0.66286707 -0.0087888045 0.5878239
        0.6643135 -0.0081145 0.58783895 0.6658771 -0.0073838714 0.587854
        0.66756535 -0.0065963045 0.58786905 0.66938585 -0.005751723 0.58788395
        0.67134696 -0.0048503163 0.58789855 0.67345774 -0.0038920909 0.58791286
        0.6757276 -0.002876607 0.5879269 0.6781654 -0.0018029271 0.5879408
        0.68077785 -0.00066990155 0.58795476 0.68356854 0.0005231933 0.58796906
        0.6865366 0.0017758101 0.58798414 0.68967664 0.0030852312 0.58800054
        0.6929787 0.0044457433 0.5880189 0.69643 0.00584848 0.5880399
        0.70001656 0.007281826 0.5880643 0.70372254 0.008731725 0.588093
        0.7075311 0.010182019 0.5881268 0.71142524 0.011615703 0.5881663
        0.7153862 0.013016304 0.5882122 0.7193967 0.014369062 0.5882647
        0.7234336 0.015658598 0.588324 0.7277231 0.016944174 0.5883939
        0.7319993 0.018134782 0.5884705 0.73624414 0.019224374 0.58855283
        0.74043417 0.020208852 0.5886397 0.7445491 0.02108841 0.5887295
        0.74856836 0.021866105 0.5888209 0.7524732 0.022547696 0.5889121
        0.75624585 0.023140913 0.5890019 0.75987095 0.023654826 0.58908886
        0.763335 0.02409919 0.589172 0.76662713 0.024483794 0.58925045
        0.76973873 0.02481785 0.58932364 0.7726641 0.025109572 0.58939135
        0.7754004 0.025365975 0.58945334 0.7779475 0.025592841 0.5895098
        0.7803079 0.025794806 0.58956087 0.78248626 0.0259755 0.5896069
        0.78448904 0.026137741 0.5896482 0.786324 0.026283707 0.58968514
        0.78800005 0.02641511 0.5897182 0.78952646 0.026533311 0.5897477
        0.7909132 0.02663946 0.5897741 0.7921701 0.026734525 0.5897976
        0.793307 0.026819406 0.5898186 0.79433346 0.02689493 0.58983725
        0.7952587 0.026961904 0.589854 0.7960917 0.027021099 0.58986896
        0.7968405 0.02707326 0.58988225 0.797513 0.027119102 0.5898942
        0.7981164 0.027159302 0.58990484 0.7986573 0.027194481 0.5899144
        0.7991418 0.027225228 0.5899229 0.79957557 0.027252072 0.5899305
        0.7999636 0.027275493 0.5899373 0.8003106 0.027295921 0.5899434
        0.80062073 0.02731374 0.58994883 0.80089784 0.027329283 0.58995366
        0.8011453 0.027342852 0.5899581 0.80136627 0.027354704 0.58996195
        0.8015635 0.027365064 0.5899654 0.80173945 0.027374126 0.5899685
        0.8018967 0.027382074 0.5899713 0.802036 0.027388996 0.58997375
        0.8021642 0.027395265 0.589976 0.8022616 0.027399978 0.58997774
        0.8024168 0.027407626 0.5899804 0.8027653 0.027441602 0.5899858
        0.8031871 0.02752122 0.58999044 0.80358404 0.0276367 0.5899929
        0.8039783 0.027793897 0.58999324 0.8043583 0.027990518 0.5899914
        0.8047215 0.028226933 0.5899872 0.8050628 0.028501889 0.58998066
        0.8053776 0.02881393 0.5899716 0.8056613 0.029160824 0.5899601
        0.8059093 0.02953962 0.58994603 0.8061171 0.029946549 0.5899295
        0.8062808 0.030377 0.5899107 0.8063971 0.03082555 0.5898897
        0.8064633 0.031286076 0.5898667 0.8054043 0.03137751 0.58984137
        0.805312 0.031678487 0.5898234 0.8052099 0.031975895 0.5898054
        0.80509365 0.03226659 0.58978736 0.8049611 0.032547764 0.5897693
        0.8048113 0.032816853 0.5897515 0.8046444 0.033071537 0.58973396
        0.80446154 0.03330978 0.589717 0.8042643 0.033529904 0.58970064
        0.8040551 0.033730693 0.5896851 0.80383694 0.03391131 0.5896704
        0.8036128 0.034071907 0.5896568 0.8033879 0.034211986 0.58964425
        0.80316126 0.034335468 0.5896326 0.8029535 0.034435485 0.5896227
        0.8028074 0.034498204 0.58961606 0.8026987 0.034541503 0.5896114
        0.8025603 0.034594323 0.58960557 0.80240923 0.034648865 0.5895993
        0.8022392 0.034706682 0.5895926 0.8020493 0.034767237 0.5895852
        0.80183727 0.034830473 0.5895772 0.8016009 0.03489631 0.5895686
        0.80133754 0.034964796 0.5895593 0.80104434 0.035036106 0.5895492
        0.80071825 0.035110593 0.58953816 0.8003556 0.035188776 0.5895262
        0.79995245 0.035271328 0.58951306 0.79950416 0.035359073 0.5894987
        0.7990057 0.035452925 0.58948284 0.7984515 0.035553854 0.5894654
        0.79783523 0.03566283 0.58944607 0.79715014 0.035780784 0.58942467
        0.796389 0.03590858 0.58940095 0.7955438 0.036046997 0.5893746
        0.79460615 0.03619671 0.58934546 0.793567 0.036358275 0.5893131
        0.79241675 0.03653212 0.58927727 0.7911454 0.0367185 0.58923763
        0.7897423 0.03691743 0.5891937 0.78819627 0.037128594 0.58914524
        0.7864961 0.03735121 0.5890917 0.78463024 0.037583858 0.58903277
        0.7825873 0.03782428 0.5889679 0.7803561 0.03806917 0.58889693
        0.77792615 0.038313862 0.5888193 0.7752881 0.03855206 0.58873504
        0.77243394 0.038775533 0.588644 0.7693578 0.038973875 0.5885464
        0.7660565 0.039134346 0.5884428 0.7625301 0.039241888 0.5883341
        0.7587829 0.039279416 0.5882215 0.7548238 0.039228503 0.58810705
        0.75066674 0.039070312 0.5879929 0.7463306 0.03878675 0.5878818
        0.7418391 0.0383617 0.58777684 0.7372205 0.037782345 0.58768106
        0.7325065 0.037040338 0.58759725 0.72773254 0.036133055 0.58752805
        0.7229329 0.03506342 0.58747506 0.7181484 0.033842172 0.5874392
        0.71367085 0.03256236 0.5874208 0.7092666 0.031178642 0.5874165
        0.7049561 0.029709492 0.5874247 0.70076287 0.028176488 0.58744323
        0.6967038 0.02659939 0.58747 0.69279414 0.024996094 0.5875026
        0.6890461 0.023382474 0.5875389 0.6854686 0.0217719 0.587577
        0.6820676 0.020174807 0.5876152 0.67884594 0.018598469 0.5876522
        0.6758052 0.017047688 0.5876871 0.67294645 0.015526153 0.58771896
        0.67027044 0.014037615 0.5877474 0.66777754 0.012586663 0.587772
        0.66546696 0.011178933 0.5877927 0.6633362 0.009820683 0.5878093
        0.66138047 0.008518001 0.5878222 0.6595926 0.007276008 0.58783144
        0.6579637 0.006098292 0.5878375 0.65648353 0.0049868473 0.58784074
        0.6551416 0.003942258 0.58784163 0.6539274 0.0029639287 0.58784044
        0.6528306 0.0020503232 0.5878377 0.65184134 0.0011991892 0.58783364
        0.6509504 0.00040775933 0.58782864 0.6501489 -0.00032708442 0.5878229
        0.6494288 -0.0010086733 0.5878167 0.6487825 -0.001640445 0.5878103
        0.648203 -0.002225861 0.5878037 0.64768404 -0.0027683456 0.5877971
        0.64721966 -0.0032712372 0.58779055 0.6468045 -0.003737757 0.5877842
        0.64643383 -0.004170978 0.5877779 0.64610314 -0.0045738057 0.5877719
        0.64580846 -0.0049489597 0.5877662 0.64554614 -0.0052989624 0.5877606
        0.6453129 -0.005626129 0.5877554 0.64510584 -0.005932567 0.58775043
        0.6449224 -0.0062201726 0.58774567 0.64476 -0.0064906436 0.58774114
        0.6446167 -0.0067454604 0.5877369 0.64449054 -0.0069859982 0.58773285
        0.6443799 -0.0072131944 0.587729 0.644283 -0.0074286475 0.58772534
        0.6441992 -0.0076315165 0.5877219 0.64412594 -0.007825835 0.5877186
        0.6440568 -0.008029447 0.58771515 0.643992 -0.00824647 0.5877115
        0.64393413 -0.008474912 0.58770764 0.64388496 -0.008715368 0.58770365
        0.6438469 -0.008967235 0.5876995 0.6438226 -0.009229962 0.5876951
        0.6438147 -0.009502357 0.5876907 0.6438259 -0.009782557 0.58768624
        0.6438588 -0.0100678755 0.5876818 0.6439154 -0.010354876 0.58767736
        0.64399725 -0.010639709 0.58767307 0.64410496 -0.01091848 0.5876691
        0.64423865 -0.011187889 0.5876653 0.6443978 -0.011444935 0.587662
        0.6445805 -0.011685776 0.58765906 0.6447838 -0.011907226 0.5876566
        0.6450051 -0.012107799 0.58765465 0.6452412 -0.012286432 0.5876532
        0.6454882 -0.012442367 0.5876523 0.64574206 -0.01257558 0.58765185
        0.6459987 -0.012686813 0.58765185 0.6462549 -0.012777506 0.5876522
        0.64650786 -0.012849561 0.5876529 0.64675546 -0.012905087 0.5876539
        0.6469963 -0.012946249 0.5876551 0.6472291 -0.012975051 0.5876565
        0.64745355 -0.012993472 0.587658 0.6476671 -0.013003113 0.5876596
        0.6478734 -0.013005677 0.58766127 0.64809126 -0.013001705 0.5876632
        0.6483253 -0.012990344 0.5876654 0.64857507 -0.012970744 0.5876678
        0.6488426 -0.01294188 0.58767056 0.6491292 -0.012902697 0.58767366
        0.64943695 -0.0128520075 0.5876772 0.6497679 -0.01278852 0.58768106
        0.6501243 -0.012710814 0.5876854 0.650509 -0.012617332 0.58769023
        0.6509248 -0.012506369 0.58769554 0.651375 -0.0123760635 0.5877014
        0.65186316 -0.012224382 0.5877079 0.65239316 -0.012049128 0.58771497
        0.6529692 -0.011847927 0.5877227 0.65359575 -0.011618227 0.5877311
        0.6542776 -0.011357318 0.58774024 0.65502 -0.011062335 0.5877501
        0.65582824 -0.010730297 0.58776057 0.6567082 -0.010358141 0.5877718
        0.65766585 -0.009942782 0.58778363 0.6587075 -0.009481181 0.5877961
        0.6598397 -0.00897044 0.5878091 0.6610692 -0.008407904 0.5878225
        0.66240305 -0.0077912793 0.58783627 0.6638483 -0.0071187476 0.58785015
        0.6654121 -0.006389061 0.58786404 0.667102 -0.005601592 0.5878778
        0.6689256 -0.004756273 0.58789134 0.67089105 -0.0038533474 0.58790445
        0.673007 -0.0028929592 0.5879171 0.6752826 -0.0018748812 0.58792937
        0.6777261 -0.0007984365 0.5879413 0.6803439 0.00033727504 0.58795303
        0.6831395 0.0015327996 0.587965 0.68611205 0.002787529 0.5879775
        0.68925625 0.0040988126 0.58799124 0.6925628 0.005461123 0.5880067
        0.69601965 0.0068658334 0.5880246 0.6996129 0.00830154 0.58804595
        0.7033274 0.009754331 0.58807147 0.70714647 0.011208176 0.588102
        0.71105313 0.0126460595 0.5881384 0.7150286 0.014051425 0.58818126
        0.71905494 0.015409186 0.58823097 0.72311 0.016704267 0.5882876
        0.7274193 0.017995555 0.588355 0.73171705 0.019192083 0.5884294
        0.7359836 0.020287242 0.58850986 0.74019545 0.02127698 0.5885951
        0.74433166 0.02216132 0.58868366 0.74837136 0.022943279 0.58877397
        0.75229514 0.023628592 0.5888644 0.75608516 0.024225011 0.5889535
        0.7597256 0.024741644 0.5890399 0.7632029 0.02518829 0.5891226
        0.76650614 0.025574794 0.5892007 0.76962686 0.025910415 0.5892735
        0.77255946 0.026203422 0.58934087 0.77530134 0.026460866 0.5894026
        0.7778527 0.02668857 0.58945876 0.78021634 0.026891202 0.5895096
        0.78239703 0.027072415 0.5895553 0.78440154 0.027235052 0.5895964
        0.78623784 0.027381308 0.58963317 0.7879149 0.0275129 0.58966607
        0.78944224 0.027631212 0.5896954 0.7908299 0.027737394 0.5897216
        0.79208773 0.027832435 0.589745 0.7932257 0.027917255 0.58976585
        0.79425347 0.027992716 0.5897845 0.7951804 0.02805968 0.58980113
        0.79601526 0.028119018 0.58981603 0.79676664 0.028171621 0.58982927
        0.7974424 0.02821841 0.5898412 0.79805 0.028260335 0.58985174
        0.7985962 0.028298348 0.58986115 0.7990874 0.028333392 0.58986956
        0.7995292 0.028366353 0.589877 0.7999267 0.028398028 0.58988357
        0.80028445 0.028429078 0.58988935 0.8006064 0.028460007 0.58989435
        0.80089617 0.028491138 0.5898987 0.8011568 0.028522614 0.5899024
        0.8013911 0.02855442 0.5899056 0.80160165 0.028586404 0.58990824
        0.8017904 0.028618312 0.58991045 0.8019599 0.028649887 0.58991235
        0.8021107 0.028680563 0.58991385 0.8022492 0.028711148 0.58991516
        0.80235696 0.028736288 0.58991605 0.80250734 0.028775472 0.5899171
        0.8027247 0.028841946 0.5899182 0.8029643 0.028928064 0.58991873
        0.80320513 0.02903018 0.58991843 0.8034487 0.029152015 0.58991724
        0.80368996 0.029293925 0.589915 0.8039262 0.029456588 0.5899115
        0.80415446 0.029639771 0.5899068 0.8043723 0.029842788 0.58990085
        0.80457777 0.030064423 0.58989364 0.8047695 0.030303001 0.5898851
        0.804947 0.030556414 0.5898755 0.8051106 0.030822119 0.5898649
        0.8052618 0.03109707 0.5898534 0.8054043 0.03137751 0.58984137
        0.8044713 0.031458057 0.58981884 0.804391 0.031656813 0.5898067
        0.8043064 0.03185398 0.58979434 0.80421567 0.03204791 0.5897821
        0.8041172 0.03223684 0.58976984 0.8040098 0.032418992 0.58975774
        0.8038928 0.03259262 0.5897459 0.8037662 0.032756124 0.5897344
        0.8036307 0.03290812 0.5897232 0.8034876 0.0330476 0.5897126
        0.80333865 0.033173945 0.5897026 0.80318576 0.03328712 0.5896932
        0.8030317 0.033387195 0.5896845 0.80287725 0.033475775 0.5896764
        0.80272907 0.033551175 0.58966917 0.8026042 0.033607632 0.5896635
        0.8024945 0.0336529 0.58965874 0.80236024 0.033705033 0.5896531
        0.80221176 0.033758517 0.58964705 0.8020446 0.03381438 0.5896405
        0.8018574 0.033872325 0.58963346 0.801648 0.033932433 0.58962584
        0.80141425 0.033994835 0.58961755 0.8011535 0.03405979 0.58960855
        0.80086297 0.03412767 0.5895988 0.8005395 0.034198992 0.5895881
        0.8001796 0.034274373 0.5895765 0.7997792 0.03435456 0.58956367
        0.79933375 0.03444036 0.58954954 0.79883826 0.03453266 0.58953404
        0.79828703 0.034632355 0.5895168 0.7976739 0.03474034 0.5894978
        0.7969921 0.034857478 0.58947664 0.7962343 0.034984574 0.5894533
        0.79539263 0.035122357 0.58942723 0.79445857 0.035271466 0.5893984
        0.7934232 0.03543245 0.5893664 0.792277 0.035605717 0.5893309
        0.7910098 0.035791524 0.58929163 0.78961116 0.035989866 0.5892482
        0.7880701 0.036200434 0.5892001 0.7863753 0.036422428 0.58914703
        0.78451544 0.03665442 0.58908856 0.7824793 0.036894158 0.5890243
        0.7802558 0.03713833 0.5889538 0.77783483 0.03738227 0.58887684
        0.77520704 0.0376197 0.5887932 0.7723648 0.037842423 0.58870286
        0.7693025 0.03804007 0.588606 0.76601696 0.038199976 0.58850306
        0.76250863 0.03830718 0.58839506 0.75878173 0.038344726 0.5882832
        0.7548452 0.03829432 0.5881692 0.75071275 0.038137272 0.5880555
        0.7464031 0.037855633 0.5879447 0.7419395 0.037433393 0.58783966
        0.7373498 0.03685781 0.5877434 0.7326652 0.036120545 0.5876588
        0.72792035 0.035218854 0.58758837 0.7231498 0.03415573 0.58753365
        0.71839195 0.032941274 0.5874956 0.7139395 0.031668574 0.5874749
        0.7095573 0.030291708 0.58746785 0.7052675 0.028829511 0.58747315
        0.7010927 0.027303142 0.58748865 0.6970505 0.025732497 0.58751225
        0.6931564 0.024135474 0.58754176 0.68942285 0.022528002 0.587575
        0.68585914 0.020923557 0.5876102 0.68247145 0.019332727 0.58764553
        0.6792634 0.017763013 0.58767986 0.67623675 0.016219418 0.58771217
        0.6733928 0.01470579 0.5877416 0.6707322 0.0132259205 0.5877677
        0.66825527 0.01178433 0.58779025 0.66596085 0.010386494 0.5878089
        0.663846 0.009038452 0.58782375 0.6619057 0.0077460813 0.58783495
        0.6601325 0.0065143397 0.5878427 0.6585175 0.005346726 0.5878474
        0.65705043 0.0042452114 0.58784944 0.65572095 0.003210396 0.5878492
        0.6545186 0.0022417256 0.58784705 0.65343314 0.0013377223 0.5878435
        0.6524549 0.00049620104 0.58783865 0.6515746 -0.00028553503 0.587833
        0.6507836 -0.0010105307 0.5878267 0.65007377 -0.001682044 0.58782005
        0.64943767 -0.00230344 0.58781314 0.6488683 -0.002878108 0.5878062
        0.6483594 -0.0034094034 0.5877993 0.6479051 -0.003900597 0.5877925
        0.6475001 -0.0043548476 0.5877859 0.64713943 -0.0047751716 0.5877795
        0.6468188 -0.0051644254 0.58777344 0.6465341 -0.005525288 0.58776766
        0.64628166 -0.0058602546 0.5877621 0.6460583 -0.006171619 0.5877569
        0.64586097 -0.0064614764 0.587752 0.64568704 -0.0067317197 0.58774734
        0.6455341 -0.0069840476 0.587743 0.6454 -0.0072199553 0.5877388
        0.6452828 -0.007440804 0.587735 0.6451809 -0.007647651 0.58773136
        0.6450925 -0.0078418255 0.5877279 0.6450166 -0.00802337 0.58772475
        0.64495134 -0.008194686 0.5877217 0.64489025 -0.008372981 0.58771867
        0.64483404 -0.008559872 0.5877154 0.6447847 -0.008753745 0.58771205
        0.64474386 -0.008954044 0.58770865 0.6447133 -0.009159566 0.5877052
        0.6446947 -0.009368997 0.5877017 0.6446897 -0.0095806625 0.5876982
        0.6446997 -0.009792597 0.5876948 0.6447256 -0.010002628 0.58769155
        0.64476806 -0.01020857 0.5876884 0.64482725 -0.0104085 0.58768547
        0.64490306 -0.010600931 0.5876828 0.6449953 -0.010784946 0.58768034
        0.645104 -0.010959938 0.58767813 0.64522827 -0.011124233 0.5876763
        0.64536685 -0.011276416 0.5876747 0.64551914 -0.011416237 0.5876734
        0.6456843 -0.01154327 0.5876725 0.645861 -0.011656906 0.5876719
        0.6460474 -0.011756628 0.58767164 0.6462412 -0.011842205 0.5876717
        0.64643997 -0.011913814 0.587672 0.6466415 -0.011972033 0.58767265
        0.64684355 -0.012017775 0.5876735 0.6470444 -0.012052173 0.58767456
        0.64724225 -0.012076454 0.58767575 0.64743596 -0.0120919375 0.5876771
        0.6476234 -0.01209984 0.58767855 0.6478058 -0.012101445 0.58768004
        0.6480014 -0.01209706 0.5876818 0.6482131 -0.012085809 0.58768374
        0.6484413 -0.012066794 0.587686 0.64868784 -0.01203898 0.58768857
        0.6489543 -0.012001275 0.5876914 0.6492426 -0.011952473 0.58769464
        0.6495548 -0.011891245 0.5876983 0.64989334 -0.011816144 0.58770233
        0.6502609 -0.011725573 0.58770686 0.6506605 -0.011617782 0.58771193
        0.6510954 -0.011490863 0.5877175 0.6515691 -0.01134273 0.58772355
        0.6520856 -0.011171131 0.5877303 0.6526489 -0.0109736305 0.5877377
        0.65326375 -0.010747616 0.58774567 0.65393484 -0.01049032 0.58775437
        0.65466726 -0.010198821 0.5877637 0.65546656 -0.0098700775 0.58777374
        0.6563385 -0.009500977 0.5877844 0.6572891 -0.009088375 0.5877957
        0.6583247 -0.008629181 0.5878075 0.65945196 -0.008120445 0.58781976
        0.6606777 -0.0075594606 0.58783245 0.6620088 -0.0069438852 0.5878454
        0.66345257 -0.0062718582 0.5878583 0.66501623 -0.005542103 0.5878713
        0.6667073 -0.0047539826 0.58788395 0.66853327 -0.003907453 0.5878963
        0.6705022 -0.0030028347 0.5879081 0.67262256 -0.0020404113 0.58791935
        0.67490304 -0.0010201333 0.5879301 0.6773515 5.8494876e-05 0.5879403
        0.6799741 0.0011962309 0.5879502 0.6827739 0.002393555 0.5879602
        0.68575025 0.0036498844 0.5879706 0.6888981 0.004962683 0.58798194
        0.6922085 0.0063266032 0.58799493 0.69566983 0.007733204 0.5880103
        0.69926876 0.009171228 0.58802897 0.7029903 0.010626866 0.5880517
        0.7068182 0.012084162 0.5880795 0.71073544 0.013526014 0.5881132
        0.71472317 0.014935809 0.5881534 0.7187629 0.016298188 0.5882006
        0.7228335 0.017598337 0.588255 0.7271595 0.018894764 0.58832026
        0.7314757 0.020096548 0.58839273 0.73576075 0.021196578 0.58847153
        0.7399913 0.022190839 0.58855546 0.74414575 0.023079203 0.5886429
        0.7482029 0.023864662 0.5887323 0.75214297 0.024552938 0.588822
        0.7559478 0.025151795 0.5889106 0.7596014 0.025670392 0.5889965
        0.76309013 0.026118584 0.5890788 0.76640296 0.026506284 0.58915657
        0.7695315 0.026842812 0.58922917 0.7724703 0.027136499 0.5892963
        0.77521706 0.027394451 0.58935773 0.7777721 0.027622536 0.5894137
        0.7801385 0.02782545 0.58946425 0.7823213 0.028006883 0.58950984
        0.7843273 0.02816969 0.58955073 0.78616476 0.028316084 0.58958733
        0.7878427 0.028447796 0.58962005 0.7893709 0.028566225 0.5896492
        0.7907593 0.028672518 0.5896753 0.792018 0.02876768 0.58969855
        0.7931569 0.02885262 0.58971936 0.7941857 0.028928202 0.5897379
        0.7951137 0.02899527 0.58975446 0.79594976 0.029054672 0.5897693
        0.7967023 0.02910726 0.5897825 0.7973793 0.029153898 0.58979434
        0.7979881 0.02919547 0.5898049 0.79853547 0.029232852 0.58981436
        0.7990276 0.029266907 0.58982277 0.79947025 0.029298462 0.5898302
        0.79986835 0.029328285 0.5898369 0.80022645 0.029357055 0.58984274
        0.8005486 0.029385343 0.5898478 0.8008383 0.029413601 0.5898523
        0.80109864 0.029442152 0.589856 0.8013324 0.029471181 0.5898593
        0.80154216 0.02950075 0.58986205 0.8017301 0.0295308 0.58986425
        0.8018984 0.029561216 0.5898661 0.8020482 0.029591592 0.5898676
        0.80218434 0.02962243 0.5898688 0.8022947 0.029649628 0.5898696
        0.802424 0.029685985 0.58987033 0.80257946 0.029737286 0.58987087
        0.8027432 0.02980021 0.5898709 0.80290854 0.029874092 0.58987045
        0.8030751 0.029960653 0.5898694 0.80324036 0.030060431 0.58986753
        0.80340254 0.030173786 0.58986497 0.8035597 0.030300494 0.5898616
        0.80371064 0.030439872 0.5898574 0.8038543 0.030590774 0.5898524
        0.80399036 0.030751687 0.5898467 0.8041191 0.03092083 0.58984035
        0.80424136 0.031096265 0.58983356 0.80435824 0.031275988 0.58982635
        0.8044713 0.031458057 0.58981884 0.8037366 0.031521477 0.5898011
        0.8036929 0.031659804 0.5897928 0.8036454 0.03179742 0.58978444
        0.8035923 0.03193339 0.58977604 0.80353206 0.0320665 0.58976763
        0.80346346 0.032195363 0.58975923 0.8033859 0.032318547 0.589751
        0.80329937 0.032434672 0.58974296 0.8032043 0.032542523 0.5897351
        0.80310166 0.03264115 0.58972764 0.80299276 0.032729924 0.58972055
        0.802879 0.032808635 0.58971393 0.8027622 0.0328774 0.5897078
        0.80264366 0.03293703 0.5897021 0.8025263 0.032987792 0.58969694
        0.80241656 0.03302915 0.5896924 0.8023056 0.03306659 0.5896881
        0.80217564 0.033107128 0.58968323 0.8020307 0.033148874 0.58967805
        0.8018677 0.033192564 0.5896723 0.80168515 0.03323845 0.5896661
        0.80148077 0.03328695 0.5896593 0.8012522 0.033338536 0.58965176
        0.80099684 0.033393707 0.5896435 0.80071163 0.03345301 0.5896344
        0.8003934 0.033517044 0.58962435 0.80003846 0.03358645 0.5896132
        0.7996426 0.03366188 0.5896008 0.79920137 0.033744026 0.58958715
        0.79870963 0.033833597 0.5895719 0.7981618 0.033931296 0.589555
        0.7975517 0.03403784 0.58953625 0.79687274 0.034153916 0.5895154
        0.7961176 0.034280196 0.58949214 0.79527855 0.034417313 0.5894664
        0.79434717 0.034565847 0.5894378 0.7933146 0.034726303 0.589406
        0.79217124 0.034899075 0.58937085 0.79090714 0.035084397 0.58933187
        0.78951186 0.03528228 0.5892887 0.7879744 0.035492394 0.58924097
        0.7862837 0.035713937 0.5891883 0.7844284 0.03594548 0.58913016
        0.78239733 0.03618477 0.58906627 0.7801798 0.036428478 0.58899623
        0.7777656 0.03667195 0.5889197 0.77514565 0.03690892 0.5888366
        0.77231246 0.037131205 0.5887467 0.7692606 0.037328474 0.58865035
        0.76598716 0.037488103 0.588548 0.76249254 0.0375952 0.5884405
        0.75878114 0.0376329 0.5883291 0.7548618 0.037583 0.5882156
        0.75074804 0.037426926 0.5881022 0.7464585 0.037146825 0.58799154
        0.74201614 0.03672677 0.58788645 0.73744833 0.036154058 0.5877899
        0.7327862 0.035420384 0.5877047 0.72806346 0.034522895 0.5876333
        0.723315 0.03346464 0.58757734 0.7185775 0.032255225 0.5875377
        0.71414423 0.030987825 0.5875151 0.7097789 0.029616034 0.5875061
        0.7055049 0.028158983 0.5875092 0.7013442 0.026637541 0.58752245
        0.6973149 0.025071725 0.58754367 0.6934327 0.023479428 0.58757085
        0.6897102 0.021876622 0.58760184 0.6861569 0.020276865 0.5876347
        0.6827795 0.01869089 0.58766794 0.67958164 0.017126365 0.5877002
        0.6765656 0.01558845 0.58773047 0.6737327 0.014081083 0.58775806
        0.6710838 0.012608066 0.5877825 0.66861886 0.011173843 0.58780336
        0.6663366 0.009783746 0.58782053 0.66423374 0.008443642 0.587834
        0.66230506 0.007159256 0.5878439 0.66054296 0.0059354324 0.5878506
        0.65893835 0.0047756205 0.5878542 0.6574812 0.0036817854 0.58785534
        0.656161 0.0026545497 0.58785427 0.6549674 0.0016933995 0.5878514
        0.6538904 0.00079690584 0.5878472 0.65292007 -3.7060745e-05 0.5878418
        0.65204746 -0.000811139 0.58783567 0.65126383 -0.001528314 0.58782893
        0.6505612 -0.002191783 0.5878219 0.649932 -0.0028048481 0.58781475
        0.6493694 -0.0033708345 0.5878075 0.6488671 -0.0038930268 0.5878004
        0.6484191 -0.004374625 0.58779335 0.64802015 -0.0048187114 0.5877867
        0.64766544 -0.005228226 0.5877802 0.6473504 -0.005605953 0.58777404
        0.64707106 -0.0059545096 0.5877682 0.64682376 -0.0062763407 0.5877627
        0.64660525 -0.006573713 0.5877575 0.64641243 -0.0068487143 0.58775264
        0.6462427 -0.0071032583 0.58774805 0.64609355 -0.007339086 0.5877438
        0.6459629 -0.007557766 0.5877398 0.64584875 -0.0077607306 0.5877361
        0.64574945 -0.007949209 0.58773273 0.6456633 -0.008124462 0.5877295
        0.64558905 -0.008287187 0.58772653 0.6455252 -0.008438916 0.5877238
        0.645465 -0.0085956445 0.58772093 0.6454094 -0.008757618 0.587718
        0.64535993 -0.008923539 0.587715 0.64531803 -0.009092454 0.58771205
        0.645285 -0.009263155 0.58770907 0.6452622 -0.00943437 0.58770615
        0.64525074 -0.009604709 0.5877033 0.6452516 -0.00977271 0.5877005
        0.6452653 -0.009936925 0.58769786 0.64529234 -0.01009603 0.5876954
        0.64533275 -0.010248946 0.58769315 0.6453866 -0.010394898 0.5876911
        0.6454537 -0.010533439 0.5876893 0.64553416 -0.010664287 0.5876877
        0.6456274 -0.010786357 0.58768636 0.6457326 -0.010898734 0.5876852
        0.64584947 -0.011001353 0.5876844 0.6459776 -0.011094018 0.58768386
        0.64611626 -0.011176434 0.58768356 0.6462644 -0.011248333 0.58768356
        0.64642066 -0.01130959 0.5876838 0.64658344 -0.0113603035 0.5876843
        0.64675105 -0.0114008235 0.587685 0.64692175 -0.011431723 0.5876859
        0.64709395 -0.011453755 0.58768696 0.64726603 -0.011467787 0.58768815
        0.64743656 -0.011474774 0.5876895 0.6476038 -0.011475676 0.5876909
        0.6477677 -0.011471451 0.5876924 0.6479455 -0.011461692 0.58769405
        0.6481392 -0.011445555 0.58769596 0.6483497 -0.011422169 0.5876981
        0.648579 -0.011390535 0.5877006 0.6488286 -0.011349569 0.58770335
        0.6491008 -0.011298069 0.5877065 0.64939755 -0.011234704 0.58770996
        0.64972144 -0.011158012 0.5877139 0.6500752 -0.011066372 0.5877183
        0.6504618 -0.010958007 0.58772314 0.65088445 -0.010830965 0.5877285
        0.65134674 -0.010683117 0.5877344 0.65185255 -0.010512155 0.5877409
        0.6524061 -0.010315578 0.58774805 0.65301174 -0.010090722 0.58775574
        0.6536744 -0.009834742 0.58776414 0.65439916 -0.009544653 0.58777314
        0.6551915 -0.009217348 0.58778286 0.6560571 -0.008849644 0.5877931
        0.65700215 -0.0084383385 0.5878039 0.658033 -0.00798028 0.5878153
        0.6591563 -0.007472459 0.5878271 0.66037893 -0.006912119 0.5878392
        0.6617079 -0.006296869 0.58785146 0.66315037 -0.00562481 0.5878638
        0.6647138 -0.0048946384 0.58787596 0.66640556 -0.004105712 0.5878878
        0.6682333 -0.0032580127 0.58789927 0.6702048 -0.0023519343 0.5879101
        0.67232853 -0.0013878755 0.58792025 0.6746127 -0.0003659214 0.5879298
        0.677065 0.0007143012 0.5879387 0.67969126 0.0018534713 0.58794725
        0.68249434 0.0030520537 0.5879557 0.6854736 0.00430952 0.5879644
        0.68862426 0.0056234435 0.5879741 0.6919376 0.0069886246 0.58798516
        0.6954024 0.008396753 0.58799857 0.69900554 0.009836676 0.5880151
        0.70273244 0.011294648 0.58803576 0.7065671 0.012754758 0.58806145
        0.71049225 0.0141998045 0.58809304 0.71448934 0.015613136 0.58813125
        0.71853924 0.016979191 0.58817655 0.7226218 0.01828336 0.5882292
        0.72696054 0.019583821 0.5882927 0.7312908 0.02078971 0.5883637
        0.73559004 0.021893516 0.58844125 0.73983496 0.022891255 0.5885241
        0.7440034 0.023782676 0.5886107 0.74807394 0.024570756 0.5886994
        0.7520265 0.025261203 0.58878857 0.75584275 0.025861807 0.58887666
        0.75950646 0.02638176 0.5889623 0.763004 0.026830973 0.5890443
        0.76632416 0.027219405 0.5891218 0.7694587 0.02755645 0.5891942
        0.77240235 0.027850488 0.5892611 0.77515286 0.028108677 0.58932245
        0.77771086 0.028336914 0.5893782 0.78007936 0.028539931 0.58942866
        0.7822637 0.028721435 0.589474 0.78427094 0.028884303 0.5895148
        0.78610927 0.02903076 0.58955127 0.78778803 0.02916255 0.5895838
        0.7893169 0.029281076 0.58961296 0.7907059 0.029387493 0.5896389
        0.7919653 0.029482802 0.5896621 0.7931049 0.029567916 0.5896828
        0.79413444 0.029643673 0.58970124 0.7950632 0.029710894 0.5897178
        0.7959 0.029770374 0.5897325 0.79665315 0.029822888 0.5897457
        0.7973304 0.029869199 0.58975756 0.797939 0.02991004 0.5897681
        0.7984857 0.029946119 0.5897776 0.7989765 0.029978115 0.589786
        0.799417 0.03000667 0.58979356 0.7998123 0.030032381 0.5898003
        0.800167 0.030055813 0.5898063 0.80048513 0.030077474 0.5898117
        0.8007704 0.030097837 0.5898164 0.8010261 0.030117316 0.5898205
        0.8012551 0.030136285 0.58982414 0.8014602 0.030155057 0.5898273
        0.8016436 0.0301739 0.58983004 0.80180764 0.030193035 0.5898323
        0.8019539 0.03021257 0.5898342 0.8020855 0.030232884 0.5898358
        0.80219764 0.030252617 0.5898371 0.80231047 0.030276475 0.589838
        0.8024325 0.030308258 0.58983886 0.802557 0.030348336 0.5898393
        0.80268145 0.030397397 0.5898392 0.8028047 0.030456467 0.5898386
        0.8029252 0.03052598 0.58983743 0.8030415 0.030606033 0.5898355
        0.8031522 0.03069628 0.589833 0.8032562 0.030796006 0.5898299
        0.80335295 0.030904153 0.58982617 0.8034421 0.031019399 0.5898219
        0.803524 0.031140245 0.5898171 0.8035995 0.031265154 0.589812
        0.8036698 0.03139265 0.5898066 0.8037366 0.031521477 0.5898011
        0.80320764 0.031567138 0.5897882 0.8032109 0.03167028 0.5897827
        0.8032027 0.03177324 0.589777 0.8031831 0.031874854 0.58977115
        0.80315226 0.031973965 0.5897652 0.8031107 0.032069463 0.5897592
        0.80305886 0.03216027 0.5897532 0.8029974 0.032245398 0.5897473
        0.8029272 0.032323904 0.58974165 0.80284905 0.03239498 0.5897362
        0.802764 0.032457896 0.5897311 0.80267316 0.032512058 0.58972627
        0.8025777 0.032557018 0.5897219 0.80247885 0.032592457 0.589718
        0.80237794 0.032618236 0.5897146 0.8022772 0.032638982 0.5897114
        0.8021642 0.032662135 0.58970785 0.8020375 0.032687966 0.5897039
        0.80189544 0.032716755 0.5896995 0.8017362 0.032748822 0.5896945
        0.8015578 0.032784503 0.58968896 0.80135787 0.032824166 0.58968276
        0.80113405 0.032868207 0.5896758 0.8008834 0.03291705 0.58966804
        0.800603 0.032971144 0.58965933 0.80028915 0.03303098 0.5896497
        0.7999383 0.03309706 0.5896388 0.7995462 0.033169918 0.5896267
        0.7991082 0.033250112 0.5896133 0.7986193 0.033338223 0.5895983
        0.7980739 0.033434834 0.58958155 0.797466 0.033540566 0.58956295
        0.79678893 0.033656012 0.5895422 0.7960357 0.03378179 0.5895192
        0.79519844 0.033918474 0.58949363 0.7942689 0.034066617 0.58946514
        0.7932382 0.034226708 0.5894336 0.79209685 0.034399137 0.5893986
        0.79083496 0.034584124 0.5893598 0.78944194 0.034781687 0.58931684
        0.78790706 0.03499148 0.5892694 0.7862192 0.035212714 0.5892169
        0.784367 0.035443947 0.5891591 0.78233963 0.035682924 0.5890955
        0.7801262 0.035926316 0.58902574 0.77771676 0.036169473 0.58894956
        0.7751024 0.036406133 0.5888668 0.7722756 0.03662812 0.58877724
        0.76923114 0.036825135 0.5886813 0.76596624 0.03698459 0.58857924
        0.76248133 0.037091635 0.5884721 0.75878084 0.037129458 0.5883611
        0.7548736 0.03707993 0.5882479 0.75077313 0.036924552 0.5881347
        0.74649775 0.036645543 0.58802414 0.7420704 0.03622704 0.58791906
        0.73751813 0.035656363 0.5878223 0.7328718 0.034925222 0.5877367
        0.72816473 0.034030706 0.5876646 0.72343194 0.032975882 0.58760774
        0.7187088 0.031770017 0.587567 0.71428907 0.030506358 0.58754313
        0.70993567 0.029138148 0.5875327 0.70567286 0.027684722 0.58753425
        0.7015222 0.026166758 0.5875459 0.69750196 0.024604352 0.5875655
        0.69362813 0.023015393 0.587591 0.68991345 0.021415884 0.5876203
        0.6863676 0.019819451 0.5876516 0.68299735 0.01823692 0.5876833
        0.67980677 0.016676078 0.58771414 0.6767982 0.0151422005 0.58774304
        0.67397314 0.013639288 0.5877694 0.6713324 0.012171143 0.5877925
        0.668876 0.010742154 0.58781224 0.6666023 0.009357549 0.5878284
        0.664508 0.0080230795 0.58784086 0.66258746 0.0067443517 0.5878499
        0.6608332 0.005526139 0.58785576 0.65923595 0.0043718535 0.5878587
        0.6577857 0.0032834583 0.5878591 0.6564721 0.0022615925 0.5878575
        0.6552847 0.00130577 0.58785415 0.65421355 0.00041459626 0.58784944
        0.6532489 -0.00041401968 0.5878437 0.65238166 -0.0011826768 0.5878372
        0.6516032 -0.0018943193 0.5878302 0.65090555 -0.0025521042 0.5878229
        0.65028125 -0.0031592918 0.5878155 0.64972335 -0.003719164 0.5878081
        0.6492255 -0.0042349603 0.5878008 0.6487819 -0.004709828 0.5877937
        0.64838713 -0.005146795 0.58778685 0.6480364 -0.0055487407 0.58778036
        0.6477253 -0.0059183883 0.58777416 0.6474497 -0.006258293 0.5877683
        0.64720595 -0.0065708435 0.58776283 0.6469907 -0.0068582613 0.58775765
        0.646801 -0.0071226065 0.5877528 0.6466341 -0.007365783 0.58774835
        0.64648753 -0.007589548 0.5877442 0.6463591 -0.007795516 0.58774036
        0.64624685 -0.007985171 0.5877368 0.6461489 -0.008159876 0.5877335
        0.6460638 -0.008320878 0.58773047 0.64599 -0.00846932 0.58772767
        0.64592624 -0.008606245 0.5877251 0.6458655 -0.008746668 0.5877224
        0.64580876 -0.008890021 0.5877198 0.64575726 -0.009035223 0.5877171
        0.64571214 -0.009181204 0.5877144 0.64567447 -0.009326913 0.58771175
        0.6456454 -0.009471336 0.5877092 0.64562577 -0.009613492 0.5877067
        0.6456164 -0.009752459 0.5877043 0.64561814 -0.009887371 0.58770204
        0.64563143 -0.010017436 0.58769995 0.6456568 -0.010141935 0.5876981
        0.64569455 -0.010260232 0.5876964 0.6457449 -0.01037178 0.5876949
        0.64580774 -0.0104761245 0.58769363 0.6458826 -0.010572249 0.5876926
        0.6459687 -0.010659244 0.58769184 0.64606553 -0.010736967 0.5876913
        0.6461726 -0.010805381 0.587691 0.64628917 -0.010864566 0.587691
        0.64641434 -0.010914695 0.5876912 0.64654726 -0.010956051 0.5876916
        0.6466868 -0.010989005 0.58769226 0.6468318 -0.011014011 0.58769304
        0.64698106 -0.011031603 0.58769405 0.6471332 -0.011042384 0.5876952
        0.64728683 -0.0110470075 0.58769643 0.6474406 -0.011046177 0.58769774
        0.6475931 -0.011040628 0.5876991 0.64774334 -0.011031079 0.58770055
        0.6479079 -0.011016477 0.5877022 0.64808816 -0.010996034 0.5877041
        0.6482857 -0.0109688705 0.58770627 0.6485022 -0.010934001 0.58770865
        0.6487396 -0.0108903255 0.58771133 0.649 -0.010836624 0.58771443
        0.6492857 -0.010771538 0.58771783 0.64959913 -0.010693571 0.58772165
        0.64994305 -0.010601065 0.5877259 0.6503204 -0.010492205 0.58773065
        0.65073454 -0.010364997 0.5877359 0.6511889 -0.010217272 0.5877417
        0.6516873 -0.010046676 0.58774793 0.65223396 -0.009850672 0.5877549
        0.6528333 -0.009626544 0.5877624 0.65349007 -0.009371408 0.5877706
        0.65420943 -0.009082232 0.5877794 0.6549968 -0.008755862 0.5877888
        0.65585804 -0.008389072 0.58779883 0.6567992 -0.007978614 0.5878094
        0.6578267 -0.0075212964 0.5878204 0.6589472 -0.0070140683 0.5878318
        0.6601676 -0.006454135 0.58784354 0.661495 -0.0058390717 0.58785534
        0.6629366 -0.0051669506 0.5878672 0.6644998 -0.004436451 0.5878788
        0.6661921 -0.0036469263 0.58789015 0.668021 -0.002798377 0.58790094
        0.6699945 -0.0018912513 0.58791107 0.6721205 -0.00092603074 0.5879204
        0.67440736 9.71048e-05 0.5879291 0.67686236 0.0011784441 0.5879371
        0.67949116 0.0023186137 0.58794475 0.68229663 0.003518072 0.5879521
        0.685278 0.0047763307 0.58795965 0.68843055 0.0060910457 0.587968
        0.691746 0.0074571194 0.5879778 0.69521314 0.008866337 0.5879898
        0.69881934 0.010307612 0.5880049 0.70255005 0.011767248 0.588024
        0.7063894 0.0132293645 0.5880482 0.71032023 0.014676684 0.5880783
        0.71432394 0.016092528 0.5881151 0.71838105 0.017461197 0.588159
        0.722472 0.018768223 0.5882104 0.7268198 0.020071544 0.5882727
        0.73116004 0.02128034 0.58834267 0.7354693 0.022386825 0.5884193
        0.73972434 0.02338702 0.5885014 0.7439027 0.024280604 0.5885874
        0.74798274 0.02507053 0.5886756 0.7519441 0.025762504 0.58876437
        0.7557685 0.026364336 0.58885217 0.7594394 0.026885236 0.5889376
        0.7629431 0.02733515 0.58901936 0.7662685 0.027724087 0.58909667
        0.76940733 0.028061485 0.58916897 0.7723544 0.028355753 0.5892357
        0.77510756 0.028614094 0.5892969 0.7776676 0.028842429 0.58935255
        0.78003764 0.029045505 0.5894029 0.78222317 0.029227054 0.5894482
        0.78423125 0.029389959 0.5894888 0.7860703 0.029536458 0.5895252
        0.7877495 0.029668301 0.5895577 0.7892789 0.029786896 0.58958673
        0.7906685 0.029893404 0.58961266 0.79192835 0.02998883 0.5896358
        0.79306847 0.030074075 0.58965635 0.7940986 0.030149976 0.58967483
        0.795028 0.030217336 0.5896913 0.7958653 0.030276928 0.589706
        0.7966188 0.030329492 0.5897192 0.7972963 0.030375736 0.589731
        0.79790473 0.03041633 0.58974147 0.79845077 0.0304519 0.58975095
        0.79894036 0.030483019 0.5897594 0.79937917 0.030510219 0.589767
        0.79977214 0.030533975 0.5897737 0.8001238 0.030554717 0.5897798
        0.80043846 0.030572822 0.5897852 0.80071986 0.030588634 0.5897901
        0.8009713 0.030602446 0.58979446 0.80119604 0.030614521 0.58979833
        0.8013967 0.03062508 0.58980185 0.80157596 0.03063433 0.5898049
        0.8017359 0.030642431 0.58980775 0.8018787 0.03064954 0.5898102
        0.80200607 0.03065578 0.5898124 0.8021197 0.030661264 0.58981436
        0.802221 0.03066609 0.58981615 0.8023233 0.030675711 0.5898177
        0.80242515 0.030695047 0.5898187 0.80252534 0.030724155 0.5898192
        0.8026226 0.030762943 0.5898191 0.80271584 0.03081116 0.5898184
        0.8028038 0.03086842 0.58981717 0.8028855 0.030934203 0.5898154
        0.8029598 0.031007873 0.58981293 0.80302596 0.031088676 0.58981
        0.80308294 0.031175764 0.58980656 0.8031302 0.031268194 0.58980256
        0.803167 0.03136496 0.58979815 0.8031929 0.03146498 0.5897934
        0.80320764 0.031567138 0.5897882
        <InformationKey name="L2_NORM_RANGE" location="vtkDataArray" length="2">
          <Value index="0">
            0.87068118055
          </Value>
          <Value index="1">
            0.99966432627
          </Value>
        </InformationKey>
      </DataArray>
    </Points>
  </Piece>
  </StructuredGrid>
</VTKFile>
