<?xml version="1.0"?>
<VTKFile type="StructuredGrid" version="0.1" byte_order="LittleEndian" header_type="UInt32" compressor="vtkZLibDataCompressor">
  <StructuredGrid WholeExtent="0 30 0 40 0 0">
  <Piece Extent="0 30 0 40 0 0">
    <PointData>
      <DataArray type="Float32" Name="orthogonality" format="ascii" RangeMin="0" RangeMax="0.06053294613957405">
        0.059661873 0.05891484 0.058264792 0.057691135 0.057167973 0.056669205
        0.056171484 0.055655 0.05510293 0.05450049 0.053834043 0.053090405
        0.052256156 0.051316857 0.05025595 0.049053486 0.047685027 0.046121333
        0.04432948 0.04227552 0.03992814 0.037262395 0.03426254 0.030923603
        0.027251983 0.023265539 0.018993493 0.014476133 0.009764063 0.0049167126
        0 0.058127042 0.058139622 0.057991013 0.057727113 0.057379484
        0.056969088 0.056506652 0.055994797 0.05543048 0.054807015 0.054115415
        0.05334508 0.052484043 0.051518634 0.05043274 0.04920671 0.047816336
        0.046232592 0.044422746 0.042352952 0.039991908 0.03731455 0.034304906
        0.030957744 0.027279172 0.023286782 0.01900956 0.014487597 0.009771343
        0.0049201245 2.9056304e-07 0.057397902 0.057671547 0.057742715 0.05767301
        0.057473525 0.057162337 0.056757413 0.056272022 0.055713147 0.055081863
        0.0543746 0.053584304 0.05270122 0.051713057 0.050604556 0.049356624
        0.047945477 0.04634245 0.04451509 0.04242974 0.040055186 0.037366293
        0.03434692 0.030991573 0.027306087 0.02330779 0.019025426 0.014498895
        0.009778489 0.0049234326 6.560568e-07 0.056933463 0.057284717 0.057459414
        0.05751442 0.05743845 0.057232287 0.05690533 0.05647023 0.05593813
        0.055315934 0.054605547 0.053804282 0.052905504 0.051899046 0.050771046
        0.049503364 0.048072886 0.046451468 0.044607088 0.04250642 0.04011841
        0.037417967 0.034388818 0.031025251 0.027332837 0.023328632 0.019041143
        0.014510067 0.009785536 0.0049266666 1.0698715e-06 0.056596745 0.05697852
        0.057203602 0.057332136 0.057343714 0.05722626 0.056977388 0.05660248
        0.056110688 0.055510767 0.054808337 0.05400467 0.053096533 0.052076343
        0.050932087 0.04964689 0.048198573 0.04655969 0.04469881 0.04258305
        0.04018165 0.037469633 0.034430664 0.03105884 0.027359476 0.02334936
        0.019056756 0.014521153 0.009792514 0.0049298545 1.5095554e-06 0.05633672
        0.05673278 0.056984615 0.057157014 0.057227816 0.0571787 0.056998376
        0.05668377 0.056238547 0.055669717 0.05498409 0.054185633 0.05327416
        0.052244756 0.051087514 0.0497871 0.04832248 0.046667103 0.044790253
        0.042659648 0.040244933 0.037521325 0.034472495 0.031092374 0.02738604
        0.023370007 0.019072294 0.014532176 0.009799449 0.0049330154 1.9596744e-06
        0.05612855 0.056531973 0.056799144 0.056998722 0.05710953 0.05711122
        0.056987308 0.056727823 0.05633009 0.055797156 0.055134706 0.0543478
        0.053438436 0.052404147 0.05123716 0.049923852 0.048444502 0.046773624
        0.044881377 0.04273619 0.04030825 0.037573047 0.03451432 0.031125868
        0.027412541 0.02339059 0.019087775 0.014543153 0.009806354 0.004936162
        2.4092135e-06 0.055958074 0.056365464 0.056641944 0.056859054 0.05699733
        0.057036456 0.056957543 0.056745928 0.056393288 0.05589788 0.05526266
        0.05449221 0.053589687 0.052554514 0.051380917 0.05005702 0.048564535
        0.04687917 0.044972107 0.042812634 0.040371567 0.037624784 0.034556128
        0.031159325 0.02743899 0.023411116 0.019103203 0.0145540945 0.009813239
        0.0049393033 2.8499273e-06 0.055816364 0.05622592 0.056508284 0.05673712
        0.056894656 0.05696149 0.05691801 0.056746785 0.05643513 0.055976648
        0.05537073 0.054620266 0.053728484 0.052696023 0.051518768 0.05018652
        0.048682477 0.04698365 0.04506238 0.042888924 0.040434852 0.03767651
        0.03459792 0.031192739 0.027465386 0.023431588 0.01911859 0.014565008
        0.009820111 0.0049424465 3.2754226e-06 0.055697437 0.056108136 0.056394342
        0.056631256 0.056802604 0.05689016 0.056874506 0.05673683 0.05646142
        0.05603786 0.05546179 0.05473359 0.053855617 0.052828975 0.051650777
        0.050312314 0.048798256 0.047086995 0.04515212 0.042965 0.04049806
        0.037728198 0.034639668 0.031226104 0.02749173 0.023452012 0.019133938
        0.014575896 0.009826976 0.0049455976 3.68062e-06 0.055597093 0.056008335
        0.056297105 0.056539737 0.0567212 0.056824446 0.05683071 0.056720715
        0.05647681 0.056085426 0.055538636 0.05483392 0.05397202 0.052953806
        0.051777102 0.050434418 0.048911825 0.047189124 0.04524126 0.043040805
        0.040561147 0.03777982 0.03468136 0.031259406 0.027518013 0.023472385
        0.01914925 0.014586764 0.009833838 0.00494876 4.061414e-06 0.055512276
        0.055923715 0.05621422 0.05646099 0.05665001 0.05676531 0.05678895
        0.056701742 0.056484956 0.05612268 0.055603877 0.05492302 0.054078754
        0.053071063 0.051897973 0.050552893 0.04902316 0.047289982 0.04532973
        0.04311628 0.04062407 0.03783134 0.034722973 0.03129264 0.027544234
        0.023492707 0.019164523 0.014597614 0.0098407 0.0049519376 4.4144517e-06
        0.055440728 0.05585215 0.056143854 0.05639368 0.056588445 0.05671313
        0.05675066 0.05668225 0.05648869 0.056152437 0.055659886 0.05500263
        0.05417693 0.053181376 0.0520137 0.05066786 0.049132273 0.047389537
        0.04541748 0.04319137 0.04068678 0.037882723 0.03476448 0.031325787
        0.027570382 0.023512973 0.019179763 0.014608448 0.009847564 0.004955133
        4.7369736e-06 0.05538073 0.055792022 0.056084562 0.056336693 0.056535907
        0.056668002 0.056716736 0.056663893 0.056490183 0.056177028 0.055708777
        0.055074405 0.05426768 0.05328543 0.05212464 0.05077946 0.049239196
        0.047487747 0.04550445 0.043266013 0.040749222 0.03793394 0.034805864
        0.031358834 0.027596451 0.02353318 0.019194964 0.014619266 0.009854432
        0.004958348 5.0267035e-06 0.05533099 0.05574209 0.05603522 0.05628912
        0.056491837 0.05662987 0.05668773 0.056647852 0.05649113 0.05619838
        0.055752408 0.0551399 0.054352142 0.05338396 0.05223121 0.050887894
        0.04934398 0.04758461 0.045590598 0.04334016 0.04081136 0.03798494
        0.034847096 0.03139177 0.027622435 0.023553327 0.019210128 0.014630068
        0.009861306 0.004961585 5.281767e-06 0.055290513 0.05570139 0.05599495
        0.056250248 0.056455772 0.05659862 0.056664 0.056634985 0.05649283
        0.05621808 0.055792406 0.055200543 0.054431424 0.053477716 0.052333858
        0.050993375 0.04944671 0.047680106 0.045675877 0.043413762 0.04087314
        0.038035706 0.034888152 0.03142457 0.02764832 0.023573406 0.01922525
        0.014640856 0.009868187 0.004964845 5.5006285e-06 0.05525855 0.0556692
        0.05596309 0.056219507 0.056427322 0.056574136 0.056645777 0.056625944
        0.056496337 0.056237463 0.055830203 0.055257667 0.0545066 0.053567465
        0.052433047 0.05109616 0.04954747 0.047774248 0.04576025 0.04348676
        0.040934518 0.038086187 0.034929007 0.031457223 0.027674101 0.023593413
        0.019240333 0.014651626 0.009875073 0.0049681286 5.6820477e-06 0.055234544
        0.055644985 0.055939134 0.056196477 0.0564062 0.056556333 0.05663325
        0.05662124 0.056502495 0.056257647 0.05586705 0.05531248 0.054578695
        0.053653967 0.05252928 0.051196504 0.049646378 0.047867052 0.045843683
        0.04355911 0.04099544 0.038136348 0.03496963 0.03148971 0.027699763
        0.023613343 0.019255368 0.01466238 0.009881967 0.0049714367 5.825043e-06
        0.0552181 0.05562836 0.055922735 0.056180872 0.056392215 0.05654517
        0.05662658 0.056621306 0.056512028 0.056279607 0.05590407 0.055366114
        0.054648697 0.05373797 0.052623045 0.051294696 0.049743548 0.04795853
        0.04592615 0.043630764 0.04105587 0.038186155 0.03501 0.031522017
        0.027725298 0.023633188 0.019270357 0.014673116 0.009888867 0.0049747694
        5.9288677e-06 0.05520897 0.055619083 0.05591367 0.05617251 0.056385268
        0.05654066 0.056625966 0.056626547 0.056525577 0.056304205 0.055942275
        0.0554196 0.054717537 0.053820208 0.052714843 0.051391017 0.049839105
        0.048048712 0.04600762 0.043701675 0.041115753 0.038235568 0.035050087
        0.03155412 0.027750695 0.023652943 0.019285291 0.014683831 0.009895773
        0.0049781273 5.9929916e-06 0.055207033 0.05561704 0.055911843 0.05617133
        0.056385353 0.0565429 0.05663163 0.056637358 0.056543745 0.05633224
        0.055982605 0.055473916 0.0547861 0.053901393 0.052805174 0.051485755
        0.04993318 0.048137624 0.046088062 0.043771796 0.041175045 0.038284548
        0.03508986 0.031586006 0.027775941 0.023672601 0.019300172 0.014694523
        0.009902684 0.00498151 6.017087e-06 0.055212278 0.055622224 0.055917274
        0.05617738 0.056392565 0.056552056 0.056643844 0.056654174 0.05656713
        0.056364484 0.05602594 0.05552998 0.05485525 0.05398222 0.052894518
        0.051579196 0.050025903 0.048225295 0.046167456 0.043841083 0.041233703
        0.038333055 0.035129298 0.031617653 0.027801028 0.023692155 0.019314993
        0.014705192 0.009909599 0.0049849167 6.001024e-06 0.05522482 0.055634767
        0.055930097 0.056190826 0.056407113 0.056568403 0.05666298 0.05667747
        0.056596354 0.056401685 0.05607315 0.055588685 0.05492579 0.054063346
        0.052983336 0.051671613 0.0501174 0.04831175 0.046245776 0.043909486
        0.041291676 0.038381055 0.03516837 0.031649046 0.027825939 0.023711598
        0.01932975 0.0147158345 0.009916516 0.0049883476 5.9448676e-06 0.055244904
        0.055654906 0.055950567 0.056211945 0.056429315 0.05659231 0.05668949
        0.056707807 0.05663209 0.056444637 0.056125093 0.05565089 0.054998506
        0.0541454 0.05307207 0.051763266 0.050207786 0.048397016 0.046322998
        0.043976966 0.04134892 0.03842851 0.035207044 0.03168016 0.027850665
        0.023730922 0.01934444 0.014726447 0.009923435 0.004991801 5.8488813e-06
        0.05527289 0.055683013 0.055979084 0.05624116 0.056459624 0.05662429
        0.05672395 0.056745846 0.056675095 0.056494176 0.056182645 0.05571745
        0.05507415 0.054228976 0.053161137 0.0518544 0.05029717 0.048481107
        0.046399087 0.04404347 0.041405383 0.03847538 0.035245296 0.031710982
        0.027875194 0.02375012 0.019359054 0.014737027 0.009930353 0.004995276
        5.7135344e-06 0.05530929 0.05571962 0.056016184 0.056279033 0.056498654
        0.056665 0.05676708 0.056792382 0.056726243 0.056551218 0.056246717
        0.055789214 0.055153456 0.054314636 0.053250913 0.05194523 0.050385647
        0.04856404 0.046474013 0.044108953 0.04146103 0.038521625 0.0352831
        0.03174149 0.027899513 0.023769183 0.019373592 0.014747571 0.009937267
        0.0049987715 5.5395135e-06 0.055354793 0.055765424 0.056062598 0.056326333
        0.0565472 0.056715295 0.056819804 0.056848396 0.05678654 0.056616776
        0.056318276 0.055867035 0.05523711 0.054402895 0.053341735 0.052035946
        0.050473284 0.04864581 0.046547744 0.044173367 0.0415158 0.038567208
        0.035320424 0.031771667 0.027923608 0.023788106 0.019388046 0.0147580765
        0.009944175 0.005002286 5.3277436e-06 0.05541029 0.05582133 0.056119267
        0.056384034 0.056606296 0.056776263 0.05688326 0.056915075 0.056857187
        0.056692 0.056398354 0.05595177 0.05532578 0.054494217 0.0534339
        0.0521267 0.050560143 0.048726413 0.04662023 0.04423666 0.041569658
        0.03861209 0.03535724 0.03180149 0.027947467 0.023806876 0.01940241
        0.014768538 0.0099510765 0.005005817 5.079411e-06 0.055476923 0.05588851
        0.056187406 0.056453414 0.056677274 0.056849297 0.0569589 0.056993883
        0.05693961 0.05677819 0.05648805 0.056044284 0.055420082 0.05458901
        0.053527646 0.052217603 0.05064625 0.048805825 0.046691433 0.044298775
        0.041622546 0.038656235 0.03539352 0.03183094 0.027971078 0.023825485
        0.01941668 0.014778952 0.009957965 0.005009363 4.795999e-06 0.055556163
        0.05596848 0.05626859 0.056536112 0.056761857 0.0569362 0.057048563
        0.057086643 0.057035506 0.05687682 0.056588534 0.056145422 0.055520568
        0.054687604 0.053623144 0.05230873 0.05073161 0.04888401 0.046761297
        0.04435966 0.04167442 0.0386996 0.035429243 0.03186 0.027994428
        0.023843927 0.01943085 0.014789315 0.00996484 0.0050129206 4.479329e-06
        0.05564991 0.05606318 0.05636486 0.05663428 0.0568623 0.057039294
        0.057154596 0.057195608 0.057146903 0.056989554 0.05670104 0.056256
        0.055627726 0.054790247 0.0537205 0.05240011 0.050816197 0.04896092
        0.046829756 0.04441926 0.041725226 0.03874215 0.03546437 0.031888653
        0.0280175 0.023862192 0.019444909 0.01479962 0.009971695 0.005016487
        4.1316202e-06 0.05576064 0.056175172 0.056478918 0.056750763 0.05698157
        0.057161644 0.057280023 0.057323586 0.057276197 0.057118237 0.05682683
        0.05637676 0.05574192 0.05489709 0.05381975 0.0524917 0.050899953
        0.049036488 0.046896752 0.044477507 0.041774917 0.038783845 0.035498876
        0.03191687 0.028040286 0.02388027 0.019458855 0.014809863 0.009978527
        0.005020059 3.7555626e-06 0.055891633 0.056307875 0.056614388 0.056889396
        0.05712369 0.057307307 0.057428747 0.057474066 0.0574262 0.05726488
        0.056967136 0.056508336 0.0558634 0.055008158 0.05392082 0.052583415
        0.050982796 0.04911063 0.046962205 0.04453434 0.04182344 0.038824644
        0.035532735 0.03194464 0.028062766 0.023898149 0.019472677 0.0148200365
        0.0099853305 0.005023632 3.3544172e-06 0.056047354 0.056465954 0.056776285
        0.05705551 0.057294186 0.05748178 0.057605863 0.057651334 0.057600137
        0.05743157 0.057123087 0.056651175 0.055992212 0.05512334 0.054023568
        0.05267512 0.0510646 0.049183246 0.04702603 0.04458969 0.041870743
        0.03886451 0.035565916 0.03197194 0.028084932 0.02391582 0.01948637
        0.014830136 0.0099921 0.005027202 2.9321486e-06 0.05623405 0.056656033
        0.05697179 0.057256754 0.057500884 0.057692576 0.057817973 0.05786059
        0.05780156 0.057620358 0.057295576 0.05680546 0.056128208 0.05524237
        0.05412773 0.052766606 0.05114521 0.049254224 0.047088146 0.044643495
        0.041916773 0.0389034 0.035598394 0.031998746 0.028106764 0.023933273
        0.019499922 0.014840152 0.00999883 0.005030762 2.4936114e-06 0.05646087
        0.056887925 0.057211682 0.057504553 0.057755165 0.057950087 0.05807357
        0.058107894 0.05803414 0.05783299 0.0574851 0.056971025 0.05627096
        0.055364814 0.054232955 0.052857615 0.051224444 0.04932343 0.04714846
        0.044695683 0.04196148 0.038941283 0.03563014 0.032025043 0.02812825
        0.023950495 0.019513328 0.014850078 0.010005511 0.005034306 2.0448156e-06
        0.056742013 0.05717717 0.057513244 0.05781686 0.058074027 0.058268644
        0.05838322 0.058399882 0.058301236 0.058070585 0.057691537 0.05714723
        0.05641975 0.05549005 0.054338783 0.052947823 0.051302098 0.049390722
        0.047206864 0.044746183 0.042004816 0.038978122 0.03566113 0.032050814
        0.028149376 0.023967477 0.019526573 0.014859905 0.010012137 0.0050378265
        1.5933185e-06 0.057101533 0.057550862 0.057906583 0.058223423 0.05848319
        0.058667492 0.058759134 0.05874285 0.058605094 0.05833314 0.057913918
        0.05733291 0.056573547 0.055617306 0.054444674 0.05303689 0.051377945
        0.049455967 0.047263276 0.044794932 0.04204674 0.039013885 0.035691343
        0.03207604 0.028170127 0.023984205 0.01953965 0.014869622 0.010018696
        0.005041313 1.1488274e-06 0.05758622 0.05806391 0.058450047 0.058775567
        0.059020627 0.05917018 0.05921314 0.059140913 0.058945708 0.05861897
        0.05815023 0.057526305 0.056731034 0.05574567 0.054550044 0.05312445
        0.051451765 0.049519032 0.047317617 0.044841893 0.04208722 0.039048556
        0.035720766 0.03210071 0.028190501 0.024000676 0.019552551 0.014879221
        0.010025179 0.0050447537 7.241013e-07 0.05830989 0.05885768 0.059268344
        0.059559084 0.05973451 0.059797946 0.059750874 0.059592433 0.05931902
        0.058923934 0.058397103 0.057724956 0.05689053 0.055874053 0.05465422
        0.0532101 0.051523335 0.04957979 0.047369815 0.044887014 0.04212623
        0.03908212 0.035749387 0.032124825 0.028210485 0.024016878 0.019565267
        0.01488869 0.010031571 0.0050481334 3.3581213e-07 0.059661873 0.06006197
        0.06033671 0.06049085 0.060532946 0.060471226 0.06031088 0.060052946
        0.059694152 0.05922713 0.058640648 0.05791979 0.057046223 0.05599887
        0.054755125 0.053292796 0.05159228 0.049638264 0.04742009 0.044930574
        0.04216402 0.03911476 0.035777327 0.032148436 0.028230106 0.024032813
        0.019577784 0.014898011 0.010037854 0.005051434 6.01e-14
      </DataArray>
      <DataArray type="Float32" Name="aspect_ratio" format="ascii" RangeMin="1.031335473060608" RangeMax="12.13459300994873">
        3.0151234 2.529505 2.152864 1.8330114 1.561481 1.331036
        1.1355014 1.0313355 1.2064084 1.4093076 1.6437325 1.9136033
        2.2229607 2.5758145 2.9759266 3.426517 3.9298832 4.4869356
        5.096652 5.755485 6.456763 7.1901593 7.941332 8.691848
        9.419517 10.099233 10.70436 11.208602 11.588195 11.824144
        11.984079 3.011114 2.526148 2.1501598 1.8309145 1.5598854
        1.3298297 1.134588 1.0320756 1.2071856 1.4101286 1.644605
        1.9145354 2.2239614 2.5768943 2.977098 3.4277952 3.9312868
        4.488486 5.098372 5.7573967 6.458885 7.192505 7.9439063
        8.694649 9.422533 10.102447 10.707745 11.212126 11.591818
        11.827824 11.987794 3.0092714 2.5239875 2.148045 1.8290697
        1.558377 1.3286403 1.1336672 1.0328306 1.2079805 1.4109675
        1.6454937 1.9154816 2.2249737 2.577983 2.9782755 3.429077
        3.9326913 4.490035 5.1000886 5.7593036 6.461001 7.1948423
        7.946472 8.69744 9.425541 10.105652 10.711123 11.215645
        11.595439 11.831503 11.991511 3.0079474 2.5225127 2.1465337
        1.8276412 1.5571141 1.3275791 1.1328067 1.0335593 1.2087624
        1.4118012 1.6463816 1.9164281 2.2259862 2.5790706 2.9794502
        3.4303534 3.9340882 4.4915733 5.1017923 5.7611947 6.4630985
        7.197161 7.949018 8.700212 9.42853 10.108841 10.714488
        11.219152 11.599053 11.83518 11.995231 3.006805 2.521325
        2.1453395 1.8264884 1.5560528 1.3266463 1.1320186 1.0342498
        1.2095207 1.4126221 1.6472634 1.9173728 2.2269986 2.5801585
        2.9806242 3.4316282 3.9354815 4.493107 5.103488 5.763076
        6.465185 7.199466 7.9515495 8.70297 9.431504 10.112017
        10.717841 11.222652 11.602662 11.838857 11.998953 3.0057464
        2.5202825 2.1443212 1.8255103 1.5551392 1.325822 1.1313008
        1.0348976 1.2102488 1.4134241 1.6481353 1.9183135 2.2280104
        2.5812476 2.9818003 3.4329045 3.9368756 4.494639 5.1051817
        5.764953 6.4672656 7.2017646 7.954073 8.705718 9.43447
        10.115186 10.721189 11.226149 11.606269 11.842532 12.002677
        3.0047328 2.5193224 2.1434083 1.8246453 1.5543308 1.3250835
        1.1306452 1.0355034 1.2109442 1.4142034 1.6489933 1.9192473
        2.2290204 2.5823379 2.982979 3.434184 3.9382727 4.496174
        5.1068764 5.76683 6.469344 7.204059 7.9565916 8.708462
        9.437431 10.118349 10.724531 11.229641 11.609875 11.846209
        12.006404 3.0037465 2.5184135 2.1425624 1.8238556 1.5535975
        1.3244114 1.1300417 1.0360705 1.2116064 1.4149574 1.6498343
        1.9201714 2.2300265 2.5834281 2.9841602 3.4354672 3.939674
        4.497712 5.1085744 5.7687087 6.471423 7.206353 7.959109
        8.711203 9.44039 10.12151 10.727872 11.233132 11.613481
        11.849886 12.010133 3.002777 2.5175383 2.141761 1.8231181
        1.5529183 1.3237902 1.1294811 1.0366032 1.2122369 1.4156852
        1.6506561 1.9210835 2.2310264 2.5845168 2.985343 3.4367545
        3.9410796 4.4992557 5.110276 5.7705913 6.4735045 7.208648
        7.9616256 8.713943 9.443346 10.124668 10.731212 11.236623
        11.617085 11.853565 12.0138645 3.001819 2.5166855 2.140991
        1.8224176 1.5522791 1.3232081 1.1289554 1.0371064 1.2128382
        1.4163873 1.6514577 1.9219815 2.2320182 2.5856025 2.9865267
        3.4380448 3.9424903 4.500805 5.111984 5.772478 6.4755893
        7.2109456 7.9641438 8.716682 9.446302 10.127827 10.73455
        11.240113 11.620692 11.857245 12.017599 3.000868 2.515849
        2.1402428 1.8217441 1.5516698 1.3226562 1.1284577 1.0375845
        1.2134132 1.4170647 1.6522386 1.9228642 2.2330005 2.5866838
        2.98771 3.4393377 3.943906 4.5023594 5.1136975 5.77437
        6.477679 7.213246 7.966664 8.719424 9.449259 10.130985
        10.73789 11.243605 11.6243 11.860929 12.021336 2.9999228
        2.5150242 2.1395113 1.8210907 1.5510831 1.3221279 1.1279827
        1.0380416 1.2139652 1.4177191 1.6529992 1.9237309 2.2339718
        2.5877593 2.9888918 3.440633 3.945326 4.50392 5.115417
        5.7762685 6.479773 7.2155504 7.9691873 8.722168 9.452217
        10.134145 10.74123 11.247097 11.627909 11.864613 12.025075
        2.998981 2.5142078 2.1387918 1.8204527 1.5505141 1.3216184
        1.1275263 1.0384806 1.2144966 1.4183524 1.6537399 1.9245813
        2.2349315 2.5888278 2.9900715 3.4419296 3.9467502 4.5054865
        5.1171436 5.778173 6.481873 7.2178597 7.9717135 8.724914
        9.455177 10.137306 10.744572 11.25059 11.631519 11.868299
        12.028816 2.9980419 2.513398 2.1380818 1.8198265 1.5499587
        1.3211238 1.127085 1.0389049 1.2150104 1.4189667 1.6544622
        1.9254155 2.235879 2.5898888 2.9912481 3.4432273 3.9481783
        4.507059 5.118877 5.7800846 6.4839797 7.2201743 7.9742446
        8.727662 9.458139 10.140469 10.747914 11.254086 11.635132
        11.871987 12.03256 2.997105 2.512593 2.137379 1.8192095
        1.5494143 1.3206413 1.126656 1.0393165 1.2155088 1.4195637
        1.6551671 1.9262339 2.2368138 2.5909414 2.9924207 3.444525
        3.9496102 4.5086374 5.120617 5.7820034 6.4860926 7.2224946
        7.9767795 8.730415 9.461104 10.143634 10.75126 11.257583
        11.638745 11.875678 12.036306 2.996169 2.5117922 2.1366818
        1.8185998 1.5488786 1.3201684 1.1262373 1.0397176 1.2159939
        1.4201453 1.6558558 1.9270372 2.237736 2.5919852 2.993589
        3.4458225 3.951045 4.5102215 5.1223645 5.78393 6.4882126
        7.2248206 7.9793196 8.733171 9.464072 10.146801 10.754606
        11.261082 11.642362 11.879371 12.040055 2.9952343 2.5109942
        2.1359892 1.8179961 1.5483499 1.3197036 1.1258272 1.0401095
        1.2164674 1.4207133 1.6565297 1.927826 2.2386458 2.5930202
        2.9947524 3.4471195 3.9524832 4.5118113 5.124119 5.7858634
        6.4903398 7.227153 7.9818654 8.735932 9.467044 10.149972
        10.757956 11.264583 11.645981 11.883066 12.043807 2.9943004
        2.5101986 2.1353002 1.8173971 1.547827 1.3192453 1.1254241
        1.040494 1.216931 1.421269 1.6571901 1.9286014 2.2395437
        2.594046 2.995911 3.4484155 3.953924 4.5134063 5.1258807
        5.787805 6.4924746 7.229492 7.9844165 8.738697 9.470019
        10.153145 10.761308 11.268086 11.649602 11.886764 12.047561
        2.993367 2.509405 2.1346142 1.8168021 1.547309 1.3187926
        1.1250272 1.040872 1.2173858 1.421814 1.6578381 1.9293641
        2.2404304 2.5950634 2.9970644 3.4497106 3.9553673 4.515007
        5.1276493 5.789755 6.494617 7.231838 7.9869733 8.741467
        9.472998 10.156322 10.764663 11.271592 11.653225 11.890464
        12.051317 2.992434 2.5086129 2.1339307 1.8162103 1.5467949
        1.3183445 1.1246352 1.0412443 1.217833 1.4223493 1.658475
        1.9301151 2.241306 2.5960722 2.998213 3.4510047 3.9568136
        4.5166135 5.129426 5.7917123 6.496767 7.234191 7.9895363
        8.744243 9.475981 10.159502 10.768021 11.275102 11.656851
        11.894167 12.055077 2.9915016 2.5078223 2.1332493 1.8156213
        1.5462842 1.3179004 1.1242478 1.0416119 1.2182736 1.4228762
        1.659102 1.9308554 2.2421718 2.5970733 2.9993567 3.452298
        3.9582624 4.518225 5.1312094 5.793678 6.4989257 7.236552
        7.9921055 8.747023 9.478969 10.162685 10.771382 11.278613
        11.66048 11.897872 12.058838 2.9905696 2.5070329 2.1325696
        1.8150345 1.5457764 1.3174596 1.1238642 1.0419753 1.2187084
        1.4233955 1.6597198 1.931586 2.2430284 2.598067 3.0004964
        3.4535906 3.9597144 4.519843 5.133001 5.795652 6.501092
        7.2389197 7.9946814 8.749809 9.481961 10.165874 10.774746
        11.282128 11.66411 11.901579 12.062601 2.9896379 2.5062447
        2.1318913 1.8144498 1.545271 1.3170218 1.1234839 1.042335
        1.219138 1.4239081 1.6603297 1.9323081 2.2438767 2.599054
        3.0016325 3.4548829 3.9611692 4.5214663 5.1348 5.7976346
        6.503267 7.2412953 7.997264 8.752601 9.484959 10.1690645
        10.778114 11.2856455 11.667745 11.90529 12.066368 2.9887068
        2.5054574 2.1312146 1.8138669 1.544768 1.3165866 1.1231065
        1.0426916 1.2195632 1.4244148 1.6609325 1.9330225 2.244718
        2.600036 3.0027657 3.4561756 3.9626276 4.523096 5.1366067
        5.7996254 6.5054502 7.243679 7.9998536 8.755398 9.48796
        10.172261 10.781486 11.289166 11.671382 11.909002 12.070137
        2.9877763 2.5046716 2.1305392 1.8132857 1.5442669 1.3161538
        1.1227318 1.0430452 1.2199843 1.4249163 1.6615292 1.9337304
        2.2455533 2.601013 3.0038967 3.4574692 3.96409 4.524732
        5.1384215 5.8016257 6.5076427 7.2460704 8.002451 8.758203
        9.490968 10.175462 10.784862 11.292691 11.675021 11.912719
        12.073909 2.986847 2.5038867 2.1298652 1.8127061 1.5437677
        1.3157232 1.1223596 1.0433964 1.2204019 1.4254133 1.6621207
        1.9344329 2.2463837 2.601987 3.0050266 3.4587646 3.9655569
        4.526375 5.140245 5.8036346 6.509844 7.248471 8.005054
        8.761012 9.49398 10.178667 10.788241 11.296219 11.678664
        11.916437 12.0776825 2.9859188 2.5031035 2.1291928 1.8121282
        1.5432705 1.3152946 1.1219896 1.0437452 1.2208165 1.4259065
        1.6627079 1.9351312 2.2472107 2.602959 3.006157 3.4600625
        3.9670289 4.528025 5.1420765 5.805653 6.5120544 7.2508793
        8.007667 8.763829 9.497 10.181877 10.791625 11.29975
        11.682311 11.920158 12.081459 2.984992 2.5023222 2.1285222
        1.811552 1.5427752 1.3148682 1.1216218 1.0440918 1.2212284
        1.4263967 1.663292 1.9358269 2.248036 2.6039305 3.0072885
        3.4613643 3.9685066 4.5296826 5.1439176 5.8076806 6.514274
        7.253297 8.010286 8.766653 9.500024 10.185092 10.795013
        11.303287 11.68596 11.9238825 12.0852375 2.984068 2.5015433
        2.1278539 1.8109782 1.5422819 1.314444 1.1212561 1.0444367
        1.2216381 1.4268848 1.6638744 1.9365214 2.2488608 2.6049032
        3.008423 3.4626708 3.9699912 4.5313487 5.1457677 5.8097186
        6.516504 7.2557235 8.012915 8.7694845 9.503056 10.1883135
        10.798407 11.306826 11.689613 11.927609 12.089019 2.983147
        2.5007675 2.1271882 1.8104067 1.5417911 1.3140218 1.1208924
        1.0447799 1.2220463 1.4273717 1.6644564 1.9372165 2.249688
        2.6058793 3.0095625 3.4639833 3.9714832 4.533024 5.147628
        5.8117666 6.5187435 7.2581596 8.015552 8.772324 9.506093
        10.19154 10.801805 11.3103695 11.69327 11.93134 12.092803
        2.9822304 2.4999962 2.126526 1.8098384 1.5413032 1.3136023
        1.1205306 1.0451219 1.2224537 1.4278587 1.6650397 1.9379143
        2.2505188 2.6068604 3.010708 3.4653034 3.972984 4.5347085
        5.1494985 5.813825 6.520993 7.2606053 8.018197 8.77517
        9.509138 10.194774 10.805208 11.313918 11.69693 11.935073
        12.09659 2.98132 2.4992304 2.125869 1.8092743 1.5408186
        1.3131853 1.1201707 1.0454632 1.2228614 1.4283476 1.6656264
        1.9386173 2.2513564 2.6078491 3.0118618 3.4666326 3.9744947
        4.536404 5.15138 5.815895 6.5232544 7.2630615 8.020852
        8.778026 9.512191 10.198013 10.808617 11.3174715 11.700595
        11.938809 12.100379 2.9804187 2.4984732 2.1252186 1.8087157
        1.5403383 1.3127714 1.1198124 1.0458045 1.223271 1.4288404
        1.6662195 1.9393283 2.252203 2.6088479 3.0130262 3.4679725
        3.9760165 4.5381107 5.1532736 5.8179765 6.525527 7.2655287
        8.023518 8.78089 9.515251 10.20126 10.812033 11.32103
        11.704264 11.94255 12.104171 2.9795303 2.4977276 2.1245775
        1.8081644 1.5398632 1.3123604 1.1194546 1.0461475 1.2236848
        1.4293401 1.666822 1.9400508 2.2530622 2.6098595 3.014203
        3.4693248 3.9775507 4.53983 5.15518 5.8200707 6.527812
        7.2680078 8.026194 8.783766 9.518321 10.2045145 10.8154545
        11.324594 11.707936 11.946293 12.1079645 2.978662 2.4969995
        2.1239502 1.8076229 1.5393943 1.3119519 1.1190962 1.0464942
        1.2241058 1.4298509 1.6674381 1.9407886 2.2539375 2.6108868
        3.0153952 3.470692 3.979099 4.5415635 5.1571 5.822179
        6.5301104 7.270499 8.028882 8.786652 9.5214 10.207778
        10.818885 11.328164 11.711615 11.95004 12.111761 2.9778244
        2.4962976 2.1233425 1.8070946 1.538932 1.3115441 1.1187338
        1.0468487 1.2245393 1.4303776 1.668073 1.9415464 2.2548325
        2.611933 3.0166051 3.4720755 3.9806635 4.5433125 5.159035
        5.824302 6.532423 7.273005 8.031584 8.789549 9.524491
        10.211052 10.822323 11.331741 11.715299 11.953791 12.115561
        2.9770389 2.4956372 2.1227634 1.8065827 1.5384749 1.3111326
        1.1183617 1.0472169 1.2249917 1.4309272 1.6687328 1.9423293
        2.2557518 2.6130018 3.0178359 3.4734786 3.9822462 4.545079
        5.160988 5.8264422 6.5347524 7.275527 8.0343 8.792461
        9.5275955 10.214336 10.825771 11.335327 11.718988 11.957545
        12.119362 2.976347 2.4950447 2.122226 1.8060883 1.5380163
        1.310707 1.1179695 1.0476086 1.2254725 1.431508 1.6694243
        1.943143 2.2567 2.6140974 3.0190911 3.474904 3.98385
        4.546866 5.1629605 5.828602 6.5371013 7.278067 8.037035
        8.79539 9.530715 10.217635 10.829231 11.3389225 11.722686
        11.961306 12.123166 2.9758499 2.4945667 2.121742 1.8056009
        1.5375354 1.3102454 1.1175392 1.0480375 1.2259939 1.4321299
        1.6701556 1.943994 2.2576826 2.615224 3.0203745 3.4763558
        3.9854786 4.548677 5.1649566 5.830785 6.5394726 7.2806296
        8.03979 8.79834 9.533853 10.220951 10.8327055 11.342529
        11.726392 11.965072 12.126972 2.9758606 2.4942737 2.1212935
        1.8050693 1.5369792 1.3097067 1.1170436 1.0485215 1.2265694
        1.4328028 1.6709337 1.9448872 2.2587028 2.6163845 3.021689
        3.477836 3.9871337 4.5505137 5.166978 5.8329926 6.5418687
        7.283216 8.042569 8.801311 9.53701 10.224284 10.836195
        11.3461485 11.730106 11.9688425 12.130781 2.9777248 2.494711
        2.1210449 1.8045212 1.5363418 1.3090843 1.1164811 1.0490589
        1.2271948 1.4335208 1.6717519 1.9458157 2.259754 2.6175723
        3.0230274 3.4793377 3.9888089 4.5523686 5.1690164 5.8352165
        6.5442805 7.2858176 8.045362 8.804295 9.54018 10.227628
        10.839694 11.349776 11.733828 11.972618 12.134593
      </DataArray>
      <DataArray type="Float32" Name="jacobian" format="ascii" RangeMin="0.0011918541276827455" RangeMax="0.04352903738617897">
        0.0011918541 0.0014227723 0.0016735123 0.001967082 0.0023104197 0.0027114293
        0.0031790494 0.0037233047 0.0043553235 0.0050873053 0.005932413 0.006904558
        0.00801805 0.009287062 0.0107248705 0.012342828 0.014149033 0.016146677
        0.018332107 0.020692673 0.023204567 0.025830887 0.028520338 0.031206971
        0.0338114 0.036243856 0.03840913 0.040213294 0.041571487 0.04241587
        0.04298912 0.0011935494 0.0014239635 0.0016743075 0.0019675938 0.0023107529
        0.0027116735 0.0031792796 0.0037235827 0.0043557025 0.005087832 0.00593313
        0.0069055087 0.008019277 0.009288612 0.010726796 0.012345196 0.014151921
        0.016150175 0.018336311 0.020697681 0.023210464 0.025837738 0.028528178
        0.031215806 0.033821203 0.036254562 0.038420647 0.0402255 0.04158422
        0.042428948 0.043002445 0.0011943306 0.0014246864 0.0016749727 0.0019681873
        0.0023112784 0.0027121531 0.0031797478 0.0037240821 0.0043562786 0.005088531
        0.0059339977 0.0069065895 0.008020617 0.009290261 0.010728812 0.012347645
        0.014154883 0.016153743 0.018340586 0.020702759 0.02321643 0.025844656
        0.028536083 0.0312247 0.03383106 0.036265317 0.03843221 0.040237736
        0.04159698 0.042442046 0.043015778 0.0011948881 0.0014253182 0.0016756449
        0.0019688797 0.0023119752 0.0027128484 0.00318045 0.0037248137 0.0043570725
        0.005089428 0.0059350417 0.0069078268 0.008022097 0.009292036 0.010730944
        0.012350203 0.014157951 0.016157417 0.018344965 0.020707943 0.023222502
        0.025851678 0.028544093 0.031233696 0.03384101 0.03627616 0.038443845
        0.040250033 0.04160978 0.04245517 0.043029122 0.0011953651 0.0014258835
        0.0016762812 0.0019695812 0.0023127322 0.0027136514 0.0031812957 0.0037257085
        0.004358035 0.005090488 0.005936237 0.006909202 0.008023701 0.009293922
        0.010733174 0.012352852 0.014161106 0.016161174 0.018349428 0.02071321
        0.02322866 0.025858788 0.028552186 0.031242775 0.03385104 0.036287073
        0.03845554 0.04026238 0.041622616 0.042468317 0.04304247 0.0011958038
        0.0014264081 0.0016768846 0.0019702674 0.0023135012 0.0027144998 0.0031822193
        0.0037267078 0.0043591186 0.005091674 0.0059375563 0.0069106915 0.008025407
        0.0092959 0.010735488 0.012355576 0.01416433 0.016164998 0.018353956
        0.020718545 0.023234883 0.025865965 0.028560344 0.031251915 0.033861127
        0.036298037 0.038467277 0.04027476 0.04163548 0.042481482 0.043055832
        0.001196221 0.0014269076 0.0016774638 0.0019709356 0.0023142654 0.0027153632
        0.0031831823 0.0037277702 0.004360284 0.0050929547 0.005938973 0.0069122757
        0.0080272015 0.009297957 0.01073787 0.012358363 0.0141676115 0.016168877
        0.01835854 0.020723931 0.023241162 0.025873192 0.028568553 0.0312611
        0.033871256 0.03630904 0.038479052 0.040287174 0.041648366 0.04249466
        0.0430692 0.0011966254 0.0014273908 0.001678026 0.0019715885 0.0023150193
        0.0027162272 0.0031841618 0.003728868 0.0043615038 0.005094303 0.0059404643
        0.0069139367 0.008029068 0.009300079 0.010740312 0.012361202 0.014170942
        0.016172802 0.018363167 0.020729365 0.023247484 0.025880465 0.028576806
        0.031270333 0.033881426 0.03632008 0.038490858 0.04029961 0.041661274
        0.042507853 0.043082576 0.0011970212 0.0014278631 0.0016785766 0.0019722292
        0.0023157634 0.002717086 0.0031851458 0.0037299837 0.004362756 0.0050956975
        0.005942012 0.0069156582 0.008030995 0.009302258 0.010742805 0.012364089
        0.014174315 0.016176768 0.018367836 0.020734837 0.023253847 0.025887778
        0.028585099 0.031279597 0.03389163 0.03633115 0.038502693 0.04031207
        0.0416742 0.04252106 0.043095965 0.0011974113 0.001428328 0.0016791185
        0.001972861 0.0023164982 0.0027179385 0.0031861279 0.0037311062 0.004364026
        0.005097122 0.0059435996 0.006917425 0.008032969 0.0093044825 0.010745341
        0.012367014 0.014177726 0.01618077 0.01837254 0.020740347 0.023260247
        0.025895128 0.028593425 0.0312889 0.033901863 0.03634225 0.038514547
        0.04032455 0.041687142 0.04253428 0.043109357 0.0011977974 0.0014287874
        0.0016796543 0.0019734856 0.0023172256 0.0027187834 0.0031871053 0.003732229
        0.004365304 0.005098563 0.005945213 0.0069192247 0.00803498 0.009306745
        0.010747912 0.012369974 0.01418117 0.016184807 0.018377278 0.02074589
        0.02326668 0.02590251 0.028601782 0.031298228 0.033912126 0.03635337
        0.038526427 0.04033705 0.0417001 0.04254751 0.04312276 0.0011981805
        0.0014292429 0.0016801854 0.0019741047 0.0023179466 0.0027196216 0.0031880764
        0.0037333476 0.0043665827 0.0051000123 0.005946842 0.006921046 0.008037017
        0.009309034 0.010750513 0.012372962 0.0141846435 0.016188873 0.018382048
        0.020751467 0.023273146 0.025909923 0.02861017 0.03130758 0.03392241
        0.03636451 0.03853832 0.040349565 0.041713066 0.042560752 0.043136176
        0.0011985615 0.0014296954 0.0016807131 0.0019747193 0.0023186624 0.0027204535
        0.0031890408 0.00373446 0.004367858 0.0051014614 0.0059484765 0.006922879
        0.008039069 0.009311344 0.010753134 0.012375975 0.0141881425 0.016192967
        0.018386848 0.020757074 0.023279643 0.025917366 0.028618585 0.031316966
        0.03393272 0.03637568 0.03855024 0.040362094 0.041726053 0.042574007
        0.043149598 0.0011989409 0.0014301457 0.0016812381 0.0019753308 0.0023193734
        0.0027212796 0.003189998 0.0037355649 0.0043691257 0.005102906 0.0059501096
        0.006924715 0.00804113 0.009313665 0.010755773 0.0123790065 0.014191664
        0.016197085 0.018391674 0.020762708 0.023286168 0.025924837 0.028627029
        0.031326372 0.033943053 0.036386862 0.03856217 0.04037464 0.041739047
        0.04258727 0.043163028 0.0011993191 0.0014305942 0.0016817607 0.001975939
        0.0023200805 0.0027221001 0.0031909477 0.0037366606 0.0043703835 0.0051043406
        0.005951735 0.0069265473 0.008043191 0.009315992 0.01075842 0.012382053
        0.014195204 0.016201228 0.018396528 0.020768372 0.023292722 0.025932334
        0.028635496 0.0313358 0.033953406 0.036398064 0.038574122 0.040387202
        0.041752055 0.042600542 0.043176465 0.0011996963 0.0014310413 0.0016822813
        0.0019765445 0.0023207837 0.002722915 0.00319189 0.0037377467 0.0043716296
        0.0051057627 0.0059533487 0.0069283694 0.008045247 0.009318317 0.010761073
        0.012385109 0.0141987605 0.016205393 0.018401407 0.020774063 0.023299303
        0.02593986 0.02864399 0.031345256 0.033963777 0.03640929 0.038586088
        0.040399775 0.041765075 0.042613827 0.043189913 0.0012000728 0.0014314872
        0.0016828002 0.0019771475 0.002321483 0.0027237246 0.0031928245 0.003738822
        0.0043728626 0.005107169 0.0059549455 0.0069301757 0.008047289 0.009320635
        0.010763723 0.012388173 0.014202331 0.016209576 0.01840631 0.02077978
        0.023305912 0.025947412 0.028652506 0.03135473 0.03397417 0.036420524
        0.038598068 0.040412363 0.04177811 0.042627122 0.043203373 0.0012004488
        0.0014319319 0.0016833176 0.0019777482 0.0023221788 0.0027245285 0.0031937507
        0.0037398858 0.00437408 0.0051085567 0.0059565213 0.006931961 0.008049313
        0.00932294 0.010766369 0.0123912385 0.014205913 0.016213778 0.018411236
        0.020785524 0.023312548 0.02595499 0.028661046 0.031364225 0.033984583
        0.03643178 0.038610063 0.04042496 0.041791152 0.042640425 0.043216836
        0.0012008242 0.0014323756 0.0016838334 0.0019783464 0.0023228708 0.0027253262
        0.003194668 0.003740937 0.0043752803 0.005109923 0.0059580724 0.0069337212
        0.008051313 0.009325228 0.010769006 0.012394304 0.014209503 0.016217997
        0.018416183 0.020791292 0.023319209 0.025962591 0.028669609 0.03137374
        0.03399501 0.03644305 0.03862207 0.040437575 0.041804206 0.042653743
        0.043230314 0.0012011991 0.0014328185 0.0016843476 0.0019789417 0.0023235583
        0.0027261176 0.0031955757 0.0037419742 0.0043764617 0.0051112655 0.005959596
        0.0069354516 0.008053287 0.009327493 0.0107716285 0.012397367 0.014213102
        0.016222231 0.018421154 0.020797087 0.023325898 0.025970219 0.028678196
        0.031383276 0.034005456 0.036454335 0.03863409 0.040450197 0.04181727
        0.042667065 0.043243796 0.0012015738 0.0014332602 0.00168486 0.0019795343
        0.0023242412 0.0027269018 0.0031964723 0.003742996 0.004377622 0.0051125814
        0.0059610885 0.006937149 0.008055229 0.009329732 0.010774234 0.012400423
        0.014216705 0.016226482 0.018426146 0.020802906 0.02333261 0.025977869
        0.028686801 0.031392828 0.034015916 0.036465634 0.038646124 0.040462833
        0.041830346 0.042680398 0.04325729 0.0012019479 0.0014337009 0.0016853705
        0.0019801236 0.0023249188 0.0027276776 0.0031973568 0.003744 0.0043787593
        0.0051138676 0.0059625455 0.0069388086 0.008057134 0.009331941 0.010776821
        0.012403472 0.014220313 0.016230745 0.01843116 0.02080875 0.02333935
        0.025985545 0.02869543 0.0314024 0.034026396 0.036476944 0.03865817
        0.040475477 0.04184343 0.04269374 0.043270793 0.0012023216 0.0014341405
        0.0016858787 0.0019807091 0.0023255902 0.0027284438 0.0031982271 0.0037449845
        0.0043798694 0.00511512 0.005963964 0.006940427 0.008059 0.009334117
        0.0107793845 0.012406513 0.014223924 0.016235024 0.018436195 0.02081462
        0.023346113 0.025993243 0.028704079 0.03141199 0.034036886 0.036488272
        0.038670227 0.04048813 0.041856524 0.042707093 0.0432843 0.0012026948
        0.0014345786 0.0016863844 0.00198129 0.0023262545 0.0027291991 0.0031990814
        0.0037459463 0.0043809502 0.0051163356 0.0059653395 0.006942 0.008060823
        0.009336258 0.010781924 0.012409543 0.014227537 0.016239315 0.01844125
        0.020820512 0.0233529 0.026000964 0.02871275 0.031421598 0.034047395
        0.03649961 0.038682293 0.040500797 0.041869625 0.042720456 0.043297824
        0.0012030675 0.001435015 0.001686887 0.0019818658 0.0023269104 0.0027299416
        0.003199917 0.0037468823 0.0043819966 0.0051175095 0.005966668 0.0069435243
        0.008062601 0.009338362 0.01078444 0.012412561 0.014231154 0.01624362
        0.018446326 0.02082643 0.023359714 0.026008707 0.028721437 0.03143122
        0.034057915 0.036510956 0.03869437 0.04051347 0.04188274 0.042733826
        0.04331135 0.0012034394 0.0014354496 0.0016873858 0.0019824354 0.002327556
        0.002730669 0.0032007305 0.0037477883 0.004383005 0.0051186373 0.005967945
        0.006944996 0.008064331 0.009340427 0.010786928 0.012415567 0.014234772
        0.016247936 0.01845142 0.02083237 0.02336655 0.026016472 0.028730145
        0.03144086 0.034068447 0.036522318 0.03870646 0.040526155 0.04189586
        0.042747203 0.043324888 0.0012038106 0.0014358816 0.0016878801 0.0019829972
        0.0023281898 0.002731378 0.0032015182 0.0037486595 0.004383969 0.0051197135
        0.0059691654 0.0069464114 0.008066009 0.009342452 0.010789392 0.0124185635
        0.014238392 0.016252266 0.018456537 0.020838333 0.023373408 0.026024258
        0.02873887 0.031450514 0.034078993 0.036533687 0.038718555 0.040538847
        0.041908987 0.042760592 0.043338437 0.0012041804 0.0014363107 0.0016883689
        0.0019835494 0.0023288084 0.002732065 0.0032022751 0.0037494902 0.004384883
        0.0051207314 0.0059703244 0.006947767 0.008067635 0.009344435 0.010791828
        0.012421547 0.014242015 0.016256612 0.018461673 0.02084432 0.02338029
        0.026032064 0.02874761 0.03146018 0.034089547 0.036545064 0.03873066
        0.040551547 0.041922122 0.042773984 0.043351993 0.001204549 0.0014367359
        0.0016888505 0.00198409 0.0023294091 0.0027327253 0.0032029955 0.0037502733
        0.00438574 0.005121685 0.005971417 0.0069490597 0.008069207 0.009346379
        0.010794239 0.012424523 0.014245642 0.016260969 0.018466828 0.020850329
        0.023387194 0.02603989 0.028756369 0.03146986 0.03410011 0.036556453
        0.038742766 0.04056425 0.04193527 0.04278739 0.043365557 0.0012049156
        0.0014371562 0.0016893231 0.0019846158 0.002329987 0.002733353 0.0032036717
        0.0037510006 0.0043865307 0.0051225675 0.0059724376 0.0069502867 0.008070725
        0.009348283 0.010796627 0.012427489 0.014249274 0.01626534 0.018472005
        0.02085636 0.023394119 0.026047733 0.02876514 0.03147955 0.034110688
        0.036567844 0.038754884 0.040576965 0.04194842 0.042800803 0.04337913
        0.0012052796 0.0014375701 0.0016897842 0.0019851227 0.0023305363 0.0027339405
        0.0032042942 0.0037516619 0.0043872464 0.0051233703 0.0059733824 0.006951446
        0.008072189 0.009350148 0.010798993 0.012430448 0.01425291 0.016269727
        0.0184772 0.020862412 0.023401061 0.026055591 0.028773924 0.03148925
        0.034121267 0.036579244 0.038767006 0.04058968 0.041961577 0.04281422
        0.043392714 0.0012056401 0.0014379756 0.0016902303 0.0019856053 0.0023310494
        0.0027344774 0.0032048519 0.0037522456 0.0043878765 0.005124087 0.005974246
        0.0069525377 0.0080736 0.009351979 0.0108013395 0.012433403 0.014256554
        0.016274126 0.018482413 0.020868482 0.023408024 0.026063465 0.02878272
        0.031498954 0.03413185 0.036590643 0.03877913 0.0406024 0.04197474
        0.042827647 0.043406304 0.0012059959 0.0014383696 0.0016906562 0.0019860559
        0.0023315155 0.002734951 0.00320533 0.0037527378 0.0043884097 0.00512471
        0.005975027 0.006953561 0.008074962 0.009353776 0.01080367 0.0124363545
        0.014260204 0.016278543 0.018487645 0.02087457 0.023415 0.026071351
        0.02879152 0.031508666 0.03414244 0.036602046 0.038791254 0.040615123
        0.041987903 0.04284108 0.043419905 0.0012063449 0.0014387479 0.0016910546
        0.0019864636 0.0023319202 0.0027353438 0.0032057113 0.003753123 0.0043888353
        0.0051252325 0.0059757233 0.006954519 0.008076277 0.009355546 0.010805988
        0.012439305 0.014263863 0.01628297 0.018492892 0.020880673 0.023421988
        0.026079245 0.02880033 0.031518377 0.034153026 0.03661345 0.03880338
        0.04062785 0.042001072 0.042854518 0.043433517 0.0012066839 0.0014391034
        0.001691414 0.0019868119 0.0023322431 0.0027356336 0.003205974 0.003753384
        0.0043891417 0.0051256516 0.0059763356 0.0069554155 0.008077551 0.009357292
        0.010808296 0.012442257 0.01426753 0.016287412 0.018498152 0.02088679
        0.023428986 0.026087143 0.028809136 0.03152809 0.034163605 0.036624845
        0.0388155 0.04064057 0.042014245 0.042867962 0.043447137 0.0012070078
        0.0014394254 0.0016917171 0.0019870768 0.0023324552 0.0027357908 0.0032060926
        0.0037535036 0.004389321 0.0051259655 0.005976868 0.006956256 0.00807879
        0.009359019 0.010810596 0.0124452105 0.014271204 0.016291862 0.018503424
        0.020892914 0.023435988 0.02609504 0.028817939 0.03153779 0.03417418
        0.036636233 0.038827613 0.04065329 0.042027414 0.042881414 0.043460764
        0.001207307 0.0014396948 0.0016919343 0.0019872203 0.0023325155 0.002735778
        0.0032060405 0.0037534665 0.0043893694 0.0051261783 0.005977329 0.006957049
        0.008080001 0.009360732 0.010812893 0.0124481665 0.014274885 0.016296322
        0.0185087 0.020899039 0.023442985 0.02610293 0.02882673 0.031547476
        0.03418474 0.036647607 0.038839716 0.040665995 0.042040583 0.042894866
        0.043474402 0.0012075629 0.0014398758 0.0016920138 0.001987182 0.002332367
        0.002735552 0.0032057918 0.003753265 0.0043892907 0.0051263 0.0059777284
        0.0069578043 0.00808119 0.009362434 0.010815185 0.012451122 0.0142785655
        0.016300779 0.018513972 0.020905156 0.023449972 0.026110802 0.028835498
        0.03155714 0.03419527 0.036658958 0.038851798 0.04067869 0.042053744
        0.04290832 0.043488048 0.001207731 0.0014398916 0.0016918571 0.0019868661
        0.0023319356 0.00273507 0.0032053334 0.003752905 0.0043891007 0.0051263487
        0.005978083 0.0069585326 0.008082364 0.009364127 0.010817471 0.012454071
        0.01428224 0.016305225 0.01851923 0.020911254 0.023456931 0.026118642
        0.028844232 0.031566765 0.034205765 0.03667027 0.038863853 0.04069137
        0.04206689 0.04292177 0.0435017 0.0012076758 0.0014395457 0.0016912714
        0.001986135 0.0023311523 0.0027343186 0.0032046854 0.0037524207 0.004388835
        0.0051263543 0.005978415 0.0069592507 0.008083533 0.0093658175 0.010819755
        0.012457016 0.014285905 0.01630966 0.01852447 0.020917324 0.023463856
        0.026126442 0.028852921 0.031576347 0.034216218 0.03668155 0.038875874
        0.04070402 0.04208003 0.04293522 0.043515366 0.0012068232 0.0014385715
        0.0016902451 0.0019851269 0.0023302194 0.0027335063 0.003204033 0.0037519655
        0.0043886155 0.005126413 0.0059788 0.0069600185 0.008084747 0.009367547
        0.010822072 0.012459988 0.014289591 0.016314108 0.018529717 0.020923398
        0.02347078 0.026134238 0.0288616 0.031585913 0.03422666 0.036692813
        0.038887884 0.040716663 0.04209316 0.04294867 0.043529037
      </DataArray>
    </PointData>
    <CellData>
    </CellData>
    <Points>
      <DataArray type="Float32" Name="Points" NumberOfComponents="3" format="ascii" RangeMin="1.2212388017191078" RangeMax="1.4065524560728098">
        0.88616395 -0.025085296 0.84310836 0.8867774 -0.025085226 0.843106
        0.88749874 -0.025085142 0.8431031 0.88834655 -0.025085041 0.8430997
        0.88934237 -0.02508492 0.8430957 0.8905113 -0.025084777 0.84309083
        0.8918823 -0.025084605 0.8430851 0.8934889 -0.0250844 0.8430782
        0.8953694 -0.025084157 0.84307003 0.8975678 -0.02508387 0.8430604
        0.90013397 -0.02508353 0.843049 0.9031242 -0.02508314 0.8430358
        0.90660155 -0.025082693 0.8430208 0.9106358 -0.025082191 0.843004
        0.91530335 -0.025081636 0.84298533 0.9206866 -0.02508103 0.8429649
        0.92687255 -0.02508037 0.8429427 0.93395126 -0.025079662 0.84291893
        0.9420127 -0.025078911 0.8428937 0.9511435 -0.025078116 0.842867
        0.9614216 -0.025077274 0.8428387 0.9729111 -0.02507637 0.8428083
        0.9856552 -0.025075369 0.8427747 0.99966955 -0.025074212 0.8427358
        1.0149356 -0.025072813 0.84268874 1.0313942 -0.025071044 0.8426293
        1.0489426 -0.025068741 0.84255195 1.0674323 -0.02506571 0.8424501
        1.0866722 -0.02506174 0.84231657 1.1064343 -0.02505661 0.8421442
        1.1264642 -0.025050139 0.8419267 0.8860885 -0.023822868 0.84314525
        0.88670266 -0.023822019 0.8431429 0.88742465 -0.023821313 0.84314007
        0.8882731 -0.023820726 0.84313667 0.8892696 -0.02382024 0.8431326
        0.89043915 -0.023819828 0.84312785 0.89181083 -0.023819476 0.8431221
        0.8934181 -0.02381917 0.8431152 0.8952993 -0.023818897 0.84310704
        0.89749855 -0.02381864 0.8430974 0.9000656 -0.023818392 0.843086
        0.9030568 -0.023818143 0.84307283 0.90653527 -0.023817888 0.8430578
        0.91057074 -0.02381762 0.8430409 0.91523963 -0.023817327 0.8430222
        0.92062443 -0.023817005 0.8430018 0.9268121 -0.023816638 0.8429796
        0.93389285 -0.023816224 0.84295577 0.94195664 -0.023815751 0.8429305
        0.95109004 -0.023815213 0.8429038 0.9613711 -0.023814604 0.8428754
        0.972864 -0.023813903 0.842845 0.98561186 -0.023813084 0.84281135
        0.9996305 -0.023812091 0.8427725 1.0149012 -0.023810843 0.84272546
        1.0313648 -0.023809226 0.842666 1.0489186 -0.023807086 0.8425886
        1.0674139 -0.02380424 0.8424868 1.0866598 -0.023800485 0.8423532
        1.1064281 -0.02379562 0.8421808 1.1264642 -0.023789471 0.84196323
        0.88601303 -0.022560386 0.84318024 0.88662755 -0.022559118 0.8431779
        0.8873501 -0.022557965 0.8431751 0.8881991 -0.022556951 0.8431718
        0.88919616 -0.022556087 0.8431677 0.89036644 -0.022555364 0.8431629
        0.8917388 -0.022554778 0.8431572 0.8933468 -0.02255431 0.8431503
        0.89522886 -0.022553945 0.84314215 0.89742893 -0.02255367 0.8431325
        0.8999969 -0.022553464 0.8431211 0.90298915 -0.022553321 0.84310794
        0.9064687 -0.02255322 0.8430928 0.9105054 -0.022553153 0.84307593
        0.91517574 -0.0225531 0.8430573 0.9205621 -0.02255304 0.8430368
        0.9267516 -0.02255295 0.84301454 0.9338343 -0.022552812 0.8429907
        0.94190043 -0.022552604 0.8429654 0.95103645 -0.022552313 0.84293866
        0.9613206 -0.022551926 0.8429103 0.9728168 -0.022551423 0.8428799
        0.9855685 -0.022550777 0.8428462 0.9995914 -0.02254994 0.84280735
        1.0148667 -0.022548841 0.8427603 1.0313355 -0.02254737 0.84270084
        1.0488945 -0.022545386 0.8426235 1.0673957 -0.02254272 0.8425216
        1.0866475 -0.02253918 0.84238803 1.106422 -0.022534579 0.8422156
        1.1264642 -0.02252875 0.8419979 0.8859375 -0.02129785 0.8432134
        0.8865524 -0.021296302 0.84321105 0.8872753 -0.021294834 0.84320825
        0.88812476 -0.021293486 0.8432049 0.8891224 -0.02129229 0.8432009
        0.8902933 -0.021291263 0.8431961 0.89166635 -0.021290421 0.8431903
        0.89327514 -0.021289758 0.8431835 0.89515805 -0.021289267 0.84317535
        0.89735895 -0.02128893 0.84316564 0.8999279 -0.021288732 0.8431543
        0.90292126 -0.021288656 0.8431411 0.90640193 -0.021288684 0.843126
        0.91043997 -0.021288788 0.8431091 0.9151117 -0.021288952 0.84309036
        0.9204997 -0.021289133 0.84306985 0.92669094 -0.021289302 0.8430476
        0.9337757 -0.021289425 0.8430238 0.94184417 -0.021289472 0.8429984
        0.9509828 -0.021289416 0.8429716 0.9612699 -0.02128924 0.8429433
        0.9727696 -0.021288924 0.84291285 0.98552513 -0.021288445 0.8428791
        0.99955225 -0.02128776 0.84284025 1.0148323 -0.021286802 0.8427932
        1.031306 -0.021285474 0.84273374 1.0488706 -0.021283645 0.8426564
        1.0673773 -0.021281155 0.8425545 1.0866351 -0.021277828 0.84242094
        1.1064157 -0.021273486 0.84224844 1.1264642 -0.021267978 0.8420307
        0.88586205 -0.020035267 0.8432446 0.8864771 -0.020033516 0.8432423
        0.88720036 -0.020031808 0.8432395 0.88805026 -0.020030195 0.84323615
        0.8890484 -0.020028722 0.84323215 0.89021987 -0.020027425 0.8432274
        0.89159364 -0.020026335 0.8432216 0.89320314 -0.020025468 0.8432148
        0.8950869 -0.020024823 0.84320664 0.89728874 -0.020024396 0.8431969
        0.8998587 -0.020024175 0.84318554 0.9028531 -0.02002414 0.8431724
        0.906335 -0.020024266 0.8431573 0.9103743 -0.020024521 0.8431403
        0.9150475 -0.020024877 0.8431216 0.9204371 -0.020025283 0.8431011
        0.9266302 -0.020025695 0.8430788 0.933717 -0.020026062 0.84305495
        0.9417878 -0.020026347 0.84302956 0.9509291 -0.020026516 0.84300274
        0.96121925 -0.020026544 0.8429744 0.97272235 -0.02002641 0.8429439
        0.9854817 -0.02002609 0.84291023 0.9995131 -0.02002555 0.84287137
        1.0147977 -0.02002473 0.8428243 1.0312766 -0.020023542 0.84276485
        1.0488465 -0.020021863 0.8426874 1.0673591 -0.020019548 0.8425855
        1.0866228 -0.020016432 0.84245193 1.1064095 -0.020012349 0.8422794
        1.1264642 -0.02000716 0.8420616 0.88578653 -0.018772637 0.84327394
        0.8864019 -0.01877073 0.8432716 0.8871254 -0.018768838 0.8432689
        0.88797563 -0.018767012 0.84326553 0.88897425 -0.018765306 0.8432615
        0.89014626 -0.018763775 0.8432567 0.8915207 -0.018762458 0.84325105
        0.8931309 -0.018761389 0.84324414 0.8950155 -0.018760584 0.84323597
        0.8972183 -0.018760053 0.8432263 0.8997892 -0.018759787 0.8432149
        0.9027847 -0.018759765 0.8432017 0.9062678 -0.018759964 0.8431866
        0.9103085 -0.01876035 0.8431697 0.9149832 -0.018760875 0.8431509
        0.9203744 -0.018761486 0.84313035 0.92656934 -0.018762121 0.84310806
        0.93365824 -0.018762723 0.84308416 0.94173133 -0.018763237 0.84305876
        0.95087534 -0.018763619 0.84303194 0.9611685 -0.01876384 0.8430036
        0.97267497 -0.018763877 0.84297305 0.9854382 -0.018763712 0.8429394
        0.99947387 -0.018763311 0.8429005 1.0147631 -0.018762622 0.8428534
        1.031247 -0.018761566 0.84279394 1.0488224 -0.018760037 0.8427166
        1.0673407 -0.018757896 0.84261465 1.0866104 -0.018754989 0.8424811
        1.1064034 -0.018751165 0.84230846 1.1264642 -0.018746294 0.8420906
        0.8857111 -0.017509965 0.8433014 0.8863266 -0.017507931 0.8432991
        0.8870504 -0.01750589 0.8432963 0.88790095 -0.017503893 0.84329295
        0.8889 -0.017501997 0.843289 0.89007246 -0.01750026 0.8432842
        0.8914475 -0.01749874 0.84327847 0.8930585 -0.017497484 0.8432717
        0.89494383 -0.01749652 0.8432635 0.89714754 -0.017495874 0.8432538
        0.89971954 -0.017495545 0.8432424 0.90271616 -0.017495519 0.84322923
        0.9062005 -0.017495774 0.8432141 0.9102425 -0.017496265 0.8431971
        0.9149187 -0.017496943 0.84317833 0.9203115 -0.017497743 0.84315777
        0.92650837 -0.017498586 0.8431355 0.93359935 -0.017499408 0.8431115
        0.94167477 -0.017500136 0.8430861 0.95082146 -0.017500719 0.84305924
        0.9611177 -0.017501125 0.84303087 0.97262764 -0.017501328 0.8430004
        0.98539466 -0.01750131 0.8429666 0.9994346 -0.017501043 0.84292775
        1.0147285 -0.01750048 0.8428807 1.0312176 -0.017499559 0.84282124
        1.0487983 -0.017498175 0.8427439 1.0673224 -0.017496204 0.84264195
        1.086598 -0.017493505 0.8425083 1.1063972 -0.017489938 0.8423357
        1.1264642 -0.017485388 0.8421178 0.88563555 -0.016247254 0.843327
        0.88625133 -0.016245116 0.84332466 0.88697535 -0.016242953 0.84332186
        0.88782626 -0.016240813 0.8433186 0.88882565 -0.016238758 0.8433145
        0.8899986 -0.01623685 0.84330976 0.89137423 -0.016235149 0.8433041
        0.8929859 -0.016233718 0.84329724 0.89487207 -0.016232604 0.8432891
        0.89707667 -0.01623184 0.8432794 0.8996497 -0.01623144 0.84326804
        0.9026474 -0.016231397 0.8432548 0.906133 -0.016231688 0.84323967
        0.9101764 -0.016232269 0.8432227 0.91485405 -0.016233085 0.8432039
        0.92024857 -0.016234053 0.8431833 0.9264473 -0.016235093 0.8431609
        0.93354034 -0.016236117 0.84313697 0.94161814 -0.016237047 0.8431116
        0.9507675 -0.016237823 0.8430847 0.9610668 -0.016238404 0.84305626
        0.9725802 -0.016238766 0.84302574 0.9853511 -0.016238887 0.842992
        0.99939525 -0.016238749 0.84295315 1.014694 -0.016238313 0.8429061
        1.031188 -0.016237518 0.8428466 1.0487742 -0.016236277 0.8427692
        1.067304 -0.016234476 0.8426673 1.0865856 -0.016231984 0.84253365
        1.1063908 -0.016228674 0.842361 1.1264642 -0.016224442 0.84214294
        0.8855601 -0.014984503 0.84335065 0.88617605 -0.014982281 0.8433483
        0.8869003 -0.014980017 0.8433455 0.8877515 -0.014977761 0.84334224
        0.88875127 -0.01497557 0.8433382 0.8899247 -0.014973512 0.8433335
        0.89130086 -0.014971656 0.84332776 0.89291316 -0.014970071 0.8433209
        0.8948001 -0.014968816 0.8433128 0.8970056 -0.014967937 0.8433031
        0.8995796 -0.014967462 0.8432917 0.9025785 -0.01496739 0.84327847
        0.9060653 -0.014967704 0.8432633 0.91011006 -0.014968361 0.8432463
        0.91478926 -0.014969295 0.8432275 0.92018545 -0.014970419 0.8432069
        0.926386 -0.014971639 0.84318453 0.9334812 -0.0149728535 0.84316057
        0.94156146 -0.014973974 0.8431351 0.9507135 -0.014974933 0.84310824
        0.9610159 -0.01497568 0.8430798 0.9725327 -0.014976189 0.8430492
        0.9853075 -0.014976444 0.8430155 0.999356 -0.014976429 0.8429766
        1.0146593 -0.014976114 0.8429296 1.0311584 -0.014975445 0.8428701
        1.0487502 -0.014974345 0.8427927 1.0672857 -0.01497271 0.84269077
        1.0865732 -0.0149704255 0.8425571 1.1063846 -0.014967373 0.8423844
        1.1264642 -0.014963461 0.8421663 0.8854846 -0.01372172 0.8433724
        0.88610077 -0.013719426 0.84337014 0.88682526 -0.013717078 0.8433673
        0.8876768 -0.013714721 0.843364 0.8886769 -0.013712417 0.84336
        0.88985074 -0.013710234 0.84335524 0.8912274 -0.013708241 0.8433495
        0.8928404 -0.013706518 0.8433427 0.89472806 -0.013705135 0.84333456
        0.8969344 -0.013704148 0.8433249 0.8995094 -0.013703595 0.8433135
        0.9025094 -0.01370349 0.8433002 0.90599746 -0.013703818 0.8432851
        0.9100436 -0.0137045365 0.8432681 0.91472435 -0.013705578 0.8432492
        0.9201222 -0.013706843 0.84322864 0.92632467 -0.013708228 0.8432062
        0.933422 -0.013709618 0.84318227 0.94150466 -0.013710918 0.84315675
        0.95065945 -0.013712046 0.8431299 0.96096486 -0.013712949 0.8431014
        0.9724852 -0.013713601 0.84307086 0.9852638 -0.013713985 0.8430371
        0.9993166 -0.013714089 0.8429982 1.0146246 -0.013713891 0.8429511
        1.0311289 -0.013713344 0.8428917 1.0487261 -0.013712382 0.8428143
        1.0672673 -0.013710913 0.8427124 1.0865608 -0.0137088355 0.84257865
        1.1063784 -0.013706039 0.8424059 1.1264642 -0.013702446 0.8421878
        0.8854091 -0.012458903 0.8433923 0.8860255 -0.012456551 0.84339
        0.8867502 -0.012454132 0.8433872 0.887602 -0.012451693 0.8433839
        0.88860244 -0.012449293 0.8433799 0.88977677 -0.0124470005 0.84337515
        0.89115393 -0.012444892 0.8433695 0.8927675 -0.012443048 0.8433626
        0.8946559 -0.012441549 0.8433545 0.8968631 -0.012440463 0.8433448
        0.89943904 -0.012439836 0.8433334 0.90244013 -0.012439694 0.84332013
        0.9059295 -0.012440029 0.843305 0.909977 -0.012440799 0.843288
        0.91465926 -0.012441931 0.8432691 0.9200589 -0.012443325 0.8432485
        0.9262632 -0.01244486 0.843226 0.93336266 -0.012446417 0.84320205
        0.94144773 -0.0124478815 0.84317654 0.9506053 -0.0124491695 0.84314966
        0.9609138 -0.012450221 0.8431211 0.97243756 -0.012451006 0.8430906
        0.98522013 -0.012451511 0.8430568 0.9992772 -0.012451728 0.84301794
        1.0145899 -0.01245164 0.84297085 1.0310993 -0.012451214 0.8429114
        1.0487019 -0.012450389 0.842834 1.0672488 -0.012449085 0.8427321
        1.0865484 -0.012447211 0.8425984 1.1063721 -0.012444672 0.8424256
        1.1264642 -0.012441399 0.8422074 0.88533366 -0.011196058 0.8434103
        0.88595015 -0.011193656 0.843408 0.8866752 -0.011191177 0.8434052
        0.8875272 -0.011188669 0.8434019 0.88852805 -0.01118619 0.8433979
        0.88970274 -0.011183806 0.84339315 0.8910804 -0.011181596 0.8433875
        0.89269453 -0.011179648 0.84338063 0.89458364 -0.011178046 0.8433725
        0.8967917 -0.011176869 0.8433628 0.8993686 -0.0111761745 0.8433514
        0.9023708 -0.011175995 0.84333813 0.9058614 -0.011176331 0.843323
        0.90991026 -0.011177143 0.84330595 0.91459405 -0.011178357 0.84328705
        0.91999537 -0.011179866 0.84326637 0.92620164 -0.011181541 0.84324396
        0.9333033 -0.011183249 0.84321994 0.94139075 -0.0111848675 0.8431944
        0.95055103 -0.011186304 0.8431675 0.96086264 -0.011187492 0.84313893
        0.97238994 -0.011188403 0.8431084 0.9851764 -0.011189024 0.8430747
        0.9992377 -0.01118935 0.8430357 1.0145552 -0.011189371 0.84298867
        1.0310696 -0.011189061 0.8429292 1.0486777 -0.011188369 0.8428518
        1.0672305 -0.011187228 0.8427499 1.086536 -0.0111855585 0.84261614
        1.1063659 -0.011183277 0.8424433 1.1264642 -0.0111803245 0.8422251
        0.88525814 -0.009933189 0.8434264 0.88587487 -0.009930744 0.8434241
        0.88660014 -0.009928215 0.84342134 0.8874524 -0.009925649 0.843418
        0.88845354 -0.009923101 0.843414 0.88962865 -0.00992064 0.84340924
        0.8910068 -0.009918347 0.8434036 0.8926215 -0.009916309 0.8433967
        0.89451134 -0.009914619 0.8433886 0.8967202 -0.00991336 0.8433789
        0.8992981 -0.009912603 0.8433675 0.9023014 -0.0099123875 0.8433542
        0.90579313 -0.009912722 0.8433391 0.9098434 -0.009913569 0.843322
        0.9145287 -0.009914856 0.84330314 0.91993177 -0.0099164685 0.8432824
        0.92613995 -0.00991827 0.84326 0.93324375 -0.009920116 0.8432359
        0.94133365 -0.009921878 0.8432104 0.95049673 -0.009923451 0.8431834
        0.96081144 -0.009924769 0.8431549 0.9723422 -0.009925797 0.8431244
        0.9851326 -0.009926527 0.84309053 0.99919826 -0.009926956 0.8430517
        1.0145205 -0.009927082 0.8430046 1.0310401 -0.009926884 0.84294516
        1.0486535 -0.009926326 0.84286773 1.067212 -0.009925349 0.8427658
        1.0865237 -0.009923882 0.84263206 1.1063596 -0.009921857 0.8424592
        1.1264642 -0.009919226 0.84224087 0.8851827 -0.008670295 0.84344065
        0.8857996 -0.0086678155 0.84343827 0.88652503 -0.008665246 0.8434355
        0.8873777 -0.008662631 0.8434322 0.8883791 -0.008660027 0.84342825
        0.8895546 -0.008657501 0.8434235 0.8909332 -0.008655138 0.84341776
        0.8925485 -0.008653024 0.84341097 0.894439 -0.008651258 0.8434028
        0.8966486 -0.00864993 0.84339315 0.89922744 -0.008649117 0.84338176
        0.90223175 -0.0086488705 0.8433685 0.90572476 -0.008649202 0.8433533
        0.90977645 -0.00865008 0.8433362 0.9144633 -0.008651431 0.8433173
        0.91986805 -0.008653135 0.8432966 0.9260782 -0.00865505 0.84327406
        0.9331841 -0.008657022 0.84325004 0.9412765 -0.008658915 0.8432245
        0.9504423 -0.008660615 0.8431975 0.9607602 -0.008662052 0.843169
        0.97229445 -0.0086631905 0.84313834 0.9850887 -0.008664022 0.8431046
        0.99915874 -0.008664549 0.8430657 1.0144857 -0.008664777 0.84301865
        1.0310104 -0.00866469 0.84295917 1.0486294 -0.008664262 0.8428818
        1.0671936 -0.008663444 0.8427799 1.0865113 -0.008662181 0.84264606
        1.1063534 -0.008660413 0.84247315 1.1264642 -0.008658105 0.84225476
        0.88510716 -0.0074073803 0.84345293 0.8857243 -0.0074048727 0.8434506
        0.88645 -0.00740227 0.84344786 0.8873029 -0.0073996154 0.8434445
        0.88830465 -0.0073969653 0.8434406 0.88948053 -0.007394388 0.84343576
        0.8908596 -0.007391966 0.8434301 0.8924754 -0.007389791 0.8434233
        0.89436656 -0.0073879613 0.84341514 0.896577 -0.007386575 0.8434055
        0.8991567 -0.0073857154 0.8433941 0.9021621 -0.0073854397 0.8433808
        0.90565634 -0.007385768 0.8433656 0.90970933 -0.0073866732 0.8433485
        0.9143977 -0.00738808 0.84332955 0.9198042 -0.0073898677 0.8433088
        0.9260163 -0.0073918835 0.84328634 0.93312436 -0.007393971 0.84326226
        0.9412192 -0.0073959813 0.8432367 0.9503878 -0.0073977984 0.8432097
        0.9607088 -0.0073993453 0.84318113 0.97224665 -0.0074005853 0.84315056
        0.98504484 -0.007401512 0.84311676 0.99911916 -0.007402133 0.84307784
        1.0144509 -0.0074024564 0.84303075 1.0309807 -0.007402478 0.8429713
        1.0486051 -0.0074021774 0.8428939 1.0671751 -0.007401521 0.842792
        1.0864989 -0.00740046 0.84265816 1.1063471 -0.00739895 0.84248525
        1.1264642 -0.0073969634 0.8422668 0.8850317 -0.0061444496 0.84346336
        0.885649 -0.006141919 0.84346104 0.88637495 -0.0061392896 0.8434583
        0.8872281 -0.006136603 0.84345496 0.8882302 -0.0061339163 0.84345096
        0.88940644 -0.0061312974 0.84344625 0.890786 -0.006128828 0.84344053
        0.89240235 -0.0061266026 0.8434337 0.89429414 -0.0061247223 0.8434256
        0.8965053 -0.006123289 0.8434159 0.89908594 -0.0061223907 0.84340453
        0.90209234 -0.0061220927 0.84339124 0.90558773 -0.00612242 0.843376
        0.9096421 -0.00612335 0.8433589 0.91433203 -0.0061248066 0.8433399
        0.9197402 -0.006126667 0.8433192 0.9259542 -0.006128775 0.8432967
        0.9330645 -0.006130965 0.84327257 0.9411618 -0.006133082 0.843247
        0.95033324 -0.006135003 0.84322 0.9606574 -0.00613665 0.84319144
        0.9721987 -0.0061379843 0.84316075 0.9850009 -0.006139 0.843127
        0.9990796 -0.0061397096 0.8430881 1.014416 -0.0061401254 0.843041
        1.030951 -0.006140252 0.8429816 1.0485809 -0.006140078 0.8429042
        1.0671567 -0.0061395797 0.8428022 1.0864863 -0.006138722 0.8426684
        1.1063409 -0.00613747 0.84249544 1.1264642 -0.0061358064 0.84227693
        0.88495624 -0.004881503 0.8434719 0.88557374 -0.004878956 0.84346956
        0.88629985 -0.004876306 0.8434668 0.88715327 -0.0048735957 0.8434635
        0.8881557 -0.0048708804 0.8434595 0.88933235 -0.004868229 0.8434548
        0.8907123 -0.004865723 0.84344906 0.8923292 -0.0048634596 0.84344226
        0.89422166 -0.0048615406 0.8434341 0.8964336 -0.004860071 0.84342444
        0.89901507 -0.0048591443 0.84341305 0.9020225 -0.00485883 0.84339976
        0.90551907 -0.0048591583 0.8433845 0.90957475 -0.0048601106 0.84336734
        0.9142662 -0.0048616114 0.8433484 0.9196761 -0.0048635365 0.84332764
        0.92589206 -0.0048657255 0.8433052 0.93300456 -0.0048680063 0.843281
        0.94110435 -0.0048702178 0.8432554 0.9502786 -0.0048722336 0.8432284
        0.9606059 -0.0048739705 0.8431998 0.9721508 -0.0048753903 0.8431692
        0.98495686 -0.004876489 0.84313536 0.99903995 -0.0048772814 0.84309644
        1.0143812 -0.0048777857 0.8430494 1.0309212 -0.0048780143 0.8429899
        1.0485566 -0.0048779654 0.84291255 1.0671382 -0.0048776246 0.8428106
        1.086474 -0.004876969 0.84267676 1.1063346 -0.0048759743 0.8425037
        1.1264642 -0.004874635 0.84228516 0.8848807 -0.0036185454 0.84347856
        0.8854984 -0.0036159854 0.84347624 0.8862248 -0.0036133206 0.84347343
        0.88707846 -0.0036105935 0.84347016 0.88808125 -0.0036078582 0.8434662
        0.88925827 -0.0036051837 0.84346145 0.89063865 -0.003602653 0.84345573
        0.8922561 -0.0036003615 0.8434489 0.8941491 -0.0035984153 0.8434408
        0.89636177 -0.00359692 0.84343106 0.89894414 -0.0035959736 0.84341973
        0.90195256 -0.0035956497 0.8434064 0.90545034 -0.0035959827 0.8433912
        0.90950733 -0.0035969564 0.84337395 0.9142003 -0.003598497 0.843355
        0.91961193 -0.0036004789 0.8433342 0.9258298 -0.003602738 0.8433117
        0.9329445 -0.0036050975 0.8432876 0.9410468 -0.0036073925 0.8432619
        0.9502238 -0.003609491 0.84323484 0.96055436 -0.0036113083 0.8432063
        0.97210276 -0.0036128059 0.84317565 0.9849128 -0.0036139807 0.84314185
        0.99900025 -0.0036148508 0.84310293 1.0143462 -0.0036154403 0.8430559
        1.0308914 -0.0036157684 0.8429964 1.0485324 -0.003615842 0.84291905
        1.0671197 -0.0036156578 0.84281707 1.0864614 -0.0036152035 0.8426832
        1.1063282 -0.0036144673 0.84251016 1.1264642 -0.003613453 0.84229153
        0.88480526 -0.0023555784 0.8434833 0.8854231 -0.002353011 0.843481
        0.8861497 -0.002350337 0.8434782 0.88700366 -0.002347599 0.8434749
        0.88800675 -0.0023448516 0.84347093 0.8891841 -0.002342163 0.84346616
        0.890565 -0.0023396164 0.84346044 0.89218295 -0.0023373088 0.8434537
        0.8940766 -0.0023353458 0.84344554 0.89629 -0.0023338362 0.8434359
        0.89887315 -0.0023328797 0.84342444 0.9018826 -0.002332553 0.84341115
        0.9053815 -0.0023328946 0.8433959 0.9094398 -0.0023338897 0.8433787
        0.91413426 -0.002335466 0.8433597 0.9195476 -0.0023374965 0.84333897
        0.9257674 -0.0023398155 0.8433163 0.93288434 -0.0023422423 0.8432922
        0.94098914 -0.0023446085 0.84326655 0.95016897 -0.0023467792 0.8432395
        0.9605027 -0.0023486672 0.8432109 0.9720547 -0.0023502337 0.84318024
        0.98486876 -0.002351478 0.84314644 0.99896055 -0.002352421 0.8431075
        1.0143113 -0.0023530917 0.8430605 1.0308616 -0.0023535162 0.843001
        1.048508 -0.0023537106 0.84292364 1.0671012 -0.0023536817 0.84282166
        1.0864489 -0.002353429 0.8426878 1.106322 -0.0023529516 0.8425147
        1.1264642 -0.0023522624 0.842296 0.88472974 -0.0010926054 0.8434862
        0.88534784 -0.0010900348 0.84348387 0.88607466 -0.0010873573 0.84348106
        0.8869289 -0.0010846148 0.8434778 0.8879323 -0.0010818621 0.8434738
        0.88911 -0.0010791679 0.843469 0.8904913 -0.0010766155 0.8434633
        0.8921098 -0.0010743017 0.8434565 0.89400405 -0.0010723332 0.8434484
        0.8962181 -0.0010708197 0.8434387 0.89880216 -0.0010698629 0.8434273
        0.90181255 -0.0010695413 0.843414 0.90531254 -0.001069895 0.84339875
        0.90937215 -0.0010709118 0.8433815 0.9140681 -0.0010725197 0.8433625
        0.9194832 -0.0010745917 0.8433417 0.92570496 -0.0010769606 0.8433191
        0.9328241 -0.0010794436 0.8432949 0.9409314 -0.0010818691 0.8432693
        0.9501141 -0.0010841007 0.8432422 0.960451 -0.00108605 0.8432136
        0.9720066 -0.0010876777 0.8431829 0.9848246 -0.0010889844 0.8431491
        0.9989208 -0.0010899948 0.8431102 1.0142764 -0.0010907429 0.8430631
        1.0308318 -0.0010912612 0.8430037 1.0484837 -0.0010915746 0.8429263
        1.0670828 -0.0010917003 0.84282434 1.0864365 -0.0010916487 0.84269047
        1.1063157 -0.0010914297 0.8425173 1.1264642 -0.0010910671 0.84229857
        0.8846543 0.00017037081 0.84348714 0.88527256 0.00017294008 0.8434848
        0.8859996 0.00017561608 0.8434821 0.8868541 0.00017835673 0.84347874
        0.8878578 0.00018110723 0.8434748 0.88903594 0.00018379877 0.84347004
        0.89041764 0.0001863479 0.8434643 0.8920366 0.0001886576 0.8434575
        0.89393145 0.00019062079 0.8434494 0.89614624 0.0001921273 0.8434397
        0.89873105 0.00019307499 0.8434283 0.90174246 0.0001933841 0.84341496
        0.9052435 0.00019301358 0.8433997 0.90930444 0.00019197482 0.8433825
        0.9140019 0.0001903388 0.84336346 0.91941863 0.00018823246 0.84334266
        0.9256423 0.00018582346 0.8433201 0.9327637 0.00018329587 0.8432959
        0.9408735 0.00018082249 0.8432702 0.9500591 0.00017854119 0.84324306
        0.9603992 0.0001765409 0.84321445 0.9719584 0.00017486037 0.84318376
        0.98478043 0.00017349762 0.84314996 0.998881 0.00017242492 0.84311104
        1.0142413 0.00017160349 0.84306395 1.030802 0.00017099436 0.8430045
        1.0484594 0.00017056376 0.84292716 1.0670642 0.00017028471 0.8428252
        1.086424 0.00017013558 0.84269124 1.1063094 0.00017009543 0.8425181
        1.1264642 0.00017013086 0.8422993 0.88457876 0.0014333476 0.84348625
        0.8851973 0.001435911 0.8434839 0.8859245 0.0014385802 0.8434812
        0.8867793 0.0014413128 0.84347785 0.8877833 0.001444054 0.84347385
        0.8889618 0.0014467345 0.8434691 0.89034396 0.001449271 0.84346336
        0.8919634 0.0014515663 0.84345657 0.89385885 0.0014535135 0.84344846
        0.8960743 0.0014550025 0.8434388 0.89865994 0.0014559312 0.84342736
        0.90167224 0.0014562204 0.843414 0.90517443 0.0014558287 0.84339875
        0.9092366 0.0014547672 0.8433815 0.91393554 0.0014531064 0.84336245
        0.91935396 0.001450973 0.84334165 0.9255796 0.0014485336 0.843319
        0.9327032 0.0014459728 0.8432948 0.94081557 0.0014434635 0.8432691
        0.950004 0.0014411436 0.843242 0.96034735 0.0014391021 0.8432134
        0.9719102 0.0014373772 0.8431827 0.9847362 0.0014359652 0.8431489
        0.99884117 0.0014348354 0.8431099 1.0142063 0.0014339447 0.8430629
        1.0307721 0.0014332474 0.84300345 1.0484351 0.0014327015 0.842926
        1.0670457 0.0014322702 0.84282404 1.0864115 0.0014319206 0.8426901
        1.1063032 0.0014316209 0.84251696 1.1264642 0.0014313285 0.84229803
        0.8845033 0.0026963218 0.8434834 0.88512194 0.002698875 0.8434811
        0.8858495 0.0027015319 0.8434783 0.8867045 0.0027042504 0.84347504
        0.8877088 0.0027069747 0.84347105 0.88888764 0.002709636 0.8434663
        0.89027023 0.0027121506 0.84346056 0.8918902 0.002714421 0.84345376
        0.8937862 0.0027163413 0.84344566 0.89600235 0.0027178023 0.843436
        0.8985888 0.0027187027 0.84342456 0.90160197 0.0027189641 0.8434112
        0.90510523 0.0027185467 0.8433959 0.90916866 0.002717462 0.84337866
        0.913869 0.00271578 0.84335965 0.9192892 0.0027136265 0.8433387
        0.9255168 0.0027111669 0.84331614 0.9326426 0.0027085843 0.8432919
        0.9407575 0.0027060506 0.8432662 0.94994885 0.0027037032 0.84323907
        0.96029544 0.0027016306 0.8432104 0.9718619 0.00269987 0.8431797
        0.9846919 0.0026984157 0.84314585 0.9988013 0.0026972338 0.8431069
        1.0141712 0.0026962776 0.8430599 1.0307423 0.002695495 0.8430004
        1.0484107 0.002694836 0.84292305 1.0670271 0.002694253 0.84282106
        1.086399 0.0026937034 0.84268713 1.1062969 0.0026931441 0.84251386
        1.1264642 0.0026925227 0.84229493 0.88442785 0.003959291 0.84347874
        0.88504666 0.0039618295 0.8434764 0.8857744 0.003964469 0.8434736
        0.8866297 0.003967166 0.8434703 0.88763434 0.0039698663 0.84346634
        0.8888135 0.0039725 0.8434616 0.8901965 0.0039749825 0.8434559
        0.891817 0.0039772177 0.84344906 0.8937136 0.003979101 0.84344095
        0.89593035 0.0039805225 0.8434313 0.89851755 0.003981385 0.84341985
        0.9015317 0.0039816117 0.8434065 0.905036 0.003981164 0.8433912
        0.90910065 0.0039800555 0.84337395 0.91380244 0.0039783563 0.8433549
        0.91922426 0.0039761895 0.843334 0.92545384 0.00397372 0.84331137
        0.93258184 0.0039711273 0.8432871 0.94069934 0.003968581 0.84326136
        0.94989353 0.003966218 0.8432342 0.9602434 0.0039641242 0.8432056
        0.9718135 0.0039623356 0.8431749 0.9846476 0.0039608455 0.843141
        0.99876136 0.003959617 0.84310204 1.0141361 0.0039585996 0.843055
        1.0307124 0.0039577344 0.8429956 1.0483863 0.003956964 0.8429182
        1.0670085 0.003956231 0.84281623 1.0863864 0.0039554816 0.84268224
        1.1062906 0.0039546615 0.842509 1.1264642 0.003953711 0.84229
        0.8843523 0.005222252 0.8434721 0.8849714 0.0052247704 0.8434698
        0.88569933 0.0052273865 0.84346706 0.8865549 0.0052300566 0.84346366
        0.88755983 0.005232725 0.8434597 0.8887394 0.005235321 0.843455
        0.89012283 0.005237762 0.8434493 0.8917438 0.005239952 0.8434425
        0.8936409 0.0052417857 0.84343433 0.89585835 0.0052431584 0.8434247
        0.89844626 0.0052439733 0.8434133 0.9014613 0.0052441577 0.84339994
        0.90496665 0.0052436767 0.8433846 0.9090325 0.005242544 0.84336734
        0.91373575 0.005240831 0.84334826 0.91915923 0.0052386597 0.84332734
        0.9253907 0.0052361893 0.8433047 0.93252105 0.005233598 0.84328043
        0.9406411 0.0052310517 0.8432546 0.9498382 0.005228684 0.84322745
        0.96019137 0.005226579 0.84319884 0.9717651 0.0052247713 0.8431681
        0.98460317 0.005223252 0.8431342 0.9987214 0.005221983 0.8430953
        1.014101 0.0052209073 0.8430482 1.0306824 0.005219963 0.8429888
        1.0483619 0.0052190823 0.8429114 1.0669899 0.0052182004 0.84280944
        1.0863739 0.0052172514 0.84267545 1.1062843 0.0052161715 0.8425022
        1.1264642 0.0052148905 0.84228307 0.88427687 0.0064852023 0.84346366
        0.8848961 0.006487695 0.84346133 0.8856243 0.006490282 0.84345853
        0.8864801 0.006492917 0.84345526 0.8874853 0.006495545 0.84345126
        0.88866526 0.006498095 0.8434465 0.89004904 0.0065004844 0.84344083
        0.89167047 0.0065026176 0.843434 0.89356816 0.0065043913 0.84342587
        0.8957863 0.0065057036 0.8434162 0.8983749 0.006506462 0.84340477
        0.9013908 0.0065065976 0.8433914 0.9048972 0.006506079 0.8433761
        0.9089643 0.0065049236 0.8433588 0.91366893 0.006503201 0.8433397
        0.9190941 0.0065010316 0.8433188 0.92532754 0.0064985715 0.8432961
        0.9324601 0.006495993 0.8432718 0.94058275 0.0064934595 0.8432461
        0.9497828 0.0064910976 0.84321886 0.9601392 0.006488992 0.8431902
        0.9717166 0.006487174 0.84315944 0.9845587 0.0064856326 0.84312564
        0.9986814 0.0064843274 0.84308666 1.0140659 0.0064831986 0.84303963
        1.0306524 0.006482177 0.8429802 1.0483375 0.006481189 0.84290284
        1.0669713 0.006480159 0.8428008 1.0863614 0.0064790105 0.8426668
        1.106278 0.0064776703 0.8424935 1.1264642 0.006476058 0.84227437
        0.88420135 0.007748139 0.8434532 0.8848208 0.007750601 0.84345096
        0.8855492 0.007753151 0.84344816 0.8864053 0.0077557443 0.8434449
        0.8874108 0.007758323 0.8434409 0.8885911 0.007760817 0.8434361
        0.8899753 0.0077631427 0.8434304 0.8915972 0.0077652074 0.84342366
        0.89349544 0.0077669094 0.84341556 0.89571416 0.0077681514 0.84340584
        0.89830357 0.0077688433 0.8433944 0.9013203 0.007768924 0.84338105
        0.90482765 0.0077683656 0.84336567 0.90889597 0.0077671874 0.8433484
        0.91360205 0.0077654608 0.8433293 0.9190289 0.0077633024 0.8433084
        0.92526424 0.0077608638 0.8432857 0.9323991 0.007758311 0.84326136
        0.9405243 0.0077558 0.84323555 0.9497273 0.007753457 0.8432084
        0.960087 0.0077513605 0.84317964 0.97166806 0.0077495403 0.8431489
        0.98451424 0.0077479836 0.8431151 0.9986414 0.007746648 0.8430761
        1.0140306 0.0077454695 0.8430291 1.0306225 0.007744374 0.84296966
        1.048313 0.0077432804 0.8428923 1.0669527 0.0077421027 0.8427903
        1.0863489 0.0077407565 0.84265625 1.1062716 0.007739155 0.84248286
        1.1264642 0.0077372114 0.8422637 0.8841259 0.009011059 0.843441
        0.8847455 0.009013484 0.8434387 0.88547415 0.00901599 0.84343594
        0.8863305 0.009018532 0.8434326 0.8873363 0.009021053 0.8434286
        0.8885169 0.00902348 0.8434239 0.8899015 0.009025732 0.8434182
        0.8915239 0.009027716 0.8434114 0.89342266 0.0090293335 0.8434033
        0.895642 0.009030493 0.84339356 0.8982321 0.009031111 0.8433821
        0.90124965 0.009031131 0.84336877 0.90475804 0.009030529 0.84335345
        0.9088275 0.009029332 0.8433361 0.91353494 0.009027607 0.84331703
        0.9189635 0.0090254685 0.84329605 0.9252008 0.009023062 0.84327334
        0.93233794 0.0090205455 0.843249 0.9404657 0.009018072 0.8432232
        0.9496716 0.0090157585 0.843196 0.96003467 0.009013681 0.84316725
        0.9716194 0.009011867 0.8431365 0.9844697 0.009010304 0.84310263
        0.9986013 0.009008942 0.84306365 1.0139954 0.009007718 0.8430166
        1.0305924 0.0090065515 0.8429572 1.0482886 0.009005355 0.8428799
        1.0669341 0.009004031 0.8427779 1.0863363 0.009002486 0.84264386
        1.1062653 0.0090006245 0.84247047 1.1264642 0.008998347 0.8422512
        0.88405037 0.0102739595 0.8434268 0.8846702 0.010276341 0.8434245
        0.88539904 0.010278796 0.8434217 0.8862556 0.010281278 0.8434184
        0.88726175 0.010283728 0.8434145 0.88844275 0.010286076 0.8434097
        0.8898277 0.010288241 0.84340405 0.8914505 0.010290131 0.8433972
        0.8933498 0.010291655 0.8433891 0.89556974 0.010292721 0.84337944
        0.8981605 0.0102932565 0.84336805 0.9011789 0.010293209 0.84335464
        0.90468824 0.010292565 0.8433393 0.9087589 0.01029135 0.843322
        0.9134678 0.010289634 0.8433028 0.918898 0.010287524 0.84328187
        0.9251373 0.0102851605 0.8432591 0.93227667 0.010282695 0.8432348
        0.94040704 0.01028027 0.8432089 0.94961596 0.010277998 0.8431817
        0.95998234 0.010275951 0.84315294 0.97157073 0.010274151 0.8431222
        0.9844251 0.010272586 0.8430883 0.9985612 0.010271205 0.84304935
        1.0139601 0.01026994 0.8430023 1.0305624 0.010268706 0.8429429
        1.048264 0.010267407 0.8428655 1.0669155 0.010265939 0.84276354
        1.0863237 0.010264197 0.8426295 1.106259 0.010262074 0.84245604
        1.1264642 0.010259463 0.84223676 0.8839749 0.011536838 0.8434108
        0.8845949 0.011539168 0.84340847 0.885324 0.011541561 0.84340566
        0.8861808 0.011543972 0.8434024 0.88718724 0.011546343 0.8433984
        0.88836855 0.011548599 0.8433936 0.88975394 0.011550662 0.843388
        0.89137715 0.011552445 0.84338117 0.89327693 0.011553859 0.84337306
        0.8954974 0.011554823 0.84336346 0.8980889 0.0115552675 0.84335196
        0.9011081 0.011555152 0.8433386 0.9046184 0.011554466 0.8433233
        0.9086902 0.011553237 0.84330595 0.91340053 0.011551536 0.84328675
        0.91883236 0.011549466 0.8432658 0.9250736 0.011547159 0.843243
        0.9322153 0.011544757 0.8432186 0.9403483 0.011542393 0.84319276
        0.94956017 0.0115401745 0.8431655 0.9599299 0.011538166 0.8431367
        0.97152203 0.011536391 0.84310603 0.9843805 0.0115348315 0.8430721
        0.9985211 0.011533435 0.84303313 1.0139248 0.011532133 0.8429861
        1.0305324 0.011530834 0.8429267 1.0482396 0.0115294345 0.8428494
        1.0668968 0.011527824 0.8427474 1.0863112 0.011525885 0.84261334
        1.1062527 0.011523499 0.84243983 1.1264642 0.011520555 0.8422205
        0.8838994 0.012799691 0.84339285 0.88451964 0.01280196 0.8433905
        0.8852489 0.012804283 0.8433878 0.886106 0.012806612 0.84338444
        0.88711274 0.012808886 0.84338045 0.88829434 0.012811036 0.84337574
        0.8896801 0.012812984 0.8433701 0.8913037 0.012814645 0.8433633
        0.893204 0.012815937 0.8433552 0.895425 0.012816787 0.8433455
        0.89801717 0.012817136 0.8433341 0.90103716 0.012816948 0.8433207
        0.9045484 0.0128162205 0.84330535 0.9086214 0.012814985 0.84328794
        0.91333306 0.012813308 0.8432688 0.91876656 0.01281129 0.8432478
        0.92500985 0.012809052 0.843225 0.93215376 0.012806726 0.8432006
        0.94028944 0.012804436 0.84317476 0.9495043 0.012802282 0.84314746
        0.9598774 0.012800325 0.8431187 0.9714732 0.012798581 0.8430879
        0.9843358 0.012797034 0.843054 0.99848086 0.01279563 0.8430151
        1.0138896 0.012794294 0.84296805 1.0305023 0.012792934 0.8429086
        1.048215 0.012791437 0.84283125 1.0668782 0.012789684 0.8427293
        1.0862986 0.012787548 0.84259516 1.1062464 0.012784901 0.84242165
        1.1264642 0.012781623 0.84220225 0.88382393 0.014062515 0.843373
        0.8844443 0.014064714 0.8433707 0.8851738 0.014066953 0.84336793
        0.88603115 0.0140691865 0.8433646 0.8870382 0.014071351 0.84336066
        0.8882201 0.0140733775 0.84335595 0.88960624 0.014075193 0.84335023
        0.8912303 0.014076716 0.84334344 0.89313096 0.014077875 0.84333533
        0.89535254 0.014078601 0.84332573 0.89794534 0.014078847 0.84331423
        0.90096605 0.014078587 0.8433009 0.9044783 0.014077824 0.8432855
        0.9085524 0.014076588 0.84326816 0.9132655 0.014074947 0.8432489
        0.9187007 0.01407299 0.8432279 0.92494595 0.014070834 0.84320515
        0.9320922 0.014068596 0.8431807 0.9402305 0.014066397 0.84315485
        0.94944835 0.0140643185 0.8431275 0.95982474 0.014062421 0.84309876
        0.9714244 0.01406072 0.84306794 0.9842911 0.014059192 0.843034
        0.9984406 0.014057784 0.8429951 1.0138541 0.014056421 0.842948
        1.0304722 0.014055 0.84288865 1.0481905 0.014053409 0.8428113
        1.0668595 0.014051515 0.84270924 1.0862861 0.014049182 0.8425752
        1.10624 0.014046273 0.8424016 1.1264642 0.01404266 0.84218216
        0.8837485 0.015325311 0.8433513 0.884369 0.015327425 0.843349
        0.88509876 0.015329567 0.8433462 0.8859563 0.0153316865 0.8433429
        0.88696355 0.015333722 0.8433389 0.8881458 0.015335609 0.8433342
        0.88953227 0.0153372735 0.84332854 0.8911567 0.015338643 0.8433218
        0.8930578 0.015339654 0.84331363 0.89527994 0.015340249 0.84330404
        0.89787334 0.01534039 0.8432926 0.9008949 0.015340058 0.8432792
        0.90440804 0.015339263 0.8432638 0.90848327 0.015338037 0.8432464
        0.9131978 0.015336443 0.8432272 0.91863465 0.015334564 0.84320617
        0.92488194 0.015332502 0.84318334 0.93203044 0.0153303705 0.84315896
        0.9401714 0.01532827 0.843133 0.9493923 0.015326281 0.84310573
        0.95977205 0.015324455 0.8430769 0.97137547 0.015322803 0.84304607
        0.9842463 0.015321302 0.84301215 0.99840033 0.015319897 0.8429732
        1.0138187 0.015318507 0.84292614 1.030442 0.015317031 0.8428668
        1.0481659 0.0153153455 0.8427895 1.0668408 0.015313314 0.8426874
        1.0862734 0.015310785 0.8425533 1.1062337 0.015307616 0.84237975
        1.1264642 0.015303667 0.8421602 0.88367295 0.016588071 0.84332764
        0.88429374 0.016590087 0.8433254 0.8850236 0.016592115 0.8433226
        0.8858814 0.0165941 0.8433193 0.8868889 0.016595988 0.8433153
        0.8880715 0.016597712 0.8433106 0.88945824 0.016599206 0.84330493
        0.89108306 0.016600406 0.84329814 0.89298457 0.016601257 0.8432901
        0.8952072 0.016601713 0.84328043 0.8978012 0.016601745 0.84326905
        0.9008235 0.01660135 0.84325564 0.9043376 0.01660053 0.84324026
        0.908414 0.016599325 0.84322286 0.9131299 0.016597793 0.8432036
        0.9185685 0.016596004 0.8431825 0.92481774 0.016594054 0.8431597
        0.9319686 0.016592039 0.84313524 0.9401123 0.016590053 0.8431093
        0.9493362 0.016588164 0.84308195 0.95971936 0.016586421 0.84305316
        0.97132653 0.016584827 0.8430223 0.9842015 0.016583359 0.84298843
        0.99836004 0.016581962 0.84294945 1.0137833 0.016580552 0.8429024
        1.0304118 0.016579024 0.842843 1.0481414 0.01657725 0.8427656
        1.066822 0.016575078 0.84266365 1.0862608 0.016572356 0.84252954
        1.1062274 0.016568923 0.8423559 1.1264642 0.01656464 0.8421363
        0.8835975 0.017850798 0.8433022 0.8842184 0.017852694 0.84329987
        0.8849485 0.017854584 0.84329706 0.88580656 0.017856415 0.8432938
        0.8868143 0.017858129 0.84328985 0.8879971 0.017859664 0.84328514
        0.88938415 0.017860966 0.8432795 0.8910093 0.01786198 0.84327275
        0.8929112 0.017862657 0.8432646 0.8951343 0.017862972 0.843255
        0.8977289 0.017862901 0.84324354 0.90075195 0.017862445 0.8432302
        0.904267 0.017861614 0.84321475 0.9083446 0.017860444 0.8431974
        0.9130619 0.017858984 0.8431781 0.9185022 0.017857304 0.84315705
        0.9247534 0.01785548 0.84313416 0.9319067 0.0178536 0.84310967
        0.94005305 0.01785174 0.8430837 0.94927996 0.017849967 0.8430564
        0.95966655 0.017848315 0.8430275 0.9712775 0.017846787 0.8429967
        0.9841566 0.01784536 0.84296274 0.9983197 0.017843978 0.84292376
        1.0137479 0.017842552 0.84287673 1.0303817 0.017840976 0.84281737
        1.0481168 0.017839111 0.84274 1.0668033 0.017836805 0.842638
        1.0862482 0.017833889 0.8425039 1.106221 0.017830197 0.8423303
        1.1264642 0.017825576 0.84211063 0.883522 0.019113485 0.8432748
        0.88414305 0.019115238 0.84327245 0.8848734 0.019116962 0.84326965
        0.8857316 0.019118607 0.8432664 0.88673955 0.019120118 0.8432625
        0.8879226 0.019121438 0.8432577 0.88930994 0.019122524 0.8432521
        0.89093536 0.019123334 0.8432453 0.89283764 0.019123834 0.8432373
        0.89506125 0.019124005 0.8432276 0.89765644 0.019123837 0.84321624
        0.90068024 0.019123333 0.8432028 0.9041962 0.019122506 0.8431874
        0.908275 0.019121386 0.84317 0.9129937 0.019120019 0.84315073
        0.91843575 0.019118462 0.8431296 0.924689 0.019116782 0.84310675
        0.93184465 0.019115048 0.8430822 0.9399937 0.01911333 0.84305626
        0.9492237 0.019111682 0.84302884 0.9596137 0.019110132 0.843
        0.97122836 0.019108681 0.8429691 0.98411167 0.019107303 0.8429352
        0.99827933 0.019105937 0.8428963 1.0137124 0.019104503 0.8428492
        1.0303514 0.01910288 0.8427898 1.0480921 0.01910093 0.84271246
        1.0667846 0.01909849 0.8426105 1.0862355 0.019095382 0.8424763
        1.1062146 0.01909143 0.8423027 1.1264642 0.01908647 0.842083
        0.8834465 0.020376127 0.84324545 0.8840678 0.020377707 0.8432431
        0.8847982 0.02037923 0.84324044 0.8856566 0.02038065 0.84323716
        0.88666475 0.02038192 0.84323317 0.88784796 0.020382995 0.8432285
        0.88923556 0.020383842 0.84322286 0.8908612 0.020384435 0.8432161
        0.8927639 0.020384753 0.843208 0.89498794 0.020384787 0.8431984
        0.8975838 0.020384533 0.843187 0.9006083 0.020383997 0.8431736
        0.9041253 0.02038319 0.8431582 0.9082052 0.02038214 0.8431408
        0.9129254 0.020380884 0.8431214 0.9183691 0.020379469 0.8431003
        0.92462444 0.020377947 0.8430774 0.9317824 0.020376379 0.84305286
        0.93993425 0.020374818 0.8430269 0.9491673 0.020373307 0.8429995
        0.95956075 0.020371871 0.8429706 0.97117925 0.020370506 0.84293973
        0.98406667 0.020369181 0.84290576 0.9982389 0.020367842 0.84286684
        1.0136769 0.020366399 0.8428198 1.0303212 0.020364733 0.8427604
        1.0480676 0.020362701 0.8426831 1.0667659 0.020360129 0.84258103
        1.086223 0.020356828 0.84244686 1.1062083 0.020352615 0.8422732
        1.1264642 0.020347323 0.8420535 0.883371 0.021638725 0.8432143
        0.8839924 0.021640085 0.843212 0.884723 0.021641355 0.84320927
        0.8855815 0.021642502 0.8432059 0.88658977 0.021643486 0.84320205
        0.88777316 0.021644283 0.84319735 0.88916093 0.021644872 0.84319174
        0.8907869 0.02164524 0.843185 0.8926899 0.021645382 0.84317696
        0.8949144 0.02164529 0.8431673 0.8975108 0.02164497 0.8431559
        0.9005361 0.021644419 0.84314257 0.90405405 0.021643655 0.84312713
        0.90813524 0.021642696 0.84310967 0.91285694 0.021641573 0.8430903
        0.9183024 0.02164032 0.84306914 0.9245598 0.021638975 0.8430462
        0.93172014 0.021637587 0.84302163 0.93987465 0.021636195 0.84299564
        0.94911087 0.021634838 0.84296817 0.9595077 0.021633523 0.84293926
        0.9711301 0.021632254 0.84290844 0.98402166 0.021630993 0.84287447
        0.9981984 0.021629684 0.8428355 1.0136414 0.021628238 0.84278846
        1.030291 0.021626538 0.84272903 1.0480429 0.021624424 0.8426517
        1.0667471 0.02162172 0.8425497 1.0862103 0.02161823 0.8424155
        1.1062019 0.02161376 0.8422418 1.1264642 0.02160813 0.842022
        0.88329554 0.022901276 0.8431812 0.88391703 0.02290234 0.8431789
        0.88464767 0.022903288 0.8431762 0.8855063 0.022904096 0.84317297
        0.8865146 0.022904748 0.84316903 0.88769805 0.022905234 0.8431644
        0.88908595 0.02290555 0.8431588 0.8907122 0.0229057 0.843152
        0.89261556 0.02290568 0.84314394 0.89484054 0.022905486 0.84313434
        0.8974376 0.02290512 0.84312296 0.9004637 0.022904584 0.84310955
        0.90398264 0.022903888 0.8430941 0.9080651 0.022903046 0.84307665
        0.9127882 0.022902077 0.8430573 0.9182355 0.022901004 0.8430361
        0.924495 0.022899857 0.8430131 0.93165773 0.022898668 0.84298855
        0.93981504 0.022897461 0.8429625 0.9490543 0.022896266 0.842935
        0.9594546 0.022895088 0.8429061 0.9710808 0.02289392 0.84287524
        0.9839766 0.02289273 0.84284127 0.9981579 0.02289146 0.8428023
        1.0136058 0.022890018 0.84275526 1.0302607 0.022888282 0.8426959
        1.0480182 0.022886092 0.8426185 1.0667284 0.022883262 0.8425165
        1.0861976 0.022879584 0.8423823 1.1061956 0.022874855 0.84220856
        1.1264642 0.022868888 0.84198874 0.88322 0.024163777 0.8431462
        0.8838415 0.02416442 0.843144 0.88457215 0.024164932 0.84314126
        0.8854307 0.02416532 0.843138 0.886439 0.024165591 0.8431341
        0.8876226 0.024165753 0.84312946 0.8890106 0.024165807 0.8431239
        0.8906371 0.024165759 0.8431172 0.8925409 0.024165604 0.84310913
        0.89476633 0.02416534 0.84309953 0.8973641 0.024164964 0.8430881
        0.90039104 0.024164476 0.84307474 0.903911 0.024163878 0.84305924
        0.9079947 0.024163175 0.8430418 0.91271937 0.024162386 0.84302235
        0.9181684 0.024161518 0.8430011 0.92443 0.024160586 0.8429782
        0.93159527 0.02415961 0.84295356 0.93975526 0.024158606 0.8429275
        0.9489977 0.024157587 0.84290004 0.9594015 0.024156556 0.84287107
        0.9710315 0.0241555 0.84284014 0.9839315 0.024154387 0.84280616
        0.9981174 0.024153164 0.8427672 1.0135702 0.024151731 0.84272015
        1.0302304 0.024149965 0.8426608 1.0479935 0.024147702 0.8425834
        1.0667095 0.024144746 0.84248143 1.086185 0.024140883 0.8423472
        1.1061893 0.024135897 0.84217346 1.1264642 0.024129596 0.8419535
        0.88314456 0.025426224 0.84310937 0.8837657 0.025426157 0.84310716
        0.8844961 0.025426075 0.8431045 0.8853545 0.025425978 0.84310126
        0.8863629 0.02542586 0.8430974 0.8875465 0.025425721 0.84309274
        0.8889348 0.025425553 0.84308714 0.8905616 0.02542535 0.84308046
        0.8924657 0.025425108 0.8430724 0.89469177 0.02542482 0.8430628
        0.8972902 0.025424475 0.8430514 0.9003181 0.02542407 0.84303796
        0.9038392 0.025423603 0.8430225 0.9079241 0.025423076 0.843005
        0.91265035 0.025422491 0.84298563 0.91810125 0.02542185 0.84296435
        0.9243649 0.025421156 0.84294134 0.9315326 0.025420412 0.84291667
        0.9396954 0.025419625 0.84289056 0.94894093 0.025418796 0.8428631
        0.95934826 0.025417922 0.8428341 0.9709821 0.025416989 0.8428032
        0.9838863 0.025415964 0.8427692 0.9980768 0.025414787 0.84273016
        1.0135345 0.02541337 0.84268314 1.0302 0.02541158 0.8426238
        1.0479689 0.025409248 0.84254646 1.0666908 0.02540617 0.8424444
        1.0861723 0.025402123 0.84231025 1.1061828 0.025396882 0.84213644
        1.1264642 0.025390249 0.8419165
        <InformationKey name="L2_NORM_RANGE" location="vtkDataArray" length="2">
          <Value index="0">
            1.2212388017
          </Value>
          <Value index="1">
            1.4065524561
          </Value>
        </InformationKey>
      </DataArray>
    </Points>
  </Piece>
  </StructuredGrid>
</VTKFile>
