<?xml version="1.0"?>
<VTKFile type="StructuredGrid" version="0.1" byte_order="LittleEndian" header_type="UInt32" compressor="vtkZLibDataCompressor">
  <StructuredGrid WholeExtent="0 30 0 40 0 0">
  <Piece Extent="0 30 0 40 0 0">
    <PointData>
      <DataArray type="Float32" Name="orthogonality" format="ascii" RangeMin="2.8789999355870177e-13" RangeMax="0.9999980926513672">
        0.9982287 0.9991078 0.99788487 0.99372804 0.9854694 0.9699474
        0.9404502 0.8863844 0.7956259 0.65801 0.47568503 0.28884247
        0.15579453 0.08768576 0.06055648 0.051894814 0.049566947 0.04865014
        0.04758702 0.046011426 0.043880183 0.041215364 0.03804838 0.03441307
        0.030347433 0.025896007 0.021111576 0.016055932 0.010799557 0.0054201963
        2.879e-13 0.99723935 0.99862725 0.99648285 0.9911123 0.98082536
        0.9615089 0.92599136 0.8650322 0.76963454 0.63268596 0.45771107
        0.28081942 0.15380873 0.08774246 0.061061624 0.052408766 0.049990214
        0.048975624 0.04783074 0.046192337 0.044015024 0.04131781 0.03812915
        0.034480166 0.030406378 0.025950091 0.021162096 0.016102483 0.010840334
        0.0054522883 1.9330784e-05 0.9966821 0.99831325 0.99545455 0.9886724
        0.975054 0.9493834 0.9052051 0.8367894 0.7386449 0.6049936
        0.43910155 0.2727022 0.15187195 0.087936796 0.06174249 0.053102296
        0.05058377 0.049459316 0.04822114 0.046509627 0.04427713 0.04153945
        0.038321935 0.0346529 0.030565329 0.026099244 0.021303443 0.016236303
        0.010965521 0.005566644 0.00011917785 0.9974595 0.9979443 0.9942362
        0.9853174 0.9669402 0.9336723 0.8815443 0.80831 0.709822
        0.5803485 0.4228526 0.26568928 0.15040343 0.08846606 0.06273683
        0.054088254 0.05144356 0.05018332 0.04882846 0.047023296 0.04471771
        0.041924007 0.038664248 0.03496377 0.030852914 0.026369343 0.021559788
        0.016480854 0.011198788 0.0057879756 0.00032564683 0.9991328 0.99762994
        0.9928049 0.9808461 0.95656824 0.91578746 0.8577494 0.78199345
        0.68419003 0.5585119 0.40790468 0.25833416 0.14786993 0.08789819
        0.06279095 0.054299742 0.051671445 0.050393917 0.0490202 0.0472021
        0.044890158 0.042095903 0.038840417 0.03514809 0.031048393 0.026578197
        0.021783588 0.01672071 0.011455617 0.0060628103 0.0006176487 0.9999981
        0.9971872 0.98992854 0.97198224 0.9388375 0.89033926 0.82869154
        0.75311095 0.65834826 0.538525 0.39638615 0.25521004 0.14962241
        0.0912304 0.06620796 0.057340845 0.054258 0.052566927 0.05084737
        0.04874845 0.046211388 0.04323838 0.039842486 0.0360415 0.031859536
        0.027329363 0.022494173 0.017408611 0.012138965 0.0067623244 0.0013419961
        0.9998554 0.996422 0.9856599 0.9614412 0.921601 0.8685155
        0.8050392 0.73019904 0.6388229 0.5253053 0.3919028 0.25893408
        0.15762553 0.09996467 0.07412295 0.064051695 0.05980789 0.05711829
        0.054572884 0.0517993 0.048712604 0.04529145 0.041529045 0.03742657
        0.032994203 0.02825292 0.023235798 0.017988643 0.012569775 0.0070486963
        0.001480945 0.9999108 0.99472564 0.9791637 0.9488638 0.90338963
        0.84554404 0.7781066 0.7009772 0.61040837 0.5018013 0.37711978
        0.25363988 0.15850748 0.1032195 0.077716745 0.06725842 0.062469684
        0.059270617 0.05629707 0.053175047 0.049807135 0.046159152 0.04221314
        0.037960824 0.0334044 0.02855804 0.023449007 0.01811809 0.012619201
        0.007017833 0.0013671342 0.99990714 0.9905819 0.9695516 0.9324883
        0.8794746 0.8137943 0.73959184 0.65865755 0.5686545 0.46561143
        0.35094216 0.23879841 0.15191726 0.10073661 0.07680539 0.06683645
        0.06216762 0.058989782 0.05602176 0.05290855 0.04955462 0.045924306
        0.041997846 0.03776536 0.03322765 0.028397683 0.023301719 0.01797971
        0.012484901 0.006882213 0.0012258402 0.9986642 0.9840828 0.9569036
        0.911887 0.8497273 0.7752611 0.6947814 0.61149764 0.52355605
        0.4270632 0.3227652 0.22206582 0.14376152 0.097117476 0.075077295
        0.06579905 0.061384283 0.05832677 0.055442 0.052399877 0.0491101
        0.04553794 0.04166381 0.037477817 0.03298069 0.028185314 0.023117838
        0.017818158 0.012339508 0.006746797 0.0010956965 0.99600273 0.97557235
        0.9411469 0.8869077 0.81483185 0.73222274 0.6473597 0.56378376
        0.4793094 0.38986957 0.29562938 0.20575628 0.1357144 0.09358481
        0.07346483 0.064881414 0.060708433 0.0577552 0.054938674 0.051954634
        0.04871792 0.045194473 0.04136461 0.03721824 0.032755848 0.02799008
        0.022946892 0.017666005 0.012200541 0.0066153156 0.0009673882 0.9915599
        0.9643556 0.92130417 0.8562906 0.7736651 0.68394136 0.5966883
        0.51468456 0.43490356 0.35302028 0.26872352 0.18933067 0.12741922
        0.089873105 0.07175728 0.06391393 0.060003445 0.057165228 0.05442369
        0.0515024 0.048322 0.044849485 0.041065358 0.036959533 0.03253246
        0.027796702 0.022778137 0.017516423 0.01206465 0.006487603 0.0008437554
        0.9850393 0.94984806 0.89634234 0.8189547 0.7258206 0.6307868
        0.54341495 0.46475056 0.39070794 0.3167555 0.24224377 0.17297827
        0.11902947 0.08608764 0.070026696 0.062949575 0.0593105 0.05658962
        0.05392326 0.05106412 0.047939043 0.044516236 0.040776495 0.03670985
        0.03231678 0.027609855 0.022614919 0.017371614 0.011933025 0.0063639292
        0.00072419894 0.97586715 0.93100923 0.864692 0.7734741 0.6707294
        0.5728562 0.4877517 0.4140598 0.3466659 0.28096318 0.21610993
        0.15668176 0.110551596 0.082228005 0.06826516 0.0619785 0.058620565
        0.056020837 0.053431284 0.050634913 0.047565166 0.04419165 0.040495623
        0.03646734 0.032107435 0.027428554 0.02245659 0.017231228 0.011805584
        0.0062444583 0.0006091198 0.9631111 0.9062494 0.8242117 0.7182891
        0.60802966 0.51043206 0.43002507 0.36279464 0.30283076 0.24563657
        0.19032526 0.14047918 0.10202876 0.078320496 0.06648513 0.061006844
        0.057937395 0.055461623 0.052949917 0.05021651 0.047201764 0.04387688
        0.04022368 0.03623279 0.031905074 0.027253343 0.022303615 0.017095657
        0.011682663 0.006129485 0.00049877516 0.94510794 0.8729881 0.7719254
        0.65171665 0.53753805 0.44387087 0.37054992 0.31111285 0.25924176
        0.21076459 0.16489017 0.12440277 0.09349868 0.074387886 0.06469672
        0.060039002 0.0572634 0.05491367 0.052480515 0.049810056 0.046849817
        0.043572757 0.039961413 0.03600686 0.031710297 0.02708478 0.022156512
        0.016965404 0.011564757 0.006019501 0.00039365972 0.9187952 0.826967
        0.7038495 0.57220393 0.45942438 0.37370828 0.30972162 0.259226
        0.21598631 0.17637965 0.13983807 0.108505346 0.08501225 0.07046277
        0.062917784 0.059085585 0.056606017 0.054382797 0.052027814 0.049419433
        0.04651255 0.04328198 0.039711073 0.03579145 0.031524718 0.02692425
        0.022016482 0.016841508 0.0114527745 0.005915309 0.0002944795 0.87822497
        0.76104754 0.61505103 0.47879246 0.37440702 0.3007389 0.24806593
        0.20743272 0.17322178 0.1425716 0.11524519 0.092868075 0.07663964
        0.066592276 0.061177686 0.05816651 0.055980276 0.053881012 0.0516016
        0.049052697 0.046196595 0.04301003 0.03947721 0.035590343 0.031351496
        0.026774386 0.021885723 0.016725808 0.011348243 0.0058181644 0.00020224154
        0.81104445 0.6634395 0.50056314 0.37194195 0.28403714 0.22615133
        0.18633333 0.15618913 0.13122743 0.10952603 0.0912593 0.0776224
        0.068486884 0.06285093 0.05952763 0.057319347 0.055415582 0.053432055
        0.05122126 0.048725717 0.045914978 0.042767607 0.039268617 0.035410773
        0.031196568 0.026640056 0.021768196 0.016621491 0.011253677 0.005729983
        0.00011830073 0.68985677 0.51662475 0.35823166 0.25466463 0.1910263
        0.15170337 0.12562728 0.10620537 0.09047698 0.077579096 0.06814208
        0.062983744 0.06072325 0.05936305 0.058059044 0.056614432 0.05496805
        0.05308144 0.050923917 0.048468824 0.04569248 0.04257496 0.039101828
        0.035266206 0.03107086 0.026530048 0.02167089 0.01653399 0.01117314
        0.005653585 4.430364e-05 0.4561618 0.30360314 0.19360429 0.13320337
        0.09924941 0.079702616 0.06739287 0.058434125 0.051627196 0.047209304
        0.046267163 0.049256686 0.053591695 0.056315392 0.056915857 0.05616553
        0.054729357 0.052903667 0.050770234 0.048331443 0.04556935 0.042464808
        0.039003376 0.035178065 0.030991543 0.026457967 0.021604357 0.016471209
        0.011112184 0.005592368 1.8402983e-05 0.05088223 0.03150456 0.019561006
        0.013591597 0.0112318015 0.011234072 0.012104659 0.0130707305 0.014748591
        0.018450122 0.025681509 0.03651566 0.047177073 0.053783987 0.056159824
        0.056021977 0.054739054 0.052930534 0.050785795 0.04833408 0.04556196
        0.042450164 0.038983498 0.035154298 0.03096465 0.026428223 0.02157161
        0.016434927 0.011071462 0.0055459286 7.1246286e-05 0.37993592 0.24687587
        0.15504625 0.105670296 0.07639119 0.05694041 0.042968776 0.032104425
        0.021924304 0.010061139 0.0053793467 0.024047727 0.040971182 0.051387213
        0.05548979 0.055939976 0.05479789 0.052998662 0.050836433 0.04836648
        0.045579627 0.042456385 0.038980767 0.03514439 0.030948723 0.026406942
        0.021545203 0.016403228 0.011033918 0.0055015907 0.00012277142 0.6451843
        0.47246915 0.32239673 0.22726832 0.16786134 0.12869473 0.101027265
        0.07966078 0.060419705 0.039883994 0.015791576 0.01103037 0.034381535
        0.0486767 0.054550793 0.05563196 0.054670848 0.05291539 0.050764013
        0.048298724 0.045515552 0.04239564 0.038922947 0.035088968 0.0308951
        0.02635443 0.021493042 0.016350562 0.010979751 0.0054447516 0.00018267968
        0.783248 0.6307301 0.46954367 0.3461491 0.2615272 0.20362146
        0.16211797 0.12980576 0.10097386 0.07121127 0.03794462 0.0025746739
        0.027409574 0.0456634 0.053352535 0.055105068 0.054363042 0.05268433
        0.050570995 0.048132375 0.045370564 0.04226818 0.038809814 0.034987446
        0.03080286 0.026269488 0.021413673 0.016275238 0.010907048 0.0053732595
        0.00025336503 0.8590944 0.73645216 0.5891319 0.45553243 0.35337105
        0.2793796 0.22480306 0.18160954 0.14295074 0.1035712 0.06069659
        0.016446387 0.020311225 0.04254254 0.05204509 0.05447794 0.053970076
        0.05238314 0.050320588 0.04791887 0.045186497 0.04210796 0.038668856
        0.03486195 0.030689694 0.026166067 0.021317875 0.016185282 0.01082138
        0.0052904426 0.00033363412 0.9046428 0.8078082 0.6822782 0.551727
        0.4403524 0.3540449 0.2878958 0.23432344 0.18585417 0.13660169
        0.08375075 0.030335773 0.013278011 0.039452158 0.050729856 0.053828947
        0.05355467 0.052062735 0.05005432 0.047692124 0.044991046 0.04193759
        0.038518503 0.03472747 0.030567724 0.02605391 0.02121336 0.016086662
        0.010727187 0.0051993546 0.0004217438 0.93420446 0.8575541 0.7537287
        0.6338323 0.5206381 0.42628485 0.35058784 0.28748044 0.2294077
        0.17011027 0.10693661 0.044087812 0.006428182 0.03647175 0.049461156
        0.05319837 0.053148575 0.051748846 0.04979322 0.047469374 0.044798356
        0.04176868 0.038368296 0.034591846 0.030443395 0.025938282 0.02110442
        0.015982835 0.010627193 0.0051020742 0.0005162192 0.9545912 0.89351326
        0.8085464 0.70259154 0.5932941 0.49519098 0.41232792 0.3408068
        0.27349004 0.20402512 0.13017045 0.057608604 0.00016589319 0.03364521
        0.048265368 0.05260418 0.052765507 0.05145251 0.049546354 0.047258098
        0.044614624 0.04160639 0.03822253 0.034458674 0.030319724 0.025821734
        0.02099321 0.01587563 0.010522962 0.0049999272 0.000615949 0.96926755
        0.9203682 0.85090977 0.7594517 0.65793735 0.56007373 0.47266462
        0.39410162 0.31804416 0.23832642 0.15340327 0.07082669 0.0064494214
        0.0310022 0.047157712 0.052055504 0.052412026 0.05117893 0.049317963
        0.047061816 0.044442777 0.041453157 0.038083266 0.034329697 0.030198198
        0.025705546 0.020880843 0.015766025 0.010415356 0.0048936903 0.00072023243
        0.9801014 0.9409923 0.8840561 0.8061686 0.7146841 0.62052846
        0.53133535 0.44733337 0.36316904 0.27312338 0.17667665 0.08372985
        0.0124094775 0.028541338 0.04612986 0.05154305 0.052079976 0.05092142
        0.049102724 0.046876315 0.044279505 0.041306425 0.03794855 0.034203462
        0.030077785 0.025589043 0.020766957 0.015653938 0.010304558 0.0047837943
        0.0008283999 0.98802626 0.9570438 0.91019064 0.8441692 0.7634931
        0.6757561 0.58757627 0.50001186 0.40858978 0.3082329 0.1998086
        0.09614494 0.017923145 0.026339721 0.045233395 0.051104896 0.05179907
        0.050703682 0.048919607 0.046716772 0.044136934 0.04117582 0.03782598
        0.034085914 0.02996306 0.025475657 0.020654017 0.015540998 0.01019145
        0.004670441 0.0009408898 0.99385965 0.96992123 0.9314133 0.8755421
        0.8056782 0.72651047 0.64219666 0.5531844 0.45543078 0.34463006
        0.223477 0.108491935 0.023279378 0.024173925 0.04428981 0.050597638
        0.051454056 0.050433163 0.048694428 0.046523873 0.043967787 0.041023865
        0.037686065 0.03395411 0.029836513 0.025352431 0.020532947 0.015421509
        0.010073361 0.0045537488 0.0010549366 0.99716127 0.9793161 0.94792306
        0.9000226 0.83913076 0.76869905 0.6901907 0.6019819 0.49945158
        0.3788389 0.2449774 0.11880009 0.027090734 0.023055809 0.044076644
        0.050637357 0.051538955 0.05050723 0.048746694 0.046554044 0.04397726
        0.041014023 0.037658155 0.03390935 0.029776163 0.025277846 0.020445554
        0.015322756 0.009964595 0.0044360515 0.0011795859 0.9975268 0.9834301
        0.95945203 0.9180701 0.86259645 0.79726154 0.72263837 0.6351718
        0.52894306 0.4001184 0.25545985 0.12033518 0.024301693 0.02691587
        0.04775258 0.05380595 0.054178506 0.052678414 0.050522868 0.048001178
        0.045150377 0.04195812 0.03840986 0.03449841 0.030226668 0.025609192
        0.020673156 0.015458556 0.01001736 0.0044114925 0.0012776444 0.9946524
        0.9842801 0.96792585 0.9348334 0.88524926 0.8226219 0.74809974
        0.6582383 0.54683244 0.40991735 0.2557847 0.113795206 0.0154804075
        0.03533385 0.055013333 0.059882585 0.05921611 0.056842733 0.053963266
        0.050843276 0.04749741 0.04389431 0.040003706 0.035805482 0.031291857
        0.026468499 0.021355068 0.01598503 0.010404454 0.004669619 0.0011438394
        0.9852372 0.9842481 0.9743533 0.9507898 0.9104581 0.8530509
        0.779576 0.68771577 0.5715359 0.42680806 0.2630541 0.11365505
        0.012261434 0.039047103 0.058417056 0.06283634 0.06174373 0.059000827
        0.05580932 0.052427907 0.048863534 0.04507811 0.0410359 0.036712468
        0.03209674 0.027191985 0.022016305 0.016602397 0.010996403 0.0052556633
        0.0005522444 0.97633064 0.98360556 0.97693866 0.9593701 0.9273377
        0.87739766 0.80806595 0.7168193 0.5979004 0.44677565 0.2740784
        0.11736723 0.012637827 0.03960398 0.05913739 0.06354031 0.062394258
        0.059593305 0.05634696 0.05291544 0.049305655 0.045479305 0.041400526
        0.037044894 0.032401495 0.027473876 0.022280514 0.01685456 0.011242647
        0.0055026165 0.0002988978 0.9725477 0.98333377 0.9789248 0.9658434
        0.9414022 0.9003865 0.8377479 0.74881685 0.62740976 0.46874756
        0.2851668 0.119874336 0.011643391 0.04129949 0.060764506 0.06497694
        0.06364372 0.060676698 0.057285808 0.05372882 0.050009955 0.0460886
        0.04192701 0.037499305 0.032793455 0.02781216 0.02257325 0.017109334
        0.011466541 0.005702148 0.00011863602 0.9754556 0.9835175 0.98041725
        0.97035277 0.95189047 0.9197199 0.8660437 0.7823412 0.6601227
        0.49374965 0.2977746 0.12275052 0.0107887555 0.042798005 0.062160406
        0.066188745 0.06468976 0.061579365 0.058063727 0.05439759 0.050582875
        0.04657713 0.0423412 0.037848126 0.033085078 0.028054172 0.022772793
        0.01727318 0.011601059 0.005813222 2.5958803e-05 0.9811766 0.98512053
        0.98303616 0.9747133 0.959713 0.9333447 0.88703173 0.8096829
        0.6894546 0.51779115 0.31029797 0.12562916 0.010036083 0.044114646
        0.063353375 0.06720672 0.06555982 0.062324293 0.05870022 0.054938983
        0.05104036 0.04696033 0.042658553 0.038107187 0.033292778 0.028217012
        0.022896977 0.017364664 0.011665533 0.0058560055 2.879e-13
      </DataArray>
      <DataArray type="Float32" Name="aspect_ratio" format="ascii" RangeMin="1.0021848678588867" RangeMax="60.53632736206055">
        1.9469385 2.5359073 2.404707 2.1303046 2.0227304 2.1324875
        2.5048487 3.2201276 4.3739877 6.025642 8.067144 10.131284
        11.995554 13.820065 15.779579 17.944138 20.33684 22.964571
        25.823595 28.898642 32.160725 35.56486 39.04835 42.530174
        45.912178 49.082443 51.921078 54.308296 56.134007 57.30787
        58.156452 2.0386004 2.5221615 2.316504 2.1158454 2.094155
        2.2807324 2.728142 3.5233257 4.762314 6.4989142 8.630562
        10.8210335 12.845081 14.824526 16.92144 19.210678 21.720013
        24.456717 27.413904 30.570967 33.89234 37.32586 40.801556
        44.231728 47.51283 50.529633 53.16179 55.292423 56.818
        57.65819 58.152367 2.302765 2.5332177 2.2536106 2.1004348
        2.1531398 2.430972 2.9870002 3.9001212 5.2541933 7.0950394
        9.330709 11.661802 13.863845 16.019451 18.275316 20.710045
        23.355774 26.219685 29.290955 32.54263 35.931458 39.396927
        42.86073 46.22754 49.387764 52.222607 54.611443 56.441036
        57.615658 58.06667 58.148277 2.828747 2.500585 2.1895695
        2.1010823 2.234455 2.6060157 3.265743 4.2845745 5.7397366
        7.6737857 10.006406 12.471664 14.846388 17.175957 19.59022
        22.170567 24.953522 27.94641 31.13464 34.484997 37.946514
        41.45022 44.909184 48.22005 51.266594 53.92574 56.07577
        57.606274 58.42852 58.484943 58.144184 4.0867615 2.4085114
        2.1643102 2.1865609 2.4495568 2.972021 3.8050585 5.023107
        6.7079973 8.90342 11.531643 14.33275 17.06572 19.743557
        22.487482 25.38557 28.479086 31.772812 35.24312 38.843082
        42.50469 46.139492 49.639606 52.88044 55.725895 58.036194
        59.678078 60.536327 60.525215 59.597916 58.140087 4.984365
        2.2481205 2.0520546 2.1013758 2.3644943 2.8505373 3.600645
        4.6828427 6.172245 8.112673 10.456607 13.013255 15.575521
        18.121227 20.741106 23.517986 26.497704 29.69145 33.082245
        36.629986 40.273533 43.93101 47.500237 50.860783 53.87843
        56.41238 58.324947 59.49295 59.819412 59.24367 58.136074
        3.1765072 2.0708747 1.884925 1.8590801 1.9606817 2.20583
        2.630479 3.2848618 4.225493 5.4954476 7.0914793 8.922496
        10.852524 12.837221 14.925572 17.183783 19.659927 22.37792
        25.340385 28.531887 31.919762 35.45318 39.061966 42.656475
        46.1294 49.360016 52.22108 54.58803 56.349712 57.41929
        58.13189 2.1337655 1.8984038 1.7701199 1.7296956 1.7828771
        1.9507747 2.2635884 2.7619824 3.493381 4.4999595 5.7990775
        7.347039 9.041559 10.823998 12.719741 14.787389 17.077747
        19.62136 22.429346 25.496132 28.800037 32.30187 35.943047
        39.64453 43.307495 46.81632 50.044323 52.86209 55.147774
        56.79825 58.12758 1.877854 1.794283 1.7008023 1.6773126
        1.7475007 1.9309145 2.2524638 2.745611 3.4513068 4.411467
        5.6560388 7.1660013 8.85162 10.638829 12.536366 14.599636
        16.882353 19.417948 22.21922 25.28156 28.58397 32.087837
        35.735107 39.447163 43.12544 46.654396 49.90718 52.75394
        55.072113 56.757618 58.12325 1.8336736 1.7261736 1.6377612
        1.6335294 1.7289057 1.9399012 2.2869124 2.7968047 3.5045967
        4.451898 5.678806 7.1850777 8.889944 10.706226 12.628278
        14.708757 17.004025 19.549767 22.359571 25.428713 28.73569
        32.241272 35.88679 39.593094 43.26124 46.775528 50.009254
        52.83302 55.125057 56.78237 58.118927 1.7278304 1.6419432
        1.5695529 1.5851785 1.7032448 1.9375565 2.3044891 2.8254156
        3.5309062 4.4627852 5.669767 7.1672735 8.882998 10.719807
        12.659405 14.751469 17.054508 19.606274 22.421211 25.494673
        28.804907 32.31234 35.95793 39.662212 43.326 46.83349
        50.058025 52.87046 55.149467 56.792656 58.11461 1.6324073
        1.5564159 1.4993305 1.5356846 1.6775033 1.9360942 2.3236604
        2.8568428 3.5629597 4.484534 5.677683 7.170659 8.898325
        10.75559 12.71316 14.8178215 17.129892 19.68892 22.510036
        25.588564 28.902412 32.411568 36.056553 39.757496 43.414944
        46.912956 50.124966 52.922127 55.183662 56.807926 58.1103
        1.5273693 1.4651048 1.4254899 1.4835895 1.6498456 1.9326515
        2.3400667 2.8849711 3.5925171 4.506266 5.688685 7.1785636
        8.916884 10.792351 12.766252 14.882636 17.203289 19.769302
        22.596397 25.67983 28.997177 32.508003 36.15239 39.8501
        43.501396 46.990215 50.19006 52.972378 55.216915 56.82274
        58.105988 1.4172933 1.3691105 1.3485262 1.4301056 1.6222329
        1.9296125 2.3564758 2.9130464 3.6232646 4.5319867 5.7071314
        7.1960716 8.944824 10.837201 12.826551 14.954428 17.283798
        19.85705 22.690361 25.77887 29.099787 32.612225 36.25582
        39.94994 43.59455 47.073463 50.260242 53.026653 55.252964
        56.838997 58.101685 1.3003097 1.2682033 1.2690132 1.3765026
        1.5960186 1.9280239 2.373719 2.9418273 3.6558554 4.562102
        5.733139 7.2232375 8.982406 10.8906 12.894617 15.033815
        17.372097 19.952896 22.792717 25.886518 29.211111 32.725132
        36.36775 40.0579 43.695248 47.163467 50.336193 53.08549
        55.2922 56.856903 58.097385 1.1765224 1.163087 1.1885548
        1.3249658 1.573209 1.9295533 2.3933887 2.9730303 3.6921499
        4.598548 5.7687325 7.262398 9.032514 10.95596 12.974267
        15.124955 17.472647 20.06158 22.908442 26.00794 29.33643
        32.852028 36.49338 40.178986 43.80816 47.264416 50.42146
        53.151695 55.33655 56.87745 58.093094 1.0461309 1.0551529
        1.1097195 1.2782348 1.555957 1.9359087 2.4171362 3.0084658
        3.7341557 4.643493 5.8162713 7.316291 9.098465 11.037173
        13.069858 15.232597 17.59055 20.188522 23.043232 26.149038
        29.481771 32.998966 36.63869 40.31892 43.938606 47.381077
        50.520107 53.228466 55.388237 56.901768 58.088806 1.0985845
        1.0558662 1.0362774 1.2395889 1.5466146 1.9490024 2.4469025
        3.0503216 3.784362 4.6997266 5.8788934 7.388579 9.184626
        11.1392975 13.187035 15.362889 17.732405 20.340723 23.20443
        26.31742 29.654903 33.173733 36.811317 40.485035 44.093407
        47.519543 50.637306 53.319862 55.450058 56.93129 58.084526
        1.2962422 1.1854956 1.0274882 1.2125591 1.547465 1.9706908
        2.4846203 3.10081 3.8453188 4.770147 5.9599 7.4831076
        9.295525 11.267545 13.331599 15.522138 17.90497 20.52534
        23.39952 26.520815 29.863691 33.3842 37.01897 40.6847
        44.279392 47.685913 50.77821 53.429935 55.5248 56.967438
        58.080254 1.573035 1.3297023 1.0793713 1.2000059 1.559698
        2.001572 2.530765 3.1604338 3.917576 4.855321 6.059843
        7.600428 9.431765 11.422588 13.504273 15.711093 18.109
        20.743114 23.62923 26.759914 30.108768 33.63093 37.262142
        40.918312 44.496864 47.880398 50.942955 53.558743 55.612476
        57.010204 58.075985 1.926115 1.4616625 1.1108737 1.2008595
        1.579492 2.036176 2.5785012 3.2209663 3.991358 4.9436383
        6.1648364 7.7238955 9.573714 11.581953 13.680034 15.902434
        18.315067 20.96271 23.860548 27.00039 30.354963 33.87851
        37.50588 41.152225 44.71441 48.074764 51.107464 53.68727
        55.6999 57.052814 58.07172 2.1676624 1.5272976 1.1211724
        1.2045687 1.5914339 2.0548866 2.6038568 3.2536798 4.032611
        4.994837 6.227058 7.7965994 9.654617 11.669485 13.77434
        16.004118 18.424303 21.079103 23.983196 27.127907 30.48548
        34.00966 37.634834 41.27575 44.828983 48.176746 51.193306
        53.753754 55.744377 57.073414 58.06746 1.9974355 1.4837118
        1.1154695 1.2007443 1.5817145 2.0405207 2.5859447 3.2335649
        4.0116887 4.9738812 6.204957 7.7692494 9.616897 11.619753
        13.714735 15.93739 18.352222 21.00267 23.903173 27.045143
        30.401041 33.92487 37.551273 41.195248 44.753555 48.108532
        51.13445 53.706287 55.710087 57.0537 58.06319 1.6463614
        1.3625417 1.0895872 1.1972212 1.5607412 2.0060194 2.5404449
        3.1793075 3.9506402 4.9067307 6.129248 7.6782975 9.503295
        11.48156 13.555402 15.761162 18.161978 20.800343 23.69062
        26.824669 30.17563 33.698265 37.32798 40.98044 44.55292
        47.928043 50.980045 53.583508 55.623688 57.007298 58.058926
        1.3562182 1.2207422 1.0421766 1.206049 1.545703 1.9731622
        2.4939668 3.1228292 3.8873675 4.8382473 6.053185 7.5869436
        9.387746 11.339161 13.389867 15.577256 17.962929 20.588255
        23.467457 26.59285 29.938303 33.459393 37.09233 40.753513
        44.34079 47.73708 50.8166 53.453514 55.532246 56.958286
        58.054665 1.1479183 1.0898985 1.0181185 1.2295411 1.5420481
        1.9494507 2.4558713 3.0754857 3.8355 4.7847285 5.996214
        7.5182247 9.297082 11.22309 13.25208 15.422741 17.795008
        20.408943 23.278473 26.396248 29.736744 33.256237 36.891644
        40.559998 44.15964 47.573772 50.6766 53.341946 55.45352
        56.91578 58.050404 1.0021849 1.021038 1.0875835 1.2649939
        1.5488838 1.9346884 2.426228 3.0375333 3.7955341 4.746975
        5.9593983 7.4732985 9.232462 11.134589 13.143453 15.299226
        17.660025 20.26441 23.125856 26.237213 29.57344 33.091385
        36.728546 40.402485 44.011963 47.440414 50.562054 53.250423
        55.388664 56.880383 58.046154 1.1283294 1.1251827 1.1627067
        1.3086848 1.5637773 1.9268806 2.4029968 3.00674 3.7650506
        4.722375 5.939766 7.4484963 9.189353 11.068395 13.058159
        15.20041 17.55125 20.147545 23.002172 26.108076 29.440588
        32.957035 36.595398 40.273678 43.89099 47.330975 50.467854
        53.174942 55.334927 56.85069 58.04191 1.2488955 1.2275085
        1.239603 1.3569969 1.5839641 1.9236509 2.3837445 2.9804573
        3.7411911 4.707858 5.9338293 7.4395127 9.162457 11.018374
        12.989414 15.118939 17.460808 20.049994 22.89866 25.999762
        29.328936 32.843906 36.483078 40.164833 43.788593 47.23818
        50.38782 53.110653 55.288948 56.824993 58.03767 1.3655393
        1.3274647 1.316091 1.4072477 1.607247 1.9232528 2.36684
        2.957039 3.722352 4.7019186 5.939995 7.444246 9.148992
        10.981239 12.933575 15.050867 17.384459 19.967247 22.810575
        25.907337 29.233421 32.746906 36.386562 40.071117 43.70026
        47.15797 50.318504 53.05482 55.24884 56.80231 58.033436
        1.4749972 1.4236931 1.3904603 1.4566061 1.6303473 1.9222363
        2.3485036 2.9322877 3.7039754 4.6996503 5.9527025 7.4559164
        9.140788 10.947694 12.880434 14.985162 17.3104 19.886803
        22.72482 25.817255 29.140242 32.652206 36.292282 39.979534
        43.61392 47.07958 50.250763 53.000267 55.209652 56.78013
        58.02921 1.595013 1.5208777 1.4646343 1.5063745 1.6550952
        1.9237425 2.3333774 2.912466 3.6942694 4.7115674 5.984785
        7.489248 9.154254 10.935904 12.849888 14.943326 17.261599
        19.83292 22.666721 25.755625 29.075912 32.586266 36.226105
        39.914757 43.55239 47.02329 50.201725 52.96039 55.180576
        56.763103 58.024986 1.6635029 1.6036686 1.533657 1.5498111
        1.6699258 1.9105452 2.298263 2.8683379 3.6579158 4.6958575
        5.9868803 7.4862123 9.1228485 10.871762 12.761002 14.838077
        17.144884 19.707155 22.533428 25.61635 28.932608 32.441402
        36.082676 39.776234 43.4226 46.90624 50.10138 52.88039
        55.123978 56.732117 58.020767 1.9209737 1.7253807 1.6164817
        1.6102649 1.7114782 1.9382476 2.322171 2.9052389 3.7289517
        4.8179193 6.157741 7.6785264 9.309172 11.046604 12.932083
        15.013148 17.327682 19.898245 22.731615 25.819439 29.137674
        32.644894 36.28047 39.963757 43.59498 47.058537 50.228886
        52.978897 55.190113 56.76358 58.016556 2.8544192 1.9356648
        1.787778 1.8059453 1.9625242 2.272005 2.7708697 3.5088801
        4.533773 5.8652935 7.459316 9.201207 11.011133 12.913221
        14.966676 17.219774 19.704222 22.434845 25.410019 28.61214
        32.007034 35.542557 39.147423 42.731236 46.186462 49.392868
        52.224464 54.55873 56.287212 57.326153 58.012333 4.328849
        2.1802607 2.0674908 2.1909182 2.5213914 3.06736 3.871635
        4.997208 6.5021195 8.395899 10.5784855 12.853256 15.123942
        17.457924 19.942266 22.627043 25.534195 28.663916 31.996395
        35.492558 39.093933 42.722126 46.279053 49.64886 52.7023
        55.303715 57.32052 58.63439 59.15286 58.81954 58.008007
        3.5808177 2.352816 2.206307 2.3038223 2.636473 3.2197
        4.0966964 5.3341827 6.9972706 9.089927 11.468295 13.878609
        16.234074 18.644201 21.21202 23.984707 26.977339 30.183874
        33.579025 37.11847 40.73849 44.355602 47.867157 51.153767
        54.084232 56.523056 58.340332 59.423115 59.68689 59.085377
        58.003597 2.5446992 2.3781798 2.1741686 2.1629622 2.3703363
        2.8161669 3.5425463 4.613484 6.0948076 7.990499 10.141315
        12.279868 14.346463 16.478237 18.780956 21.296515 24.037752
        27.001822 30.171354 33.513416 36.978226 40.49808 43.987164
        47.342953 50.449745 53.18464 55.425774 57.062263 58.004704
        58.194817 57.99921 2.0937295 2.371005 2.2058585 2.1331322
        2.2584527 2.6145816 3.2509453 4.2384562 5.650315 7.490407
        9.568424 11.580575 13.492848 15.479124 17.651922 20.048208
        22.677135 25.535973 28.610542 31.873062 35.280045 38.77071
        42.266277 45.670807 48.874054 51.75666 54.197678 56.083923
        57.320198 57.83901 57.994816 1.8580906 2.3243985 2.23357
        2.118069 2.1673527 2.4324896 2.9704976 3.8633883 5.19716
        6.9785476 8.98253 10.864744 12.621361 14.463598 16.5086
        18.787851 21.30706 24.063856 27.047361 30.234913 33.589207
        37.05615 40.563686 44.022034 47.325855 50.35874 53.000023
        55.133617 56.658028 57.496216 57.99041 1.7682819 2.2985535
        2.2760286 2.0973687 2.0676355 2.262159 2.733909 3.5617692
        4.836691 6.569925 8.507893 10.270387 11.886095 13.601085
        15.534904 17.713022 20.137568 22.8062 25.71075 28.832926
        32.140743 35.58591 39.10223 42.60531 45.99418 49.155087
        51.967743 54.313686 56.086063 57.199623 57.986
      </DataArray>
      <DataArray type="Float32" Name="jacobian" format="ascii" RangeMin="-1.465985224058386e-05" RangeMax="0.009082520380616188">
        1.2406466e-05 9.6209e-06 2.158161e-05 5.7851586e-05 0.00012759722 0.0002386875
        0.00039016362 0.00056689704 0.00074723887 0.0009199783 0.0010917092 0.0012819177
        0.0015068828 0.0017701924 0.0020725802 0.0024161485 0.002803007 0.0032341755
        0.0037089975 0.004224647 0.004775639 0.0053534075 0.005946027 0.0065381983
        0.007111582 0.007645565 0.008118467 0.008509137 0.008798766 0.008972714
        0.00908252 1.3117698e-05 1.3002689e-05 3.3982124e-05 7.9849284e-05 0.00015237562
        0.00025192474 0.00037631264 0.0005190774 0.0006707162 0.00082573184 0.0009888044
        0.0011734478 0.0013906037 0.0016422838 0.0019296753 0.0022559282 0.002624264
        0.0030367225 0.0034936348 0.003993231 0.0045312056 0.0051002777 0.005689848
        0.0062858784 0.006871089 0.0074255792 0.007927895 0.008356514 0.008691619
        0.008916941 0.009081882 1.2875961e-05 1.6635058e-05 4.695287e-05 0.00010055634
        0.00017262988 0.00025970011 0.0003607023 0.00047533706 0.0006019172 0.00073940906
        0.0008917927 0.0010681129 0.0012749975 0.0015131872 0.0017841574 0.0020918122
        0.0024402568 0.0028324225 0.0032695783 0.0037510192 0.0042736763 0.0048316647
        0.0054158806 0.0060137725 0.0066094054 0.0071839164 0.007716417 0.008185336
        0.008570104 0.008852978 0.009081244 1.1295018e-05 2.2802278e-05 6.311356e-05
        0.000120298144 0.0001860228 0.0002584088 0.00034048664 0.00043588234 0.00054573553
        0.0006705229 0.0008138548 0.0009822872 0.0011796835 0.0014058116 0.0016622288
        0.001953316 0.0022838044 0.0026572945 0.0030757964 0.003539491 0.004046387
        0.0045918766 0.0051682964 0.0057646227 0.006366422 0.006956162 0.0075139483
        0.008018706 0.008449732 0.008788449 0.009080604 6.748943e-06 3.2089047e-05
        7.946617e-05 0.00013122725 0.0001819707 0.00023511822 0.00029697735 0.00037203537
        0.00046193914 0.00056780135 0.0006929936 0.0008423812 0.0010179213 0.00121875
        0.0014464023 0.0017054369 0.002000973 0.0023372339 0.00271715 0.0031422118
        0.0036122128 0.004124859 0.004675351 0.005256048 0.0058563263 0.0064627337
        0.0070595243 0.0076296134 0.008155937 0.008623146 0.009079963 -4.984726e-07
        4.8377864e-05 0.000101517246 0.00015231589 0.00020165811 0.00025611377 0.00032219497
        0.00040348287 0.0005011998 0.00061671453 0.0007538489 0.0009172674 0.0011079141
        0.0013239573 0.0015665101 0.0018402068 0.0021502841 0.0025008325 0.0028943715
        0.003331757 0.0038119792 0.0043318155 0.0048854556 0.0054642246 0.00605652
        0.0066480595 0.007222509 0.0077625234 0.00825116 0.0086735785 0.00907933
        -1.1553072e-05 7.1971706e-05 0.00012933437 0.00018814983 0.00025496623 0.0003378077
        0.0004417867 0.0005681759 0.00071611523 0.0008862417 0.0010833275 0.0013126208
        0.0015731263 0.0018599067 0.0021726997 0.0025165305 0.0028969196 0.0033171228
        0.0037776518 0.004276398 0.0048086024 0.005366634 0.0059397607 0.0065140887
        0.0070727966 0.007596748 0.008065518 0.008458786 0.008757966 0.008947885
        0.009078675 -1.4659852e-05 9.530453e-05 0.00015742409 0.00022126207 0.0002978454
        0.00039570863 0.00051936286 0.00066961686 0.00084565097 0.0010487002 0.0012844078
        0.0015574371 0.0018632106 0.00219252 0.0025434038 0.0029215417 0.003333286
        0.0037818123 0.0042666867 0.004784324 0.00532822 0.005888904 0.0064538647
        0.0070076515 0.007532298 0.008008129 0.008414952 0.008733572 0.008947461
        0.009044357 0.009078003 1.5360925e-05 0.00012396253 0.00018518875 0.00024792203
        0.00032289582 0.00041689991 0.00053391675 0.00067627686 0.0008458958 0.0010464183
        0.0012847728 0.0015652983 0.0018807596 0.0022185792 0.002575241 0.0029568414
        0.003370671 0.0038205094 0.0043061394 0.0048239883 0.005367493 0.005927114
        0.006490282 0.007041511 0.007562834 0.008034609 0.008436725 0.0087501025
        0.008958372 0.009049461 0.009077328 5.5998484e-05 0.00015584317 0.00021219763
        0.00027130358 0.00034162324 0.00042840416 0.0005356034 0.00066689437 0.0008262492
        0.0010192252 0.0012540008 0.0015350837 0.0018535295 0.0021941098 0.0025518334
        0.0029329658 0.0033455577 0.00379398 0.0042783394 0.0047952416 0.0053382465
        0.00589792 0.0064617814 0.007014413 0.007537878 0.008012526 0.00841818
        0.00873565 0.008948399 0.009044152 0.009076655 9.398769e-05 0.00018549366
        0.0002369754 0.0002918521 0.00035723476 0.00043773622 0.0005374914 0.0006609116
        0.00081310567 0.0010009143 0.0012336079 0.0015160345 0.0018379486 0.0021818185
        0.0025412606 0.002922639 0.0033346782 0.0037822728 0.0042658015 0.0047820006
        0.0053245104 0.0058839624 0.006447932 0.0070010475 0.0075253993 0.008001338
        0.008408659 0.008728112 0.008943072 0.009041152 0.009075982 0.00013095331
        0.00021348492 0.00025911414 0.00030892564 0.0003690323 0.00044365457 0.00053695583
        0.0006537001 0.00079969753 0.0009827312 0.0012130103 0.0014958197 0.0018200156
        0.002166182 0.0025266786 0.0029078852 0.0033190923 0.0037656596 0.00424822
        0.0047636433 0.005305662 0.005864983 0.0064292504 0.006983145 0.0075087864
        0.007986525 0.008396121 0.0087182475 0.00893617 0.009037363 0.009075309
        0.00016602023 0.00023895022 0.00027818268 0.00032270615 0.00037789662 0.00044752628
        0.00053556485 0.0006469011 0.0007878072 0.0009667816 0.0011948261 0.0014776766
        0.001803558 0.0021515097 0.0025127777 0.0028937114 0.0033040764 0.0037496374
        0.004231254 0.00474592 0.005287453 0.0058466345 0.0064111752 0.0069658067
        0.00749268 0.007972146 0.008383931 0.00870864 0.008929432 0.009033653
        0.009074637 0.00019872782 0.00026142615 0.00029392983 0.00033332515 0.00038419417
        0.0004496391 0.0005333058 0.00064012926 0.0007767135 0.00095210137 0.0011779446
        0.001460403 0.0017872801 0.0021363893 0.0024980244 0.0028784734 0.0032878902
        0.0037323867 0.004213024 0.0047269124 0.005267957 0.0058270167 0.00639187
        0.0069473027 0.0074754986 0.007956811 0.008370933 0.008698397 0.0089222565
        0.009029716 0.009073965 0.00022872159 0.00028048808 0.00030630114 0.00034111153
        0.00038839577 0.00045038463 0.0005303989 0.0006334208 0.00076630304 0.00093849836
        0.0011621739 0.0014438601 0.001771095 0.0021207538 0.0024823495 0.002862092
        0.0032704442 0.0037138069 0.0041934187 0.004706501 0.0052470476 0.0058059962
        0.006371198 0.0069274977 0.0074571124 0.0079404 0.008357021 0.008687435
        0.008914581 0.009025524 0.009073295 0.00025562444 0.0002958347 0.0003153657
        0.0003463675 0.00039077876 0.00044989312 0.00052680506 0.0006265679 0.0007562183
        0.00092550484 0.0011469853 0.0014274919 0.0017544199 0.0021039764 0.0024650705
        0.0028438305 0.0032509516 0.0036930677 0.004171572 0.0046837945 0.005223819
        0.0057826713 0.0063482807 0.006905554 0.0074367486 0.0079222275 0.008341617
        0.0086753 0.008906096 0.009020919 0.009072625 0.00027905722 0.00030727196
        0.0003212658 0.00034933595 0.00039148287 0.00044816724 0.0005223981 0.0006193162
        0.0007460832 0.00091264653 0.0011318371 0.0014107134 0.0017366278 0.0020853754
        0.002445444 0.0028228853 0.0032285529 0.0036692594 0.004146532 0.004657808
        0.0051972712 0.005756042 0.006322137 0.0068805357 0.0074135396 0.0079015205
        0.008324068 0.0086614825 0.008896453 0.009015723 0.009071955 0.0002985487
        0.0003146698 0.0003241386 0.00035014085 0.00039049453 0.0004450778 0.00051694753
        0.00061132817 0.00073545123 0.00089937623 0.0011160978 0.001392823 0.0017169485
        0.0020641056 0.0024225474 0.002798257 0.003202178 0.0036412482 0.0041171117
        0.004627316 0.005166154 0.005724856 0.006291541 0.0068512694 0.007386397
        0.007877307 0.008303553 0.008645338 0.0088852085 0.0090097105 0.009071288
        0.00031345262 0.00031792076 0.00032411172 0.00034882303 0.0003877194 0.00044044788
        0.0005102047 0.00060227345 0.00072390214 0.00088518544 0.0010991794 0.0013731635
        0.0016946608 0.0020393785 0.0023955202 0.0027690143 0.0031708267 0.003607971
        0.0040821927 0.004591156 0.00512928 0.0056879213 0.0062553175 0.006816628
        0.0073542716 0.00784865 0.008279272 0.00862624 0.008871929 0.009002661
        0.00907062 0.0003229004 0.00031708236 0.00032152174 0.00034556282 0.00038323624
        0.0004343312 0.0005022079 0.00059216766 0.0007114278 0.0008700523 0.001081068
        0.0013517571 0.0016698373 0.002011311 0.0023645062 0.0027353137 0.0031346595
        0.003569587 0.00404193 0.0045494772 0.005086788 0.0056453645 0.00621358
        0.0067767072 0.007317242 0.007815608 0.008251272 0.008604217 0.008856629
        0.008994581 0.009069953 0.0003264204 0.00031337969 0.0003177301 0.00034148223
        0.00037818617 0.0004279909 0.00049436814 0.00058259605 0.0006998344 0.00085607683
        0.0010642603 0.0013316071 0.0016460452 0.001984004 0.0023340667 0.0027021081
        0.0030989728 0.0035316923 0.0040021683 0.0045083035 0.005044795 0.0056032883
        0.0061722924 0.0067371945 0.0072805667 0.007782858 0.0082234945 0.008582349
        0.008841422 0.00898654 0.009069287 0.0003266037 0.00031119373 0.00031615546
        0.0003398325 0.0003761161 0.00042537457 0.0004911036 0.0005785569 0.0006948585
        0.00084995193 0.0010566895 0.0013221733 0.0016344063 0.0019701603 0.0023182975
        0.0026847175 0.0030801813 0.0035116724 0.003981107 0.004486443 0.005022451
        0.005580853 0.006150232 0.0067160386 0.0072608856 0.007765235 0.008208493
        0.00857047 0.008833067 0.008981975 0.009068621 0.00032810526 0.000314703
        0.0003193536 0.00034322936 0.00037997935 0.0004297942 0.0004961313 0.00058426196
        0.00070133695 0.0008573161 0.0010650209 0.0013313668 0.001644173 0.0019803073
        0.0023288606 0.0026958135 0.0030918668 0.0035239202 0.0039938246 0.00449949
        0.005035643 0.0055939653 0.006163 0.006728163 0.007272044 0.0077750944
        0.008216726 0.008576777 0.0088372 0.0089837555 0.009067955 0.00032729603
        0.00032073804 0.00032549573 0.00034982705 0.00038770173 0.00043893367 0.0005068582
        0.00059676974 0.0007158742 0.0008741769 0.0010844809 0.0013534434 0.0016685385
        0.0020066283 0.002357057 0.0027259276 0.0031238766 0.0035576758 0.0040290505
        0.0045357896 0.0050724996 0.0056307414 0.0061989436 0.0067624254 0.007303708
        0.007803216 0.008240391 0.008595157 0.008849618 0.008989743 0.0090672895
        0.0003205728 0.00032420902 0.00033084743 0.0003560651 0.00039540738 0.0004484995
        0.0005184938 0.000610663 0.00073223864 0.0008932354 0.0011063798 0.0013780079
        0.0016952655 0.0020351473 0.0023873823 0.002758212 0.0031581577 0.0035938174
        0.0040667634 0.004574649 0.0051119495 0.0056700967 0.006237398 0.006799068
        0.007337558 0.007833267 0.008265667 0.008614782 0.008862879 0.008996151
        0.009066624 0.00030802833 0.00032326608 0.00033354567 0.0003603936 0.00040153117
        0.00045678893 0.0005291561 0.0006238303 0.00074801047 0.0009116511 0.0011273164
        0.0014009698 0.0017195307 0.002060364 0.0024137509 0.0027860703 0.003187659
        0.0036248923 0.0040991763 0.0046080365 0.005145832 0.005703883 0.006270392
        0.0068304865 0.0073665576 0.007858984 0.008287267 0.008631518 0.008874147
        0.009001543 0.009065958 0.00029056033 0.00031765827 0.0003329827 0.00036243032
        0.0004058427 0.00046362338 0.000538693 0.00063613505 0.0007630464 0.0009292404
        0.0011470291 0.0014219673 0.0017408797 0.0020817579 0.0024355974 0.002808903
        0.0032117516 0.003650248 0.0041256207 0.004635275 0.0051734713 0.005731437
        0.00629729 0.006856086 0.007390167 0.007879896 0.008304802 0.008645067
        0.008883222 0.009005818 0.009065294 0.0002689019 0.00030746267 0.00032886412
        0.0003619922 0.00040836472 0.00046916647 0.00054737815 0.00064794894 0.0007777982
        0.0009465112 0.0011660645 0.0014415879 0.0017599633 0.0021000633 0.0024537435
        0.0028276118 0.0032314092 0.003670923 0.004147189 0.0046575004 0.0051960307
        0.0057539307 0.0063192467 0.0068769758 0.00740942 0.00789693 0.008319058
        0.008656047 0.008890531 0.009009193 0.009064631 0.00024362252 0.00029285785
        0.0003209509 0.00035882287 0.00040905562 0.0004735856 0.0005555524 0.00065975904
        0.00079286634 0.00096414203 0.0011851565 0.0014606265 0.0017776644 0.002116273
        0.0024692924 0.002843399 0.0032479223 0.0036882837 0.0041653137 0.004676192
        0.005215016 0.005772869 0.0063377367 0.006894565 0.0074256225 0.007911251
        0.008331021 0.008665232 0.008896604 0.00901194 0.0090639675 0.00021502317
        0.00027410558 0.00030901472 0.00035246255 0.00040758157 0.00047678265 0.0005633368
        0.0006718583 0.00080865243 0.0009825776 0.0012047479 0.00147952 0.0017944438
        0.0021309028 0.0024828245 0.002856904 0.0032619813 0.0037030666 0.004180768
        0.0046921535 0.005231249 0.0057890783 0.006353573 0.0069096345 0.0074395016
        0.007923508 0.0083412435 0.008673055 0.008901741 0.009014211 0.009063306
        0.00018363885 0.00025164487 0.00029306344 0.00034256114 0.0004036616 0.0004788276
        0.0005712029 0.00068505533 0.00082620134 0.0010030103 0.001226134 0.0014996744
        0.0018118556 0.0021456785 0.0024962309 0.002870164 0.00327575 0.0037175417
        0.004195907 0.004707796 0.005247162 0.005804969 0.0063690958 0.006924399
        0.007453091 0.007935498 0.008351229 0.008680683 0.008906737 0.009016406
        0.009062645 0.00014915719 0.00022606565 0.0002731198 0.00032828073 0.00039589455
        0.00047818746 0.00057769165 0.00069792714 0.000843963 0.0010235822 0.0012470079
        0.0015182825 0.0018266392 0.0021569764 0.0025055942 0.0028790082 0.003284835
        0.0037271304 0.004206012 0.004718319 0.005257944 0.0058158045 0.0063797366
        0.006934564 0.007462474 0.007943787 0.008358123 0.008685918 0.0089101065
        0.009017783 0.009061985 0.00011273819 0.00019751518 0.00024988264 0.00031041485
        0.00038543716 0.00047722066 0.0005869727 0.000716487 0.00086951524 0.0010532251
        0.0012776532 0.0015470845 0.0018520212 0.0021794052 0.0025267403 0.002900325
        0.0033070478 0.0037504134 0.0042302455 0.00474323 0.0052831583 0.0058408603
        0.0064040986 0.006957637 0.0074836295 0.0079623945 0.008373597 0.008697753
        0.008917929 0.009021382 0.009061324 7.590716e-05 0.00016930752 0.00022370603
        0.00028612147 0.00036507696 0.0004635287 0.00058128557 0.0007176918 0.0008745265
        0.0010580721 0.0012781877 0.0015398536 0.0018356738 0.0021552034 0.002497152
        0.002867388 0.0032719555 0.0037138297 0.004192655 0.004705123 0.005245098
        0.0058034947 0.0063681514 0.0069238846 0.007452867 0.007935395 0.008351063
        0.00868027 0.008905915 0.009015054 0.009060666 4.507459e-05 0.00013771556
        0.00019032585 0.000244641 0.00031074331 0.00039339747 0.00049340917 0.00061023573
        0.00074487505 0.0009020395 0.0010898921 0.0013137968 0.0015700306 0.0018522469
        0.0021605834 0.002500294 0.0028767532 0.0032930742 0.003749778 0.0042448915
        0.004773861 0.005329289 0.005900672 0.0064743077 0.0070334976 0.0075591314
        0.008030689 0.008427626 0.008731019 0.008925268 0.009060006 2.6436925e-05
        0.00010051986 0.00015251192 0.00019498044 0.00023894726 0.0002920852 0.0003580772
        0.00043844563 0.0005345818 0.0006495497 0.0007888291 0.0009569657 0.0011530834
        0.0013745159 0.001622706 0.0019025283 0.00221917 0.0025765512 0.0029769838
        0.0034210847 0.0039075455 0.0044327592 0.004990426 0.0055712573 0.0061628968
        0.006750153 0.0073156133 0.007840659 0.008306824 0.00869738 0.009059331
        2.9551285e-05 7.546902e-05 0.00012871422 0.0001757069 0.00022100817 0.00027249224
        0.0003353317 0.00041165383 0.00050250895 0.00061026326 0.00074007426 0.0008969734
        0.00108092 0.0012901324 0.0015264854 0.0017947744 0.002100048 0.0024462973
        0.002836141 0.0032706826 0.0037492355 0.0042689173 0.0048242193 0.0054066656
        0.006004673 0.0066037085 0.0071868203 0.0077355783 0.00823138 0.008657007
        0.009058647 3.7071313e-05 6.2503226e-05 0.0001149652 0.00017505299 0.000237928
        0.0003071924 0.0003876049 0.0004812156 0.0005883073 0.00071090896 0.0008554616
        0.001029188 0.0012327747 0.0014643127 0.0017256932 0.0020215786 0.002356617
        0.002734174 0.0031559945 0.0036219952 0.0041299234 0.0046749134 0.005249054
        0.0058410945 0.0064364015 0.0070172776 0.007563699 0.008054495 0.008468881
        0.008788192 0.009057963 4.032105e-05 5.3171894e-05 9.659921e-05 0.000159551
        0.00023474943 0.00032077034 0.00041881198 0.0005285194 0.00064813445 0.00077901874
        0.0009294744 0.0011098221 0.0013219559 0.0015639935 0.0018377714 0.002147609
        0.002497612 0.0028905536 0.0033275378 0.003807737 0.004328007 0.0048824386
        0.005461952 0.006054067 0.0066429493 0.0072098486 0.0077339746 0.00819381
        0.008568756 0.008840936 0.009057277 4.2708285e-05 4.7635884e-05 8.0200116e-05
        0.0001396775 0.00022293408 0.000327578 0.00045028693 0.0005842274 0.0007217967
        0.0008627069 0.0010188115 0.0012055517 0.0014265674 0.0016798496 0.0019670166
        0.0022918575 0.002657753 0.003066732 0.0035191362 0.00401329 0.0045450777
        0.005107497 0.0056902994 0.0062798373 0.0068592187 0.0074088722 0.007907557
        0.008333795 0.0086676 0.008892304 0.009056589 4.4080123e-05 4.2941636e-05
        6.395762e-05 0.00011673358 0.00020528704 0.00033002533 0.0004826933 0.00064590416
        0.0008032563 0.00095300307 0.0011121877 0.0013027197 0.00153047 0.0017933312
        0.0020925368 0.0024311212 0.002811577 0.003235109 0.0037012785 0.0042075897
        0.0047490196 0.0053175744 0.0059019784 0.006487595 0.0070566894 0.007589103
        0.008063383 0.008458305 0.008754657 0.0089370515 0.0090559
      </DataArray>
    </PointData>
    <CellData>
    </CellData>
    <Points>
      <DataArray type="Float32" Name="Points" NumberOfComponents="3" format="ascii" RangeMin="1.2212388017191078" RangeMax="1.406552460032629">
        0.88314456 0.025426224 0.84310937 0.8837657 0.025426157 0.84310716
        0.8844961 0.025426075 0.8431045 0.8853545 0.025425978 0.84310126
        0.8863629 0.02542586 0.8430974 0.8875465 0.025425721 0.84309274
        0.8889348 0.025425553 0.84308714 0.8905616 0.02542535 0.84308046
        0.8924657 0.025425108 0.8430724 0.89469177 0.02542482 0.8430628
        0.8972902 0.025424475 0.8430514 0.9003181 0.02542407 0.84303796
        0.9038392 0.025423603 0.8430225 0.9079241 0.025423076 0.843005
        0.91265035 0.025422491 0.84298563 0.91810125 0.02542185 0.84296435
        0.9243649 0.025421156 0.84294134 0.9315326 0.025420412 0.84291667
        0.9396954 0.025419625 0.84289056 0.94894093 0.025418796 0.8428631
        0.95934826 0.025417922 0.8428341 0.9709821 0.025416989 0.8428032
        0.9838863 0.025415964 0.8427692 0.9980768 0.025414787 0.84273016
        1.0135345 0.02541337 0.84268314 1.0302 0.02541158 0.8426238
        1.0479689 0.025409248 0.84254646 1.0666908 0.02540617 0.8424444
        1.0861723 0.025402123 0.84231025 1.1061828 0.025396882 0.84213644
        1.1264642 0.025390249 0.8419165 0.88335145 0.025438385 0.8431083
        0.88396996 0.025436608 0.8431061 0.8847585 0.025448728 0.84310275
        0.8856931 0.025472984 0.8430985 0.8867616 0.025506303 0.8430934
        0.8879673 0.025544759 0.84308743 0.8893318 0.02558261 0.84308076
        0.8908987 0.025613386 0.84307337 0.89272636 0.025633112 0.843065
        0.8948757 0.025642566 0.8430554 0.8974071 0.025645848 0.84304416
        0.9003845 0.025647575 0.8430309 0.9038746 0.025649987 0.8430155
        0.90794426 0.025652807 0.8429979 0.9126645 0.025655566 0.8429785
        0.9181135 0.025658146 0.84295714 0.92437685 0.02566053 0.8429341
        0.9315444 0.025662715 0.84290934 0.9397071 0.025664696 0.8428831
        0.9489524 0.025666464 0.8428556 0.9593592 0.025667999 0.8428265
        0.9709925 0.02566928 0.8427955 0.98389596 0.02567027 0.84276146
        0.9980856 0.0256709 0.84272236 1.0135424 0.025671078 0.8426753
        1.0302068 0.025670676 0.8426159 1.0479743 0.025669523 0.84253854
        1.066695 0.025667425 0.8424365 1.0861752 0.025664156 0.8423023
        1.1061842 0.025659507 0.84212846 1.1264642 0.025653282 0.8419085
        0.8835365 0.025448957 0.8431073 0.88418335 0.025451133 0.84310484
        0.885051 0.02548454 0.8431006 0.8860555 0.02554062 0.84309506
        0.8871567 0.025609737 0.8430887 0.8883522 0.02568198 0.8430817
        0.8896738 0.025747143 0.8430744 0.8911812 0.025797024 0.8430665
        0.8929448 0.025828365 0.8430581 0.89503235 0.025843877 0.8430486
        0.8975089 0.025850108 0.8430375 0.9004436 0.025854176 0.8430244
        0.9039067 0.025859604 0.84300894 0.9079628 0.025865884 0.84299135
        0.9126776 0.025872186 0.8429718 0.9181249 0.025878284 0.8429504
        0.92438793 0.025884148 0.8429272 0.93155545 0.025889765 0.84290236
        0.93971807 0.02589512 0.842876 0.9489631 0.02590019 0.84284836
        0.9593696 0.025904952 0.8428192 0.97100234 0.02590937 0.84278816
        0.98390526 0.025913391 0.84275395 0.9980941 0.025916947 0.84271485
        1.0135499 0.025919937 0.8426677 1.0302132 0.025922224 0.84260815
        1.0479797 0.025923634 0.8425307 1.0666991 0.025923965 0.8424286
        1.086178 0.025922995 0.84229434 1.1061857 0.025920508 0.84212047
        1.1264642 0.025916314 0.84190047 0.8837005 0.025458088 0.84310645
        0.884417 0.025473146 0.84310335 0.88537586 0.025537686 0.8430978
        0.8864297 0.025629982 0.84309095 0.8875307 0.025731811 0.8430835
        0.8886912 0.025828835 0.8430759 0.88996243 0.025910486 0.8430681
        0.89141643 0.025970697 0.8430602 0.89312786 0.026008453 0.8430518
        0.8951657 0.026027929 0.8430423 0.8975973 0.026036816 0.84303135
        0.90049607 0.026043423 0.8430183 0.9039357 0.02605195 0.8430029
        0.9079797 0.026061717 0.8429853 0.9126897 0.026071655 0.8429656
        0.9181355 0.026081458 0.8429441 0.92439824 0.026091076 0.8429208
        0.93156576 0.026100501 0.8428958 0.9397283 0.02610971 0.84286934
        0.9489732 0.026118677 0.84284157 0.9593794 0.026127368 0.8428123
        0.9710117 0.026135752 0.84278107 0.98391396 0.026143769 0.84274685
        0.9981021 0.02615135 0.8427076 1.0135572 0.026158381 0.84266025
        1.0302196 0.02616473 0.84260064 1.0479848 0.026170218 0.8425231
        1.0667031 0.026174642 0.8424209 1.0861807 0.026177779 0.8422864
        1.1061871 0.026179409 0.8421125 1.1264642 0.026179342 0.84189236
        0.88385177 0.025466315 0.8431056 0.8846833 0.025507146 0.8431013
        0.88573074 0.02561183 0.84309417 0.8868016 0.025740162 0.8430861
        0.88787365 0.025867755 0.84307796 0.88898724 0.025980517 0.84307
        0.89021015 0.026071204 0.8430622 0.8916189 0.02613696 0.84305423
        0.89328724 0.026178597 0.84304583 0.8952835 0.026201054 0.8430364
        0.8976767 0.026212472 0.84302557 0.900544 0.026221711 0.8430126
        0.90396255 0.026233325 0.84299713 0.9079957 0.026246535 0.8429795
        0.9127012 0.026260097 0.8429597 0.91814566 0.02627364 0.84293807
        0.9244081 0.02628711 0.8429146 0.93157554 0.026300492 0.84288955
        0.93973804 0.026313769 0.842863 0.9489828 0.026326917 0.84283507
        0.95938873 0.026339909 0.8428057 0.97102064 0.026352711 0.84277433
        0.9839224 0.026365267 0.84273994 0.99810994 0.026377512 0.8427005
        1.0135642 0.026389351 0.8426531 1.0302256 0.02640064 0.8425933
        1.04799 0.026411219 0.8425156 1.0667071 0.026420888 0.8424131
        1.0861834 0.026429433 0.8422786 1.1061884 0.026436651 0.8421044
        1.1264642 0.02644237 0.84188414 0.8839657 0.025472406 0.843105
        0.8849976 0.025558595 0.8430986 0.8860949 0.025705712 0.84308994
        0.88713354 0.025859194 0.8430812 0.8881493 0.025997195 0.8430729
        0.8892105 0.026112575 0.843065 0.89039147 0.02620347 0.84305733
        0.8917657 0.026269464 0.84304947 0.89340293 0.026312035 0.8430411
        0.8953698 0.026336094 0.8430318 0.8977356 0.02634959 0.84302104
        0.9005799 0.02636131 0.84300804 0.90398294 0.026375843 0.84299266
        0.90800786 0.026392318 0.84297484 0.91270995 0.026409406 0.842955
        0.91815346 0.026426699 0.84293324 0.92441577 0.02644415 0.8429097
        0.93158334 0.026461767 0.8428845 0.93974584 0.026479552 0.8428578
        0.9489905 0.026497517 0.8428297 0.95939636 0.02651567 0.84280014
        0.97102803 0.02653402 0.8427686 0.98392946 0.026552567 0.84273404
        0.99811655 0.026571305 0.8426944 1.0135703 0.026590208 0.8426467
        1.030231 0.026609235 0.8425867 1.0479945 0.02662834 0.84250873
        1.0667107 0.026647478 0.8424059 1.086186 0.026666638 0.8422711
        1.1061898 0.026685875 0.8420965 1.1264642 0.02670539 0.8418758
        0.8841525 0.025482494 0.843104 0.8853858 0.025637979 0.8430947
        0.88648796 0.025831059 0.8430846 0.8874898 0.026013551 0.843075
        0.88846445 0.02616997 0.8430663 0.88948774 0.02629731 0.84305817
        0.89063287 0.026396038 0.8430503 0.89197063 0.026467213 0.84304243
        0.8935694 0.026513416 0.84303415 0.8954963 0.026540263 0.8430249
        0.89782315 0.02655611 0.8430141 0.90063435 0.026570067 0.84300125
        0.9040146 0.026587028 0.84298587 0.90802723 0.026606176 0.8429681
        0.9127242 0.026626065 0.84294814 0.9181659 0.02664621 0.8429263
        0.9244277 0.02666654 0.8429026 0.93159497 0.026687048 0.8428773
        0.9397573 0.026707744 0.8428505 0.9490016 0.026728624 0.8428224
        0.959407 0.026749697 0.84279275 0.9710381 0.026770974 0.8427611
        0.9839389 0.026792454 0.84272635 0.9981251 0.026814124 0.8426867
        1.0135779 0.026835956 0.8426389 1.0302376 0.026857916 0.84257877
        1.048 0.026879944 0.8425007 1.0667149 0.026901985 0.8423978
        1.0861889 0.026924025 0.84226286 1.1061913 0.02694611 0.8420882
        1.1264642 0.026968412 0.8418674 0.8845801 0.025526516 0.84310114
        0.8858297 0.025755834 0.8430894 0.8868949 0.025994211 0.84307796
        0.8878625 0.026209833 0.84306747 0.88881147 0.026393728 0.8430579
        0.8898127 0.026544606 0.84304905 0.8909326 0.02666223 0.8430407
        0.8922369 0.026746899 0.8430325 0.8937926 0.02680153 0.8430241
        0.89566976 0.026832905 0.8430149 0.8979456 0.026850516 0.8430043
        0.9007121 0.026864428 0.84299153 0.90406096 0.026880516 0.84297633
        0.9080564 0.026898598 0.8429586 0.91274565 0.026917366 0.84293884
        0.9181844 0.026936322 0.842917 0.9244448 0.026955374 0.8428934
        0.93161124 0.026974529 0.84286815 0.93977267 0.026993783 0.8428414
        0.94901615 0.027013145 0.84281325 0.9594205 0.027032623 0.84278363
        0.9710506 0.027052235 0.8427521 0.9839502 0.027071968 0.84271747
        0.9981352 0.02709183 0.8426778 1.0135868 0.027111784 0.84263
        1.0302451 0.027131794 0.84256995 1.048006 0.027151806 0.8424919
        1.0667194 0.027171763 0.84238917 1.0861919 0.027191639 0.8422542
        1.1061928 0.027211478 0.84207964 1.1264642 0.027231427 0.841859
        0.88509786 0.025627911 0.8430961 0.8862765 0.025915537 0.8430828
        0.8872922 0.02619424 0.8430702 0.8882236 0.026440153 0.8430588
        0.8891451 0.026648823 0.8430485 0.89012206 0.02681979 0.84303904
        0.8912157 0.026952473 0.8430303 0.892488 0.027047336 0.8430218
        0.8940046 0.027108176 0.84301335 0.8958365 0.027142772 0.8430042
        0.8980652 0.027161324 0.8429938 0.9007896 0.027174398 0.84298134
        0.9041082 0.027188685 0.84296626 0.9080867 0.027204696 0.84294873
        0.9127683 0.027221313 0.84292895 0.91820383 0.027238065 0.84290725
        0.92446274 0.027254863 0.8428837 0.93162817 0.027271701 0.84285855
        0.9397887 0.02728859 0.84283185 0.9490312 0.027305538 0.84280384
        0.9594345 0.027322557 0.8427743 0.97106344 0.027339661 0.84274274
        0.9839618 0.027356852 0.84270823 0.9981455 0.027374126 0.84266865
        1.0135957 0.027391458 0.84262097 1.0302526 0.02740881 0.842561
        1.0480121 0.02742612 0.842483 1.0667241 0.027443338 0.84238034
        1.086195 0.027460422 0.84224546 1.1061944 0.027477413 0.842071
        1.1264642 0.027494445 0.8418504 0.88558334 0.02577352 0.8430898
        0.8867059 0.026115863 0.8430749 0.88767064 0.026428672 0.8430614
        0.8885616 0.026698498 0.8430493 0.88945043 0.026924638 0.8430385
        0.89039856 0.027107753 0.84302866 0.8914642 0.02724823 0.8430197
        0.8927066 0.027347855 0.8430112 0.8941893 0.027411574 0.84300274
        0.8959831 0.027447758 0.84299374 0.8981721 0.027466701 0.8429834
        0.90086025 0.027478969 0.8429711 0.9041523 0.027491702 0.84295624
        0.9081155 0.027505917 0.8429388 0.9127901 0.027520688 0.8429191
        0.9182227 0.027535543 0.8428975 0.9244803 0.027550388 0.84287405
        0.9316448 0.027565219 0.8428489 0.9398044 0.027580049 0.8428223
        0.9490459 0.027594887 0.8427943 0.9594482 0.027609752 0.84276485
        0.9710761 0.027624654 0.84273344 0.9839733 0.027639596 0.84269893
        0.9981558 0.027654577 0.8426594 1.0136046 0.027669579 0.8426119
        1.0302601 0.02768455 0.84255195 1.0480182 0.027699435 0.84247404
        1.0667286 0.027714176 0.8423714 1.086198 0.027728725 0.8422367
        1.1061958 0.027743112 0.8420623 1.1264642 0.027757458 0.8418418
        0.8860641 0.025970403 0.84308195 0.88711834 0.026356751 0.8430658
        0.88802785 0.02669624 0.84305155 0.8888752 0.026983045 0.843039
        0.8897285 0.02721961 0.8430279 0.8906465 0.027408304 0.84301794
        0.89168483 0.027551303 0.84300894 0.8929001 0.027652055 0.8430004
        0.8943534 0.027716475 0.842992 0.8961145 0.02775313 0.8429831
        0.8982691 0.02777199 0.84297293 0.90092564 0.027783308 0.84296083
        0.9041939 0.027794432 0.8429461 0.9081434 0.027806824 0.8429288
        0.9128115 0.027819712 0.8429093 0.91824144 0.027832646 0.8428877
        0.9244977 0.027845526 0.8428643 0.9316613 0.027858345 0.84283924
        0.93982 0.027871119 0.8428127 0.9490606 0.027883861 0.84278476
        0.9594619 0.027896583 0.8427554 0.97108865 0.027909307 0.842724
        0.9839847 0.027922027 0.84268963 0.99816597 0.027934752 0.8426502
        1.0136135 0.027947448 0.84260267 1.0302676 0.027960083 0.8425428
        1.0480242 0.027972583 0.84246504 1.0667331 0.02798489 0.84236246
        1.0862011 0.027996952 0.84222776 1.1061974 0.028008768 0.8420535
        1.1264642 0.028020468 0.84183306 0.88652563 0.02621516 0.84307253
        0.88750803 0.026636269 0.8430555 0.8883595 0.026993955 0.8430407
        0.88916075 0.027289642 0.84302795 0.8899773 0.02752915 0.8430168
        0.89086545 0.027717257 0.8430069 0.89187837 0.027858315 0.84299797
        0.8930696 0.02795732 0.8429896 0.8944976 0.028020784 0.84298134
        0.896231 0.02805707 0.8429726 0.8983563 0.02807553 0.8429625
        0.9009854 0.028085846 0.8429505 0.9042329 0.028095411 0.842936
        0.9081701 0.028106038 0.84291875 0.91283244 0.02811712 0.8428993
        0.9182599 0.028128212 0.8428778 0.92451495 0.02813921 0.84285444
        0.9316776 0.028150106 0.84282947 0.9398355 0.028160919 0.842803
        0.9490751 0.028171659 0.84277517 0.95947546 0.028182346 0.84274584
        0.97110116 0.028192988 0.84271455 0.9839961 0.028203603 0.8426802
        0.9981761 0.028214177 0.8426408 1.0136223 0.028224684 0.8425934
        1.0302751 0.028235087 0.8425336 1.0480303 0.028245317 0.84245586
        1.0667378 0.028255295 0.8423534 1.086204 0.028264966 0.8422188
        1.1061989 0.028274331 0.8420446 1.1264642 0.028283475 0.8418243
        0.8869649 0.026507767 0.8430617 0.88787115 0.02695239 0.84304404
        0.88866234 0.027318675 0.843029 0.88941664 0.027614756 0.8430163
        0.8901969 0.02785019 0.84300536 0.891057 0.0280325 0.8429957
        0.89204705 0.028168136 0.842987 0.8932173 0.028263247 0.8429788
        0.89462376 0.028324524 0.84297067 0.8963337 0.028359821 0.84296197
        0.89843416 0.028377626 0.8429521 0.9010399 0.028386906 0.8429403
        0.9042693 0.02839495 0.8429258 0.9081957 0.028403861 0.8429087
        0.9128529 0.028413184 0.8428893 0.91827804 0.028422495 0.84286785
        0.92453194 0.02843167 0.8428446 0.93169373 0.028440716 0.84281963
        0.9398508 0.02844964 0.8427932 0.9490895 0.02845846 0.8427655
        0.9594889 0.028467191 0.84273624 0.97111356 0.028475847 0.842705
        0.98400736 0.028484438 0.84267074 0.9981862 0.028492954 0.84263146
        1.0136311 0.028501369 0.8425841 1.0302825 0.02850964 0.84252435
        1.0480362 0.028517688 0.8424467 1.0667423 0.028525434 0.8423443
        1.0862072 0.028532809 0.84220976 1.1062003 0.028539803 0.84203565
        1.1264642 0.028546482 0.84181535 0.887376 0.026846206 0.84304935
        0.88820344 0.027302166 0.8430314 0.8889337 0.027666677 0.84301656
        0.88964176 0.027954657 0.84300417 0.8903878 0.028179687 0.8429936
        0.8912225 0.028351914 0.8429843 0.8921924 0.028479427 0.8429759
        0.8933448 0.028569028 0.8429679 0.89473313 0.02862721 0.84295994
        0.8964234 0.028661065 0.8429514 0.89850307 0.028678047 0.84294164
        0.901089 0.02868628 0.84292984 0.9043031 0.028692847 0.84291553
        0.9082201 0.028700106 0.84289855 0.91287273 0.028707743 0.8428792
        0.9182959 0.028715335 0.84285784 0.92454875 0.028722772 0.84283465
        0.9317097 0.02873005 0.8428098 0.93986595 0.02873717 0.84278345
        0.94910383 0.028744161 0.84275573 0.9595023 0.02875103 0.8427266
        0.9711259 0.028757796 0.8426954 0.98401856 0.028764468 0.8426612
        0.9981962 0.028771026 0.842622 1.0136398 0.028777454 0.84257466
        1.0302899 0.028783692 0.842515 1.0480422 0.028789666 0.8424374
        1.0667467 0.028795278 0.8423351 1.0862101 0.02880046 0.84220064
        1.1062019 0.028805176 0.8420266 1.1264642 0.028809482 0.8418065
        0.8877537 0.027228305 0.8430356 0.8885014 0.027682152 0.8430178
        0.8891716 0.02803408 0.84300345 0.8898358 0.028305953 0.84299165
        0.89055073 0.028515145 0.84298164 0.89136326 0.028673865 0.8429729
        0.89231604 0.028791202 0.8429648 0.8934535 0.028874097 0.8429571
        0.8948267 0.028928524 0.8429493 0.8965008 0.0289606 0.8429408
        0.8985633 0.028976649 0.84293115 0.901133 0.028983839 0.8429195
        0.9043341 0.028988997 0.8429053 0.90824336 0.028994676 0.8428884
        0.9128921 0.029000696 0.8428691 0.91831356 0.02900666 0.84284776
        0.9245654 0.02901244 0.8428247 0.93172556 0.029018035 0.84279984
        0.93988097 0.029023452 0.8427736 0.949118 0.029028708 0.84274596
        0.9595155 0.02903382 0.8427169 0.9711381 0.029038798 0.84268576
        0.9840297 0.02904365 0.84265155 0.99820614 0.029048365 0.8426124
        1.0136485 0.02905291 0.8425652 1.0302973 0.029057225 0.8425056
        1.0480483 0.029061228 0.842428 1.0667512 0.029064814 0.84232575
        1.0862132 0.029067906 0.8421914 1.1062034 0.029070448 0.8420174
        1.1264642 0.02907248 0.84179735 0.8880929 0.02765107 0.84302044
        0.88876176 0.028088326 0.84300333 0.88937473 0.028416917 0.8429898
        0.889999 0.028665474 0.84297884 0.89068675 0.02885436 0.84296954
        0.8914805 0.028996918 0.8429613 0.8924192 0.02910254 0.8429537
        0.8935443 0.02917786 0.84294623 0.89490545 0.029228054 0.8429386
        0.8965665 0.02925813 0.84293026 0.8986153 0.02927318 0.84292066
        0.9011718 0.029279368 0.8429091 0.9043626 0.02928319 0.84289503
        0.90826535 0.029287377 0.84287816 0.91291094 0.029291872 0.84285897
        0.91833085 0.0292963 0.84283775 0.92458177 0.029300526 0.8428147
        0.9317412 0.029304542 0.8427899 0.93989587 0.029308356 0.8427637
        0.9491321 0.02931199 0.8427361 0.9595286 0.029315451 0.84270704
        0.9711503 0.02931876 0.84267604 0.9840408 0.029321909 0.84264195
        0.99821603 0.029324893 0.8426028 1.0136572 0.029327676 0.84255564
        1.0303047 0.029330185 0.84249604 1.0480541 0.029332334 0.8424186
        1.0667558 0.029334018 0.8423164 1.0862162 0.02933513 0.8421821
        1.1062049 0.029335609 0.84200823 1.1264642 0.029335478 0.8417883
        0.88838845 0.028110813 0.8430041 0.88898194 0.028516244 0.8429881
        0.8895425 0.02881126 0.8429758 0.8901318 0.029030329 0.8429658
        0.89079696 0.029195357 0.8429573 0.8915755 0.02931975 0.84294975
        0.8925029 0.029412543 0.84294254 0.89361835 0.029479675 0.8429354
        0.89497 0.029525325 0.84292793 0.89662105 0.029553268 0.8429197
        0.8986592 0.029567301 0.84291023 0.9012057 0.029572546 0.8428987
        0.9043885 0.029575134 0.8428847 0.9082862 0.029577933 0.8428679
        0.9129292 0.029581014 0.84284884 0.9183478 0.02958402 0.8428276
        0.9245979 0.029586807 0.8428046 0.9317566 0.029589362 0.8427799
        0.93991053 0.029591704 0.84275377 0.949146 0.029593835 0.84272623
        0.9595416 0.029595776 0.8426972 0.9711623 0.029597543 0.84266627
        0.98405176 0.029599125 0.8426322 0.9982259 0.029600514 0.84259313
        1.0136658 0.02960166 0.842546 1.030312 0.029602502 0.84248656
        1.04806 0.02960293 0.84240913 1.0667603 0.029602835 0.842307
        1.0862192 0.0296021 0.84217274 1.1062064 0.029600646 0.84199893
        1.1264642 0.02959847 0.84177905 0.88863564 0.028603034 0.8429866
        0.88916 0.028961053 0.84297216 0.8896747 0.029213209 0.8429614
        0.8902351 0.02939776 0.84295267 0.89088243 0.029536225 0.8429451
        0.8916493 0.029641028 0.8429382 0.89256823 0.029720249 0.84293145
        0.89367646 0.029778812 0.84292465 0.89502114 0.029819738 0.8429173
        0.89666486 0.0298455 0.8429092 0.8986954 0.029858548 0.8428998
        0.9012347 0.029862944 0.84288836 0.90441173 0.029864423 0.8428744
        0.90830576 0.029865969 0.84285766 0.9129468 0.029867776 0.84283864
        0.9183644 0.02986949 0.8428175 0.92461383 0.029870981 0.8427945
        0.9317719 0.029872222 0.84276986 0.9399251 0.029873231 0.84274375
        0.9491597 0.02987402 0.8427163 0.95955455 0.02987459 0.84268737
        0.97117424 0.029874966 0.84265643 0.9840627 0.029875135 0.8426224
        0.9982357 0.029875075 0.8425834 1.0136744 0.029874746 0.84253633
        1.0303192 0.02987407 0.8424769 1.048066 0.029872935 0.84239954
        1.0667647 0.029871212 0.8422975 1.0862222 0.02986878 0.8421633
        1.106208 0.029865535 0.8419896 1.1264642 0.029861461 0.84176975
        0.8888302 0.029122412 0.842968 0.88929445 0.029417496 0.8429558
        0.88977164 0.029618863 0.8429468 0.8903099 0.02976506 0.84293944
        0.89094424 0.029875072 0.8429329 0.89170295 0.029959362 0.8429267
        0.89261603 0.03002458 0.8429205 0.89371943 0.030074395 0.842914
        0.8950595 0.030110547 0.84290683 0.8966984 0.030134154 0.8428988
        0.89872414 0.030146312 0.8428894 0.9012589 0.030149989 0.84287804
        0.9044324 0.030150516 0.8428641 0.9083241 0.030150982 0.84284747
        0.91296387 0.030151678 0.8428284 0.9183807 0.030152282 0.84280735
        0.92462945 0.030152649 0.8427844 0.9317869 0.030152753 0.84275985
        0.93993944 0.030152608 0.84273374 0.94917333 0.03015222 0.8427064
        0.9595673 0.030151607 0.8426775 0.9711861 0.03015077 0.8426466
        0.98407346 0.030149706 0.84261256 0.99824536 0.03014839 0.84257364
        1.0136828 0.030146766 0.8425266 1.0303264 0.030144753 0.84246725
        1.0480719 0.03014223 0.84238994 1.0667691 0.030139066 0.84228796
        1.0862252 0.030135108 0.8421538 1.1062094 0.030130252 0.8419801
        1.1264642 0.03012445 0.8417604 0.8889684 0.029662821 0.84294856
        0.8893848 0.029879903 0.8429392 0.8898343 0.030024309 0.84293216
        0.89035755 0.030129543 0.8429263 0.89098376 0.030209951 0.8429208
        0.8917377 0.03027329 0.84291536 0.8926474 0.030324383 0.8429096
        0.89374816 0.030365452 0.84290344 0.89508575 0.030396907 0.84289646
        0.89672226 0.030418472 0.8428885 0.8987457 0.030429875 0.8428791
        0.90127856 0.030433008 0.8428678 0.9044506 0.030432783 0.84285384
        0.90834135 0.030432375 0.8428373 0.9129803 0.030432174 0.8428183
        0.9183966 0.030431874 0.8427973 0.9246448 0.030431325 0.84277433
        0.9318017 0.030430503 0.8427498 0.93995357 0.030429417 0.8427238
        0.94918674 0.030428074 0.8426964 0.9595799 0.03042649 0.8426675
        0.9711978 0.030424658 0.8426367 0.9840842 0.030422578 0.8426028
        0.998255 0.030420216 0.84256387 1.0136913 0.030417517 0.8425169
        1.0303336 0.030414384 0.84245753 1.0480777 0.030410696 0.8423802
        1.0667737 0.03040629 0.8422783 1.0862281 0.030401023 0.8421442
        1.106211 0.030394759 0.8419706 1.1264642 0.030387433 0.8417509
        0.8890476 0.030217428 0.8429285 0.8894316 0.030342653 0.8429225
        0.88986486 0.030426072 0.8429177 0.89038044 0.03048892 0.84291327
        0.891003 0.030539284 0.8429088 0.89175504 0.030581644 0.84290415
        0.89266366 0.030618735 0.8428989 0.89376366 0.03065123 0.842893
        0.89510083 0.030678147 0.8428862 0.8967371 0.030697841 0.8428783
        0.8987607 0.030708676 0.8428689 0.901294 0.03071148 0.84285766
        0.90446645 0.030710738 0.8428438 0.9083574 0.03070969 0.84282714
        0.91299623 0.030708825 0.8428082 0.91841215 0.030707859 0.84278715
        0.92465997 0.030706631 0.8427643 0.9318163 0.030705122 0.84273976
        0.9399676 0.030703336 0.84271383 0.9492 0.030701282 0.8426865
        0.9595924 0.030698966 0.84265757 0.9712094 0.030696388 0.8426268
        0.9840948 0.030693535 0.84259295 0.99826455 0.030690374 0.84255403
        1.0136997 0.030686837 0.84250706 1.0303408 0.030682828 0.84244776
        1.0480834 0.030678207 0.8423705 1.0667781 0.03067281 0.8422686
        1.0862311 0.03066647 0.84213454 1.1062124 0.030659035 0.841961
        1.1264642 0.030650416 0.8417414 0.889066 0.030778823 0.84290814
        0.88943857 0.030802423 0.84290576 0.8898676 0.03082301 0.84290326
        0.89038205 0.030843016 0.84290034 0.8910046 0.030863378 0.84289706
        0.89175713 0.030884974 0.84289306 0.89266646 0.030908292 0.84288836
        0.8937674 0.030932413 0.8428827 0.8951058 0.03095497 0.842876
        0.8967438 0.030972945 0.8428682 0.8987696 0.030983375 0.84285885
        0.90130556 0.030986022 0.8428475 0.9044803 0.030984962 0.84283364
        0.90837246 0.030983485 0.84281707 0.9130117 0.030982165 0.8427981
        0.9184275 0.030980729 0.84277713 0.9246749 0.030979034 0.84275424
        0.9318307 0.030977042 0.8427298 0.9399814 0.03097476 0.8427038
        0.94921315 0.0309722 0.84267646 0.95960474 0.030969359 0.84264773
        0.9712209 0.030966243 0.8426169 0.98410535 0.030962825 0.84258306
        0.998274 0.030959075 0.84254414 1.0137081 0.030954914 0.8424972
        1.0303478 0.030950239 0.842438 1.0480893 0.030944897 0.84236073
        1.0667825 0.030938717 0.8422589 1.0862341 0.030931506 0.8421248
        1.1062139 0.030923102 0.8419514 1.1264642 0.030913396 0.8417318
        0.8890228 0.031339273 0.84288764 0.8894098 0.031261437 0.842889
        0.8898461 0.031219404 0.8428888 0.8903648 0.031196667 0.84288746
        0.8909904 0.031187087 0.8428852 0.8917453 0.031187953 0.842882
        0.8926569 0.031197503 0.84287775 0.8937602 0.031213224 0.8428724
        0.89510137 0.031231385 0.8428659 0.8967429 0.031247608 0.8428581
        0.89877313 0.031257607 0.8428487 0.9013138 0.0312601 0.84283733
        0.90449244 0.03125873 0.84282345 0.90838695 0.03125684 0.84280694
        0.91302705 0.031255078 0.842788 0.91844285 0.0312532 0.842767
        0.9246899 0.03125105 0.84274423 0.9318452 0.031248597 0.84271973
        0.9399952 0.031245846 0.8426938 0.9492263 0.0312428 0.8426665
        0.95961714 0.031239469 0.84263766 0.9712324 0.031235835 0.8426069
        0.9841159 0.031231884 0.8425731 0.99828357 0.03122757 0.84253424
        1.0137165 0.031222815 0.8424873 1.030355 0.031217499 0.8424281
        1.0480951 0.031211466 0.8423509 1.0667869 0.03120453 0.842249
        1.0862371 0.031196482 0.84211504 1.1062154 0.03118714 0.8419416
        1.1264642 0.03117637 0.8417221 0.888919 0.031890973 0.84286743
        0.88934165 0.03172246 0.842872 0.88979715 0.03162021 0.84287405
        0.8903265 0.031555407 0.8428742 0.8909586 0.031515937 0.84287304
        0.8917183 0.031495888 0.8428706 0.892634 0.031491406 0.8428669
        0.89374125 0.031498455 0.8428619 0.895087 0.031511948 0.8428555
        0.8967341 0.03152616 0.8428477 0.898771 0.03153549 0.84283835
        0.90131867 0.031537607 0.842827 0.90450305 0.031535733 0.84281313
        0.9084009 0.03153324 0.84279656 0.91304237 0.03153085 0.8427776
        0.91845834 0.03152833 0.8427567 0.924705 0.03152554 0.8427339
        0.9318598 0.03152244 0.8427095 0.94000924 0.031519037 0.8426836
        0.9492396 0.031515326 0.8426563 0.9596296 0.031511314 0.8426275
        0.971244 0.031506985 0.84259677 0.9841265 0.031502325 0.842563
        0.9982931 0.031497274 0.8425241 1.0137248 0.03149175 0.84247726
        1.0303621 0.03148562 0.8424181 1.0481008 0.03147872 0.8423409
        1.0667913 0.031470858 0.8422391 1.08624 0.031461798 0.84210515
        1.1062169 0.031451344 0.8419317 1.1264642 0.03143934 0.8417123
        0.8887563 0.03242635 0.84284765 0.8892297 0.032182492 0.84285504
        0.88971585 0.03202471 0.8428591 0.890263 0.031919573 0.84286076
        0.8909062 0.03185078 0.8428607 0.89167374 0.031809863 0.842859
        0.8925957 0.031791177 0.84285575 0.8937092 0.03178928 0.8428511
        0.8950617 0.03179782 0.84284484 0.8967167 0.03180973 0.84283715
        0.89876276 0.031818107 0.84282774 0.90131986 0.031819575 0.8428164
        0.9045119 0.031816937 0.8428025 0.9084143 0.031813584 0.842786
        0.9130576 0.031810313 0.8427671 0.9184739 0.031806912 0.8427462
        0.92472035 0.031803243 0.8427234 0.9318746 0.031799253 0.84269905
        0.94002336 0.031794954 0.8426731 0.94925296 0.031790342 0.8426459
        0.9596422 0.03178542 0.8426172 0.97125566 0.031780172 0.8425865
        0.98413724 0.03177456 0.8425527 0.9983027 0.03176854 0.842514
        1.0137333 0.03176202 0.84246707 1.0303693 0.03175485 0.84240794
        1.0481067 0.031746868 0.8423308 1.0667957 0.03173785 0.84222907
        1.086243 0.031727552 0.8420952 1.1062183 0.03171577 0.8419218
        1.1264642 0.031702314 0.8417024 0.8885378 0.032938346 0.8428287
        0.88907295 0.032635592 0.8428383 0.8895994 0.03242927 0.84284407
        0.8901717 0.03228684 0.84284717 0.8908309 0.03219007 0.8428481
        0.89160967 0.03212879 0.84284717 0.89254075 0.03209599 0.8428445
        0.8936627 0.03208506 0.8428401 0.8950244 0.03208844 0.842834
        0.8966901 0.032097805 0.84282637 0.89874804 0.03210497 0.84281695
        0.9013172 0.03210554 0.84280556 0.90451896 0.032101896 0.8427917
        0.90842706 0.032097466 0.84277517 0.9130727 0.032093093 0.8427563
        0.9184895 0.032088593 0.8427354 0.9247357 0.032083817 0.8427127
        0.9318894 0.032078728 0.8426884 0.94003755 0.03207332 0.8426626
        0.94926643 0.032067593 0.8426354 0.9596548 0.032061547 0.8426067
        0.9712674 0.032055162 0.8425761 0.98414797 0.0320484 0.84254235
        0.9983123 0.032041214 0.8425036 1.0137416 0.032033484 0.8424568
        1.0303764 0.032025076 0.84239763 1.0481125 0.032015797 0.8423206
        1.0668001 0.032005426 0.8422189 1.086246 0.0319937 0.84208506
        1.1062199 0.031980384 0.8419118 1.1264642 0.031965278 0.8416925
        0.8882676 0.03342063 0.84281075 0.88887227 0.033075504 0.84282196
        0.8894466 0.03282955 0.8428292 0.8900507 0.032654274 0.8428335
        0.8907309 0.03253173 0.8428354 0.8915246 0.032451134 0.8428352
        0.8924677 0.032404665 0.842833 0.8936009 0.032384794 0.84282887
        0.89497447 0.03238294 0.84282297 0.8966536 0.03238958 0.84281534
        0.8987266 0.03239533 0.8428059 0.9013106 0.03239479 0.84279454
        0.90452415 0.03238995 0.8427806 0.90843916 0.03238425 0.84276414
        0.91308767 0.032378595 0.8427453 0.9185052 0.03237281 0.8427245
        0.92475116 0.032366753 0.84270185 0.9319043 0.03236038 0.84267753
        0.9400518 0.03235369 0.8426518 0.94927996 0.032346677 0.84262466
        0.9596675 0.032339334 0.84259605 0.97127914 0.032331645 0.8425655
        0.9841587 0.032323565 0.8425318 0.998322 0.032315027 0.8424931
        1.0137501 0.03230593 0.8424464 1.0303836 0.032296114 0.84238726
        1.0481184 0.032285377 0.84231025 1.0668045 0.032273483 0.84220856
        1.086249 0.03226016 0.8420749 1.1062213 0.032245155 0.84190166
        1.1264642 0.032228243 0.8416825 0.8879505 0.03386779 0.8427942
        0.8886294 0.03349639 0.8428063 0.8892574 0.033221103 0.8428146
        0.88989884 0.033018827 0.8428199 0.8906049 0.032873686 0.84282273
        0.8914173 0.032775424 0.84282315 0.8923755 0.032716084 0.8428213
        0.8935228 0.032687593 0.8428175 0.8949112 0.032680545 0.84281176
        0.89660704 0.032684363 0.84280413 0.8986982 0.03268852 0.8427948
        0.9013 0.032686695 0.8427833 0.9045274 0.0326805 0.8427694
        0.9084505 0.032673385 0.84275293 0.9131024 0.032666296 0.84273416
        0.9185208 0.032659087 0.8427134 0.92476666 0.032651603 0.8426908
        0.93191934 0.032643806 0.84266657 0.9400661 0.032635693 0.8426409
        0.9492935 0.032627247 0.8426138 0.95968026 0.03261847 0.84258527
        0.97129095 0.032609332 0.84255475 0.9841695 0.032599792 0.84252113
        0.99833167 0.03258978 0.8424825 1.0137587 0.032579172 0.8424358
        1.0303909 0.03256781 0.84237677 1.0481242 0.032555483 0.8422998
        1.0668089 0.032541934 0.84219825 1.086252 0.032526884 0.84206456
        1.1062229 0.032510053 0.84189147 1.1264642 0.032491203 0.84167236
        0.8875918 0.034275327 0.84277916 0.8883471 0.03389287 0.8427916
        0.88903195 0.033599425 0.8428006 0.88971525 0.03337732 0.8428066
        0.89045143 0.033213805 0.84281 0.8912863 0.033100232 0.8428109
        0.89226294 0.033029247 0.84280956 0.89342743 0.03299271 0.84280604
        0.89483404 0.032980643 0.84280044 0.89654994 0.032981597 0.8427928
        0.8986628 0.03298403 0.8427834 0.9012854 0.032980774 0.8427719
        0.90452886 0.0329731 0.842758 0.9084612 0.032964442 0.84274155
        0.913117 0.032955807 0.84272283 0.9185364 0.032947052 0.84270215
        0.92478216 0.03293803 0.84267956 0.93193436 0.032928694 0.8426554
        0.94008046 0.032919038 0.84262985 0.94930714 0.03290905 0.84260285
        0.959693 0.032898724 0.84257436 0.9713028 0.032888025 0.84254384
        0.98418033 0.032876913 0.84251034 0.9983414 0.0328653 0.8424718
        1.0137671 0.032853074 0.84242517 1.030398 0.032840054 0.8423662
        1.04813 0.032826025 0.8422893 1.0668135 0.03281071 0.84218776
        1.086255 0.032793824 0.8420542 1.1062243 0.03277506 0.8418812
        1.1264642 0.032754157 0.84166217 0.887197 0.0346399 0.8427658
        0.8880287 0.03426017 0.842778 0.88877165 0.03395999 0.84278715
        0.8894993 0.033726368 0.8427936 0.89026916 0.03354987 0.84279746
        0.89113003 0.03342418 0.8427988 0.89212847 0.0333433 0.8427978
        0.8933137 0.033299573 0.8427945 0.8947421 0.03328281 0.84278893
        0.89648193 0.03328092 0.84278136 0.8986203 0.033281527 0.8427719
        0.90126693 0.033276707 0.8427604 0.90452856 0.03326744 0.8427464
        0.9084712 0.03325715 0.84273 0.9131314 0.033246867 0.8427114
        0.91855204 0.03323647 0.8426907 0.9247977 0.03322581 0.8426683
        0.9319494 0.033214834 0.8426442 0.9400949 0.033203542 0.84261864
        0.9493208 0.033191912 0.8425917 0.9597058 0.033179935 0.8425633
        0.97131467 0.033167582 0.8425329 0.9841911 0.033154797 0.8424994
        0.9983511 0.033141494 0.84246093 1.0137756 0.033127546 0.8424144
        1.0304053 0.03311277 0.8423555 1.0481359 0.03309694 0.84227866
        1.0668179 0.033079766 0.8421773 1.0862579 0.03306094 0.84204376
        1.1062258 0.03304015 0.8418708 1.1264642 0.03301711 0.8416519
        0.8867726 0.034958478 0.8427543 0.88767856 0.034594007 0.84276575
        0.8884787 0.03429814 0.8427747 0.88925135 0.034062088 0.84278107
        0.89005697 0.03387916 0.8427852 0.89094687 0.033745557 0.8427868
        0.8919706 0.03365721 0.842786 0.8931802 0.03360754 0.84278286
        0.8946345 0.033586588 0.8427774 0.8964026 0.033581965 0.84276974
        0.89857054 0.033580665 0.8427602 0.9012446 0.033574175 0.84274864
        0.9045266 0.033563223 0.8427347 0.9084807 0.033551224 0.8427183
        0.91314566 0.03353922 0.8426997 0.91856766 0.033527106 0.84267914
        0.92481333 0.03351473 0.84265673 0.9319645 0.033502042 0.8426327
        0.9401093 0.03348903 0.84260726 0.94933444 0.033475675 0.84258044
        0.95971864 0.03346197 0.84255207 0.9713266 0.033447873 0.8425218
        0.984202 0.033433337 0.84248835 0.9983608 0.033418257 0.84244996
        1.0137842 0.033402506 0.84240353 1.0304126 0.033385895 0.8423447
        1.0481418 0.033368174 0.84226793 1.0668223 0.03334906 0.8421666
        1.0862608 0.033328217 0.8420332 1.1062273 0.03330532 0.8418603
        1.1264642 0.03328006 0.84164155 0.8863218 0.035230756 0.84274477
        0.8873007 0.03489141 0.842755 0.8881558 0.03460979 0.8427632
        0.88897187 0.034380697 0.8427693 0.88981354 0.034199048 0.84277326
        0.89073455 0.034062944 0.8427749 0.8917868 0.03397045 0.8427742
        0.8930249 0.03391656 0.8427711 0.89450985 0.033892155 0.8427657
        0.8963112 0.03388496 0.84275806 0.8985134 0.03388169 0.84274846
        0.9012184 0.03387341 0.8427368 0.904523 0.03386068 0.8427228
        0.90848964 0.033846874 0.84270644 0.9131598 0.033833057 0.8426879
        0.9185833 0.033819135 0.8426674 0.92482895 0.03380495 0.8426451
        0.93197966 0.033790458 0.84262115 0.94012386 0.033775628 0.84259576
        0.9493482 0.033760462 0.842569 0.9597315 0.03374493 0.84254074
        0.9713385 0.033729002 0.8425105 0.9842129 0.03371261 0.84247726
        0.9983706 0.033695664 0.8424389 1.0137926 0.033678018 0.8423925
        1.0304197 0.03365947 0.8423338 1.0481477 0.033639774 0.84225714
        1.0668267 0.03361862 0.8421559 1.0862639 0.03359567 0.84202254
        1.1062288 0.03357058 0.84184974 1.1264642 0.03354301 0.84163105
        0.88585895 0.035451487 0.84273726 0.8869018 0.03514907 0.8427459
        0.88780814 0.034890305 0.84275305 0.88866425 0.03467679 0.8427584
        0.8895401 0.034504514 0.84276193 0.8904927 0.034372382 0.84276336
        0.891576 0.03428007 0.8427626 0.89284694 0.034224406 0.84275943
        0.89436764 0.034197655 0.84275395 0.89620763 0.034188252 0.84274626
        0.898449 0.034183033 0.84273654 0.9011887 0.03417294 0.8427248
        0.90451795 0.034158424 0.8427108 0.9084981 0.034142826 0.84269446
        0.91317385 0.034127202 0.842676 0.9185989 0.03411147 0.84265554
        0.9248446 0.03409548 0.84263337 0.93199486 0.03407917 0.8426095
        0.94013834 0.034062523 0.8425842 0.949362 0.03404553 0.8425575
        0.95974445 0.03402816 0.8425293 0.97135043 0.034010377 0.8424992
        0.9842238 0.033992115 0.84246594 0.99838036 0.033973277 0.84242773
        1.0138012 0.033953704 0.8423814 1.030427 0.033933196 0.84232277
        1.0481535 0.033911493 0.84224623 1.0668312 0.033888273 0.842145
        1.0862668 0.033863183 0.8420118 1.1062303 0.033835858 0.84183913
        1.1264642 0.033805955 0.84162056 0.8853584 0.035632093 0.84273154
        0.88648045 0.035367668 0.8427384 0.88743716 0.03513832 0.84274423
        0.88832825 0.034948744 0.8427485 0.8892329 0.034795206 0.8427512
        0.89021444 0.03467568 0.8427521 0.89133036 0.03458989 0.84275097
        0.89263904 0.034536067 0.8427476 0.89420253 0.03450849 0.84274197
        0.89608866 0.034497187 0.8427342 0.8983757 0.034489837 0.8427244
        0.90115476 0.034477618 0.8427126 0.9045114 0.034461003 0.8426985
        0.90850616 0.034443296 0.8426822 0.91318786 0.034425568 0.8426638
        0.9186146 0.034407724 0.8426435 0.9248604 0.034389634 0.8426213
        0.9320102 0.034371223 0.8425976 0.94015306 0.034352466 0.8425724
        0.94937587 0.03433336 0.8425458 0.95975745 0.034313872 0.84251773
        0.9713625 0.034293965 0.84248763 0.9842348 0.034273565 0.8424545
        0.9983902 0.034252565 0.84241635 1.0138098 0.03423081 0.84237015
        1.0304343 0.03420809 0.8423116 1.0481595 0.03418413 0.84223515
        1.0668356 0.0341586 0.84213406 1.0862697 0.03413114 0.84200096
        1.1062318 0.034101356 0.84182847 1.1264642 0.034068894 0.84161
        0.88493747 0.0357418 0.8427285 0.88606036 0.035541933 0.84273267
        0.88705736 0.035347372 0.842737 0.8879811 0.035184838 0.8427401
        0.88891155 0.035054117 0.8427418 0.8899196 0.03495212 0.8427419
        0.8910681 0.03487737 0.84274024 0.8924173 0.034828637 0.84273654
        0.89402777 0.034802146 0.84273064 0.89596415 0.034790058 0.8427227
        0.89830005 0.034781367 0.8427127 0.9011202 0.034767844 0.8427008
        0.9045046 0.03475006 0.8426867 0.908514 0.03473121 0.8426704
        0.91320163 0.034712303 0.84265196 0.9186301 0.03469327 0.8426317
        0.924876 0.034673955 0.84260964 0.9320253 0.034654297 0.8425859
        0.9401675 0.03463427 0.8425608 0.9493895 0.03461386 0.84253424
        0.95977026 0.03459304 0.8425063 0.9713744 0.03457176 0.84247625
        0.98424566 0.03454995 0.8424432 0.9983999 0.034527507 0.84240514
        1.0138184 0.03450426 0.84235895 1.0304415 0.034479987 0.84230053
        1.0481653 0.034454416 0.8422241 1.06684 0.034427203 0.84212315
        1.0862727 0.034397963 0.84199005 1.1062332 0.034366302 0.8418176
        1.1264642 0.034331832 0.8415993 0.8847443 0.035782013 0.84272754
        0.88570035 0.035666734 0.8427288 0.88670623 0.03550898 0.8427316
        0.88766956 0.035365537 0.8427338 0.88863885 0.035246357 0.84273493
        0.88968205 0.03515154 0.8427346 0.89086485 0.03508096 0.8427326
        0.8922495 0.03503448 0.8427287 0.89389753 0.03500938 0.84272265
        0.8958724 0.034998488 0.8427145 0.8982453 0.034991205 0.8427043
        0.9010964 0.034979567 0.84269214 0.90450156 0.034964103 0.84267783
        0.90852183 0.034947757 0.8426614 0.9132139 0.034931406 0.8426429
        0.9186436 0.034914948 0.8426225 0.92488945 0.034898236 0.84260035
        0.93203837 0.034881208 0.84257656 0.94018006 0.034863845 0.8425513
        0.9494015 0.034846127 0.84252465 0.95978165 0.03482803 0.8424966
        0.971385 0.034809507 0.8424664 0.9842555 0.034790482 0.8424333
        0.99840885 0.03477084 0.84239507 1.0138263 0.03475042 0.8423489
        1.0304483 0.03472899 0.8422902 1.0481709 0.034706257 0.84221375
        1.0668443 0.034681875 0.84211266 1.0862757 0.034655448 0.8419795
        1.1062347 0.03462655 0.84180695 1.1264642 0.034594767 0.8415885
        0.8846199 0.035807505 0.84272695 0.88541263 0.035753466 0.84272623
        0.88639337 0.035632435 0.8427276 0.88739455 0.035503592 0.8427291
        0.8884112 0.03538865 0.84272987 0.8894948 0.03529458 0.8427294
        0.890711 0.035224095 0.8427273 0.8921257 0.035178058 0.84272325
        0.8938027 0.03515399 0.84271705 0.8958064 0.03514468 0.8427087
        0.89820653 0.03513946 0.8426983 0.9010802 0.0351304 0.84268594
        0.9045004 0.03511796 0.84267145 0.90852857 0.035104893 0.8426548
        0.91322374 0.035092 0.84263617 0.9186543 0.035079185 0.8426156
        0.92490023 0.03506631 0.8425933 0.93204886 0.03505334 0.84256935
        0.9401902 0.03504028 0.84254396 0.9494113 0.03502714 0.84251714
        0.95979095 0.035013914 0.8424888 0.9713938 0.0350006 0.84245855
        0.9842637 0.03498716 0.8424251 0.9984165 0.03497352 0.84238666
        1.0138332 0.034959577 0.8423401 1.0304543 0.03494517 0.8422813
        1.0481759 0.03493008 0.84220445 1.0668484 0.03491406 0.842103
        1.0862784 0.034896825 0.8419695 1.1062362 0.034878112 0.8417966
        1.1264642 0.034857698 0.84157765 0.8844574 0.035840552 0.8427261
        0.88515383 0.035821512 0.8427243 0.8860689 0.03574321 0.84272414
        0.8870696 0.035644345 0.84272444 0.88811946 0.035547376 0.8427243
        0.88924503 0.035463545 0.8427233 0.8905027 0.03539899 0.8427208
        0.8919577 0.035356574 0.84271646 0.8936749 0.03533487 0.84271
        0.89571834 0.03532731 0.84270144 0.8981554 0.035323914 0.8426908
        0.9010588 0.035317328 0.84267825 0.90449846 0.03530791 0.8426635
        0.90853655 0.03529806 0.8426467 0.9132356 0.035288453 0.84262794
        0.91866726 0.035278983 0.84260726 0.9249131 0.035269544 0.8425848
        0.9320614 0.035260104 0.8425607 0.94020224 0.03525067 0.84253514
        0.9494228 0.03524126 0.84250814 0.95980185 0.035231877 0.8424797
        0.9714041 0.035222515 0.84244925 0.9842732 0.035213143 0.84241563
        0.99842507 0.035203703 0.84237707 1.0138408 0.035194073 0.84233034
        1.030461 0.0351841 0.84227127 1.0481815 0.035173573 0.8421943
        1.0668527 0.03516224 0.84209263 1.0862814 0.03514981 0.84195894
        1.1062376 0.035136018 0.8417858 1.1264642 0.035120625 0.84156674
        0.8842807 0.035876192 0.8427253 0.8849183 0.035875227 0.8427229
        0.8857608 0.035833124 0.8427215 0.88673156 0.035769176 0.8427205
        0.88779426 0.03569906 0.84271926 0.88895684 0.035633486 0.84271735
        0.8902602 0.03558042 0.8427142 0.89176327 0.035544794 0.8427094
        0.8935288 0.035526764 0.8427026 0.89561933 0.035521053 0.84269375
        0.8980989 0.03551916 0.84268284 0.9010356 0.03551491 0.84267
        0.9044964 0.03550852 0.8426551 0.90854514 0.03550187 0.8426381
        0.91324836 0.03549546 0.8426192 0.9186811 0.0354892 0.8425983
        0.9249268 0.035483006 0.8425758 0.93207467 0.035476856 0.8425515
        0.94021493 0.035470765 0.84252584 0.9494349 0.03546474 0.8424987
        0.95981324 0.035458792 0.8424701 0.97141474 0.035452917 0.84243953
        0.9842831 0.03544707 0.84240586 0.99843407 0.035441186 0.84236705
        1.0138488 0.035435155 0.84232026 1.0304679 0.03542881 0.842261
        1.0481871 0.03542193 0.8421839 1.066857 0.035414256 0.8420821
        1.0862844 0.035405483 0.8419483 1.1062392 0.03539533 0.84177494
        1.1264642 0.03538355 0.8415557 0.88408124 0.035916034 0.8427243
        0.8846959 0.035919957 0.8427218 0.8854727 0.035904303 0.8427196
        0.8863912 0.03587497 0.8427173 0.88743895 0.03583882 0.8427147
        0.8886229 0.035801683 0.84271157 0.8899714 0.035769362 0.8427074
        0.8915308 0.035746686 0.84270185 0.89335614 0.035735063 0.8426946
        0.8955045 0.03573152 0.84268534 0.89803475 0.035730608 0.84267426
        0.90100974 0.035728388 0.84266114 0.9044942 0.03572494 0.84264594
        0.9085546 0.035721358 0.84262884 0.91326225 0.035717912 0.8426097
        0.91869605 0.035714537 0.8425888 0.92494166 0.035711195 0.8425661
        0.9320889 0.03570788 0.84254175 0.9402286 0.035704587 0.84251595
        0.94944775 0.03570134 0.84248877 0.95982546 0.03569813 0.84246
        0.97142607 0.035694942 0.8424293 0.98429346 0.03569174 0.8423954
        0.9984434 0.035688445 0.8423566 1.0138571 0.03568494 0.84230965
        1.0304749 0.035681043 0.84225035 1.048193 0.035676528 0.8421731
        1.0668614 0.035671115 0.8420712 1.0862874 0.0356645 0.84193724
        1.1062407 0.03565637 0.8417639 1.1264642 0.03564647 0.8415446
        0.883858 0.035960153 0.8427232 0.8844774 0.035960056 0.8427209
        0.8852056 0.03595994 0.8427182 0.88606155 0.0359598 0.8427149
        0.8870669 0.035959635 0.84271103 0.8882471 0.035959434 0.8427063
        0.8896313 0.03595919 0.8427007 0.8912533 0.035958905 0.842694
        0.8931519 0.035958562 0.8426859 0.8953714 0.03595815 0.8426762
        0.8979622 0.035957664 0.84266484 0.9009812 0.035957094 0.8426515
        0.9044919 0.03595644 0.8426361 0.90856487 0.035955697 0.84261876
        0.91327727 0.035954878 0.8425996 0.91871214 0.03595398 0.84257853
        0.92495745 0.035953008 0.8425557 0.9321041 0.035951965 0.84253126
        0.940243 0.03595086 0.8425054 0.9494614 0.035949696 0.8424781
        0.9598382 0.035948467 0.8424493 0.97143793 0.03594715 0.8424185
        0.9843043 0.035945706 0.84238464 0.9984532 0.035944045 0.84234565
        1.0138656 0.035942037 0.8422987 1.0304822 0.035939503 0.8422393
        1.0481989 0.035936207 0.842162 1.0668659 0.035931855 0.8420601
        1.0862905 0.03592614 0.8419261 1.1062423 0.035918742 0.8417527
        1.1264642 0.035909384 0.8415334
        <InformationKey name="L2_NORM_RANGE" location="vtkDataArray" length="2">
          <Value index="0">
            1.2212388017
          </Value>
          <Value index="1">
            1.40655246
          </Value>
        </InformationKey>
      </DataArray>
    </Points>
  </Piece>
  </StructuredGrid>
</VTKFile>
