<?xml version="1.0"?>
<VTKFile type="StructuredGrid" version="0.1" byte_order="LittleEndian">
    <StructuredGrid WholeExtent="0 240 0 4 0 0">
        <Piece Extent="0 240 0 4 0 0">
            <Points>
                <DataArray type="Float32" NumberOfComponents="3" format="ascii">
                        0.1758557512537322        0.0361705974895459    0.0
                        0.1758771733921267        0.0368285061150024    0.0
                        0.1758265441735931        0.0374852726727115    0.0
                        0.1757046714123388        0.0381317024791655    0.0
                        0.1755138422554631        0.0387588824953181    0.0
                        0.1752577022451254        0.0393585149352615    0.0
                        0.1749410494979816        0.0399231815252906    0.0
                        0.1745695536724942        0.0404465515099347    0.0
                        0.1741495389382690        0.0409233831575310    0.0
                        0.1736874483817407        0.0413498034046623    0.0
                        0.1731907150459446        0.0417223153117504    0.0
                        0.1726633932048431        0.0420405867073324    0.0
                        0.1721220163937151        0.0422985380046554    0.0
                        0.1715367192919614        0.0425095442969526    0.0
                        0.1710445279836262        0.0426377017119356    0.0
                        0.1708184033216268        0.0426847164134478    0.0
                        0.1706725974992202        0.0427145659789422    0.0
                        0.1704822015610775        0.0427532363024920    0.0
                        0.1702751288598345        0.0427949399399948    0.0
                        0.1700414627527943        0.0428415597558843    0.0
                        0.1697799574436468        0.0428931830341724    0.0
                        0.1694868652498392        0.0429503528736532    0.0
                        0.1691585853559416        0.0430135253783125    0.0
                        0.1687909810028870        0.0430831906916403    0.0
                        0.1683794963537507        0.0431598324044608    0.0
                        0.1679190781731675        0.0432439213468023    0.0
                        0.1674041428819321        0.0433358961451299    0.0
                        0.1668285317679921        0.0434361409033374    0.0
                        0.1661854694146726        0.0435449565007211    0.0
                        0.1654675233639272        0.0436625253171553    0.0
                        0.1646665676994795        0.0437888685305807    0.0
                        0.1637737527533254        0.0439237955802095    0.0
                        0.1627794840270727        0.0440668458126810    0.0
                        0.1616734140924826        0.0442172230925934    0.0
                        0.1604444520668901        0.0443737252893951    0.0
                        0.1590807961037749        0.0445346721724113    0.0
                        0.1575699951941237        0.0446978374489907    0.0
                        0.1558990472096263        0.0448603935618157    0.0
                        0.1540545406889751        0.0450188814052222    0.0
                        0.1520228465109006        0.0451692212931402    0.0
                        0.1497903263716830        0.0453067835022188    0.0
                        0.1473435523537540        0.0454265214830844    0.0
                        0.1446695830864942        0.0455231746423033    0.0
                        0.1417562711054291        0.0455915510699384    0.0
                        0.1385925744580371        0.0456268847423709    0.0
                        0.1351688500052341        0.0456252439754525    0.0
                        0.1314770988165397        0.0455839458887874    0.0
                        0.1275111302755794        0.0455019056731251    0.0
                        0.1232666123664519        0.0453798227563875    0.0
                        0.1187409767245228        0.0452200828386227    0.0
                        0.1139331741574693        0.0450262408509364    0.0
                        0.1088432504872504        0.0448019459472563    0.0
                        0.1034721107764959        0.0445492249569717    0.0
                        0.0978230536828499        0.0442666068453894    0.0
                        0.0919039733805503        0.0439478583912534    0.0
                        0.0857286707407447        0.0435812454818642    0.0
                        0.0793183466574389        0.0431494814935298    0.0
                        0.0727019025113878        0.0426305158440432    0.0
                        0.0659188551407240        0.0419996313254787    0.0
                        0.0590128217178203        0.0412317794667232    0.0
                        0.0520463552896464        0.0403071341827403    0.0
                        0.0454579352122907        0.0392771810894361    0.0
                        0.0389233993398773        0.0380943235870445    0.0
                        0.0324839341879010        0.0367634728332398    0.0
                        0.0261873604547216        0.0352986302933892    0.0
                        0.0200693541296108        0.0337168491695137    0.0
                        0.0141623034082422        0.0320374767132314    0.0
                        0.0084923808404267        0.0302816660018965    0.0
                        0.0030793952949546        0.0284708939223542    0.0
                       -0.0020631532350601        0.0266254446672128    0.0
                       -0.0069274757634727        0.0247632945577384    0.0
                       -0.0115094283314103        0.0229001592624502    0.0
                       -0.0158067049235843        0.0210505405275237    0.0
                       -0.0198186372513532        0.0192284770322093    0.0
                       -0.0235465215281813        0.0174478302248786    0.0
                       -0.0269942674475174        0.0157219636312343    0.0
                       -0.0301690046489999        0.0140629235703625    0.0
                       -0.0330811746773884        0.0124805441705566    0.0
                       -0.0357440834119102        0.0109818291521565    0.0
                       -0.0381731026615404        0.0095707503440281    0.0
                       -0.0403845720753935        0.0082485780912388    0.0
                       -0.0423949528025595        0.0070144286439925    0.0
                       -0.0442203332994337        0.0058657942514674    0.0
                       -0.0458761396606022        0.0047990152514902    0.0
                       -0.0473769749048149        0.0038096735822380    0.0
                       -0.0487365381985314        0.0028929065492625    0.0
                       -0.0499675948109636        0.0020436473110478    0.0
                       -0.0510819781044127        0.0012568025445469    0.0
                       -0.0520906116615855        0.0005273786307544    0.0
                       -0.0530035437776002       -0.0001494328310783    0.0
                       -0.0538299892025358       -0.0007782006591668    0.0
                       -0.0545783747352446       -0.0013632228877842    0.0
                       -0.0552563864067355       -0.0019085122706973    0.0
                       -0.0558710167531067       -0.0024177934131387    0.0
                       -0.0564286112125825       -0.0028945076497784    0.0
                       -0.0569349130038237       -0.0033418227263437    0.0
                       -0.0573951062606324       -0.0037626452657929    0.0
                       -0.0578138567752546       -0.0041596340614046    0.0
                       -0.0581953521158989       -0.0045352148674625    0.0
                       -0.0585433345304470       -0.0048915894535942    0.0
                       -0.0588611509528865       -0.0052307633422256    0.0
                       -0.0591517340198123       -0.0055544999393431    0.0
                       -0.0594178142260003       -0.0058645349616719    0.0
                       -0.0596613552711967       -0.0061618798638910    0.0
                       -0.0598854395761187       -0.0064491305693688    0.0
                       -0.0600890281783683       -0.0067236492584792    0.0
                       -0.0602792213056957       -0.0069940315251677    0.0
                       -0.0604693912382464       -0.0072805985696032    0.0
                       -0.0606640105835753       -0.0075945113166450    0.0
                       -0.0608577344543089       -0.0079332422724069    0.0
                       -0.0610490033924548       -0.0083015543401973    0.0
                       -0.0612339136650188       -0.0087019916579647    0.0
                       -0.0614081013474129       -0.0091385838576519    0.0
                       -0.0615655924276105       -0.0096150856545019    0.0
                       -0.0616986500346533       -0.0101348651901271    0.0
                       -0.0617974568986528       -0.0106997032842328    0.0
                       -0.0618503075173303       -0.0113083307191948    0.0
                       -0.0618445786297575       -0.0119549715126228    0.0
                       -0.0617687473736876       -0.0126274467265207    0.0
                       -0.0616149867326135       -0.0133089217392187    0.0
                       -0.0613824642793384       -0.0139766498020625    0.0
                       -0.0610747850739620       -0.0146147059689085    0.0
                       -0.0606998614346227       -0.0152086866944990    0.0
                       -0.0602739581106995       -0.0157421927152809    0.0
                       -0.0598145329388161       -0.0162079396028959    0.0
                       -0.0593386737106881       -0.0166047469801730    0.0
                       -0.0588598358937874       -0.0169370265090670    0.0
                       -0.0583876191464218       -0.0172119762765381    0.0
                       -0.0579280461945262       -0.0174377818388094    0.0
                       -0.0574844518864049       -0.0176223697596115    0.0
                       -0.0570585887811032       -0.0177727295328690    0.0
                       -0.0566508058961206       -0.0178949191792472    0.0
                       -0.0562622299170427       -0.0179936198728740    0.0
                       -0.0558905407614440       -0.0180734135341232    0.0
                       -0.0555417844415348       -0.0181364530148263    0.0
                       -0.0552042591123690       -0.0181874665127070    0.0
                       -0.0548537098923460       -0.0182308707835550    0.0
                       -0.0544783022605630       -0.0182673948187582    0.0
                       -0.0540808554325068       -0.0182957598961186    0.0
                       -0.0536571366005667       -0.0183153182622468    0.0
                       -0.0532049851703217       -0.0183250916373577    0.0
                       -0.0527211447491212       -0.0183239983893547    0.0
                       -0.0522022291876960       -0.0183107758293285    0.0
                       -0.0516444104595349       -0.0182839656806203    0.0
                       -0.0510434829173536       -0.0182418894744378    0.0
                       -0.0503948222882200       -0.0181826243651792    0.0
                       -0.0496933759276999       -0.0181039801963026    0.0
                       -0.0489336476641643       -0.0180034776551720    0.0
                       -0.0481096883306570       -0.0178783290773016    0.0
                       -0.0472150904787455       -0.0177254232100077    0.0
                       -0.0462429893778844       -0.0175413160099111    0.0
                       -0.0451860716774278       -0.0173222300853617    0.0
                       -0.0440365934478739       -0.0170640661365766    0.0
                       -0.0427864092603646       -0.0167624305130867    0.0
                       -0.0414270138216928       -0.0164126837741617    0.0
                       -0.0399495972834372       -0.0160100157612627    0.0
                       -0.0383451146008012       -0.0155495529610732    0.0
                       -0.0366043680655610       -0.0150265035129518    0.0
                       -0.0347181001116674       -0.0144363435703058    0.0
                       -0.0326770903407663       -0.0137750451022375    0.0
                       -0.0304722455425878       -0.0130393384132755    0.0
                       -0.0280946637328678       -0.0122269911907281    0.0
                       -0.0255356382713330       -0.0113370663767145    0.0
                       -0.0227865495060929       -0.0103700920095810    0.0
                       -0.0198385349775198       -0.0093280208238408    0.0
                       -0.0166821049083698       -0.0082139331900976    0.0
                       -0.0133072744427779       -0.0070317182596315    0.0
                       -0.0097041790760941       -0.0057858267413948    0.0
                       -0.0058642642802335       -0.0044812535449329    0.0
                       -0.0017818797996440       -0.0031238708210459    0.0
                        0.0025442999644630       -0.0017210106808797    0.0
                        0.0071104240880882       -0.0002821337135010    0.0
                        0.0119073405463353        0.0011805875470140    0.0
                        0.0169221706845383        0.0026524317929381    0.0
                        0.0221399662839537        0.0041170652940754    0.0
                        0.0275439876811803        0.0055574658274070    0.0
                        0.0331153728069440        0.0069568456672840    0.0
                        0.0388350023695341        0.0083004585592580    0.0
                        0.0446809944762878        0.0095779414190838    0.0
                        0.0506319335668647        0.0107842310080109    0.0
                        0.0566580861408565        0.0119177069030165    0.0
                        0.0630993303598444        0.0130454056854667    0.0
                        0.0695591562069927        0.0141087555422683    0.0
                        0.0759986314410463        0.0151241221866802    0.0
                        0.0823689300452852        0.0161081246198803    0.0
                        0.0886217327044961        0.0170761412989316    0.0
                        0.0947090123380137        0.0180394627708398    0.0
                        0.1005866177833016        0.0190038674973413    0.0
                        0.1062161675052507        0.0199689991538124    0.0
                        0.1115666509127842        0.0209287930291929    0.0
                        0.1166153150704423        0.0218727165509863    0.0
                        0.1213487108687211        0.0227878332378640    0.0
                        0.1257625580521025        0.0236613083415441    0.0
                        0.1298597813878483        0.0244821969115876    0.0
                        0.1336485380193595        0.0252423704001083    0.0
                        0.1371406180454129        0.0259368014792072    0.0
                        0.1403501760995038        0.0265634050606017    0.0
                        0.1432927691811614        0.0271226204318432    0.0
                        0.1459846477642255        0.0276168766128153    0.0
                        0.1484422487924013        0.0280500408449897    0.0
                        0.1506818424415593        0.0284269120019717    0.0
                        0.1527192920843927        0.0287527911862535    0.0
                        0.1545698965021536        0.0290331411339118    0.0
                        0.1562482812572132        0.0292733311520952    0.0
                        0.1577683075151822        0.0294784532398914    0.0
                        0.1591430383230581        0.0296532042819433    0.0
                        0.1603847468499997        0.0298018275887057    0.0
                        0.1615049271340848        0.0299280949166124    0.0
                        0.1625143074685756        0.0300353157161630    0.0
                        0.1634228673628151        0.0301263636314122    0.0
                        0.1642398584750876        0.0302037128875536    0.0
                        0.1649738294915170        0.0302694793107349    0.0
                        0.1656326546002692        0.0303254623716634    0.0
                        0.1662235649854205        0.0303731858969323    0.0
                        0.1667531826564466        0.0304139360195363    0.0
                        0.1672275558382384        0.0304487956006895    0.0
                        0.1676521953838317        0.0304786748313214    0.0
                        0.1680321108214839        0.0305043379623305    0.0
                        0.1683718485785766        0.0305264265637931    0.0
                        0.1686755188114960        0.0305454787642023    0.0
                        0.1689468656250749        0.0305619482675794    0.0
                        0.1691891482408679        0.0305762094701240    0.0
                        0.1694058094797403        0.0305886063312747    0.0
                        0.1695978244755831        0.0305993110808540    0.0
                        0.1697749829673168        0.0306089533962536    0.0
                        0.1699084363298911        0.0306160945713505    0.0
                        0.1701270016427896        0.0306279033188807    0.0
                        0.1706268815212825        0.0306793591191790    0.0
                        0.1712322268462194        0.0307978379790690    0.0
                        0.1717999765808701        0.0309679914227902    0.0
                        0.1723622639210329        0.0311980988490665    0.0
                        0.1729021283130869        0.0314842219988636    0.0
                        0.1734161736373065        0.0318263789615258    0.0
                        0.1738973631844440        0.0322222508576837    0.0
                        0.1743396702076154        0.0326693464231233    0.0
                        0.1747369168025240        0.0331641936646438    0.0
                        0.1750831814339113        0.0337024965537808    0.0
                        0.1753728640293112        0.0342789950732231    0.0
                        0.1756008957928036        0.0348874523157953    0.0
                        0.1757629629332935        0.0355206713282151    0.0
                        0.1758557512537322        0.0361705974895459    0.0
                        0.1740626006795889        0.0363274764825609    0.0
                        0.1739312342199925        0.0367309382818007    0.0
                        0.1737878790304753        0.0371296186743958    0.0
                        0.1736276567728016        0.0375192895313822    0.0
                        0.1734475603056199        0.0378961862454547    0.0
                        0.1732460489719672        0.0382569757607605    0.0
                        0.1730228415208979        0.0385987185887479    0.0
                        0.1727787782601729        0.0389188680169225    0.0
                        0.1725157246770536        0.0392152946237532    0.0
                        0.1722364068330775        0.0394864287087353    0.0
                        0.1719445172205100        0.0397311504826091    0.0
                        0.1716437694847822        0.0399495401495130    0.0
                        0.1713406640525868        0.0401408781189760    0.0
                        0.1710342536090971        0.0403099027305196    0.0
                        0.1707505379335022        0.0404477520276352    0.0
                        0.1705467324980865        0.0405359182103448    0.0
                        0.1703942249778584        0.0405970442683319    0.0
                        0.1702001483613311        0.0406710350543101    0.0
                        0.1699878753817843        0.0407470038354523    0.0
                        0.1697488689290833        0.0408270412286862    0.0
                        0.1694818144745238        0.0409103579733999    0.0
                        0.1691833505061699        0.0409968638048868    0.0
                        0.1688502337508520        0.0410864244222316    0.0
                        0.1684787480364409        0.0411790810838844    0.0
                        0.1680647518507112        0.0412750424890574    0.0
                        0.1676035627599382        0.0413747029170721    0.0
                        0.1670898810084308        0.0414786235457222    0.0
                        0.1665177173769686        0.0415874879876145    0.0
                        0.1658803444550105        0.0417020316727361    0.0
                        0.1651702714920116        0.0418229517671201    0.0
                        0.1643792401574399        0.0419508060387365    0.0
                        0.1634982338134753        0.0420859100134491    0.0
                        0.1625174927332070        0.0422282405532322    0.0
                        0.1614265306638108        0.0423773511643645    0.0
                        0.1602141531737444        0.0425323007957932    0.0
                        0.1588684836552928        0.0426915951530253    0.0
                        0.1573770072535092        0.0428531392048445    0.0
                        0.1557266451364441        0.0430142024334053    0.0
                        0.1539038713159663        0.0431714039080718    0.0
                        0.1518948812456802        0.0433207305942486    0.0
                        0.1496857886883682        0.0434576068268190    0.0
                        0.1472628440467724        0.0435770250655302    0.0
                        0.1446127112583526        0.0436737454223380    0.0
                        0.1417227810767020        0.0437425735202268    0.0
                        0.1385814978209112        0.0437787132975929    0.0
                        0.1351786789505970        0.0437781733688287    0.0
                        0.1315058000504596        0.0437381830439532    0.0
                        0.1275562136530579        0.0436575475345398    0.0
                        0.1233252701240798        0.0435368442496851    0.0
                        0.1188103105413222        0.0433783378556649    0.0
                        0.1140105220964141        0.0431854768645177    0.0
                        0.1089266372232519        0.0429618340190395    0.0
                        0.1035607612006744        0.0427094258415079    0.0
                        0.0979177163060292        0.0424268617537839    0.0
                        0.0920069821954319        0.0421080433295225    0.0
                        0.0858438933370110        0.0417414171967053    0.0
                        0.0794508974404877        0.0413099275653818    0.0
                        0.0728580039752847        0.0407918350766140    0.0
                        0.0661046261335383        0.0401627321143491    0.0
                        0.0592356005981789        0.0393981019361659    0.0
                        0.0523096703633132        0.0384781178930644    0.0
                        0.0457652158788344        0.0374545333644815    0.0
                        0.0392745215100528        0.0362793182731276    0.0
                        0.0328804449641983        0.0349577095226489    0.0
                        0.0266281562980363        0.0335031103121743    0.0
                        0.0205536169347142        0.0319325015981666    0.0
                        0.0146887130199627        0.0302650799407398    0.0
                        0.0090593103648134        0.0285217942389336    0.0
                        0.0036851227047719        0.0267239444282708    0.0
                       -0.0014201875495464        0.0248917204879581    0.0
                       -0.0062484866890955        0.0230431093326117    0.0
                       -0.0107953258015546        0.0211939091637705    0.0
                       -0.0150583460822598        0.0193586573949625    0.0
                       -0.0190370869370247        0.0175513230381307    0.0
                       -0.0227332354284684        0.0157855805344345    0.0
                       -0.0261511408568746        0.0140745166766645    0.0
                       -0.0292982698931808        0.0124298780220758    0.0
                       -0.0321852017653398        0.0108612482721536    0.0
                       -0.0348251527739894        0.0093754789981397    0.0
                       -0.0372332112265783        0.0079765096401998    0.0
                       -0.0394253252258858        0.0066656796206474    0.0
                       -0.0414175331016131        0.0054422325627208    0.0
                       -0.0432255068482419        0.0043038164263881    0.0
                       -0.0448642814917913        0.0032469358867063    0.0
                       -0.0463481017999115        0.0022673339556147    0.0
                       -0.0476903425608382        0.0013602988327093    0.0
                       -0.0489034762682254        0.0005209005643382    0.0
                       -0.0499990718396376       -0.0002558334695563    0.0
                       -0.0509878142718168       -0.0009747938562894    0.0
                       -0.0518795387974979       -0.0016407049218782    0.0
                       -0.0526832750795116       -0.0022580714592125    0.0
                       -0.0534072977861670       -0.0028311480159820    0.0
                       -0.0540591800807009       -0.0033639236220698    0.0
                       -0.0546458466267100       -0.0038601162003043    0.0
                       -0.0551736230895093       -0.0043231723188435    0.0
                       -0.0556482799823356       -0.0047562693197438    0.0
                       -0.0560750701764951       -0.0051623182741305    0.0
                       -0.0564587604990460       -0.0055439669814793    0.0
                       -0.0568036604025999       -0.0059036044254103    0.0
                       -0.0571136460188807       -0.0062433632200137    0.0
                       -0.0573921958141605       -0.0065651361812553    0.0
                       -0.0576423900650310       -0.0068705511750470    0.0
                       -0.0578670396223159       -0.0071611040923191    0.0
                       -0.0580684077202992       -0.0074377642833245    0.0
                       -0.0582491769124917       -0.0077022895790839    0.0
                       -0.0584099372901950       -0.0079534868984816    0.0
                       -0.0585549183653401       -0.0081960712393424    0.0
                       -0.0586965651902802       -0.0084516377045705    0.0
                       -0.0588355176146671       -0.0087254941226880    0.0
                       -0.0589680567204249       -0.0090155877216232    0.0
                       -0.0590918669317017       -0.0093230094048769    0.0
                       -0.0592037463943821       -0.0096474228466895    0.0
                       -0.0593003692652823       -0.0099885775856748    0.0
                       -0.0593780805284016       -0.0103454846471703    0.0
                       -0.0594330966940588       -0.0107163999126437    0.0
                       -0.0594617204756112       -0.0110986340738754    0.0
                       -0.0594606488908329       -0.0114886070106065    0.0
                       -0.0594272562220244       -0.0118821699030844    0.0
                       -0.0593597638958910       -0.0122749144798234    0.0
                       -0.0592571567768126       -0.0126629052989512    0.0
                       -0.0591191877188703       -0.0130422670800882    0.0
                       -0.0589471403238112       -0.0134078095424462    0.0
                       -0.0587435674136864       -0.0137548409256535    0.0
                       -0.0585111852056617       -0.0140806709631623    0.0
                       -0.0582533276648530       -0.0143830868885133    0.0
                       -0.0579742650562702       -0.0146600530980430    0.0
                       -0.0576787635309262       -0.0149103008644889    0.0
                       -0.0573717423369953       -0.0151334563915343    0.0
                       -0.0570578238534047       -0.0153300930856767    0.0
                       -0.0567410493519429       -0.0155015641159453    0.0
                       -0.0564248435670832       -0.0156497144182605    0.0
                       -0.0561118634924883       -0.0157767197127236    0.0
                       -0.0558047531383406       -0.0158846395007343    0.0
                       -0.0555044439203431       -0.0159759338465637    0.0
                       -0.0552152547206871       -0.0160518785072133    0.0
                       -0.0549328042208497       -0.0161157906423399    0.0
                       -0.0546323643617582       -0.0161736359042020    0.0
                       -0.0543073119075205       -0.0162254913154839    0.0
                       -0.0539581190608365       -0.0162699189188803    0.0
                       -0.0535815297943620       -0.0163059858304583    0.0
                       -0.0531752040984022       -0.0163324805481257    0.0
                       -0.0527360291430578       -0.0163481146034747    0.0
                       -0.0522606274754623       -0.0163514452781992    0.0
                       -0.0517451722354433       -0.0163408648576660    0.0
                       -0.0511854189841188       -0.0163145753371040    0.0
                       -0.0505766822831498       -0.0162705653173212    0.0
                       -0.0499138347678845       -0.0162065868208532    0.0
                       -0.0491913049295567       -0.0161201323212298    0.0
                       -0.0484030779364965       -0.0160084126189189    0.0
                       -0.0475426966416727       -0.0158683366205556    0.0
                       -0.0466032633334280       -0.0156964951803570    0.0
                       -0.0455774437838800       -0.0154891522624436    0.0
                       -0.0444574766092802       -0.0152422477609825    0.0
                       -0.0432351915796656       -0.0149514171123690    0.0
                       -0.0419020403934650       -0.0146120333230923    0.0
                       -0.0404491425729866       -0.0142192772365235    0.0
                       -0.0388673477365730       -0.0137682417596705    0.0
                       -0.0371473137252755       -0.0132540751779340    0.0
                       -0.0352795978881747       -0.0126721671272823    0.0
                       -0.0332547559912957       -0.0120183774555588    0.0
                       -0.0310634388756178       -0.0112893018032061    0.0
                       -0.0286964704088045       -0.0104825566444571    0.0
                       -0.0261448777718150       -0.0095970476400671    0.0
                       -0.0233998279859509       -0.0086331565115107    0.0
                       -0.0204523764567102       -0.0075927336758427    0.0
                       -0.0172931472591036       -0.0064788480406705    0.0
                       -0.0139124671531823       -0.0052954895565724    0.0
                       -0.0103009289332837       -0.0040473099353156    0.0
                       -0.0064504709503635       -0.0027395640560442    0.0
                       -0.0023558287861482       -0.0013783762986943    0.0
                        0.0019841549153922        0.0000287367030481    0.0
                        0.0065657281412677        0.0014722280332098    0.0
                        0.0113800715089651        0.0029399418035876    0.0
                        0.0164146438781948        0.0044172174584830    0.0
                        0.0216546525051643        0.0058877278649837    0.0
                        0.0270832558387016        0.0073343710703076    0.0
                        0.0326813699687895        0.0087402609863349    0.0
                        0.0384288045457175        0.0100904390818615    0.0
                        0.0443027024000211        0.0113742690586214    0.0
                        0.0502796095319650        0.0125862647714192    0.0
                        0.0563303063981806        0.0137250313595869    0.0
                        0.0627920475286268        0.0148572308079231    0.0
                        0.0692675496339754        0.0159242533844575    0.0
                        0.0757156933352458        0.0169421416675848    0.0
                        0.0820882854458476        0.0179276240918959    0.0
                        0.0883373411123218        0.0188960772643593    0.0
                        0.0944159801105161        0.0198588707416859    0.0
                        0.1002814846385526        0.0208218946125152    0.0
                        0.1058971448258848        0.0217849671107758    0.0
                        0.1112336771934476        0.0227422604838137    0.0
                        0.1162699612050512        0.0236835391545101    0.0
                        0.1209938174868064        0.0245961907951921    0.0
                        0.1254016901659982        0.0254676381165297    0.0
                        0.1294967616570773        0.0262870867482774    0.0
                        0.1332871107521060        0.0270464618034355    0.0
                        0.1367842165435680        0.0277407125205961    0.0
                        0.1400017782577466        0.0283676776495986    0.0
                        0.1429548222695598        0.0289276909905071    0.0
                        0.1456590459385287        0.0294230664200816    0.0
                        0.1481303486471484        0.0298575608825998    0.0
                        0.1503845043309423        0.0302358770670840    0.0
                        0.1524369374740399        0.0305632387853915    0.0
                        0.1543025740902161        0.0308450517512312    0.0
                        0.1559957392887512        0.0310866480136863    0.0
                        0.1575300741722243        0.0312931045309197    0.0
                        0.1589185058571774        0.0314691338646942    0.0
                        0.1601732557521900        0.0316190365597116    0.0
                        0.1613058531457388        0.0317466971857459    0.0
                        0.1623271504882763        0.0318556088061727    0.0
                        0.1632473355738408        0.0319489110717568    0.0
                        0.1640759358420193        0.0320294289260509    0.0
                        0.1648218124273603        0.0320997022742064    0.0
                        0.1654931455214166        0.0321620014898626    0.0
                        0.1660974169069248        0.0322183283403905    0.0
                        0.1666413988607226        0.0322704058067943    0.0
                        0.1671311593886332        0.0323196627978753    0.0
                        0.1675720911133690        0.0323672208583757    0.0
                        0.1679689644230649        0.0324138896385783    0.0
                        0.1683260019423306        0.0324601767731467    0.0
                        0.1686469528508558        0.0325063132507854    0.0
                        0.1689352039529776        0.0325523008508754    0.0
                        0.1691937136322595        0.0325979424155915    0.0
                        0.1694256389391945        0.0326430139989730    0.0
                        0.1696319389006666        0.0326867982957288    0.0
                        0.1698216709213302        0.0327305449113788    0.0
                        0.1699681171442447        0.0327664257779398    0.0
                        0.1701752510503277        0.0328228142928960    0.0
                        0.1704696686493053        0.0329163803146237    0.0
                        0.1707911698203950        0.0330361637582288    0.0
                        0.1711133345631147        0.0331772385544866    0.0
                        0.1714379930532494        0.0333441533477776    0.0
                        0.1717588875511010        0.0335372760778662    0.0
                        0.1720725909802423        0.0337574070266009    0.0
                        0.1723754697362118        0.0340042242510977    0.0
                        0.1726647123875488        0.0342768600507292    0.0
                        0.1729381931822639        0.0345737859205582    0.0
                        0.1731946516201265        0.0348929016491134    0.0
                        0.1734337946206681        0.0352315199961328    0.0
                        0.1736564436012107        0.0355863228810987    0.0
                        0.1738647485269821        0.0359532700359852    0.0
                        0.1740626006795889        0.0363274764825609    0.0
                        0.1726493815066742        0.0364511160719814    0.0
                        0.1725582329850026        0.0367156651074317    0.0
                        0.1724605000224754        0.0369780412007126    0.0
                        0.1723537313977675        0.0372359504040259    0.0
                        0.1722354711905422        0.0374869471420338    0.0
                        0.1721037352292532        0.0377285995820229    0.0
                        0.1719573622010293        0.0379585779655457    0.0
                        0.1717961745581685        0.0381747422271370    0.0
                        0.1716209834960863        0.0383752529929991    0.0
                        0.1714334700365469        0.0385587208792442    0.0
                        0.1712360719073300        0.0387242745434344    0.0
                        0.1710315547697076        0.0388718204453622    0.0
                        0.1708235403902738        0.0390014983615975    0.0
                        0.1706134924568160        0.0391153431975928    0.0
                        0.1704102218856031        0.0392116109866061    0.0
                        0.1702363449881904        0.0392838277077926    0.0
                        0.1700823132473771        0.0393416848741524    0.0
                        0.1698942689908890        0.0394073922434953    0.0
                        0.1696864054446964        0.0394742237607630    0.0
                        0.1694525183202553        0.0395435328642817    0.0
                        0.1691908207560162        0.0396151200464188    0.0
                        0.1688981434353489        0.0396893065129168    0.0
                        0.1685712580192230        0.0397664838192289    0.0
                        0.1682064744702249        0.0398472019388251    0.0
                        0.1677996372377396        0.0399321213562551    0.0
                        0.1673460247146800        0.0400219780389290    0.0
                        0.1668402836837257        0.0401175323273722    0.0
                        0.1662763792820471        0.0402195135421384    0.0
                        0.1656475696671377        0.0403285632820920    0.0
                        0.1649463977155676        0.0404451804580296    0.0
                        0.1641646894027808        0.0405696677699557    0.0
                        0.1632935500588563        0.0407020772122290    0.0
                        0.1623233566061203        0.0408421520907820    0.0
                        0.1612437502805115        0.0409892649219926    0.0
                        0.1600436371938658        0.0411423528443252    0.0
                        0.1587112043577941        0.0412998536680502    0.0
                        0.1572339589957307        0.0414596468562120    0.0
                        0.1555987997752177        0.0416190058591023    0.0
                        0.1537921291592814        0.0417745719119461    0.0
                        0.1518000149369450        0.0419223638684598    0.0
                        0.1496083849992785        0.0420578411500056    0.0
                        0.1472032477272436        0.0421760284706685    0.0
                        0.1445709696121252        0.0422717100658906    0.0
                        0.1416985923835541        0.0423397034053743    0.0
                        0.1385741705440592        0.0423752093008637    0.0
                        0.1351871102171529        0.0423742176832809    0.0
                        0.1315284837205824        0.0423339259078285    0.0
                        0.1275912898502026        0.0422530996090504    0.0
                        0.1233706288025949        0.0421322778306902    0.0
                        0.1188637628792557        0.0419736990110876    0.0
                        0.1140700492161159        0.0417808083538685    0.0
                        0.1089907352458597        0.0415572056405070    0.0
                        0.1036288372115471        0.0413049564317537    0.0
                        0.0979903371498032        0.0410227212037037    0.0
                        0.0920859196908240        0.0407044581516617    0.0
                        0.0859320823820757        0.0403386883482120    0.0
                        0.0795522133083628        0.0399084554046280    0.0
                        0.0729771565886551        0.0393921704824119    0.0
                        0.0662462378947181        0.0387655663859302    0.0
                        0.0594052055128247        0.0380044291156999    0.0
                        0.0525098567938083        0.0370888063626334    0.0
                        0.0459987847600359        0.0360706506021382    0.0
                        0.0395413095112270        0.0349015758798866    0.0
                        0.0331816400017919        0.0335871325603303    0.0
                        0.0269629345794062        0.0321403701026683    0.0
                        0.0209213560308898        0.0305783086323194    0.0
                        0.0150884213452819        0.0289199872579341    0.0
                        0.0094897562391844        0.0271862281235877    0.0
                        0.0041449858973623        0.0253982417248363    0.0
                       -0.0009321259322400        0.0235761941793240    0.0
                       -0.0057332016836173        0.0217381093220256    0.0
                       -0.0102535559154606        0.0198998212789682    0.0
                       -0.0144907670016668        0.0180758350234707    0.0
                       -0.0184445003236169        0.0162800009218064    0.0
                       -0.0221167084065793        0.0145257983892935    0.0
                       -0.0255120556755984        0.0128260815662341    0.0
                       -0.0286382668340104        0.0111923842992778    0.0
                       -0.0315060491417839        0.0096341453582509    0.0
                       -0.0341285916845451        0.0081581652988754    0.0
                       -0.0365208149869438        0.0067684260285989    0.0
                       -0.0386984142762130        0.0054663741077483    0.0
                       -0.0406771494149718        0.0042513932573396    0.0
                       -0.0424724196347273        0.0031212864498590    0.0
                       -0.0440990103508489        0.0020727167431258    0.0
                       -0.0455709484378393        0.0011015822881421    0.0
                       -0.0469014261590615        0.0002033198423805    0.0
                       -0.0481027695313366       -0.0006268595937611    0.0
                       -0.0491864358196968       -0.0013937947657230    0.0
                       -0.0501630304833704       -0.0021022479950698    0.0
                       -0.0510423373048037       -0.0027568191276058    0.0
                       -0.0518333574969152       -0.0033618907702737    0.0
                       -0.0525443547684329       -0.0039215972304154    0.0
                       -0.0531829039174657       -0.0044398108509331    0.0
                       -0.0537559406421947       -0.0049201404881757    0.0
                       -0.0542698100823492       -0.0053659375782915    0.0
                       -0.0547303115085430       -0.0057803057011871    0.0
                       -0.0551427371699431       -0.0061661102502154    0.0
                       -0.0555119044197410       -0.0065259857259178    0.0
                       -0.0558421828344419       -0.0068623405195094    0.0
                       -0.0561375164637848       -0.0071773575777950    0.0
                       -0.0564014522369329       -0.0074730012759898    0.0
                       -0.0566371492947011       -0.0077510018645156    0.0
                       -0.0568474614404496       -0.0080129253511704    0.0
                       -0.0570348027643666       -0.0082599731098399    0.0
                       -0.0572016712068872       -0.0084936484207556    0.0
                       -0.0573493762018122       -0.0087139284579627    0.0
                       -0.0574809446478017       -0.0089235400212699    0.0
                       -0.0576088353649953       -0.0091427238282184    0.0
                       -0.0577325066575904       -0.0093736895003037    0.0
                       -0.0578491194246801       -0.0096149082834042    0.0
                       -0.0579564852037578       -0.0098661266521292    0.0
                       -0.0580520625285221       -0.0101263615163025    0.0
                       -0.0581333463372643       -0.0103945191631263    0.0
                       -0.0581978547152782       -0.0106690804898391    0.0
                       -0.0582432899135184       -0.0109481541873130    0.0
                       -0.0582676857139642       -0.0112295176283477    0.0
                       -0.0582695389840880       -0.0115107867436543    0.0
                       -0.0582478552149604       -0.0117896736009093    0.0
                       -0.0582020784421230       -0.0120641839211696    0.0
                       -0.0581319021508346       -0.0123328252950884    0.0
                       -0.0580371322172003       -0.0125943609565220    0.0
                       -0.0579184467408340       -0.0128460875540830    0.0
                       -0.0577771604759396       -0.0130855617123426    0.0
                       -0.0576141598920288       -0.0133119942128903    0.0
                       -0.0574305930630626       -0.0135244816433519    0.0
                       -0.0572281582679794       -0.0137219187525038    0.0
                       -0.0570091097767681       -0.0139032805977026    0.0
                       -0.0567761779491876       -0.0140678266310790    0.0
                       -0.0565323526386031       -0.0142152689280761    0.0
                       -0.0562806583575036       -0.0143458137150512    0.0
                       -0.0560240081114289       -0.0144600926474885    0.0
                       -0.0557650373933249       -0.0145590866454761    0.0
                       -0.0555063382622143       -0.0146439102688716    0.0
                       -0.0552497126572788       -0.0147159637808636    0.0
                       -0.0549983806722255       -0.0147762434195809    0.0
                       -0.0547511382729516       -0.0148267170463526    0.0
                       -0.0544842948479416       -0.0148723897801873    0.0
                       -0.0541936424563865       -0.0149128270515597    0.0
                       -0.0538782493344462       -0.0149469005595575    0.0
                       -0.0535352077625226       -0.0149736464387684    0.0
                       -0.0531619060426146       -0.0149919159184347    0.0
                       -0.0527551629619131       -0.0150004477612064    0.0
                       -0.0523114798336563       -0.0149978201311541    0.0
                       -0.0518269376290052       -0.0149824297266070    0.0
                       -0.0512972124096539       -0.0149524655583443    0.0
                       -0.0507175626249860       -0.0149058844435999    0.0
                       -0.0500828282206582       -0.0148403879821757    0.0
                       -0.0493874264075162       -0.0147534010398575    0.0
                       -0.0486253458350494       -0.0146420520762047    0.0
                       -0.0477901385543089       -0.0145031560328057    0.0
                       -0.0468749124374318       -0.0143332015501217    0.0
                       -0.0458723276326243       -0.0141283453744932    0.0
                       -0.0447746008888079       -0.0138844178462153    0.0
                       -0.0435735210095221       -0.0135969441761038    0.0
                       -0.0422604779294573       -0.0132611868686957    0.0
                       -0.0408265071199906       -0.0128722151440013    0.0
                       -0.0392623501346014       -0.0124250074302430    0.0
                       -0.0375585309122528       -0.0119145926555864    0.0
                       -0.0357054457711269       -0.0113362346582684    0.0
                       -0.0336934625770460       -0.0106856607963637    0.0
                       -0.0315130207298495       -0.0099593295900439    0.0
                       -0.0291547176558582       -0.0091547213529510    0.0
                       -0.0266093567766930       -0.0082706174095994    0.0
                       -0.0238679159476293       -0.0073073046836382    0.0
                       -0.0209213576247767       -0.0062665953239335    0.0
                       -0.0177603676896136       -0.0051515932304093    0.0
                       -0.0143754983311885       -0.0039663896366409    0.0
                       -0.0107576955699449       -0.0027157794077269    0.0
                       -0.0068992944892099       -0.0014051623210927    0.0
                       -0.0027953546590683       -0.0000407681868792    0.0
                        0.0015551237843430        0.0013698427611235    0.0
                        0.0061484430303340        0.0028171420615919    0.0
                        0.0109760331513991        0.0042890285731735    0.0
                        0.0160256246019928        0.0057708625131728    0.0
                        0.0212825596472719        0.0072462724487284    0.0
                        0.0267299305813157        0.0086980462038656    0.0
                        0.0323485013893432        0.0101091579669283    0.0
                        0.0381172827118303        0.0114643399117910    0.0
                        0.0440126558033732        0.0127527626434999    0.0
                        0.0500095872792621        0.0139686397485775    0.0
                        0.0560793043632599        0.0151107097990415    0.0
                        0.0625568640163925        0.0162453062332310    0.0
                        0.0690445726925357        0.0173138921719445    0.0
                        0.0754995651536500        0.0183323848006072    0.0
                        0.0818741260415217        0.0193177054971183    0.0
                        0.0881205219183779        0.0202853241644054    0.0
                        0.0941927441828498        0.0212467516960497    0.0
                        0.1000491580695644        0.0222080306284681    0.0
                        0.1056543133528995        0.0231691666732792    0.0
                        0.1109802253890651        0.0241245531037756    0.0
                        0.1160070060422971        0.0250641915582651    0.0
                        0.1207234486315408        0.0259756672976502    0.0
                        0.1251265647605850        0.0268465241025008    0.0
                        0.1292197520676963        0.0276660137305809    0.0
                        0.1330110497989936        0.0284260427834338    0.0
                        0.1365117192570312        0.0291214914424637    0.0
                        0.1397351293547890        0.0297500965250013    0.0
                        0.1426959153445360        0.0303120742221399    0.0
                        0.1454093624578222        0.0308096196707281    0.0
                        0.1478909660428442        0.0312463805973994    0.0
                        0.1501561240986400        0.0316269665673800    0.0
                        0.1522199256706187        0.0319565273083039    0.0
                        0.1540970075667690        0.0322404134903980    0.0
                        0.1558014538428320        0.0324839188901695    0.0
                        0.1573467146513907        0.0326920938926881    0.0
                        0.1587455706445806        0.0328696267079284    0.0
                        0.1600101265046449        0.0330207831658860    0.0
                        0.1611518096835391        0.0331493889643692    0.0
                        0.1621813736769010        0.0332588408747354    0.0
                        0.1631089048902416        0.0333521354722981    0.0
                        0.1639438318975790        0.0334319068118966    0.0
                        0.1646949351786502        0.0335004675970251    0.0
                        0.1653703538835438        0.0335598508057543    0.0
                        0.1659775859965617        0.0336118494431830    0.0
                        0.1665234821487753        0.0336580512296938    0.0
                        0.1670142401598147        0.0336998641616938    0.0
                        0.1674554121335552        0.0337385297185410    0.0
                        0.1678519333785025        0.0337751232728751    0.0
                        0.1682081766590282        0.0338105450537799    0.0
                        0.1685280175127863        0.0338455066508071    0.0
                        0.1688149309026665        0.0338805234963388    0.0
                        0.1690719733871077        0.0339158998705101    0.0
                        0.1693022195155929        0.0339517997464422    0.0
                        0.1695072029199230        0.0339879684439884    0.0
                        0.1696936973630405        0.0340251790804054    0.0
                        0.1698443129831290        0.0340583520272269    0.0
                        0.1700216233261097        0.0341035586138294    0.0
                        0.1702320431076304        0.0341678466749372    0.0
                        0.1704519225517830        0.0342476924775769    0.0
                        0.1706726486916778        0.0343426632346967    0.0
                        0.1708933149679024        0.0344550235190367    0.0
                        0.1711105859941601        0.0345855683095174    0.0
                        0.1713218719816418        0.0347347862253667    0.0
                        0.1715247132652727        0.0349023822153955    0.0
                        0.1717172382538360        0.0350874385288471    0.0
                        0.1718982902231921        0.0352884365952062    0.0
                        0.1720675833530604        0.0355033645334809    0.0
                        0.1722257377147035        0.0357298172088030    0.0
                        0.1723741596390657        0.0359651103457259    0.0
                        0.1725147313092755        0.0362064353558690    0.0
                        0.1726493815066742        0.0364511160719814    0.0
                        0.1717303234806411        0.0365315225362937    0.0
                        0.1716903364692347        0.0367210754076890    0.0
                        0.1716440495208503        0.0369094398793796    0.0
                        0.1715880846784351        0.0370951776266314    0.0
                        0.1715198232490799        0.0372765027537326    0.0
                        0.1714375771459145        0.0374514923635254    0.0
                        0.1713406177844794        0.0376182121323151    0.0
                        0.1712290921231594        0.0377748165903783    0.0
                        0.1711038874749091        0.0379196531808802    0.0
                        0.1709664821617430        0.0380513777043140    0.0
                        0.1708188224719811        0.0381690498454078    0.0
                        0.1706631337213572        0.0382722827813462    0.0
                        0.1705020079804682        0.0383611826941224    0.0
                        0.1703374610239596        0.0384368718361870    0.0
                        0.1701736932139635        0.0385000076489844    0.0
                        0.1700195353653929        0.0385506492307746    0.0
                        0.1698632338533713        0.0385961003101957    0.0
                        0.1696805944026320        0.0386449557365254    0.0
                        0.1694770272630485        0.0386952146638063    0.0
                        0.1692484162982120        0.0387479978091474    0.0
                        0.1689924577686561        0.0388038654941157    0.0
                        0.1687060211865098        0.0388635639329188    0.0
                        0.1683857238310114        0.0389278340922744    0.0
                        0.1680277224707489        0.0389974244473237    0.0
                        0.1676276908832634        0.0390730556489963    0.0
                        0.1671807592047824        0.0391553959671750    0.0
                        0.1666814755337245        0.0392450367219905    0.0
                        0.1661237773868546        0.0393424711353457    0.0
                        0.1655009713498920        0.0394480742995288    0.0
                        0.1648057122972066        0.0395620805768287    0.0
                        0.1640299767849544        0.0396845536381777    0.0
                        0.1631650312358581        0.0398153455761430    0.0
                        0.1622014012368592        0.0399540442588678    0.0
                        0.1611288499618003        0.0400999108263149    0.0
                        0.1599363722323993        0.0402518108750659    0.0
                        0.1586122091224087        0.0404081437385888    0.0
                        0.1571438881467494        0.0405667754319802    0.0
                        0.1555182953709014        0.0407249830863317    0.0
                        0.1537217869153167        0.0408794221231021    0.0
                        0.1517403471178928        0.0410261314724844    0.0
                        0.1495597831033807        0.0411605933845503    0.0
                        0.1471659469855165        0.0412778542733777    0.0
                        0.1445450137190266        0.0413727153747472    0.0
                        0.1416838005153416        0.0414400039617156    0.0
                        0.1385701112144576        0.0414749219200427    0.0
                        0.1351930874105007        0.0414734513389668    0.0
                        0.1315435419434576        0.0414327744646961    0.0
                        0.1276142457659190        0.0413516383591046    0.0
                        0.1234001375743957        0.0412305658691713    0.0
                        0.1188984281674941        0.0410717887731907    0.0
                        0.1141085829394248        0.0408787621655007    0.0
                        0.1090321793755315        0.0406551166292611    0.0
                        0.1036728178441854        0.0404029581975022    0.0
                        0.0980372233741558        0.0401209782272146    0.0
                        0.0921368519011432        0.0398031642467823    0.0
                        0.0859889444650790        0.0394380756789088    0.0
                        0.0796174902896595        0.0390088085778453    0.0
                        0.0730538622513694        0.0384938574465808    0.0
                        0.0663373391319639        0.0378690317539211    0.0
                        0.0595142140211955        0.0371102924544670    0.0
                        0.0526384048981500        0.0361975870613167    0.0
                        0.0461487646655857        0.0351830085368613    0.0
                        0.0397125939497404        0.0340179270406203    0.0
                        0.0333749664142977        0.0327081002699262    0.0
                        0.0271777904211344        0.0312663739687174    0.0
                        0.0211573397307621        0.0297098053659610    0.0
                        0.0153449007564022        0.0280573255214337    0.0
                        0.0097659437067168        0.0263296799173370    0.0
                        0.0044400342593703        0.0245480285552759    0.0
                       -0.0006190030868568        0.0227325294175977    0.0
                       -0.0054026383288217        0.0209012345068331    0.0
                       -0.0099060339425938        0.0190699967348929    0.0
                       -0.0141267238771168        0.0172532913725263    0.0
                       -0.0180644483906865        0.0154648830764330    0.0
                       -0.0217213243417911        0.0137181183977659    0.0
                       -0.0251022147476120        0.0120256988509870    0.0
                       -0.0282150103029726        0.0103990237733048    0.0
                       -0.0310705049681600        0.0088474449876120    0.0
                       -0.0336818783367483        0.0073777390339540    0.0
                       -0.0360639523912368        0.0059939241757091    0.0
                       -0.0382322681777692        0.0046975225702798    0.0
                       -0.0402024146110122        0.0034880125177141    0.0
                       -0.0419896237749178        0.0023632996807577    0.0
                       -0.0436085294248790        0.0013201508245602    0.0
                       -0.0450730281493392        0.0003545646791785    0.0
                       -0.0463962059792633       -0.0005379267432085    0.0
                       -0.0475903074272560       -0.0013620232881988    0.0
                       -0.0486667322812851       -0.0021224804019808    0.0
                       -0.0496360506530835       -0.0028239819394962    0.0
                       -0.0505080299961228       -0.0034710525022058    0.0
                       -0.0512916698673798       -0.0040680006587301    0.0
                       -0.0519952415807714       -0.0046188856935831    0.0
                       -0.0526263308489318       -0.0051275019286468    0.0
                       -0.0531918820843994       -0.0055973759207418    0.0
                       -0.0536982431893608       -0.0060317727446937    0.0
                       -0.0541512094723696       -0.0064337080495643    0.0
                       -0.0545560651683809       -0.0068059628560708    0.0
                       -0.0549176211484889       -0.0071510983482810    0.0
                       -0.0552402485579942       -0.0074714690295112    0.0
                       -0.0555279078350708       -0.0077692323947919    0.0
                       -0.0557841780873082       -0.0080463591378192    0.0
                       -0.0560122762272753       -0.0083046319243518    0.0
                       -0.0562151070549264       -0.0085456787312036    0.0
                       -0.0563952193727176       -0.0087708947956839    0.0
                       -0.0565550421290335       -0.0089817144620493    0.0
                       -0.0566963663047497       -0.0091788964074328    0.0
                       -0.0568215591439889       -0.0093641860561063    0.0
                       -0.0569433725451278       -0.0095566196806473    0.0
                       -0.0570607117052979       -0.0097567893054118    0.0
                       -0.0571712955628084       -0.0099634932598847    0.0
                       -0.0572731111326688       -0.0101759627031002    0.0
                       -0.0573640478157021       -0.0103931385450612    0.0
                       -0.0574420758528345       -0.0106138887492053    0.0
                       -0.0575052761154048       -0.0108369076910179    0.0
                       -0.0575519353199212       -0.0110607523142138    0.0
                       -0.0575806293691461       -0.0112838880914597    0.0
                       -0.0575902845149499       -0.0115047875566353    0.0
                       -0.0575801832523392       -0.0117220566738310    0.0
                       -0.0575499021292555       -0.0119345267004520    0.0
                       -0.0574991904154274       -0.0121413142077971    0.0
                       -0.0574278620064231       -0.0123416992786079    0.0
                       -0.0573363824774176       -0.0125337731746249    0.0
                       -0.0572256812393013       -0.0127158169936950    0.0
                       -0.0570963062216486       -0.0128874105855251    0.0
                       -0.0569489683659373       -0.0130480542409318    0.0
                       -0.0567847133691179       -0.0131971542689307    0.0
                       -0.0566049761210186       -0.0133341529246874    0.0
                       -0.0564115669700009       -0.0134586458089107    0.0
                       -0.0562065792329508       -0.0135704777815275    0.0
                       -0.0559922718422607       -0.0136697785707167    0.0
                       -0.0557709713123788       -0.0137569417661925    0.0
                       -0.0555449712743417       -0.0138325847797827    0.0
                       -0.0553165800352558       -0.0138974565754770    0.0
                       -0.0550878284656169       -0.0139524606467960    0.0
                       -0.0548612614913950       -0.0139984100596479    0.0
                       -0.0546372608087019       -0.0140365271486603    0.0
                       -0.0543928904338297       -0.0140707600906923    0.0
                       -0.0541251622700370       -0.0141004763284443    0.0
                       -0.0538322263339771       -0.0141247483499658    0.0
                       -0.0535112879811209       -0.0141426202067781    0.0
                       -0.0531595045249442       -0.0141529828794372    0.0
                       -0.0527736218701894       -0.0141545828237082    0.0
                       -0.0523500688518583       -0.0141459924013720    0.0
                       -0.0518849043556393       -0.0141255878691485    0.0
                       -0.0513738138194871       -0.0140915261589405    0.0
                       -0.0508120922393498       -0.0140417223108060    0.0
                       -0.0501946305498910       -0.0139738278581514    0.0
                       -0.0495158994082657       -0.0138852102399222    0.0
                       -0.0487699326573085       -0.0137729338296551    0.0
                       -0.0479503121628055       -0.0136337436929879    0.0
                       -0.0470501570141196       -0.0134640540366556    0.0
                       -0.0460621199188462       -0.0132599441270165    0.0
                       -0.0449783931813887       -0.0130171652427953    0.0
                       -0.0437907261441086       -0.0127311629913780    0.0
                       -0.0424904556584842       -0.0123971200949971    0.0
                       -0.0410685509007103       -0.0120100254631947    0.0
                       -0.0395156733930050       -0.0115647758030155    0.0
                       -0.0378222522255844       -0.0110563158407525    0.0
                       -0.0359785730261191       -0.0104798219390067    0.0
                       -0.0339748769574616       -0.0098309307492327    0.0
                       -0.0318014624505816       -0.0091060084229826    0.0
                       -0.0294487767562392       -0.0083024451907875    0.0
                       -0.0269074748540303       -0.0074189421655894    0.0
                       -0.0241684078573887       -0.0064557282801657    0.0
                       -0.0212224734762601       -0.0054145981005023    0.0
                       -0.0180603939924856       -0.0042986854897508    0.0
                       -0.0146728651357111       -0.0031121507237588    0.0
                       -0.0110510606295110       -0.0018598789202198    0.0
                       -0.0071875729024952       -0.0005473541252237    0.0
                       -0.0030776726286188        0.0008191402473467    0.0
                        0.0012795362806987        0.0022320313891785    0.0
                        0.0058803890138913        0.0036818159467230    0.0
                        0.0107164757810824        0.0051564343916774    0.0
                        0.0157757033259402        0.0066412555766836    0.0
                        0.0210435023485191        0.0081198717364035    0.0
                        0.0265029241332139        0.0095749927127146    0.0
                        0.0321346354119723        0.0109894934312905    0.0
                        0.0379171393376916        0.0123478840587010    0.0
                        0.0438263200545382        0.0136392140304981    0.0
                        0.0498361469691140        0.0148575124803602    0.0
                        0.0559181310430367        0.0160015937753934    0.0
                        0.0624058426937130        0.0171375671226610    0.0
                        0.0689014153864748        0.0182069683355556    0.0
                        0.0753608484610678        0.0192256518773744    0.0
                        0.0817367156147441        0.0202106765342546    0.0
                        0.0879814483354448        0.0211775868827043    0.0
                        0.0940495945013559        0.0221379963177120    0.0
                        0.0999002116986389        0.0230980550857818    0.0
                        0.1054986542172064        0.0240578970006886    0.0
                        0.1108177667366134        0.0250120629516953    0.0
                        0.1158384489804302        0.0259507084264962    0.0
                        0.1205501194246215        0.0268615376449900    0.0
                        0.1249501574636664        0.0277321605577147    0.0
                        0.1290421030605360        0.0285518483985107    0.0
                        0.1328339743921351        0.0293124872494016    0.0
                        0.1363368970252039        0.0300089055754148    0.0
                        0.1395640314166683        0.0306387684503202    0.0
                        0.1425297646869994        0.0312022112176159    0.0
                        0.1452491197754849        0.0317013483280261    0.0
                        0.1477373343049293        0.0321397537709387    0.0
                        0.1500095660600559        0.0325219744888006    0.0
                        0.1520806894536049        0.0328531105299599    0.0
                        0.1539651557585036        0.0331384758234681    0.0
                        0.1556768931928773        0.0333833393564449    0.0
                        0.1572292270189498        0.0335927359957317    0.0
                        0.1586348401366156        0.0337713412500293    0.0
                        0.1599057554918363        0.0339234031674829    0.0
                        0.1610533233282550        0.0340527164353983    0.0
                        0.1620882141124364        0.0341626255172221    0.0
                        0.1630204180798331        0.0342560463511587    0.0
                        0.1638592524344377        0.0343354988657751    0.0
                        0.1646133767667070        0.0344031453318931    0.0
                        0.1652908150329803        0.0344608322277151    0.0
                        0.1658989792279149        0.0345101351069484    0.0
                        0.1664446888408941        0.0345524060087701    0.0
                        0.1669341837179685        0.0345888212406036    0.0
                        0.1673731343557437        0.0346204253189208    0.0
                        0.1677666575826282        0.0346481662124818    0.0
                        0.1681193452457106        0.0346729185898480    0.0
                        0.1684353035906237        0.0346954942081598    0.0
                        0.1687182139990876        0.0347166430553917    0.0
                        0.1689713443711394        0.0347370428187280    0.0
                        0.1691977759140859        0.0347573104750481    0.0
                        0.1693996938772740        0.0347778978796470    0.0
                        0.1695815655239175        0.0347995494246849    0.0
                        0.1697361686170553        0.0348209123344424    0.0
                        0.1698923375816104        0.0348477902631928    0.0
                        0.1700601035016108        0.0348852189523010    0.0
                        0.1702307097032833        0.0349343878595046    0.0
                        0.1704003160924619        0.0349965727412583    0.0
                        0.1705672762181145        0.0350732367231856    0.0
                        0.1707291930246352        0.0351649740705966    0.0
                        0.1708839124961316        0.0352718661047681    0.0
                        0.1710294191407360        0.0353934186200937    0.0
                        0.1711640426600425        0.0355286628053825    0.0
                        0.1712865972884473        0.0356762149469429    0.0
                        0.1713965566236217        0.0358343557186029    0.0
                        0.1714942169439620        0.0360011062244914    0.0
                        0.1715808111400328        0.0361743139294439    0.0
                        0.1716585147482272        0.0363517845307227    0.0
                        0.1717303234806411        0.0365315225362937    0.0
                        0.1712050158258772        0.0365774806042277    0.0
                        0.1712098209043440        0.0367249945518462    0.0
                        0.1711984678980918        0.0368722442255246    0.0
                        0.1711710657745306        0.0370175598447815    0.0
                        0.1711279318316845        0.0371592939096159    0.0
                        0.1710695898912725        0.0372958446270387    0.0
                        0.1709967654814775        0.0374256792758284    0.0
                        0.1709103779943262        0.0375473572692495    0.0
                        0.1708115298692595        0.0376595526864236    0.0
                        0.1707014929238137        0.0377610760686566    0.0
                        0.1705816920220123        0.0378508953203894    0.0
                        0.1704536863387683        0.0379281556191633    0.0
                        0.1703191485421894        0.0379921983293798    0.0
                        0.1701798422733323        0.0380425790357003    0.0
                        0.1700375983532337        0.0380790849690676    0.0
                        0.1698955294852182        0.0381083425464008    0.0
                        0.1697361805034339        0.0381409440991930    0.0
                        0.1695574763165422        0.0381772361810937    0.0
                        0.1693570996225149        0.0382175917766643    0.0
                        0.1691324644717523        0.0382624096148667    0.0
                        0.1688806874367357        0.0383121124885916    0.0
                        0.1685985563109850        0.0383671442685306    0.0
                        0.1682824963045272        0.0384279652311865    0.0
                        0.1679285337658665        0.0384950452436108    0.0
                        0.1675322575466468        0.0385688542632957    0.0
                        0.1670887782409036        0.0386498495241812    0.0
                        0.1665926856832803        0.0387384586954548    0.0
                        0.1660380052882799        0.0388350582292495    0.0
                        0.1654181540651559        0.0389399460725771    0.0
                        0.1647258974609931        0.0390533079314145    0.0
                        0.1639533085789505        0.0391751763739776    0.0
                        0.1630917318001196        0.0393053822911776    0.0
                        0.1621317534143212        0.0394434986548068    0.0
                        0.1610631825405575        0.0395887772041819    0.0
                        0.1598750463851833        0.0397400797420363    0.0
                        0.1585556047223949        0.0398958072356145    0.0
                        0.1570923893399909        0.0400538320078854    0.0
                        0.1554722749914435        0.0402114410601541    0.0
                        0.1536815890060496        0.0403653020375611    0.0
                        0.1517062665418212        0.0405114674340257    0.0
                        0.1495320445563189        0.0406454334410487    0.0
                        0.1471446847806167        0.0407622588857092    0.0
                        0.1445302516368409        0.0408567541044546    0.0
                        0.1416754330458269        0.0409237508281716    0.0
                        0.1385678888179605        0.0409584498324581    0.0
                        0.1351966089079856        0.0409568263278725    0.0
                        0.1315522578227728        0.0409160507515011    0.0
                        0.1276274767553624        0.0408348554928121    0.0
                        0.1234171130888795        0.0407137490941456    0.0
                        0.1189183496557813        0.0405549533943120    0.0
                        0.1141307156563387        0.0403619219033147    0.0
                        0.1090559790585609        0.0401382949693350    0.0
                        0.1036980745522160        0.0398861965138909    0.0
                        0.0980641515733656        0.0396043364010557    0.0
                        0.0921661072922658        0.0392867233684025    0.0
                        0.0860216075638106        0.0389219449005956    0.0
                        0.0796549871849793        0.0384931345300685    0.0
                        0.0730979166423611        0.0379788423068108    0.0
                        0.0663896629242641        0.0373549317743908    0.0
                        0.0595767905063310        0.0365974690439630    0.0
                        0.0527121889068365        0.0356863594118671    0.0
                        0.0462348394146878        0.0346737786793468    0.0
                        0.0398109092705436        0.0335109601919069    0.0
                        0.0334859134115758        0.0322037654386538    0.0
                        0.0273010908076734        0.0307649233564741    0.0
                        0.0212927595627905        0.0292114997896115    0.0
                        0.0154920781873007        0.0275623685663931    0.0
                        0.0099244281507611        0.0258382287749422    0.0
                        0.0046093426508654        0.0240602074704445    0.0
                       -0.0004393175140019        0.0222484535271790    0.0
                       -0.0052129344791689        0.0204210322357067    0.0
                       -0.0097065849272555        0.0185938093522578    0.0
                       -0.0139177792593571        0.0167812485810832    0.0
                       -0.0178463029551623        0.0149970716731131    0.0
                       -0.0214943691181061        0.0132545541339515    0.0
                       -0.0248669555692347        0.0115663122910186    0.0
                       -0.0279720476662643        0.0099436670955933    0.0
                       -0.0308204871072917        0.0083959162071640    0.0
                       -0.0334254449172829        0.0069298161437679    0.0
                       -0.0358016830726741        0.0055493994488115    0.0
                       -0.0379646507556367        0.0042562260657901    0.0
                       -0.0399298353811655        0.0030498239994336    0.0
                       -0.0417123695721345        0.0019281538626723    0.0
                       -0.0433267961672313        0.0008880381815336    0.0
                       -0.0447869325442985       -0.0000744703980554    0.0
                       -0.0461057985551446       -0.0009637892927286    0.0
                       -0.0472955857852001       -0.0017845718121421    0.0
                       -0.0483676539054767       -0.0025415310416444    0.0
                       -0.0493325448345777       -0.0032393123927670    0.0
                       -0.0502000085371989       -0.0038824053791620    0.0
                       -0.0509790362785792       -0.0044750860123124    0.0
                       -0.0516778984581909       -0.0050213824325782    0.0
                       -0.0523041850157548       -0.0055250576991428    0.0
                       -0.0528648469939333       -0.0059896048958390    0.0
                       -0.0533662382513754       -0.0064182507924303    0.0
                       -0.0538141566082680       -0.0068139652073655    0.0
                       -0.0542138839135393       -0.0071794739514712    0.0
                       -0.0545702246740475       -0.0075172738099389    0.0
                       -0.0548875429984484       -0.0078296484654320    0.0
                       -0.0551697976932903       -0.0081186846020621    0.0
                       -0.0554205754138176       -0.0083862876804108    0.0
                       -0.0556431218221547       -0.0086341970568153    0.0
                       -0.0558403707445042       -0.0088640002516227    0.0
                       -0.0560149713492326       -0.0090771462638208    0.0
                       -0.0561693133909906       -0.0092749578933792    0.0
                       -0.0563055505836630       -0.0094586430755254    0.0
                       -0.0564256221779656       -0.0096293052588957    0.0
                       -0.0565427027903373       -0.0098056751470510    0.0
                       -0.0566553271027529       -0.0099872818111764    0.0
                       -0.0567616008420246       -0.0101730153232388    0.0
                       -0.0568596830563756       -0.0103617701081769    0.0
                       -0.0569478103327526       -0.0105524543336367    0.0
                       -0.0570243202414564       -0.0107439987896794    0.0
                       -0.0570876737360893       -0.0109353652010538    0.0
                       -0.0571364762431998       -0.0111255539331201    0.0
                       -0.0571694971839331       -0.0113136110687169    0.0
                       -0.0571856876798561       -0.0114986348462143    0.0
                       -0.0571841962073850       -0.0116797814580064    0.0
                       -0.0571643819804451       -0.0118562702133737    0.0
                       -0.0571258258596260       -0.0120273880699939    0.0
                       -0.0570683386086258       -0.0121924935347426    0.0
                       -0.0569924013282076       -0.0123499682707814    0.0
                       -0.0568987283310027       -0.0124982843226209    0.0
                       -0.0567878270176409       -0.0126370705130272    0.0
                       -0.0566604293563925       -0.0127660615573718    0.0
                       -0.0565174853539578       -0.0128850977837073    0.0
                       -0.0563601535521629       -0.0129941237611046    0.0
                       -0.0561897886522669       -0.0130931857977832    0.0
                       -0.0560079264172724       -0.0131824282777152    0.0
                       -0.0558162660488958       -0.0132620888167762    0.0
                       -0.0556166502783594       -0.0133324922370454    0.0
                       -0.0554110434477309       -0.0133940433799742    0.0
                       -0.0552015078902011       -0.0134472188049202    0.0
                       -0.0549901789427753       -0.0134925574477130    0.0
                       -0.0547792389429528       -0.0135306503430317    0.0
                       -0.0545701054695952       -0.0135622375403992    0.0
                       -0.0543398314243946       -0.0135907390172045    0.0
                       -0.0540862107157201       -0.0136153890030502    0.0
                       -0.0538068106438351       -0.0136353099883607    0.0
                       -0.0534989511631443       -0.0136494987997831    0.0
                       -0.0531596829729543       -0.0136568112687603    0.0
                       -0.0527857645746344       -0.0136559454583064    0.0
                       -0.0523736385038165       -0.0136454234594355    0.0
                       -0.0519194070333919       -0.0136235718374687    0.0
                       -0.0514188077484188       -0.0135885009069416    0.0
                       -0.0508671895190656       -0.0135380831512226    0.0
                       -0.0502594895429663       -0.0134699312902672    0.0
                       -0.0495902122930119       -0.0133813767500570    0.0
                       -0.0488534113877306       -0.0132694496144282    0.0
                       -0.0480426755930459       -0.0131308615587175    0.0
                       -0.0471511203562132       -0.0129619937876692    0.0
                       -0.0461713864494479       -0.0127588926346621    0.0
                       -0.0450956474392957       -0.0125172762214638    0.0
                       -0.0439156277661471       -0.0122325564027922    0.0
                       -0.0426226331727384       -0.0118998810689326    0.0
                       -0.0412075950019576       -0.0115142026391327    0.0
                       -0.0396611294123368       -0.0110703790523332    0.0
                       -0.0379736117213326       -0.0105633134318498    0.0
                       -0.0361352647151457       -0.0099881373727957    0.0
                       -0.0341362575972200       -0.0093404397300976    0.0
                       -0.0319668088469034       -0.0086165367651896    0.0
                       -0.0296172808498604       -0.0078137688981215    0.0
                       -0.0270782453063690       -0.0069307915981316    0.0
                       -0.0243404833172411       -0.0059677990162094    0.0
                       -0.0213948586921086       -0.0049265721550129    0.0
                       -0.0182321172986261       -0.0038102579660409    0.0
                       -0.0148430384036222       -0.0026230537287911    0.0
                       -0.0112189254859854       -0.0013698968050576    0.0
                       -0.0073525157359582       -0.0000563239982110    0.0
                       -0.0032391970846715        0.0013113428400621    0.0
                        0.0011218706081205        0.0027255147733523    0.0
                        0.0057270437672578        0.0041766949193193    0.0
                        0.0105680039961812        0.0056528432971181    0.0
                        0.0156327567827981        0.0071393355894238    0.0
                        0.0209067813316641        0.0086197476904215    0.0
                        0.0263731048374787        0.0100767497590983    0.0
                        0.0320123328695499        0.0114931654074954    0.0
                        0.0378026811195835        0.0128533924184107    0.0
                        0.0437197428661793        0.0141464082550127    0.0
                        0.0497369450423843        0.0153661399366090    0.0
                        0.0558259230818288        0.0165114416071660    0.0
                        0.0623194184671612        0.0176482994848683    0.0
                        0.0688194594622325        0.0187182829165996    0.0
                        0.0752814209111454        0.0197372017377738    0.0
                        0.0816580215505805        0.0207221795611522    0.0
                        0.0879017937834654        0.0216887958317254    0.0
                        0.0939676014790939        0.0226487147521481    0.0
                        0.0998148990405235        0.0236081420407371    0.0
                        0.1054095017044946        0.0245672797210254    0.0
                        0.1107247298459123        0.0255207493449777    0.0
                        0.1157419343353310        0.0264587933035554    0.0
                        0.1204508908551395        0.0273691881806872    0.0
                        0.1248491890176666        0.0282395886841894    0.0
                        0.1289404497473015        0.0290592836732307    0.0
                        0.1327326782736075        0.0298201531401507    0.0
                        0.1362369214636060        0.0305170008609972    0.0
                        0.1394662194818533        0.0311474550807291    0.0
                        0.1424348166112668        0.0317116084767970    0.0
                        0.1451575850882081        0.0322115323364640    0.0
                        0.1476496147176763        0.0326507609095561    0.0
                        0.1499259257646885        0.0330338072543675    0.0
                        0.1520012700673521        0.0333657444996920    0.0
                        0.1538899933986927        0.0336518666787805    0.0
                        0.1556059360559967        0.0338974296081613    0.0
                        0.1571623540902266        0.0341074611612179    0.0
                        0.1585718787030813        0.0342866339595607    0.0
                        0.1598464936885055        0.0344391950987334    0.0
                        0.1609975179502503        0.0345689385693418    0.0
                        0.1620355943052651        0.0346792071442857    0.0
                        0.1629706854770824        0.0347729134730833    0.0
                        0.1638120775108245        0.0348525726763117    0.0
                        0.1645683902963478        0.0349203408382305    0.0
                        0.1652475944938567        0.0349780554769508    0.0
                        0.1658570339128399        0.0350272753741288    0.0
                        0.1664034522792787        0.0350693181254653    0.0
                        0.1668930233095859        0.0351052944867832    0.0
                        0.1673313830638992        0.0351361390925152    0.0
                        0.1677236636506331        0.0351626374623318    0.0
                        0.1680745274778827        0.0351854494283003    0.0
                        0.1683882013798521        0.0352051292427674    0.0
                        0.1686685100771071        0.0352221426924757    0.0
                        0.1689189085511724        0.0352368815674756    0.0
                        0.1691425130228145        0.0352496758292213    0.0
                        0.1693421303174620        0.0352608038016915    0.0
                        0.1695202854802992        0.0352705006800452    0.0
                        0.1696792475682918        0.0352789656182995    0.0
                        0.1698210535980098        0.0352863676240798    0.0
                        0.1699641998914223        0.0353005869805124    0.0
                        0.1701067622220014        0.0353286462147541    0.0
                        0.1702470231024664        0.0353706303340379    0.0
                        0.1703832844217826        0.0354264004029372    0.0
                        0.1705138874797734        0.0354956057515121    0.0
                        0.1706372327609446        0.0355776962627686    0.0
                        0.1707517993258324        0.0356719351766200    0.0
                        0.1708561636694153        0.0357774127170166    0.0
                        0.1709490178678687        0.0358930607463750    0.0
                        0.1710291868084693        0.0360176685702422    0.0
                        0.1710956442742739        0.0361498999494896    0.0
                        0.1711475276369378        0.0362883113227046    0.0
                        0.1711841508993234        0.0364313711945210    0.0
                        0.1712050158258772        0.0365774806042277    0.0
                </DataArray>
            </Points>
            <PointData>
                <DataArray type="Float32" Name="orthogonality" NumberOfComponents="1" format="ascii">
                        0.0002429386936483
                        0.0398341392483931
                        0.0572451840712610
                        0.0629634918008383
                        0.0625020023058417
                        0.0588957675339597
                        0.0539885229728017
                        0.0490966327077715
                        0.0452889496673965
                        0.0438824611962274
                        0.0456142702160687
                        0.0543538721410098
                        0.0643688757136903
                        0.1063317658850213
                        0.1375527023376215
                        0.1067444762157051
                        0.0986044746436296
                        0.0913927374302581
                        0.0831608795834605
                        0.0742443362166634
                        0.0646999715862806
                        0.0547812603742542
                        0.0447897218689179
                        0.0350909504469447
                        0.0260635171962854
                        0.0180503813665083
                        0.0113066446185156
                        0.0059622655396353
                        0.0020089806352615
                        0.0006849194550558
                        0.0023373961954030
                        0.0032046880083928
                        0.0035359087346320
                        0.0035404979702691
                        0.0033728946119769
                        0.0031327975755815
                        0.0028754847389694
                        0.0026257265474503
                        0.0023903812081677
                        0.0021682037553295
                        0.0019555035781852
                        0.0017483710053733
                        0.0015439336555239
                        0.0013409930827335
                        0.0011403774315841
                        0.0009452836735491
                        0.0007615353050671
                        0.0005976514843916
                        0.0004648493582329
                        0.0003763213150876
                        0.0003479840017743
                        0.0003905468770155
                        0.0004896789306973
                        0.0006192521770694
                        0.0007623194859574
                        0.0008879991587803
                        0.0010020792267240
                        0.0009856447822458
                        0.0011105112801690
                        0.0005713749532489
                        0.0002701598391232
                        0.0000920632663376
                        0.0003446589351740
                        0.0000098102449168
                        0.0000319027459649
                        0.0001339816010633
                        0.0002077373964875
                        0.0002552425898906
                        0.0002719390928180
                        0.0002676068351088
                        0.0002657107826412
                        0.0002884600961170
                        0.0003350032810055
                        0.0003942387567013
                        0.0004493935779653
                        0.0004833838225765
                        0.0004873857114523
                        0.0004630365365298
                        0.0004206182561687
                        0.0003765696749524
                        0.0003465192355161
                        0.0003420941631912
                        0.0003737552378476
                        0.0004523083544561
                        0.0005902018809173
                        0.0008023895793643
                        0.0011065781597375
                        0.0015223741109735
                        0.0020687914150484
                        0.0027597815654497
                        0.0035980023516228
                        0.0045678307023355
                        0.0056293586589834
                        0.0067154145230667
                        0.0077332553212642
                        0.0085714743686348
                        0.0091112921866333
                        0.0092400018343899
                        0.0088646287569129
                        0.0079209974137304
                        0.0063866909106549
                        0.0042598438613952
                        0.0016441881057469
                        0.0015581969913550
                        0.0046624412858017
                        0.0090642184965839
                        0.0130779350550852
                        0.0183696069743681
                        0.0227760298621425
                        0.0283836410626377
                        0.0341060586759736
                        0.0400557505791006
                        0.0456263998599175
                        0.0502053454054752
                        0.0529154998349616
                        0.0527953170437597
                        0.0490036756646394
                        0.0410082638303878
                        0.0293313900291854
                        0.0148281202262997
                        0.0009066788003226
                        0.0131185968614859
                        0.0279156166086578
                        0.0399905583543878
                        0.0483891963973842
                        0.0525083841848170
                        0.0528433393912113
                        0.0502344932018472
                        0.0456651484050339
                        0.0400440200581335
                        0.0340093341642717
                        0.0282015727268784
                        0.0224956997331654
                        0.0180646949797114
                        0.0126521027919081
                        0.0086260350768613
                        0.0041145116345364
                        0.0009910763302203
                        0.0022771890851004
                        0.0049443164567293
                        0.0071237113337008
                        0.0087035081628784
                        0.0096865403318561
                        0.0100951757165053
                        0.0099949231353886
                        0.0094799330163000
                        0.0086633884352154
                        0.0076632116093343
                        0.0065884704821891
                        0.0055284029378943
                        0.0045462016371873
                        0.0036781250798465
                        0.0029371043210363
                        0.0023190106501106
                        0.0018095273645035
                        0.0013900303929039
                        0.0010416924290587
                        0.0007477942648132
                        0.0004946997728570
                        0.0002720917920965
                        0.0000729534502326
                        0.0001063081582246
                        0.0002655294340551
                        0.0003992214119502
                        0.0004997633477209
                        0.0005631242489386
                        0.0005904703234120
                        0.0005902651851289
                        0.0005775721061342
                        0.0005681199176252
                        0.0005734873063613
                        0.0005971326962865
                        0.0006220753316644
                        0.0006298376950883
                        0.0006103790083721
                        0.0005756456702458
                        0.0004570700374426
                        0.0003465841205635
                        0.0001063377601245
                        0.0002157454512265
                        0.0000686922048050
                        0.0001738094729213
                        0.0004607314896687
                        0.0003844667666908
                        0.0003265031527786
                        0.0001739113509064
                        0.0000158469768760
                        0.0002280755735090
                        0.0004351169283846
                        0.0006132889027996
                        0.0007325055897735
                        0.0007764974008766
                        0.0007579623768086
                        0.0006960956104942
                        0.0006074589203481
                        0.0005064127266141
                        0.0004044035736018
                        0.0003101244627232
                        0.0002297784831599
                        0.0001674894811220
                        0.0001256759898355
                        0.0001050984512266
                        0.0001041629035789
                        0.0001168434368428
                        0.0001283147440000
                        0.0001079446455795
                        0.0000012315466590
                        0.0002952262798945
                        0.0009190380371187
                        0.0020679553500291
                        0.0039747759030040
                        0.0068806186571748
                        0.0109923596194361
                        0.0164356064160699
                        0.0232160408923010
                        0.0312016093069874
                        0.0401326771654027
                        0.0496586193782727
                        0.0593907661335104
                        0.0689574369068034
                        0.0780475590638589
                        0.0864342570653786
                        0.0939895330766654
                        0.1006271470916081
                        0.1065949571933069
                        0.1121781497735145
                        0.1435293909277428
                        0.1095044348399622
                        0.0642929660774757
                        0.0522031478979834
                        0.0418859170783066
                        0.0391758603433996
                        0.0401325415704408
                        0.0439686310638168
                        0.0493014667897789
                        0.0549792526488403
                        0.0595835507382567
                        0.0611469675605330
                        0.0564843629047310
                        0.0398861737135757
                        0.0008402483057822
                        0.3772981558838757
                        0.2916757327157949
                        0.2162893180036792
                        0.1559668135714339
                        0.1070890977191601
                        0.0667283429580764
                        0.0324190572802860
                        0.0019860061000841
                        0.0265431947756432
                        0.0551593492332489
                        0.0854562513642846
                        0.1203166082293455
                        0.1581011553240108
                        0.2123256513886522
                        0.2484115808196484
                        0.2253128944815978
                        0.1971736234695894
                        0.1786276553485730
                        0.1567230648759512
                        0.1351100465832712
                        0.1136589654569617
                        0.0931258657694008
                        0.0740519076237981
                        0.0569373744663093
                        0.0421391378663061
                        0.0298468020832755
                        0.0200688110068946
                        0.0126477887444186
                        0.0072978168513392
                        0.0036555914111249
                        0.0013339064654423
                        0.0000326618965045
                        0.0007561651736110
                        0.0010795929888564
                        0.0011754010361780
                        0.0011544123847585
                        0.0010802667537387
                        0.0009848076094160
                        0.0008813073020423
                        0.0007748886515821
                        0.0006672852982076
                        0.0005580541865222
                        0.0004464825184682
                        0.0003330068486959
                        0.0002198284658812
                        0.0001113361699421
                        0.0000143960027256
                        0.0000615612198771
                        0.0001045203369590
                        0.0001006755357093
                        0.0000340226924753
                        0.0001024658499824
                        0.0002850510233589
                        0.0004805750569797
                        0.0006715928523947
                        0.0008288972677246
                        0.0009608664017207
                        0.0009509332535131
                        0.0010712504665302
                        0.0005294831491207
                        0.0002598069117450
                        0.0000107859731816
                        0.0002365848607590
                        0.0001249552007578
                        0.0001447541046024
                        0.0002420704085356
                        0.0003138907909323
                        0.0003549959051550
                        0.0003576687845362
                        0.0003307452425409
                        0.0003026563030305
                        0.0003045195392495
                        0.0003420315784562
                        0.0004073151266549
                        0.0004825079853975
                        0.0005441905838459
                        0.0005733924503102
                        0.0005596421198247
                        0.0005014933402504
                        0.0004071474000977
                        0.0002859712615495
                        0.0001410485999782
                        0.0000293486908699
                        0.0002311293001769
                        0.0004741440072307
                        0.0007725473313606
                        0.0011455953344775
                        0.0016187730593077
                        0.0022250127222458
                        0.0030056433982792
                        0.0040106389122726
                        0.0052977948526275
                        0.0069306663823296
                        0.0089753361208268
                        0.0114962228078403
                        0.0145511785322832
                        0.0181860844686795
                        0.0224294511397560
                        0.0272869764063897
                        0.0327390842986473
                        0.0387331427858120
                        0.0452045113289266
                        0.0520027103326456
                        0.0591590963054221
                        0.0660395324635878
                        0.0737991953841055
                        0.0814545945468287
                        0.0895678412892607
                        0.0966726328045560
                        0.1042238078460969
                        0.1111067542319668
                        0.1170468249821680
                        0.1211868010609006
                        0.1226217180295466
                        0.1202705536473690
                        0.1130794899277772
                        0.1002681314177591
                        0.0815886887587706
                        0.0578556926571994
                        0.0305736953453992
                        0.0025458548281978
                        0.0256266106387734
                        0.0533106364850569
                        0.0776105625536213
                        0.0969056211541126
                        0.1102780721223254
                        0.1179127604531905
                        0.1205694100096601
                        0.1193127942957620
                        0.1152529467438757
                        0.1093256399687662
                        0.1024249288997197
                        0.0948297605129096
                        0.0877217432992741
                        0.0795322965220062
                        0.0718435349106697
                        0.0640191098802412
                        0.0571564622756976
                        0.0500086179711423
                        0.0432544580688091
                        0.0368538623753430
                        0.0309633003872031
                        0.0256455205724492
                        0.0209502370619653
                        0.0168913986371778
                        0.0134561647470920
                        0.0106080417243604
                        0.0082933097199685
                        0.0064473231332193
                        0.0050006640975228
                        0.0038844959964170
                        0.0030348289752085
                        0.0023954506242152
                        0.0019194142748670
                        0.0015691791656507
                        0.0013157174074012
                        0.0011370221651319
                        0.0010164170381971
                        0.0009409246874149
                        0.0008997763292734
                        0.0008830331687662
                        0.0008801266042738
                        0.0008784390438098
                        0.0008617591454871
                        0.0008178330784457
                        0.0007464443758653
                        0.0006571252021896
                        0.0005673053589381
                        0.0004975806234406
                        0.0004625374929595
                        0.0004668992047864
                        0.0005033146256998
                        0.0005408715736813
                        0.0005526773962020
                        0.0005283680517380
                        0.0004808371030700
                        0.0003323787153463
                        0.0001854603800473
                        0.0000877805339188
                        0.0000114003498737
                        0.0002236679388899
                        0.0004525081546928
                        0.0007560688318275
                        0.0006869420435546
                        0.0006286003883251
                        0.0004675603402993
                        0.0002613496357474
                        0.0000228294383470
                        0.0002226090058377
                        0.0004524942302792
                        0.0006323138554455
                        0.0007382340064170
                        0.0007793926604732
                        0.0007740383519724
                        0.0007376805123748
                        0.0006834742126577
                        0.0006215989205413
                        0.0005595202004409
                        0.0005022920895359
                        0.0004529703736511
                        0.0004130030991533
                        0.0003824868090855
                        0.0003603335822271
                        0.0003429868808629
                        0.0003187623766638
                        0.0002600074388583
                        0.0001136082017726
                        0.0002123297977960
                        0.0008625772748838
                        0.0020455670813336
                        0.0040364050123277
                        0.0071681339132564
                        0.0118086060622456
                        0.0183227646668089
                        0.0270239933322956
                        0.0381226267481336
                        0.0516825321430419
                        0.0675962445118042
                        0.0855841840062105
                        0.1052213798506013
                        0.1259714382091925
                        0.1472886405978604
                        0.1684525342577516
                        0.1896312637083666
                        0.2072716831540338
                        0.2344362133815016
                        0.2572856924632197
                        0.2189649083795222
                        0.1618835819012027
                        0.1216893732241375
                        0.0849435341127370
                        0.0533613280748848
                        0.0240859337240687
                        0.0045024283935884
                        0.0344711498590235
                        0.0679180308647684
                        0.1071833059196981
                        0.1549248836275247
                        0.2142763466348518
                        0.2890627279874250
                        0.3748189430567569
                        0.3955627561093244
                        0.3332892545693023
                        0.2688142531153720
                        0.2097440718682270
                        0.1579047881676199
                        0.1135304250159085
                        0.0757647484192169
                        0.0432216688807612
                        0.0144059719784870
                        0.0121074067098623
                        0.0373702124859708
                        0.0625809402540212
                        0.0869724863094538
                        0.1139119199680549
                        0.1318191403122421
                        0.1178006813213800
                        0.0871324414295758
                        0.0719584454891062
                        0.0549051675841179
                        0.0407642632387801
                        0.0288665035628050
                        0.0194866645510968
                        0.0124765372634547
                        0.0075894481477709
                        0.0044572275019791
                        0.0026571972422003
                        0.0017667841246840
                        0.0014163657950596
                        0.0013246599714609
                        0.0013104356573804
                        0.0012811216275227
                        0.0012071124724447
                        0.0010935350801310
                        0.0009582562814701
                        0.0008191302150557
                        0.0006890007122961
                        0.0005753475849836
                        0.0004818409605610
                        0.0004099039265764
                        0.0003585820349043
                        0.0003260055765408
                        0.0003111730767486
                        0.0003131007081551
                        0.0003298267180855
                        0.0003579651641943
                        0.0003923130728275
                        0.0004255523011231
                        0.0004481441094392
                        0.0004482664786890
                        0.0004125730517552
                        0.0003254876181074
                        0.0001794927317484
                        0.0000040646416719
                        0.0001955480164493
                        0.0003805736043202
                        0.0005326201249550
                        0.0006624363612454
                        0.0006573877361478
                        0.0007850916432676
                        0.0002811654977322
                        0.0000925370815307
                        0.0001888694134088
                        0.0000454917164284
                        0.0002913550551443
                        0.0003000538413079
                        0.0003875237942641
                        0.0004513127428839
                        0.0004882399267456
                        0.0004908635152832
                        0.0004668006687118
                        0.0004414173172684
                        0.0004429510609213
                        0.0004762471997035
                        0.0005343047572818
                        0.0006014329420021
                        0.0006569405418667
                        0.0006841502010720
                        0.0006737002920898
                        0.0006236839147104
                        0.0005405996737265
                        0.0004317416140280
                        0.0002979410238369
                        0.0001351957727159
                        0.0000648754849276
                        0.0003148765637221
                        0.0006318915829121
                        0.0010378011824928
                        0.0015593320886013
                        0.0022274146207735
                        0.0030754803832444
                        0.0041365582010439
                        0.0054394300858713
                        0.0070045708776710
                        0.0088409090739065
                        0.0109443890757738
                        0.0132988295686839
                        0.0158787532324128
                        0.0186533802506157
                        0.0215899954943554
                        0.0246579689826093
                        0.0278248306188522
                        0.0310749141857392
                        0.0343430267674910
                        0.0377366132682871
                        0.0408285401385914
                        0.0446671618154343
                        0.0488231031578022
                        0.0527487698053408
                        0.0556346246510212
                        0.0585520099141653
                        0.0607425152279313
                        0.0620731947930694
                        0.0621184015817273
                        0.0605427583269231
                        0.0570555664967962
                        0.0515226320725082
                        0.0440235312075795
                        0.0348283335282017
                        0.0244199578670752
                        0.0131947262978226
                        0.0014225252607716
                        0.0103838554085011
                        0.0217032641011705
                        0.0322623226688070
                        0.0416564451737510
                        0.0493858498002019
                        0.0551568591233263
                        0.0588671858740955
                        0.0606355076884843
                        0.0607470078799165
                        0.0595378559002964
                        0.0574430993885605
                        0.0545926191791171
                        0.0517782132592341
                        0.0478620863433534
                        0.0436814009679863
                        0.0398462069603293
                        0.0368157530513524
                        0.0334826852320171
                        0.0302959611922325
                        0.0271386786683902
                        0.0240765262257208
                        0.0211220363031100
                        0.0183053007632097
                        0.0156541097608867
                        0.0131982902216659
                        0.0109656034270907
                        0.0089785029610027
                        0.0072503584051730
                        0.0057829888994771
                        0.0045662147445410
                        0.0035796145652807
                        0.0027958660034048
                        0.0021846405860478
                        0.0017160567683570
                        0.0013630654044751
                        0.0011026035418489
                        0.0009157038941975
                        0.0007869035654018
                        0.0007032612809766
                        0.0006531945899933
                        0.0006250959681364
                        0.0006059398312552
                        0.0005793266028225
                        0.0005328349512459
                        0.0004656351027063
                        0.0003856654301819
                        0.0003080394764118
                        0.0002507281504709
                        0.0002259364474125
                        0.0002370238228220
                        0.0002769920681160
                        0.0003167767924310
                        0.0003318860131278
                        0.0003131758988569
                        0.0002749315343513
                        0.0001408784435891
                        0.0000126390336393
                        0.0002423662705833
                        0.0001537740044325
                        0.0003828454470700
                        0.0005506124109815
                        0.0008393412701762
                        0.0007740387397767
                        0.0007293113059240
                        0.0005915006010406
                        0.0004162175606651
                        0.0002139643926983
                        0.0000075577786852
                        0.0001836799581603
                        0.0003290201451860
                        0.0004069559564086
                        0.0004265002174740
                        0.0004046148212943
                        0.0003553411165775
                        0.0002904941674487
                        0.0002190507776129
                        0.0001474171517805
                        0.0000797041776627
                        0.0000181212548099
                        0.0000365973439400
                        0.0000846987534579
                        0.0001262272734238
                        0.0001595844212359
                        0.0001824859228844
                        0.0001915239425380
                        0.0001788767429907
                        0.0001304519251925
                        0.0000259332023479
                        0.0001573677362122
                        0.0004342413515447
                        0.0007928403625424
                        0.0011683598292072
                        0.0014152388423501
                        0.0012885886122251
                        0.0004454679059663
                        0.0015292955476744
                        0.0050768580231561
                        0.0106067877214172
                        0.0184439483097710
                        0.0287677257486991
                        0.0416465757292467
                        0.0567099287495890
                        0.0746121003723223
                        0.0901737717814758
                        0.1218879656909161
                        0.1359958110230682
                        0.1178424805839907
                        0.0904919995417957
                        0.0655704366962771
                        0.0399005639918493
                        0.0142902753889003
                        0.0124147334369442
                        0.0412571923189684
                        0.0736796291195971
                        0.1112165803466259
                        0.1553105366232823
                        0.2068869611417042
                        0.2657862431735842
                        0.3302442026821149
                        0.3927625246056778
                        0.2750334228160563
                        0.2293019229879661
                        0.1821513485276046
                        0.1432364349924018
                        0.1117976849847270
                        0.0865744643445054
                        0.0661859007125208
                        0.0494544758309699
                        0.0355172428377774
                        0.0237315744722379
                        0.0136038541992015
                        0.0043124155901747
                        0.0045008041562842
                        0.0158869029391280
                        0.0258061451099258
                        0.0179661960338073
                        0.0092823275498426
                        0.0160172607010513
                        0.0222342433825112
                        0.0242363472766926
                        0.0237363753064927
                        0.0212774673906061
                        0.0176313768565883
                        0.0134460220219233
                        0.0092765904079476
                        0.0055343935931070
                        0.0024708796333912
                        0.0001812766361124
                        0.0013658705872642
                        0.0022835064570596
                        0.0027193926095705
                        0.0028202572423858
                        0.0027112763312171
                        0.0024883799619047
                        0.0022184378736357
                        0.0019435160807996
                        0.0016869814614710
                        0.0014599024596414
                        0.0012663449469872
                        0.0011057609620063
                        0.0009758268093951
                        0.0008746566966955
                        0.0008002425553800
                        0.0007497548276213
                        0.0007192271041188
                        0.0007032038102062
                        0.0006944582365435
                        0.0006838873787003
                        0.0006604276245468
                        0.0006117500261266
                        0.0005233557700862
                        0.0003872217596169
                        0.0002204731374630
                        0.0000476665822897
                        0.0001197540938095
                        0.0002583168895970
                        0.0003794340417118
                        0.0003790653179958
                        0.0005068012120371
                        0.0000574829135701
                        0.0000703530951062
                        0.0003495895328778
                        0.0001175578930398
                        0.0004180648418623
                        0.0004193142391406
                        0.0004964666880369
                        0.0005522094676178
                        0.0005860742133842
                        0.0005916563425869
                        0.0005754997868142
                        0.0005587873129027
                        0.0005649717247492
                        0.0005971279560505
                        0.0006487737670083
                        0.0007067081565616
                        0.0007541467846772
                        0.0007783668567810
                        0.0007730695183005
                        0.0007378905497698
                        0.0006790372339225
                        0.0006029768301026
                        0.0005103116617560
                        0.0003976704870946
                        0.0002581274223094
                        0.0000814344859207
                        0.0001460643200773
                        0.0004414951792996
                        0.0008252252080339
                        0.0013199943942102
                        0.0019491085629633
                        0.0027335086444825
                        0.0036877095289769
                        0.0048148430005984
                        0.0061014159793577
                        0.0075129045104660
                        0.0089917374820564
                        0.0104590706310106
                        0.0118211556324670
                        0.0129789100547407
                        0.0138413415966551
                        0.0143313232680647
                        0.0144140270513107
                        0.0140355707005219
                        0.0133422623562417
                        0.0120086144974022
                        0.0110997968622558
                        0.0103192651861679
                        0.0091979832816121
                        0.0071617027248021
                        0.0051449484534722
                        0.0027167586485275
                        0.0000314620064081
                        0.0028394562951313
                        0.0056550662700031
                        0.0080845012015430
                        0.0097257378708529
                        0.0101929898838483
                        0.0092554127599702
                        0.0069115348464240
                        0.0035441918943925
                        0.0000242721510531
                        0.0036296085210941
                        0.0071016280175861
                        0.0095858699087250
                        0.0106584338427115
                        0.0102860464234342
                        0.0086820563230147
                        0.0062325392213818
                        0.0033521301761139
                        0.0003889674304533
                        0.0023987420574629
                        0.0049281713960916
                        0.0070310280618688
                        0.0091495639317661
                        0.0103065585110358
                        0.0110585121428533
                        0.0119903776259036
                        0.0133825172217564
                        0.0141308198082200
                        0.0145712080006006
                        0.0145498214876318
                        0.0141201302793564
                        0.0133151000400661
                        0.0122110843817647
                        0.0108982757516738
                        0.0094749806933145
                        0.0080340630781066
                        0.0066535297354903
                        0.0053904071633747
                        0.0042792202728293
                        0.0033341626207733
                        0.0025535409337098
                        0.0019249676155984
                        0.0014302016780282
                        0.0010490206845222
                        0.0007618830157061
                        0.0005514034278847
                        0.0004028461548347
                        0.0003039312288864
                        0.0002442215415587
                        0.0002142961477808
                        0.0002046709700886
                        0.0002046960701361
                        0.0002004037246446
                        0.0001807218129163
                        0.0001439829354264
                        0.0000954697580845
                        0.0000466886009164
                        0.0000121254597357
                        0.0000019299334310
                        0.0000193757346081
                        0.0000596551361787
                        0.0000985789269678
                        0.0001158557341843
                        0.0001036652817889
                        0.0000762578336791
                        0.0000360096958025
                        0.0001393018451074
                        0.0003632601849916
                        0.0002672236231870
                        0.0004849983690073
                        0.0006031523051902
                        0.0008649671890755
                        0.0008065890346241
                        0.0007755373132965
                        0.0006646395855460
                        0.0005251917553984
                        0.0003658585378146
                        0.0002068784690549
                        0.0000646594977347
                        0.0000348933147862
                        0.0000740547280894
                        0.0000616508298146
                        0.0000128379817103
                        0.0000600998799186
                        0.0001468881655109
                        0.0002398552615417
                        0.0003336891716803
                        0.0004252043662283
                        0.0005129927507245
                        0.0005970388510413
                        0.0006782918182929
                        0.0007574846496656
                        0.0008330750936965
                        0.0009009671251548
                        0.0009522757616744
                        0.0009672815135818
                        0.0009099364699125
                        0.0007228680761499
                        0.0003239076470592
                        0.0003946623148648
                        0.0015618420050521
                        0.0033143122040399
                        0.0057690489101324
                        0.0089824814161960
                        0.0129047994745055
                        0.0173438923463793
                        0.0219511983760610
                        0.0262347221883736
                        0.0295875470941157
                        0.0313465181471808
                        0.0307539588040368
                        0.0273430669818782
                        0.0193514401053032
                        0.0112117917869313
                        0.0195825927721863
                        0.0279927770616135
                        0.0183541891874190
                        0.0072388158172694
                        0.0012818728234603
                        0.0102525491623296
                        0.0201011031153303
                        0.0317043426760917
                        0.0455932554783641
                        0.0624201171061106
                        0.0830278136415355
                        0.1085501174504428
                        0.1403140629767858
                        0.1795335670368141
                        0.2269390487371851
                        0.2729993289583423
                        0.0002226628432962
                        0.0332683857414870
                        0.0492491978364520
                        0.0534591917670977
                        0.0518654601323268
                        0.0483841837032913
                        0.0448248004465286
                        0.0418976351751641
                        0.0400270389874100
                        0.0397270132922436
                        0.0417362110439036
                        0.0470221559503850
                        0.0570131531109448
                        0.0726458177266136
                        0.0747072682300129
                        0.0532434448499934
                        0.0546743826431795
                        0.0388428038721636
                        0.0283068141495305
                        0.0182133910345017
                        0.0096871663087173
                        0.0025669324581808
                        0.0029533397872663
                        0.0068164004818285
                        0.0090751777026065
                        0.0099483111096230
                        0.0097872071835840
                        0.0089976064456012
                        0.0079426626208795
                        0.0068749688013274
                        0.0059221549935550
                        0.0051174616195807
                        0.0044456939171552
                        0.0038788129972295
                        0.0033928817193265
                        0.0029716551967238
                        0.0026049020376835
                        0.0022861818623765
                        0.0020113083004398
                        0.0017762215078713
                        0.0015772712389987
                        0.0014118488927513
                        0.0012773573577402
                        0.0011706182973616
                        0.0010876709287004
                        0.0010235133034102
                        0.0009718965051724
                        0.0009252540926055
                        0.0008746317126958
                        0.0008102280062793
                        0.0007205910680341
                        0.0005989523187610
                        0.0004572843858897
                        0.0003131265309746
                        0.0001743919770694
                        0.0000585948694478
                        0.0000435160640243
                        0.0000521537159732
                        0.0001591915225221
                        0.0001773796182503
                        0.0002610506668374
                        0.0004864852214276
                        0.0003003022286010
                        0.0005281503635078
                        0.0005275728232465
                        0.0005874103450607
                        0.0006316768135454
                        0.0006608429379783
                        0.0006701312891035
                        0.0006644490608603
                        0.0006594149893510
                        0.0006723385232873
                        0.0007052156388835
                        0.0007531297475163
                        0.0008064093128169
                        0.0008529329376229
                        0.0008838577413087
                        0.0008952429004461
                        0.0008874037037207
                        0.0008654315821458
                        0.0008347033666702
                        0.0007961398393410
                        0.0007479678386711
                        0.0006860847125174
                        0.0006043328270123
                        0.0004944344532953
                        0.0003457179591616
                        0.0001445797745494
                        0.0001263613479874
                        0.0004894514290125
                        0.0009733304266212
                        0.0016135528084579
                        0.0024506008295900
                        0.0035226777336464
                        0.0048515363505001
                        0.0064227103531840
                        0.0081654865120464
                        0.0099407482064227
                        0.0115420805435660
                        0.0127158376562970
                        0.0131825039847063
                        0.0126983287479412
                        0.0109958832473548
                        0.0080819953822596
                        0.0034394223751275
                        0.0018358417135588
                        0.0083023166949909
                        0.0146817877317496
                        0.0219770073228283
                        0.0295848001031536
                        0.0378806733699482
                        0.0465060717848035
                        0.0548723090941463
                        0.0620010974612495
                        0.0666515005930579
                        0.0674892237732409
                        0.0633822620789941
                        0.0537827334264319
                        0.0390780690504396
                        0.0208230062598496
                        0.0015370518434252
                        0.0179030618818338
                        0.0365890725533872
                        0.0518985378701083
                        0.0621433882185104
                        0.0668202457990716
                        0.0664070900850218
                        0.0620158708026677
                        0.0549989230577927
                        0.0466358860145854
                        0.0379490685831273
                        0.0295653639388402
                        0.0218723429774205
                        0.0145052486913621
                        0.0080834924594526
                        0.0016600249078333
                        0.0036439093538972
                        0.0083240591847141
                        0.0112769510431071
                        0.0130247490958190
                        0.0135596964022795
                        0.0131490347390772
                        0.0120338776864731
                        0.0104894349497252
                        0.0087635370121813
                        0.0070566751824802
                        0.0055035964181855
                        0.0041736127910166
                        0.0030831618559578
                        0.0022150662118153
                        0.0015368238089824
                        0.0010133772096314
                        0.0006135460133553
                        0.0003119111901701
                        0.0000884572865121
                        0.0000724581489113
                        0.0001831282020578
                        0.0002533525651796
                        0.0002911463048354
                        0.0003033733415444
                        0.0002963452464896
                        0.0002765606557890
                        0.0002514036878389
                        0.0002309849585228
                        0.0002232856005806
                        0.0002294711966393
                        0.0002459938274938
                        0.0002648019087946
                        0.0002755312932137
                        0.0002708264025054
                        0.0002481032379447
                        0.0002104159097406
                        0.0001752592592597
                        0.0001571935935074
                        0.0001618898344198
                        0.0001781533875996
                        0.0002584800790406
                        0.0003317858930144
                        0.0004982538347835
                        0.0004221495628919
                        0.0005867022532860
                        0.0006628170283680
                        0.0008656252914800
                        0.0008276695668841
                        0.0008140144610418
                        0.0007426059191364
                        0.0006526816763249
                        0.0005507909013983
                        0.0004525270147061
                        0.0003704085627187
                        0.0003238896394440
                        0.0003262270643272
                        0.0003707680648809
                        0.0004463289109532
                        0.0005440486536557
                        0.0006566652805507
                        0.0007789976653683
                        0.0009077568912651
                        0.0010413742953072
                        0.0011797440737614
                        0.0013239731111144
                        0.0014762744826880
                        0.0016395717080461
                        0.0018165153834698
                        0.0020111685909392
                        0.0022309586210344
                        0.0024867490186158
                        0.0027950770182849
                        0.0031806552688956
                        0.0036759449389626
                        0.0043106030123007
                        0.0050828018459584
                        0.0059139579337236
                        0.0066072796876875
                        0.0068430848809211
                        0.0062320590784227
                        0.0044130976867163
                        0.0011519015445039
                        0.0036085892903795
                        0.0097552218104337
                        0.0170968084502570
                        0.0253329807204734
                        0.0346199439531513
                        0.0435373099714084
                        0.0579872684662274
                        0.0493038577065881
                        0.0711141496315909
                        0.0685925374613068
                        0.0519963988799414
                        0.0411374873735299
                        0.0352222016235764
                        0.0329126629841564
                        0.0333039841556197
                        0.0356706820218679
                        0.0394494610891818
                        0.0441035682638461
                        0.0487706573209278
                        0.0514925817359082
                        0.0482375099688647
                        0.0329255116078302
                        0.0004675204430775
                </DataArray>
                <DataArray type="Float32" Name="aspect_ratio" NumberOfComponents="1" format="ascii">
                       19.9221505662300753
                       17.6374777103293284
                       16.1781729368843066
                       15.1466294341136602
                       14.3958580950188932
                       13.8396632050032152
                       13.4262987778457093
                       13.1234023747224431
                       12.9139959645553972
                       12.7782588980851317
                       12.7390356071587439
                       12.6854665168696694
                       12.9877420267621264
                       12.2949910464999518
                        8.2747317005231953
                        4.3664400385394697
                        4.0177273805999722
                        4.8543523283109794
                        5.5005700972597172
                        6.3163084753600521
                        7.2268965019805243
                        8.2632629191118824
                        9.4294380558290430
                       10.7351065209820725
                       12.1879570323123464
                       13.7963137679126238
                       15.5695227309590071
                       17.5189496837384462
                       19.6586306116919621
                       22.0055959214896295
                       24.5797503037659473
                       27.4033450019453736
                       30.5001444998613901
                       33.8944324871730692
                       37.6099922557874358
                       41.6691426801945746
                       46.0918316475520603
                       50.8947108600982986
                       56.0900850854215822
                       61.6851468526357614
                       67.6815025847576438
                       74.0740136141278641
                       80.8492014292499248
                       87.9841562181241199
                       95.4459591815480366
                      103.1917699192768941
                      111.1698997298402262
                      119.3221086615142073
                      127.5872754401090590
                      135.9061219142913308
                      144.2269493529952642
                      152.5071806323308395
                      160.6899240589426182
                      168.6742349709415687
                      176.3165200566242958
                      183.4405152642933840
                      189.8535008489692154
                      195.3263665591782296
                      199.6915446109000985
                      202.6625191346111769
                      198.4814488304153108
                      192.7957711765860889
                      191.4038945902391892
                      188.8349120025402082
                      185.1148959430490033
                      180.4211825073028102
                      174.8636688434218196
                      168.5881223202847228
                      161.7493704493201026
                      154.5052420805067308
                      146.9871385953487334
                      139.2775129626091736
                      131.4266910257295373
                      123.4804440958707909
                      115.4942419784201757
                      107.5422045966274734
                       99.7146933479385705
                       92.1065583616442250
                       84.8041479418625570
                       77.8729218378094368
                       71.3525004549877461
                       65.2618084290462801
                       59.6053282555235198
                       54.3772677841742514
                       49.5646168065901089
                       45.1494210935219098
                       41.1105096952056932
                       37.4248108091588742
                       34.0683586620018713
                       31.0170664744309876
                       28.2473193501195070
                       25.7364203481440047
                       23.4629061666182162
                       21.4067393834134947
                       19.5493830181130259
                       17.8737733914389809
                       16.3642074179993724
                       15.0062090174722378
                       13.7862908873669697
                       12.6920734263585361
                       11.7112209084098293
                       10.8346561140000295
                       10.0455756419451628
                        9.3537386867917408
                        8.6981875046720179
                        8.1671889468217780
                        8.0790835214721884
                        8.4142567237132410
                        8.8118771372304820
                        9.1755955251018945
                        9.5709595482935251
                        9.9858771136427526
                       10.4380870818187486
                       10.9295584499388897
                       11.4591426202180490
                       12.0122541087585798
                       12.5608471106067058
                       13.0556107861818074
                       13.4457987880711999
                       13.6657264327981966
                       13.7315188852296117
                       13.7047565509881790
                       13.5200086392452484
                       13.1585211203903737
                       12.6854900384743370
                       12.1528661022518558
                       11.6118683459665813
                       11.0922408464184471
                       10.6097113759093307
                       10.1658827171881776
                        9.7589967441441402
                        9.3705702175211561
                        9.0136405780357941
                        8.6189282141868022
                        8.2883589232271761
                        8.3906191364292686
                        8.9471605684889963
                        9.6352914663965364
                       10.3613874501798317
                       11.1896720177792056
                       12.1093644552958105
                       13.1377203968423388
                       14.2836114296309338
                       15.5591641042645601
                       16.9762806359345685
                       18.5477046181032884
                       20.2867979713050117
                       22.2076701690526593
                       24.3251595402151065
                       26.6547559877457824
                       29.2123992034655617
                       32.0141437357250361
                       35.0756867883301918
                       38.4117706293604447
                       42.0354780014543758
                       45.9574428986390401
                       50.1850055250085762
                       54.7213584746532429
                       59.5647696142537063
                       64.7080383188297443
                       70.1384488899330162
                       75.8386831841855202
                       81.7893809971350186
                       87.9747838785022387
                       94.3886889044843252
                      101.0309229684643214
                      107.8953870446676849
                      114.9556947426410097
                      122.1501767653217994
                      129.3756854039706059
                      136.4948278991910472
                      143.3521778529888835
                      149.8087925735060685
                      155.7704448487239400
                      161.1765972049162432
                      165.9741522791310158
                      170.1397164972942950
                      173.6425622729093485
                      176.4871969004732565
                      178.5894813944925515
                      185.3270138170807440
                      191.2553868798996938
                      190.7920042291565653
                      189.1406071329508212
                      186.1717404693690846
                      181.8975517008549843
                      176.3711999448413307
                      169.7178382047812186
                      162.1062019655075636
                      153.7362772860349294
                      144.8342719332977539
                      135.6415866124040836
                      126.3796952160900287
                      117.2256767929775600
                      108.3139919631932904
                       99.7426598629337104
                       91.5790905376288793
                       83.8658072042793579
                       76.6256803861616534
                       69.8665527608356495
                       63.5851464993740362
                       57.7702536084607860
                       52.4051238011521046
                       47.4688947458280081
                       42.9379534568376458
                       38.7874443744057366
                       34.9919845123510581
                       31.5258181790856302
                       28.3630617450170890
                       25.4781214209896246
                       22.8462963959323580
                       20.4445045319666880
                       18.2520019019224453
                       16.2509350823410439
                       14.4265762664782268
                       12.7671521812010268
                       11.2632612464000384
                        9.9070349623393570
                        8.6910718334362591
                        7.6080798660830191
                        6.6484523115326875
                        5.8079682446719152
                        5.0556435965344502
                        4.4667454835290575
                        3.6760069429962868
                        4.0928623116193129
                        8.1457954623910059
                       12.2776894100915294
                       12.9652344987187832
                       12.6253147622095284
                       12.6459033474561585
                       12.6520229504341917
                       12.7589050818197829
                       12.9458484516792701
                       13.2349969318821260
                       13.6453012372939178
                       14.2107360118122154
                       14.9843001233523808
                       16.0532627952856036
                       17.5659613836057828
                       19.9179958727846214
                       15.8369515264345391
                       15.3192112859281992
                       14.8901967442276770
                       14.5081374328893078
                       14.1712478185613946
                       13.8740951143848802
                       13.6078499627487564
                       13.3609275342876627
                       13.1212733243850947
                       12.8722550740096971
                       12.6091388094906747
                       12.2842173631931025
                       11.9893678817011669
                       11.3457243702675161
                        9.2534225120629860
                        6.7180384923869561
                        6.5182554502752061
                        7.6501072407319322
                        8.4949003762319221
                        9.5237201049782832
                       10.6371773363578436
                       11.8716330957950035
                       13.2334883127741015
                       14.7394901244641549
                       16.4076254134326159
                       18.2594044489079014
                       20.3189651640448708
                       22.6124811397345397
                       25.1672283160893295
                       28.0107433461314381
                       31.1702265946683839
                       34.6722739058555558
                       38.5428637578197041
                       42.8074312146158981
                       47.4908279171408195
                       52.6169918854576257
                       58.2082140077012906
                       64.2839637035133947
                       70.8593110206197603
                       77.9435441870137346
                       85.5391935711054355
                       93.6403678515848406
                      102.2306417281393886
                      111.2815624249203074
                      120.7517956790525821
                      130.5871119428111871
                      140.7216031520548385
                      151.0804404118198913
                      161.5843490570789608
                      172.1554770083976105
                      182.7243515438514677
                      193.2322829926102171
                      203.6034849540945377
                      213.7079038548423641
                      223.3633784401487230
                      232.3488804649221984
                      240.4200786852013439
                      247.2995561940402707
                      252.7572362211207730
                      256.4799785118293731
                      251.1407781353160449
                      243.9117161742087350
                      242.1493167632369297
                      238.8790329459410866
                      234.1743094876512318
                      228.2333260719366057
                      221.2017505526119710
                      213.2622194165558112
                      204.6088826152065459
                      195.4393344454387458
                      185.9195637884882776
                      176.1548941267584221
                      166.2117092803274453
                      156.1504937596914956
                      146.0430803992333293
                      135.9835905660040356
                      126.0853843063275172
                      116.4665883305476787
                      107.2343397402523320
                       98.4697329467581572
                       90.2219319291692939
                       82.5146532414245729
                       75.3536823416738451
                       68.7319943018095759
                       62.6335300112546441
                       57.0360398123552305
                       51.9132721946164809
                       47.2366689819793199
                       42.9766790728567540
                       39.1037621043924409
                       35.5891242278905037
                       32.4052093726156623
                       29.5259643916364667
                       26.9269050008738484
                       24.5850260688781903
                       22.4786201718598059
                       20.5870679353349997
                       18.8906894789762640
                       17.3705981575670666
                       16.0089167658344617
                       14.7880889115152200
                       13.6935597428785787
                       12.7054519674936502
                       11.8245663506305509
                       11.0004056013225798
                       10.2904684633880540
                       10.1451366555063342
                       10.5328266184360724
                       10.9512963712312891
                       11.3183659856524314
                       11.6746874623338071
                       12.0041214880194101
                       12.3085218435407626
                       12.5791483380958902
                       12.8083264351936818
                       12.9890322694738511
                       13.1208061420234778
                       13.2106415270869158
                       13.2774114980595936
                       13.3390245209102411
                       13.3742971852372863
                       13.3581487619591907
                       13.3163856433758029
                       13.2710044703127645
                       13.2039756818505909
                       13.0954707272083382
                       12.9372690461520680
                       12.7288590388229903
                       12.4767424416816924
                       12.1883985815249846
                       11.8726458045882627
                       11.5274023231784907
                       11.1694518140068346
                       10.7563142198735595
                       10.3734965255120726
                       10.5357142764419416
                       11.2771010958270090
                       12.1383077165398141
                       13.0593617257625634
                       14.0927356196600611
                       15.2373403576640824
                       16.5135197252519547
                       17.9358587506319394
                       19.5218241184980217
                       21.2888788350251492
                       23.2551134660311040
                       25.4389061955846661
                       27.8589375251113994
                       30.5341714705393876
                       33.4838585264748313
                       36.7274630953931496
                       40.2844524484400951
                       44.1738925622080023
                       48.4138282842894177
                       53.0204560213375728
                       58.0071242689732286
                       63.3832195691797982
                       69.1530205831962635
                       75.3146438938196283
                       81.8592823501162473
                       88.7710630614899798
                       96.0280846509550489
                      103.6054899480611714
                      111.4822159012783693
                      119.6485131532409871
                      128.1018986008912951
                      136.8326829055556043
                      145.8064492361684178
                      154.9454273467066572
                      164.1206055318972338
                      173.1604266097866089
                      181.8705562154660572
                      190.0757586014232059
                      197.6561515819822074
                      204.5323677216078900
                      210.6364416168718871
                      215.9297228878210300
                      220.3782461929938361
                      223.9689706184466264
                      226.6222418686797569
                      235.1318686534831182
                      242.5994849032963494
                      241.9594533829049472
                      239.7953758048579899
                      235.9723716754755354
                      230.4997279678601111
                      223.4531414259319653
                      214.9929616106189244
                      205.3348406201329750
                      194.7321948260333672
                      183.4693874297893369
                      171.8485194430679276
                      160.1453280499748148
                      148.5800836299107301
                      137.3202964682956470
                      126.4882233022174111
                      116.1681344730327614
                      106.4133859116829190
                       97.2528994261407359
                       88.6968863354228393
                       80.7416922009335041
                       73.3737671669266781
                       66.5726995318210090
                       60.3131852339981724
                       54.5669814444288574
                       49.3050301698387073
                       44.4985775499818877
                       40.1194964558494295
                       36.1403625302176506
                       32.5343020270225602
                       29.2746852006973252
                       26.3347949579729782
                       23.6876251655845303
                       21.3059521415084807
                       19.1627609669708025
                       17.2319936594277030
                       15.4894363072048303
                       13.9135379049727671
                       12.4857404068816367
                       11.1910626105870468
                       10.0154041914891883
                        8.9549695837275787
                        7.9733313550877047
                        7.1788561493662808
                        6.0660299869423965
                        6.3683383098495676
                        9.0327966063308904
                       11.1398674887754754
                       11.7814453708461885
                       12.0810903883210674
                       12.4129859321447091
                       12.6863399703212639
                       12.9483281133914601
                       13.2033067073183437
                       13.4673671560843775
                       13.7519644206075584
                       14.0681596099476235
                       14.4244373901868894
                       14.8260508285027673
                       15.2745033057432421
                       15.8119337512901297
                       14.3408001408151800
                       14.9873011094708369
                       15.5639501972515881
                       16.0264341584036499
                       16.3697894449272674
                       16.5937449000538470
                       16.6979892132436268
                       16.6804549495590183
                       16.5386172012983717
                       16.2687926948420908
                       15.8761265057146045
                       15.3490518289823005
                       14.7550393735279963
                       13.9206188483026642
                       12.2007554749514687
                       10.3043454063007769
                       10.5412688953884612
                       11.9763945729014478
                       13.1171121886059715
                       14.4561566134682129
                       15.9037407757712572
                       17.5051245882400394
                       19.2788351062875061
                       21.2551043039088809
                       23.4666313925986207
                       25.9497995278499486
                       28.7428119039131884
                       31.8842608970349047
                       35.4118320252259652
                       39.3616836574760487
                       43.7685250567192376
                       48.6661469043043319
                       54.0880118659567942
                       60.0675942215691797
                       66.6382989730350632
                       73.8328688562175605
                       81.6822168323038434
                       90.2136665521718259
                       99.4486664340722585
                      109.4006903411745070
                      120.0737334030944920
                      131.4599605400148091
                      143.5367519787366977
                      156.2645399318192247
                      169.5855145802413209
                      183.4235103576031375
                      197.6856043332939392
                      212.2658728707157854
                      227.0515369323300501
                      241.9311305904176493
                      256.8039701966535572
                      271.5840216234337857
                      286.1622697472240888
                      300.3543221486942496
                      313.9040388618941326
                      326.5029126135146772
                      337.8065201058113038
                      347.4374254773938296
                      355.0516876088219935
                      360.2621314817937831
                      352.7231323945923774
                      342.5399659115603899
                      340.0718338401630789
                      335.4601220134999721
                      328.8554052159807856
                      320.5097717488177547
                      310.6342165156341801
                      299.4838703165045683
                      287.3302872937678585
                      274.4493923134427191
                      261.0742555517804283
                      247.3531996396537554
                      233.3813540071839321
                      219.2455183435250820
                      205.0478211197567581
                      190.9208447020222682
                      177.0232886944237754
                      163.5198281525619032
                      150.5594618915409839
                      138.2548240453540966
                      126.6742610430004791
                      115.8510220841515473
                      105.7934603590893464
                       96.4921273292500715
                       87.9250100811377778
                       80.0614892575480512
                       72.8653762966358849
                       66.2972423515951850
                       60.3161869296891812
                       54.8811538979208917
                       49.9518805197512048
                       45.4895506264815491
                       41.4572070855130989
                       37.8199578159636833
                       34.5449928810630892
                       31.6014374539806869
                       28.9600872141689594
                       26.5931347373227341
                       24.4738990767640118
                       22.5769162091036842
                       20.8773810774582721
                       19.3533830604695453
                       17.9794644664542467
                       16.7469723545343033
                       15.6091447561435079
                       14.6006738337104068
                       14.3865068459569535
                       14.9300147524492730
                       15.4862574298895897
                       15.9780139018225663
                       16.4348026532671997
                       16.8417336146929720
                       17.1968910805225736
                       17.4913028038699605
                       17.7190521546264835
                       17.8789701339417774
                       17.9800015660021233
                       18.0418743852582980
                       18.0949053356314473
                       18.1678323273071560
                       18.2187989556764202
                       18.1954636633586057
                       18.1512780362607125
                       18.1291988979311307
                       18.1003470737822654
                       18.0330839480488780
                       17.9058621412441151
                       17.7081362149341715
                       17.4400748807492812
                       17.1071779822789775
                       16.7184608242243209
                       16.2758492227513914
                       15.7948389650683718
                       15.2449222721404882
                       14.7059637926780255
                       14.9416832896448686
                       15.9919350602296427
                       17.1776057518959018
                       18.4629207760240438
                       19.8961723139103580
                       21.4861852843752205
                       23.2589793367986224
                       25.2366581727149126
                       27.4439879123786055
                       29.9059732416570794
                       32.6483070917487904
                       35.6971135881743044
                       39.0790235782558808
                       42.8212026378163936
                       46.9513178923737313
                       51.4973342311589317
                       56.4870974466547895
                       61.9476866955666068
                       67.9045358018900945
                       74.3803269699026388
                       81.3936721542412060
                       88.9576260552671864
                       97.0781236669233059
                      105.7525094593107676
                      114.9684424785167071
                      124.7036424698019209
                      134.9272500638774321
                      145.6040042943875474
                      156.7033199692337482
                      168.2098806447693527
                      180.1183363513611670
                      192.4135297134492192
                      205.0464076782186302
                      217.9080529118661231
                      230.8184964032931580
                      243.5385543745986081
                      255.7970295743073727
                      267.3479386052393360
                      278.0225134461579969
                      287.7069583565015838
                      296.3058291569554007
                      303.7559501304365633
                      310.0174166854844301
                      315.0516588340080867
                      318.7766167651347514
                      330.7130261452203662
                      341.1728185793772384
                      340.2382328072851890
                      337.1414889181184501
                      331.7237258711210819
                      323.9896142259049545
                      314.0529554217922976
                      302.1398632652668755
                      288.5548345072879650
                      273.6540624081608407
                      257.8355427173029999
                      241.5214950354258156
                      225.0959825111507186
                      208.8655632842514462
                      193.0635743973074931
                      177.8603799507209711
                      163.3735244514341858
                      149.6775482196238339
                      136.8129956763497207
                      124.7943638666381652
                      113.6168276969168929
                      103.2617330170833759
                       93.7008054874513650
                       84.8989778616107466
                       76.8171905113975535
                       69.4153299977307642
                       62.6538078266342463
                       56.4941912569472163
                       50.8995133291545058
                       45.8342684868508837
                       41.2641186534173864
                       37.1553382321996398
                       33.4740558476390806
                       30.1854802996548861
                       27.2534565140576732
                       24.6406956212901699
                       22.3097552096845191
                       20.2245445737455237
                       18.3516930512583808
                       16.6621688077618137
                       15.1294687700325617
                       13.7394463988840148
                       12.4471508687667828
                       11.3584731431987506
                        9.9202329503623123
                        9.7844716564609303
                       11.8229165086625721
                       13.5395388986363853
                       14.3697688634178352
                       14.9737405524815075
                       15.5208456454754940
                       15.9431715705639610
                       16.2498492747735087
                       16.4331301342169157
                       16.4938389940102433
                       16.4317384903830729
                       16.2465547533657016
                       15.9369490383071667
                       15.5023301504009184
                       14.9475290283015386
                       14.3182223270673236
                       16.0301845802579463
                       17.2483170269756010
                       18.3736517589723478
                       19.3328507593979862
                       20.0935914272911739
                       20.6513143519234444
                       21.0128166589682134
                       21.1863255092954589
                       21.1782709068852916
                       20.9917602316131309
                       20.6312585280067272
                       20.0907979282188374
                       19.4041516763549150
                       18.4837735222429697
                       16.9933014956658635
                       15.9322642616345125
                       16.8921211191175162
                       18.7571081733906652
                       20.5205760161819178
                       22.5642859699671060
                       24.8424885551973134
                       27.4077788867593779
                       30.2946767542916857
                       33.5469300533204584
                       37.2103774687840286
                       41.3335502001036828
                       45.9663498749030980
                       51.1594999481954448
                       56.9644597171048017
                       63.4338577870880535
                       70.6220372477670223
                       78.5853065522599532
                       87.3817032586335916
                       97.0703099875575681
                      107.7101930312794041
                      119.3589137441414532
                      132.0704723583869465
                      145.8925665464243822
                      160.8631526241316743
                      177.0071313853593827
                      194.3338412809946489
                      212.8332531728800665
                      232.4711704104582828
                      253.1854901615741245
                      274.8837312358724096
                      297.4423909938378652
                      320.7089928560134734
                      344.5075816035540794
                      368.6480500279089151
                      392.9388427589346389
                      417.2016458040981606
                      441.2785223158549304
                      464.9766813631863474
                      487.9890415466463477
                      509.8990620246462380
                      530.2117222566701316
                      548.3748505500942915
                      563.8003607107941588
                      575.9257956530360912
                      584.1969747064727054
                      571.7997557701103379
                      555.1710773770643809
                      551.1302940891639564
                      543.6150061342050617
                      532.9047488975623322
                      519.3686776575666793
                      503.3605306519599229
                      485.2884206528808729
                      465.5852418541420280
                      444.6910115985524297
                      422.9812935999619521
                      400.7018462628788840
                      378.0169486903106325
                      355.0767283514964895
                      332.0526674724584285
                      309.1604704646277303
                      286.6532733359972084
                      264.7909265699672162
                      243.8072492756355885
                      223.8787357352128666
                      205.1129440698720872
                      187.5629175112775343
                      171.2426172830965580
                      156.1378349566864718
                      142.2143038112870368
                      129.4238854406522586
                      117.7093383388388208
                      107.0079782610740078
                       97.2544504281577164
                       88.3827851310583233
                       80.3278841321165767
                       73.0265711880467406
                       66.4183219696433035
                       60.4457546828650155
                       55.0549161995241702
                       50.1953656516563606
                       45.8200539512697284
                       41.8850572714837273
                       38.3491932125030157
                       35.1738339094233165
                       32.3222789408076541
                       29.7611270603141554
                       27.4558459778925587
                       25.3842787609057273
                       23.5009119167822190
                       21.8133991371580765
                       21.3292665977433869
                       21.9702650094610126
                       22.5717704787567131
                       23.0658163833043072
                       23.4747920191226340
                       23.7946040730730113
                       24.0301848767854976
                       24.1840397525288520
                       24.2628907761679111
                       24.2792855697898684
                       24.2546890294965102
                       24.2190577102223763
                       24.2086824425970468
                       24.2568575035707297
                       24.3062865983506012
                       24.2870867462162502
                       24.2705206712502647
                       24.3152264478688727
                       24.3881017671010107
                       24.4519127852712747
                       24.4751204266095382
                       24.4346162845368041
                       24.3165309569727280
                       24.1132427553612112
                       23.8217265795352584
                       23.4366355528724652
                       22.9620268945150106
                       22.3747328947304868
                       21.7443483087850608
                       22.2609777130110458
                       24.0078739847377296
                       25.9589916557509972
                       28.1067219147367173
                       30.4978892283096422
                       33.1552472664456577
                       36.1140149329067711
                       39.4079345672332343
                       43.0736941925293332
                       47.1493632802828174
                       51.6748370587337838
                       56.6917690167052700
                       62.2436372207302489
                       68.3756165332831618
                       75.1342294906290533
                       82.5667192915025412
                       90.7201483830135424
                       99.6402262388565332
                      109.3698538244775002
                      119.9473589792988955
                      131.4044123654717492
                      143.7636634130156749
                      157.0362193805319824
                      171.2192153674494295
                      186.2939129122894894
                      202.2250550476664008
                      218.9626716264675302
                      236.4482335243272897
                      254.6282434104026535
                      273.4709704487008959
                      292.9592742472508033
                      313.0609607530317482
                      333.6920677976103697
                      354.6765559981818941
                      375.7281902346325272
                      396.4678518216036256
                      416.4647946254935642
                      435.3240518022282101
                      452.7681258535323768
                      468.6032757193708227
                      482.6671038009189715
                      494.8375874355135815
                      505.0372214603691388
                      513.1829093982259956
                      519.1745351023574297
                      538.4671068133890138
                      555.2961346074504091
                      553.5556437638625234
                      548.2669755387081271
                      539.2243346027455554
                      526.4441353590158796
                      510.1320016239860105
                      490.6650111411722003
                      468.5436898953107019
                      444.3465821513624837
                      418.7125757147895671
                      392.3117325708482830
                      365.7495649091342073
                      339.5090814040028329
                      313.9585679989091765
                      289.3675246139613844
                      265.9226014213873148
                      243.7429135350154723
                      222.8941041040743590
                      203.4007423308836583
                      185.2568090948842832
                      168.4342334378775986
                      152.8894210882222574
                      138.5676890486032374
                      125.4075342529438084
                      113.3448883578405131
                      102.3153079821557277
                       92.2549822806017935
                       83.1014335041123236
                       74.7939884957450092
                       67.2741092028896413
                       60.4856149148472455
                       54.3746962121012055
                       48.8895796245830356
                       43.9798850035179887
                       39.5960046135054995
                       35.6889152049436150
                       32.2106455268993505
                       29.1150821497536088
                       26.3593530193522862
                       23.9028312247939727
                       21.7149590505783141
                       19.7432830239354322
                       18.0494840524583232
                       16.1872076391925355
                       15.3196956599516767
                       16.5170231563287592
                       18.0043677671253159
                       18.9282705592855271
                       19.6341839309261357
                       20.2063550814629285
                       20.6087981647705427
                       20.8443956612937561
                       20.9054348792548672
                       20.7855132939986858
                       20.4752124216376372
                       19.9639700774003283
                       19.2434629008480462
                       18.3173471093534695
                       17.2173969806685021
                       16.0181243762359234
                       26.9723415297389323
                       30.8360362377862838
                       33.9175992623558411
                       35.8966669929583468
                       36.9335388434015260
                       37.3345082843387539
                       37.3754142720166974
                       37.2326652794142190
                       36.9871466123762686
                       36.6465855278839744
                       36.1614174708420188
                       35.4319984768362704
                       34.3146498449874527
                       32.6515260275790745
                       30.3290756647467349
                       30.0834631773463413
                       32.3074091822529542
                       35.1931880410543538
                       38.7634197822166990
                       43.0662815659068447
                       48.1504467716387928
                       54.0657409576214493
                       60.8569849947657667
                       68.5634855550977354
                       77.2220046264935923
                       86.8735147755969436
                       97.5716379202342199
                      109.3896809786986038
                      122.4235471172779544
                      136.7898233435113064
                      152.6206753291214903
                      170.0581028100784533
                      189.2492020485320130
                      210.3425283380001407
                      233.4847936837807524
                      258.8171953795423837
                      286.4710166384056435
                      316.5622693700128271
                      349.1851073400690329
                      384.4050830908126517
                      422.2535631167801266
                      462.7191496594819585
                      505.7369639377154462
                      551.1796914705245757
                      598.8508409755335999
                      648.4815911731642153
                      699.7331584355820863
                      752.2064424234384243
                      805.4598999884831249
                      859.0349715959459326
                      912.4861165460807318
                      965.3986084262710255
                     1017.2888188268180570
                     1067.4566760099646561
                     1114.9899003392108382
                     1158.8267661915039526
                     1197.7965441971458705
                     1230.6837210919712789
                     1256.3089775623991877
                     1273.6115387193773815
                     1245.9645165618349490
                     1209.3058402951240927
                     1200.2965428192982447
                     1183.8089743127325154
                     1160.4470422135396164
                     1130.9267829429723712
                     1096.0493317146976650
                     1056.6843800945628169
                     1013.7467214316850778
                      968.1684599699078433
                      920.7584324595252583
                      872.0744035737155864
                      822.5123599997481417
                      772.4345716785125594
                      722.2363285353726135
                      672.3894467974210462
                      623.4288370346958215
                      575.8934594114722341
                      530.2637910522351223
                      486.9019735270862662
                      446.0305036504560351
                      407.7613229903984229
                      372.1258898723137897
                      339.0967044165605261
                      308.6035646839383814
                      280.5461943164084203
                      254.8041378510782218
                      231.2445015213055340
                      209.7279692763220290
                      190.1134365540536424
                      172.2615329216132028
                      156.0372366769505920
                      141.3117234698454889
                      127.9635471580263051
                      115.8792340667897262
                      104.9533814352590745
                       95.0883712949528660
                       86.1938212132101040
                       78.1858845929982606
                       70.9865034895397335
                       64.5226997866679959
                       58.7260254986725505
                       53.5321205388601585
                       48.8808149866234709
                       44.7152849459006712
                       40.9848118920971608
                       39.6259181686085758
                       40.4040080090694249
                       41.0092175743057314
                       41.4000649177315026
                       41.6103471297057221
                       41.6771871805903787
                       41.6381986441692023
                       41.5303574714764587
                       41.3884118091236608
                       41.2437002447903511
                       41.1234159907037208
                       41.0508487887718485
                       41.0472978307835435
                       41.1361792858887063
                       41.2156085133259941
                       41.1814992257226245
                       41.1377613080354245
                       41.1866672799651183
                       41.3051746201817875
                       41.4723511197282575
                       41.6651084748410014
                       41.8561375480499337
                       42.0135866135847263
                       42.1018033374354392
                       42.0825778826249244
                       41.9168263006041885
                       41.5658180139878835
                       40.9941490417944100
                       40.2429591964690063
                       41.6616213011543490
                       45.4943417191725264
                       49.7773205184156722
                       54.5627321815521257
                       59.9088288175013672
                       65.8770097364746128
                       72.5325937877064475
                       79.9445835659734478
                       88.1859493143829663
                       97.3339558558026790
                      107.4705580687888211
                      118.6827091363446209
                      131.0624642190914309
                      144.7067521537496723
                      159.7166908505588461
                      176.1963286727600547
                      194.2507197191535794
                      213.9832784826697712
                      235.4923950612364261
                      258.8673205997568410
                      284.1833656575387721
                      311.4965166714719547
                      340.8377007426700462
                      372.2071564545028421
                      405.5697475963113819
                      440.8526560490904808
                      477.9478221345429579
                      516.7229952267339990
                      557.0477304000858709
                      598.8277508625220142
                      641.9939273541056735
                      686.4466071642198492
                      731.9846212748141986
                      778.2250540845315518
                      824.5644668411520091
                      870.2095593128481040
                      914.2560415202882932
                      955.8603252195532976
                      994.4018971242718037
                     1029.4249072020639566
                     1060.5406251931206809
                     1087.4248613976813094
                     1109.8239202635205277
                     1127.5320249853744531
                     1140.3762359794691367
                     1182.2083442267750237
                     1218.4023640379781511
                     1213.7114944118423275
                     1201.1755387586341277
                     1180.4715973112521196
                     1151.7021272631840098
                     1115.3836984998448073
                     1072.3809283238693956
                     1023.8089669808471381
                      970.9319582551077899
                      915.1183844891245577
                      857.7714382858030984
                      800.1456961575441317
                      743.2412776429426402
                      687.8228214282216805
                      634.4522230717136669
                      583.5212644612619751
                      535.2828012476867955
                      489.8793828592478113
                      447.3684550357214065
                      407.7436591736389888
                      370.9521475148296338
                      336.9078418245792708
                      305.5003266187933451
                      276.6028400094282335
                      250.0799231315120964
                      225.7909550325158042
                      203.5918938022910461
                      183.3369487673467016
                      164.8802808642052845
                      148.0777924489166116
                      132.7893484274000682
                      118.8821225037678160
                      106.2354927141871403
                       94.7466300482031799
                       84.3344449570945919
                       74.9394054381000725
                       66.5184740070035664
                       59.0368535917201386
                       52.4596591491228379
                       46.7462809484695268
                       41.8489343440588680
                       37.7143327860093551
                       34.2909167249145150
                       31.5275378193198888
                       29.3937461863189708
                       29.6790632134286198
                       32.0165019132291193
                       33.7202230045898706
                       34.8863697618956615
                       35.6641815123126554
                       36.1945707747273154
                       36.5774349766423153
                       36.8637576551899589
                       37.0477409465281673
                       37.0511256725061538
                       36.7007938529106077
                       35.7232697923763836
                       33.8098861633810552
                       30.7904210005525919
                       26.9717974016991383
                </DataArray>
                <DataArray type="Float32" Name="jacobian" NumberOfComponents="1" format="ascii">
                        0.0012631764962489
                        0.0014106926621542
                        0.0015356191564476
                        0.0016318421497675
                        0.0017020065334026
                        0.0017488113639537
                        0.0017749753974793
                        0.0017829976977680
                        0.0017755673869076
                        0.0017536308794068
                        0.0017230241260111
                        0.0016709177482508
                        0.0016478357121840
                        0.0014860051895306
                        0.0009422808819763
                        0.0004729698408715
                        0.0004198894916510
                        0.0004857588394821
                        0.0005271211134592
                        0.0005793986132687
                        0.0006351176059284
                        0.0006970333628003
                        0.0007656997094509
                        0.0008423928632471
                        0.0009283966731196
                        0.0010251289221179
                        0.0011340568996010
                        0.0012566595092372
                        0.0013943847686296
                        0.0015486238732144
                        0.0017207020737439
                        0.0019118855602162
                        0.0021233969808856
                        0.0023564285638954
                        0.0026121410670636
                        0.0028916396029014
                        0.0031959225789540
                        0.0035258051104472
                        0.0038818231444356
                        0.0042641659903752
                        0.0046726526876922
                        0.0051066582599909
                        0.0055650109781170
                        0.0060459395828652
                        0.0065470683861796
                        0.0070654678436240
                        0.0075977803684021
                        0.0081404351215833
                        0.0086899585183680
                        0.0092433539743901
                        0.0097985388571041
                        0.0103544233566342
                        0.0109087790550071
                        0.0114554616565134
                        0.0119847554737823
                        0.0124842046787209
                        0.0129396986063135
                        0.0133341216984141
                        0.0136540624820958
                        0.0138776279607256
                        0.0136073054709743
                        0.0132283111053351
                        0.0131390496187072
                        0.0129654269625164
                        0.0127110974248357
                        0.0123899781153785
                        0.0120088169327676
                        0.0115781560782423
                        0.0111093872398393
                        0.0106140483246217
                        0.0101014416036109
                        0.0095765896364440
                        0.0090419111308725
                        0.0084995935634052
                        0.0079528492737061
                        0.0074067118175710
                        0.0068678361031694
                        0.0063434662041457
                        0.0058403114754728
                        0.0053634694661424
                        0.0049159691092126
                        0.0044992071322213
                        0.0041134699797937
                        0.0037582808558242
                        0.0034326472376510
                        0.0031352398139327
                        0.0028645240345526
                        0.0026188560592032
                        0.0023965512125091
                        0.0021959307611974
                        0.0020153518357034
                        0.0018532248703915
                        0.0017080226540296
                        0.0015782846264439
                        0.0014626191919212
                        0.0013597059366083
                        0.0012682977189705
                        0.0011872247908179
                        0.0011153910350636
                        0.0010517960196226
                        0.0009954560614206
                        0.0009456774286481
                        0.0009011107437279
                        0.0008627691628756
                        0.0008252481469919
                        0.0007968788940422
                        0.0008106795220147
                        0.0008703278992851
                        0.0009422631199505
                        0.0010167516250276
                        0.0011014222588479
                        0.0011953098539146
                        0.0013006087933878
                        0.0014171817412052
                        0.0015436963231068
                        0.0016759711071705
                        0.0018067835698878
                        0.0019249652205007
                        0.0020188599138367
                        0.0020751620748340
                        0.0020941025204003
                        0.0020843236339340
                        0.0020362405354337
                        0.0019489101438319
                        0.0018353875918350
                        0.0017074769243036
                        0.0015767425547909
                        0.0014508414144711
                        0.0013343194846442
                        0.0012287449934150
                        0.0011344173344848
                        0.0010491357249947
                        0.0009740580624149
                        0.0009011226546208
                        0.0008408065610704
                        0.0008277987816775
                        0.0008584759450142
                        0.0008989667000504
                        0.0009403329843695
                        0.0009883395482878
                        0.0010418653775499
                        0.0011023133288216
                        0.0011703643975980
                        0.0012469900001571
                        0.0013331503795279
                        0.0014298718811507
                        0.0015382134932016
                        0.0016592600351858
                        0.0017941052744404
                        0.0019438356281594
                        0.0021095119036226
                        0.0022921490759434
                        0.0024926924279557
                        0.0027119882111628
                        0.0029507472497711
                        0.0032095010896200
                        0.0034885522718100
                        0.0037879231264103
                        0.0041073113147301
                        0.0044460660626526
                        0.0048032072231892
                        0.0051775243185764
                        0.0055678103424656
                        0.0059733338870506
                        0.0063943142269935
                        0.0068315441756797
                        0.0072853422402564
                        0.0077543521657823
                        0.0082343152093071
                        0.0087176309702750
                        0.0091940388021908
                        0.0096520004894479
                        0.0100815255500419
                        0.0104766018030084
                        0.0108339278738013
                        0.0111507957178501
                        0.0114268352572061
                        0.0116626120716987
                        0.0118583595124611
                        0.0120081160766451
                        0.0124747278684994
                        0.0128928735867276
                        0.0128845408944286
                        0.0127971667520406
                        0.0126195522059571
                        0.0123504181164829
                        0.0119917213645127
                        0.0115508380955816
                        0.0110386704322738
                        0.0104688108096291
                        0.0098573609244421
                        0.0092224199571901
                        0.0085809038980083
                        0.0079463245305205
                        0.0073288853845590
                        0.0067359537676813
                        0.0061725206608836
                        0.0056416535874007
                        0.0051449118834798
                        0.0046827134431094
                        0.0042546443437652
                        0.0038597110110403
                        0.0034965294692810
                        0.0031634432706076
                        0.0028586475796869
                        0.0025803373232644
                        0.0023267844111962
                        0.0020963594559838
                        0.0018875385461994
                        0.0016988943043912
                        0.0015290718634427
                        0.0013767548637957
                        0.0012406301256061
                        0.0011193606235977
                        0.0010115742995170
                        0.0009158722163998
                        0.0008308538134643
                        0.0007551567297484
                        0.0006874906417050
                        0.0006267120193916
                        0.0005716981881267
                        0.0005220256286286
                        0.0004751202418680
                        0.0004384696531728
                        0.0003768833040967
                        0.0004344837942514
                        0.0009100196367131
                        0.0014577243328864
                        0.0016176145392369
                        0.0016369773326642
                        0.0016852120156404
                        0.0017121376525632
                        0.0017312432597241
                        0.0017373727439673
                        0.0017301442845973
                        0.0017072330286396
                        0.0016661836984761
                        0.0016039373476734
                        0.0015170592354503
                        0.0014018437800322
                        0.0012629126567447
                        0.0006077491121851
                        0.0006463828801026
                        0.0006738261955403
                        0.0006896551564157
                        0.0006969095141651
                        0.0006979246815258
                        0.0006942914929002
                        0.0006868972442846
                        0.0006761140007554
                        0.0006616836205080
                        0.0006436724474751
                        0.0006196989241583
                        0.0005946048406037
                        0.0005487170279132
                        0.0004352770929448
                        0.0003116825998422
                        0.0002996986634961
                        0.0003474596389492
                        0.0003816996959474
                        0.0004236501578425
                        0.0004689248930576
                        0.0005191843631204
                        0.0005747747258449
                        0.0006364941807919
                        0.0007051867894703
                        0.0007818339395833
                        0.0008675103147587
                        0.0009633560939552
                        0.0010705372114548
                        0.0011902110954185
                        0.0013235035207939
                        0.0014715001619018
                        0.0016352501858131
                        0.0018157745840456
                        0.0020140695074238
                        0.0022310955240308
                        0.0024677471183613
                        0.0027248011868185
                        0.0030028474776909
                        0.0033022291066050
                        0.0036230045760968
                        0.0039648787158309
                        0.0043271145135776
                        0.0047084740185395
                        0.0051071883232132
                        0.0055209646987723
                        0.0059470470883411
                        0.0063823426714252
                        0.0068236213600538
                        0.0072677736971284
                        0.0077121128553440
                        0.0081544729546832
                        0.0085919375818426
                        0.0090191374017325
                        0.0094283890604539
                        0.0098102803753063
                        0.0101543236317963
                        0.0104485454417403
                        0.0106828851235529
                        0.0108437209604766
                        0.0106207106030945
                        0.0103168372762731
                        0.0102433525542951
                        0.0101054725353065
                        0.0099066247755361
                        0.0096554963406306
                        0.0093581032298399
                        0.0090222652086807
                        0.0086563259449268
                        0.0082687651874677
                        0.0078666552094593
                        0.0074543417574798
                        0.0070344550630448
                        0.0066093899392734
                        0.0061820820937833
                        0.0057565025590429
                        0.0053375232620068
                        0.0049302659438912
                        0.0045393967781405
                        0.0041684503750025
                        0.0038195587316169
                        0.0034937406946548
                        0.0031912360572277
                        0.0029117324751776
                        0.0026545314793835
                        0.0024186725144511
                        0.0022030276446851
                        0.0020063742540782
                        0.0018274507505077
                        0.0016649984682072
                        0.0015177917319849
                        0.0013846573038083
                        0.0012644842641185
                        0.0011562257295256
                        0.0010588944392498
                        0.0009715549925091
                        0.0008933153780572
                        0.0008233214631214
                        0.0007607516727473
                        0.0007048273280619
                        0.0006547832076449
                        0.0006099857147009
                        0.0005695656070073
                        0.0005335708234717
                        0.0004997624026283
                        0.0004707121813292
                        0.0004672835378937
                        0.0004888691251459
                        0.0005127008391674
                        0.0005349089740382
                        0.0005574516371057
                        0.0005795335948399
                        0.0006011841053717
                        0.0006218420934837
                        0.0006409022263399
                        0.0006576748588954
                        0.0006716839070718
                        0.0006827535755398
                        0.0006913044890183
                        0.0006978190948087
                        0.0007009162401371
                        0.0006992287518414
                        0.0006941183812391
                        0.0006869729751189
                        0.0006772835575598
                        0.0006645751060317
                        0.0006489697620604
                        0.0006309114591435
                        0.0006110836478127
                        0.0005901008340233
                        0.0005685443873685
                        0.0005463856955165
                        0.0005244632341841
                        0.0005007318653669
                        0.0004792386991798
                        0.0004833886263941
                        0.0005138949914663
                        0.0005494102698627
                        0.0005872442125330
                        0.0006297295048575
                        0.0006768041068929
                        0.0007293591752252
                        0.0007880296986167
                        0.0008535766219722
                        0.0009267590067528
                        0.0010083607236208
                        0.0010991743728188
                        0.0012000006454654
                        0.0013116464228455
                        0.0014349242503911
                        0.0015706491479850
                        0.0017196300978524
                        0.0018826537820957
                        0.0020604594275392
                        0.0022537049115374
                        0.0024629255073503
                        0.0026884877268282
                        0.0029305419355603
                        0.0031889792890373
                        0.0034634019375279
                        0.0037531209612377
                        0.0040572066213143
                        0.0043746285199913
                        0.0047045564976074
                        0.0050466917036078
                        0.0054010700222809
                        0.0057674097748935
                        0.0061443338923595
                        0.0065285471459499
                        0.0069145009074208
                        0.0072947939618873
                        0.0076610546028503
                        0.0080057914007084
                        0.0083240148147872
                        0.0086125160985681
                        0.0088685801575319
                        0.0090907830044073
                        0.0092781591222699
                        0.0094301385662257
                        0.0095433109178054
                        0.0099039946845946
                        0.0102218149552920
                        0.0101987787171000
                        0.0101117045206810
                        0.0099544834802198
                        0.0097271491536425
                        0.0094326137813549
                        0.0090774537327696
                        0.0086706759407866
                        0.0082229768521398
                        0.0077464815263408
                        0.0072542319155488
                        0.0067581864644394
                        0.0062678947530855
                        0.0057906091616457
                        0.0053316108615986
                        0.0048945273218781
                        0.0044816416041572
                        0.0040941759357307
                        0.0037325421591307
                        0.0033965536930851
                        0.0030855991185320
                        0.0027987746676661
                        0.0025349698687162
                        0.0022929539443717
                        0.0020714726295787
                        0.0018692989767290
                        0.0016852478595336
                        0.0015181779090509
                        0.0013669813306747
                        0.0012305651558712
                        0.0011078307857854
                        0.0009976598585665
                        0.0008989131398730
                        0.0008104455083100
                        0.0007311351578301
                        0.0006599196240014
                        0.0005958309657267
                        0.0005380131556144
                        0.0004857532907564
                        0.0004383734048752
                        0.0003956472756827
                        0.0003559298194811
                        0.0003239877311403
                        0.0002771839963615
                        0.0002935273096411
                        0.0004221653042178
                        0.0005358872470040
                        0.0005817846127430
                        0.0006072051324190
                        0.0006315346068964
                        0.0006500326544861
                        0.0006650885851775
                        0.0006766663984814
                        0.0006850449226189
                        0.0006898636136588
                        0.0006902338505108
                        0.0006845429362749
                        0.0006703962924535
                        0.0006446319553087
                        0.0006074483149961
                        0.0002887722737080
                        0.0002838355800221
                        0.0002785031724765
                        0.0002720130631467
                        0.0002651079779810
                        0.0002584663752705
                        0.0002524984730839
                        0.0002473320122240
                        0.0002428920853451
                        0.0002389437215480
                        0.0002352687916263
                        0.0002313065081154
                        0.0002275813008994
                        0.0002209351794233
                        0.0001996263028730
                        0.0001726947427574
                        0.0001800207772280
                        0.0002090404113555
                        0.0002342223414206
                        0.0002642049606387
                        0.0002973892411819
                        0.0003345512337057
                        0.0003759297435072
                        0.0004219484070404
                        0.0004730608439140
                        0.0005297981826204
                        0.0005927569260848
                        0.0006625911838544
                        0.0007400000919841
                        0.0008257195503110
                        0.0009205187031677
                        0.0010251977384166
                        0.0011405819167230
                        0.0012675093407909
                        0.0014068130603489
                        0.0015592987272783
                        0.0017257174938715
                        0.0019067323229905
                        0.0021028757797575
                        0.0023145097055667
                        0.0025417918147815
                        0.0027846243829262
                        0.0030425898570696
                        0.0033148995458200
                        0.0036003574729262
                        0.0038973466722450
                        0.0042038497598067
                        0.0045175138970946
                        0.0048357659469197
                        0.0051559713522339
                        0.0054756239176279
                        0.0057924354569586
                        0.0061036691548160
                        0.0064052129156284
                        0.0066915970401903
                        0.0069563681709591
                        0.0071924421200212
                        0.0073921627486286
                        0.0075487042869194
                        0.0076544137863740
                        0.0074902693560602
                        0.0072713488148528
                        0.0072174095015164
                        0.0071188569877949
                        0.0069784260096115
                        0.0068010370464315
                        0.0065913615817731
                        0.0063546826531775
                        0.0060965748432725
                        0.0058227205508915
                        0.0055379976506014
                        0.0052457118107277
                        0.0049481378572697
                        0.0046473531273810
                        0.0043456709705818
                        0.0040459176550367
                        0.0037513494255693
                        0.0034652804205355
                        0.0031906804305140
                        0.0029297914748789
                        0.0026839878231120
                        0.0024539511112206
                        0.0022398642896289
                        0.0020415472051424
                        0.0018585584612041
                        0.0016902737812372
                        0.0015359472797054
                        0.0013947595481054
                        0.0012658554368894
                        0.0011483736384908
                        0.0010414695706691
                        0.0009443324934013
                        0.0008561972407900
                        0.0007763504936191
                        0.0007041314263830
                        0.0006389271876138
                        0.0005801646349896
                        0.0005273013436433
                        0.0004798169875735
                        0.0004372128049351
                        0.0003989994722305
                        0.0003647402205757
                        0.0003339281004431
                        0.0003063715406058
                        0.0002811683109071
                        0.0002589297848693
                        0.0002511202804716
                        0.0002561208582104
                        0.0002606014931074
                        0.0002633045883195
                        0.0002647942855300
                        0.0002649530580370
                        0.0002639271780642
                        0.0002618109416114
                        0.0002587966007271
                        0.0002551742024933
                        0.0002513699778517
                        0.0002479119103944
                        0.0002453996377889
                        0.0002443362900402
                        0.0002442320743595
                        0.0002444232547345
                        0.0002456051025711
                        0.0002482952995238
                        0.0002520032772538
                        0.0002561252019000
                        0.0002601166495911
                        0.0002635299383890
                        0.0002660541280368
                        0.0002674791964336
                        0.0002676975628115
                        0.0002665499560101
                        0.0002641506514605
                        0.0002599129453726
                        0.0002551230415405
                        0.0002633604745274
                        0.0002863117367924
                        0.0003123426985096
                        0.0003408267468794
                        0.0003726898590560
                        0.0004081263824955
                        0.0004476515904573
                        0.0004917045092688
                        0.0005407729860516
                        0.0005953478224681
                        0.0006559334121990
                        0.0007230456618640
                        0.0007972171936133
                        0.0008790016028137
                        0.0009689756060727
                        0.0010677361252954
                        0.0011758911221206
                        0.0012940440289049
                        0.0014227723705968
                        0.0015626013665224
                        0.0017139733572241
                        0.0018772141318378
                        0.0020524978651636
                        0.0022398136278892
                        0.0024389386934664
                        0.0026494274740880
                        0.0028706310819749
                        0.0031017711131582
                        0.0033421106328500
                        0.0035911620249679
                        0.0038486070228366
                        0.0041139345333402
                        0.0043859851079419
                        0.0046624509144631
                        0.0049396426499295
                        0.0052126940976576
                        0.0054760703349194
                        0.0057246662442785
                        0.0059547865987354
                        0.0061637999425546
                        0.0063494428311103
                        0.0065100552572440
                        0.0066441185586740
                        0.0067508207193772
                        0.0068284822043766
                        0.0070807306697593
                        0.0072998524526836
                        0.0072740756002446
                        0.0072017901472073
                        0.0070802161749364
                        0.0069099790518291
                        0.0066939148124042
                        0.0064371205239795
                        0.0061462238032498
                        0.0058288147394980
                        0.0054931955398243
                        0.0051479474664163
                        0.0048007959578472
                        0.0044579090624424
                        0.0041239951378954
                        0.0038025085513128
                        0.0034958507268088
                        0.0032055639151606
                        0.0029325087946387
                        0.0026770211309440
                        0.0024390443096718
                        0.0022182376690253
                        0.0020140594831826
                        0.0018258217585452
                        0.0016527414557644
                        0.0014939914363856
                        0.0013487264083504
                        0.0012160930667382
                        0.0010952387670711
                        0.0009853202947576
                        0.0008855130916394
                        0.0007950192614627
                        0.0007130719366758
                        0.0006389361180411
                        0.0005719100128670
                        0.0005113317833543
                        0.0004565921773580
                        0.0004071488015676
                        0.0003625307596604
                        0.0003223453731789
                        0.0002862195066446
                        0.0002539701397021
                        0.0002247902473640
                        0.0002005586757705
                        0.0001714516129149
                        0.0001660558799984
                        0.0001958692069597
                        0.0002174932676308
                        0.0002242430036043
                        0.0002282090818868
                        0.0002324955953230
                        0.0002365515644284
                        0.0002409044828730
                        0.0002457428261085
                        0.0002512763486284
                        0.0002575613491251
                        0.0002644610511097
                        0.0002715669017745
                        0.0002782103386257
                        0.0002836613168265
                        0.0002886946503861
                        0.0001295937639920
                        0.0001221080214709
                        0.0001159072675878
                        0.0001106981971268
                        0.0001065472499484
                        0.0001034230112572
                        0.0001012045409084
                        0.0000997287552769
                        0.0000988352223864
                        0.0000983839849660
                        0.0000982785753961
                        0.0000983986079735
                        0.0000988125219652
                        0.0000989773877939
                        0.0000965892515148
                        0.0000954456576609
                        0.0001055094729356
                        0.0001220340879945
                        0.0001384850839885
                        0.0001573361667857
                        0.0001782206005052
                        0.0002014416241381
                        0.0002271766154306
                        0.0002556821537409
                        0.0002872501261480
                        0.0003222169408268
                        0.0003609540461022
                        0.0004038610001849
                        0.0004513607277515
                        0.0005038993622665
                        0.0005619482370713
                        0.0006260040740633
                        0.0006965845309050
                        0.0007742189630764
                        0.0008594359183545
                        0.0009527485651943
                        0.0010546379348869
                        0.0011655328288305
                        0.0012857850356883
                        0.0014156437662906
                        0.0015552323138268
                        0.0017045162207941
                        0.0018632635767460
                        0.0020310109525871
                        0.0022070374452601
                        0.0023903517332501
                        0.0025796993461974
                        0.0027735966326016
                        0.0029703951201876
                        0.0031683734979719
                        0.0033658475386609
                        0.0035612308129082
                        0.0037526844470218
                        0.0039376109333291
                        0.0041126458572418
                        0.0042738812080881
                        0.0044170398814356
                        0.0045376443162919
                        0.0046315042251421
                        0.0046945555965728
                        0.0045922284292440
                        0.0044568531087809
                        0.0044233629399420
                        0.0043625902832490
                        0.0042764608713704
                        0.0041676360374169
                        0.0040390999030100
                        0.0038940349813525
                        0.0037357861602621
                        0.0035677649586597
                        0.0033929354832145
                        0.0032133789208328
                        0.0030305900812344
                        0.0028459358973130
                        0.0026608942837136
                        0.0024772066444956
                        0.0022968288764938
                        0.0021217232345414
                        0.0019536338057797
                        0.0017938740865868
                        0.0016432556429767
                        0.0015021889199824
                        0.0013707911989675
                        0.0012489640124269
                        0.0011364520427030
                        0.0010328890589459
                        0.0009378340800596
                        0.0008507997634854
                        0.0007712745246485
                        0.0006987395952177
                        0.0006326820265055
                        0.0005726044700265
                        0.0005180323662591
                        0.0004685188984107
                        0.0004236477695973
                        0.0003830337378013
                        0.0003463209810896
                        0.0003131799661372
                        0.0002833033310411
                        0.0002564034033651
                        0.0002322067336761
                        0.0002104636285987
                        0.0001909157517527
                        0.0001733925007426
                        0.0001575582248245
                        0.0001434510635898
                        0.0001375075861293
                        0.0001385072685416
                        0.0001387506508986
                        0.0001378561140032
                        0.0001360253434031
                        0.0001333381083940
                        0.0001299619144366
                        0.0001260847983918
                        0.0001219419997519
                        0.0001178062382165
                        0.0001139796025542
                        0.0001107680683507
                        0.0001084563793333
                        0.0001072613457075
                        0.0001069533467961
                        0.0001072213850689
                        0.0001083930782902
                        0.0001107116725868
                        0.0001139691891207
                        0.0001178838021441
                        0.0001221468389666
                        0.0001264493379879
                        0.0001305092661363
                        0.0001340811815329
                        0.0001369672052429
                        0.0001389904533763
                        0.0001400641685148
                        0.0001399777014958
                        0.0001391151438151
                        0.0001452823997798
                        0.0001597367520592
                        0.0001759744771803
                        0.0001939589838547
                        0.0002140336039557
                        0.0002363731316023
                        0.0002612404911398
                        0.0002888882151821
                        0.0003195907952509
                        0.0003536341116463
                        0.0003913198155093
                        0.0004329661845030
                        0.0004789100610504
                        0.0005295071434205
                        0.0005851301280167
                        0.0006461640628987
                        0.0007129988858303
                        0.0007860192804492
                        0.0008655919611572
                        0.0009520504041044
                        0.0010456770813793
                        0.0011466835062968
                        0.0012551889037755
                        0.0013711991714891
                        0.0014945891822111
                        0.0016250936299882
                        0.0017623150651232
                        0.0019057629412083
                        0.0020549470001998
                        0.0022094981180641
                        0.0023691358283353
                        0.0025334709592184
                        0.0027017485229723
                        0.0028725599294388
                        0.0030436994163147
                        0.0032122696300372
                        0.0033749662406732
                        0.0035286991221512
                        0.0036711592757301
                        0.0038006416776909
                        0.0039156814756683
                        0.0040150842121344
                        0.0040977528429318
                        0.0041630340747294
                        0.0042101742307368
                        0.0043642789888540
                        0.0044973880059913
                        0.0044793469682176
                        0.0044324026947591
                        0.0043553105080295
                        0.0042485605733082
                        0.0041140908751909
                        0.0039551311770627
                        0.0037758114165104
                        0.0035807969919688
                        0.0033751198700205
                        0.0031638971239644
                        0.0029516958797982
                        0.0027421617772221
                        0.0025380842508406
                        0.0023415161069945
                        0.0021538915872763
                        0.0019761393981558
                        0.0018087863527330
                        0.0016520487001203
                        0.0015059093468719
                        0.0013701807543303
                        0.0012445531471858
                        0.0011286277570699
                        0.0010219472479317
                        0.0009240226747997
                        0.0008343474317726
                        0.0007524043928939
                        0.0006776727219612
                        0.0006096352174164
                        0.0005477863118074
                        0.0004916394533559
                        0.0004407315396660
                        0.0003946229565314
                        0.0003528946832449
                        0.0003151465363906
                        0.0002810001068371
                        0.0002501067589759
                        0.0002221559206239
                        0.0001968837293754
                        0.0001740590838989
                        0.0001535321434061
                        0.0001349926554178
                        0.0001189136348771
                        0.0001023548349058
                        0.0000929509179278
                        0.0000950522546510
                        0.0000975557566113
                        0.0000974853556882
                        0.0000972184640165
                        0.0000972847851674
                        0.0000976014540944
                        0.0000982717692220
                        0.0000993736192015
                        0.0001010292031919
                        0.0001033846535046
                        0.0001065949456599
                        0.0001107808047191
                        0.0001159810664950
                        0.0001221421099834
                        0.0001295743260124
                        0.0000469074996175
                        0.0000405719144467
                        0.0000369326370861
                        0.0000349996286491
                        0.0000341627770752
                        0.0000339659010852
                        0.0000341042063886
                        0.0000343946417823
                        0.0000347421936244
                        0.0000351160253071
                        0.0000355389891848
                        0.0000360883096405
                        0.0000369036619658
                        0.0000381881626968
                        0.0000403196267601
                        0.0000452556821210
                        0.0000529728238192
                        0.0000611563213721
                        0.0000697700514927
                        0.0000788653160943
                        0.0000885265450774
                        0.0000988804912023
                        0.0001100963268894
                        0.0001223799948778
                        0.0001359635902517
                        0.0001510912519081
                        0.0001680052777126
                        0.0001869365034383
                        0.0002081016215500
                        0.0002317070868351
                        0.0002579563321411
                        0.0002870561584258
                        0.0003192197330391
                        0.0003546659420872
                        0.0003936160060299
                        0.0004362880123012
                        0.0004828893625530
                        0.0005336068725327
                        0.0005885944465963
                        0.0006479601689580
                        0.0007117546551328
                        0.0007799567399633
                        0.0008524555555632
                        0.0009290350782206
                        0.0010093627500255
                        0.0010929843683621
                        0.0011793284249567
                        0.0012677228239287
                        0.0013574255380400
                        0.0014476679667870
                        0.0015377056220837
                        0.0016268457830265
                        0.0017142794688342
                        0.0017988337334038
                        0.0018789719248625
                        0.0019529009513232
                        0.0020186414084567
                        0.0020741368002616
                        0.0021173916994328
                        0.0021466097430298
                        0.0021000586960481
                        0.0020382975668111
                        0.0020231329098432
                        0.0019953574437889
                        0.0019559906021293
                        0.0019062340927859
                        0.0018474511448057
                        0.0017811052778886
                        0.0017087394771373
                        0.0016319247610633
                        0.0015520211139291
                        0.0014699680576360
                        0.0013864323815462
                        0.0013020243956556
                        0.0012174117688515
                        0.0011333918703260
                        0.0010508679936940
                        0.0009707501455562
                        0.0008938483116322
                        0.0008207719236347
                        0.0007518969055197
                        0.0006874130848466
                        0.0006273743706453
                        0.0005717351658030
                        0.0005203779427377
                        0.0004731346660546
                        0.0004298035305435
                        0.0003901619279783
                        0.0003539763029859
                        0.0003210094415040
                        0.0002910256816844
                        0.0002637945098463
                        0.0002390929800590
                        0.0002167073563327
                        0.0001964343059196
                        0.0001780818674986
                        0.0001614702977201
                        0.0001464327952385
                        0.0001328160425957
                        0.0001204804740121
                        0.0001093002339807
                        0.0000991626666386
                        0.0000899677461754
                        0.0000816262522734
                        0.0000740605004122
                        0.0000671977063667
                        0.0000642002859868
                        0.0000644699837339
                        0.0000641923579709
                        0.0000632775261669
                        0.0000617799198505
                        0.0000597794990915
                        0.0000573853516944
                        0.0000547351330411
                        0.0000519908945836
                        0.0000493299809638
                        0.0000469315521913
                        0.0000449604701623
                        0.0000435510474819
                        0.0000427923246302
                        0.0000425756966445
                        0.0000427494681344
                        0.0000434736795798
                        0.0000448634893260
                        0.0000468349216829
                        0.0000492565843444
                        0.0000519639843558
                        0.0000547757915633
                        0.0000575104282054
                        0.0000600003248883
                        0.0000621018555072
                        0.0000637001908023
                        0.0000647102989353
                        0.0000650735416917
                        0.0000648779338464
                        0.0000679840697817
                        0.0000750088439773
                        0.0000827618772819
                        0.0000913191018906
                        0.0001007613405558
                        0.0001111809815969
                        0.0001226809448788
                        0.0001353761986614
                        0.0001493938583172
                        0.0001648731090738
                        0.0001819645192581
                        0.0002008289036513
                        0.0002216357534596
                        0.0002445612946886
                        0.0002697861906407
                        0.0002974928434782
                        0.0003278621628956
                        0.0003610695927257
                        0.0003972801528346
                        0.0004366422879188
                        0.0004792804259760
                        0.0005252863443764
                        0.0005747097391940
                        0.0006275488352531
                        0.0006837425366049
                        0.0007431666258571
                        0.0008056380783815
                        0.0008709339952160
                        0.0009388351749192
                        0.0010091825149927
                        0.0010818617090741
                        0.0011567092974816
                        0.0012333904203306
                        0.0013112628024147
                        0.0013893096979497
                        0.0014661910798825
                        0.0015403792985450
                        0.0016104503482234
                        0.0016753556667855
                        0.0017343295778137
                        0.0017867237778311
                        0.0018320045878950
                        0.0018697427191753
                        0.0018996034573112
                        0.0019212981460850
                        0.0019918543273172
                        0.0020529426781744
                        0.0020451550217372
                        0.0020241477583276
                        0.0019893639735996
                        0.0019409675393241
                        0.0018798243843977
                        0.0018073899451606
                        0.0017255440367154
                        0.0016364200399695
                        0.0015423304798904
                        0.0014456435446495
                        0.0013484769156481
                        0.0012525207976051
                        0.0011590679713269
                        0.0010690688111385
                        0.0009831862866931
                        0.0009018485206818
                        0.0008252970378291
                        0.0007536292936795
                        0.0006868346619358
                        0.0006248237032032
                        0.0005674505752042
                        0.0005145292586785
                        0.0004658491543489
                        0.0004211883013536
                        0.0003803208424893
                        0.0003430213988709
                        0.0003090683792999
                        0.0002782463960730
                        0.0002503478098970
                        0.0002251729168815
                        0.0002025276509053
                        0.0001822179824815
                        0.0001640420840783
                        0.0001477836767943
                        0.0001332106342552
                        0.0001200809952596
                        0.0001081552902149
                        0.0000972115761749
                        0.0000870590064271
                        0.0000775467544561
                        0.0000685672901810
                        0.0000600550762628
                        0.0000519710708884
                        0.0000443863709831
                        0.0000395229150518
                        0.0000374298915193
                        0.0000362048282664
                        0.0000354764719704
                        0.0000350394865182
                        0.0000347453528046
                        0.0000345047352468
                        0.0000342820682119
                        0.0000340969768737
                        0.0000340360517445
                        0.0000342773777481
                        0.0000351245206694
                        0.0000370364212606
                        0.0000406302842371
                        0.0000469065493629
                </DataArray>
            </PointData>
        </Piece>
    </StructuredGrid>
</VTKFile>