<?xml version="1.0"?>
<VTKFile type="StructuredGrid" version="0.1" byte_order="LittleEndian" header_type="UInt32" compressor="vtkZLibDataCompressor">
  <StructuredGrid WholeExtent="0 30 0 40 0 0">
  <Piece Extent="0 30 0 40 0 0">
    <PointData>
      <DataArray type="Float32" Name="orthogonality" format="ascii" RangeMin="0" RangeMax="0.04833140969276428">
        0.047961015 0.047442615 0.04697874 0.0465543 0.046151675 0.045753445
        0.04534387 0.044909153 0.04443706 0.043916304 0.043336056 0.042685527
        0.041953612 0.041128535 0.04019735 0.039145406 0.03795586 0.036609557
        0.03508555 0.03336247 0.03142052 0.02924376 0.026822118 0.024152856
        0.021241339 0.018101303 0.014754753 0.011231553 0.0075686895 0.0038090935
        0 0.046781607 0.046798833 0.046694696 0.046498813 0.04623262
        0.045909993 0.045537792 0.045117255 0.04464563 0.044117425 0.04352528
        0.04286048 0.042113148 0.04127225 0.0403253 0.039257966 0.038053665
        0.036693472 0.035156664 0.033422034 0.031469885 0.029284285 0.026855096
        0.024179433 0.021262486 0.018117806 0.014767224 0.011240457 0.007574374
        0.003811839 4.382155e-08 0.046209868 0.04640388 0.046451353 0.04639424
        0.04623833 0.045994043 0.045671865 0.045279376 0.04482012 0.044293735
        0.043696605 0.04302258 0.042263497 0.04140943 0.040448636 0.0393673
        0.03814923 0.036775846 0.0352267 0.033480827 0.03151867 0.02932436
        0.026887702 0.024205694 0.021283362 0.018134078 0.0147795025 0.011249202
        0.00757993 0.0038144854 1.5917689e-07 0.045842364 0.04608981 0.046207566
        0.04623654 0.0461678 0.046000075 0.045737587 0.045386713 0.04495303
        0.04443953 0.043846004 0.04316916 0.042402998 0.041539144 0.04056694
        0.039473336 0.03824272 0.03685696 0.035296004 0.033539187 0.031567186
        0.029364225 0.02692012 0.024231773 0.021304063 0.018150188 0.014791636
        0.0112578245 0.0075853886 0.0038170582 3.2438595e-07 0.045574762 0.04584351
        0.045995556 0.04607482 0.046066545 0.04596123 0.045755364 0.045450233
        0.04504955 0.044556938 0.04397418 0.043300338 0.04253159 0.041661303
        0.040680148 0.03957605 0.038334135 0.036936842 0.035364605 0.033597156
        0.031615462 0.029403923 0.026952391 0.024257714 0.021324629 0.018166171
        0.014803658 0.011266355 0.0075907763 0.0038195807 5.205203e-07 0.045367587
        0.04564641 0.04581676 0.04592602 0.04595831 0.04590021 0.045742597
        0.04548128 0.045116138 0.044649217 0.04408257 0.043416653 0.042649407
        0.0417759 0.04078822 0.039675407 0.038423445 0.037015475 0.035432506
        0.033654742 0.031663522 0.029443474 0.026984543 0.02428354 0.021345086
        0.018182052 0.014815591 0.011274815 0.0075961114 0.0038220682 7.3459586e-07
        0.045201458 0.04548552 0.045666415 0.045794304 0.045853924 0.045830604
        0.04571201 0.04548964 0.04515926 0.044720106 0.044173088 0.043518953
        0.04275676 0.041883 0.040891122 0.039771345 0.0385106 0.037092816
        0.03549967 0.03371192 0.03171135 0.029482875 0.027016576 0.024309257
        0.021365441 0.018197844 0.014827449 0.011283215 0.007601406 0.003824532
        9.574416e-07 0.04506525 0.045352157 0.045539483 0.045679428 0.04575781
        0.045759995 0.04567219 0.045483023 0.045184746 0.044773415 0.044247936
        0.04360836 0.042854145 0.04198277 0.040988885 0.039863832 0.038595546
        0.037168816 0.03556605 0.03376866 0.031758927 0.029522114 0.027048483
        0.024334868 0.021385701 0.018213551 0.0148392385 0.011291564 0.0076066684
        0.0038269798 1.1822839e-06 0.04495194 0.04524041 0.04543181 0.04557984
        0.045671392 0.04569241 0.04562868 0.045467176 0.045197487 0.04481273
        0.044309404 0.043686178 0.042942215 0.0420755 0.041081592 0.03995287
        0.03867825 0.037243426 0.035631612 0.033824924 0.031806216 0.029561166
        0.027080255 0.024360366 0.021405863 0.018229177 0.014850964 0.011299869
        0.007611905 0.003829417 1.4039474e-06 0.044856798 0.045146096 0.045340158
        0.045493767 0.045594774 0.04562986 0.045584954 0.045446213 0.04520142
        0.044841245 0.044359744 0.043753807 0.043021753 0.042161573 0.04116941
        0.0400385 0.038758703 0.03731661 0.0356963 0.033880666 0.03185319
        0.029600013 0.027111875 0.024385741 0.021425925 0.018244723 0.014862628
        0.011308133 0.0076171197 0.0038318485 1.6183811e-06 0.044776488 0.04506619
        0.04526202 0.045419578 0.045527514 0.04557325 0.04554312 0.045423027
        0.045199625 0.044861685 0.04440105 0.04381267 0.043093614 0.04224145
        0.041252553 0.040120807 0.038836904 0.03738834 0.03576009 0.033935856
        0.031899817 0.029638628 0.027143326 0.024410987 0.021445883 0.018260187
        0.014874231 0.011316357 0.007622316 0.0038342772 1.8223611e-06 0.044708587
        0.044998433 0.045195464 0.04535588 0.045468986 0.04552289 0.045504443
        0.04539962 0.04519445 0.044876333 0.044435225 0.043864153 0.043158703
        0.04231566 0.0413313 0.040199906 0.03891289 0.037458606 0.035822935
        0.033990446 0.031946063 0.029676983 0.02717459 0.02443609 0.02146573
        0.018275565 0.014885775 0.011324545 0.007627496 0.003836706 2.013292e-06
        0.044651296 0.044941135 0.045138985 0.0453015 0.04541854 0.0454788
        0.04546966 0.045377366 0.04518768 0.04488706 0.04446394 0.04390956
        0.043217927 0.04238477 0.041405957 0.040275946 0.03898671 0.037527405
        0.035884816 0.03404441 0.03199189 0.029715052 0.027205648 0.024461037
        0.021485457 0.018290855 0.014897258 0.011332697 0.0076326616 0.003839137
        2.1890687e-06 0.04460325 0.044892993 0.0450914 0.0452555 0.04537557
        0.045440834 0.045439184 0.045357212 0.04518066 0.04489539 0.04448865
        0.04395011 0.043272182 0.042449366 0.041476883 0.04034911 0.039058436
        0.037594747 0.03594571 0.03409771 0.03203727 0.02975281 0.02723648
        0.024485815 0.02150506 0.018306054 0.014908679 0.011340813 0.007637814
        0.0038415717 2.347979e-06 0.04456341 0.044853006 0.04505181 0.04521711
        0.04533956 0.04540881 0.04541324 0.04533982 0.045174412 0.044902556
        0.044510618 0.043986913 0.043322336 0.04251006 0.041544445 0.0404196
        0.03912816 0.037660647 0.0360056 0.034150317 0.032082167 0.029790225
        0.027267065 0.024510413 0.021524528 0.018321157 0.014920034 0.011348892
        0.0076429546 0.0038440113 2.48863e-06 0.044530973 0.044820406 0.04501949
        0.045185726 0.045310065 0.04538254 0.045391943 0.045325644 0.04516972
        0.04490957 0.04453092 0.044020973 0.04336921 0.042567443 0.041609034
        0.040487636 0.03919598 0.03772514 0.036064472 0.034202203 0.03212655
        0.029827273 0.027297381 0.024534812 0.021543851 0.018336156 0.014931324
        0.011356935 0.007648083 0.0038464568 2.609894e-06 0.044505343 0.044794608
        0.044993892 0.045160875 0.045286745 0.04536185 0.045375366 0.045315035
        0.0451672 0.044917256 0.044550493 0.044053197 0.04341358 0.042622108
        0.041671053 0.040553454 0.03926201 0.037788257 0.036122326 0.03425334
        0.032170393 0.029863926 0.027327407 0.024558999 0.021563021 0.01835105
        0.0149425445 0.01136494 0.007653199 0.0038489087 2.71087e-06 0.04448607
        0.044775177 0.044974614 0.045142204 0.045269333 0.045346614 0.04536356
        0.045308262 0.045167357 0.04492631 0.044570144 0.044084404 0.04345618
        0.04267463 0.041730892 0.040617295 0.039326377 0.037850045 0.036179148
        0.034303706 0.03221366 0.029900154 0.027357124 0.02458296 0.02158203
        0.018365832 0.014953692 0.011372904 0.007658303 0.0038513672 2.7908502e-06
        0.04447283 0.044761796 0.044961367 0.045129463 0.045257643 0.045336753
        0.045356587 0.045305565 0.045170613 0.04493734 0.04459059 0.044115342
        0.043497685 0.042725563 0.04178895 0.0406794 0.039389204 0.037910543
        0.036234945 0.034353275 0.032256324 0.029935932 0.027386507 0.024606679
        0.021600865 0.018380493 0.014964764 0.011380829 0.007663394 0.0038538324
        2.8493007e-06 0.044465415 0.04475427 0.04495396 0.0451225 0.045251578
        0.045332238 0.04535453 0.045307163 0.045177348 0.04495086 0.04461247
        0.044146687 0.043538738 0.042775434 0.041845616 0.040740024 0.039450623
        0.03796981 0.036289714 0.034402028 0.032298356 0.029971233 0.027415534
        0.024630139 0.021619515 0.01839503 0.014975757 0.011388711 0.0076684714
        0.0038563043 2.885843e-06 0.044463724 0.044752497 0.04495231 0.045121245
        0.04525111 0.04533311 0.04535751 0.045313295 0.04518793 0.044967383
        0.04463638 0.044179074 0.04357994 0.042824745 0.041901264 0.040799398
        0.03951076 0.038027886 0.036343463 0.03444994 0.032339726 0.030006029
        0.027444188 0.024653327 0.021637974 0.018409435 0.014986666 0.011396548
        0.007673534 0.0038587828 2.9002445e-06 0.044467743 0.044756465 0.04495642
        0.04512573 0.045256298 0.045339473 0.04536571 0.045324225 0.045202732
        0.044987373 0.044662878 0.044213098 0.043621853 0.042873982 0.041956253
        0.040857762 0.039569743 0.038084824 0.036396183 0.034496985 0.032380406
        0.030040292 0.027472444 0.024676224 0.021656228 0.018423703 0.014997488
        0.011404337 0.007678581 0.0038612671 2.8924114e-06 0.044477552 0.044766266
        0.044966385 0.04513606 0.04526728 0.0453515 0.045379356 0.04534026
        0.045222145 0.04501131 0.044692505 0.044249322 0.043665014 0.0429236
        0.04201092 0.040915336 0.03962769 0.038140666 0.03644788 0.034543153
        0.032420367 0.030073997 0.027500281 0.024698818 0.021674266 0.018437823
        0.015008219 0.011412078 0.0076836105 0.0038637568 2.8623886e-06 0.044493325
        0.044782076 0.044982396 0.045152448 0.045284282 0.04536947 0.04539876
        0.045361765 0.045246594 0.04503969 0.0447258 0.044288296 0.043709937
        0.042974018 0.042065583 0.04097232 0.03968471 0.038195457 0.03649855
        0.03458841 0.03245958 0.030107114 0.027527675 0.02472109 0.021692079
        0.018451791 0.015018852 0.011419765 0.0076886215 0.0038662509 2.8103595e-06
        0.044515353 0.044804186 0.045004755 0.045175206 0.045307647 0.045393728
        0.045424324 0.045389187 0.045276582 0.04507305 0.04476332 0.04433056
        0.043757103 0.04302564 0.042120535 0.041028902 0.039740898 0.03824923
        0.036548194 0.03463274 0.032498017 0.030139621 0.027554609 0.024743026
        0.021709654 0.0184656 0.015029386 0.011427397 0.0076936116 0.0038687482
        2.7366548e-06 0.044544023 0.044833 0.045033876 0.04520477 0.045337826
        0.045424763 0.045456555 0.045423068 0.045312673 0.045111973 0.04480564
        0.04437665 0.043806978 0.04307883 0.042176038 0.04108525 0.03979634
        0.038302004 0.036596794 0.034676112 0.032535646 0.030171486 0.027581057
        0.024764609 0.021726985 0.018479243 0.015039814 0.01143497 0.0076985788
        0.0038712479 2.6417615e-06 0.04457987 0.044869058 0.045070313 0.045241706
        0.045375407 0.04546319 0.045496095 0.045464065 0.04535554 0.045157112
        0.04485337 0.044427104 0.043860003 0.043133922 0.04223232 0.0411415
        0.039851107 0.038353804 0.036644343 0.034718506 0.03257244 0.030202685
        0.027607 0.024785824 0.021744054 0.01849271 0.015050131 0.011442482
        0.007703521 0.0038737485 2.5263412e-06 0.044623584 0.04491306 0.045114793
        0.045286763 0.045421164 0.045509797 0.04554375 0.045512997 0.045405973
        0.045209207 0.044907168 0.04448246 0.043916594 0.043191213 0.042289574
        0.04119776 0.03990524 0.038404632 0.03669082 0.034759887 0.032608364
        0.03023319 0.027632415 0.024806654 0.021760853 0.018505994 0.015060332
        0.0114499265 0.0077084354 0.0038762481 2.3912503e-06 0.044676058 0.04496592
        0.045168255 0.045340907 0.045476086 0.045565598 0.04560054 0.045570858
        0.04546491 0.045269094 0.04496772 0.04454325 0.043977126 0.043250956
        0.042347953 0.041254103 0.039958764 0.038454484 0.036736205 0.03480022
        0.032643393 0.030262971 0.027657282 0.024827084 0.021777373 0.01851909
        0.015070411 0.011457303 0.0077133193 0.0038787448 2.23757e-06 0.044738438
        0.045028806 0.045231897 0.045405384 0.045541447 0.045631886 0.045667745
        0.045638874 0.04553347 0.045337725 0.045035765 0.04461 0.044041935
        0.04331334 0.04240755 0.041310575 0.040011685 0.038503334 0.036780458
        0.034839477 0.032677487 0.030292004 0.027681576 0.024847098 0.021793598
        0.018531987 0.015080364 0.011464605 0.00771817 0.0038812368 2.0666444e-06
        0.044812202 0.045103226 0.045307297 0.045481805 0.045618903 0.04571032
        0.045746993 0.045718566 0.045612976 0.045416154 0.045112077 0.044683207
        0.044111304 0.0433785 0.042468414 0.04136717 0.040063977 0.03855115
        0.036823545 0.034877617 0.032710616 0.03032026 0.02770528 0.02486668
        0.02180952 0.018544678 0.015090183 0.011471828 0.007722983 0.003883721
        1.8801317e-06 0.04489929 0.04519117 0.04539651 0.045572307 0.04571063
        0.04580308 0.04584036 0.045811806 0.045704987 0.045505553 0.045197424
        0.044763297 0.044185426 0.043446485 0.04253053 0.04142385 0.040115595
        0.03859789 0.03686542 0.0349146 0.03274274 0.03034771 0.02772837
        0.024885815 0.021825127 0.018557154 0.0150998635 0.011478969 0.0077277557
        0.0038861947 1.6800691e-06 0.045002252 0.045295272 0.045502305 0.045679748
        0.045819532 0.045913007 0.045950506 0.045920894 0.04581131 0.04560718
        0.04529255 0.044850625 0.04426439 0.04351726 0.04259381 0.041480526
        0.040166456 0.03864348 0.03690603 0.03495038 0.03277383 0.030374326
        0.027750824 0.024904484 0.021840405 0.018569406 0.015109397 0.011486021
        0.0077324826 0.0038886545 1.4689621e-06 0.045124583 0.045419153 0.045628477
        0.045808062 0.04594957 0.04604391 0.046080843 0.046048634 0.04593399
        0.045722317 0.0453981 0.044945393 0.044348158 0.043590683 0.042658098
        0.041537058 0.040216457 0.038687844 0.036945313 0.03498491 0.032803845
        0.030400079 0.02777262 0.024922673 0.021855345 0.018581426 0.015118777
        0.011492978 0.0077371593 0.0038910962 1.2499038e-06 0.04527117 0.045567892
        0.04578042 0.04596283 0.046106268 0.046200927 0.04623575 0.04619836
        0.046075244 0.04585217 0.04551454 0.045047604 0.044436514 0.04366649
        0.042723157 0.041593265 0.040265467 0.038730886 0.0369832 0.03501814
        0.032832745 0.03042494 0.027793737 0.024940366 0.021869931 0.018593203
        0.015127995 0.011499833 0.0077417796 0.0038935149 1.0267433e-06 0.045449153
        0.045749016 0.045966163 0.046152275 0.04629754 0.046391033 0.046420757
        0.046373896 0.04623727 0.045997687 0.045642 0.045156978 0.04452905
        0.043744273 0.042788662 0.041648917 0.040313322 0.0387725 0.037019618
        0.035050012 0.0328605 0.03044888 0.027814155 0.024957547 0.021884156
        0.018604727 0.015137044 0.011506581 0.007746337 0.0038959049 8.043257e-07
        0.045669634 0.045974337 0.046198387 0.046389095 0.046534974 0.04662368
        0.04664258 0.04657927 0.04642195 0.04615931 0.045780156 0.0452729
        0.044625126 0.04382351 0.042854223 0.04170374 0.040359847 0.03881257
        0.03705449 0.03508048 0.03288706 0.030471874 0.027833853 0.024974199
        0.021898001 0.01861599 0.015145915 0.011513211 0.0077508246 0.0038982593
        5.8885314e-07 0.045951433 0.0462642 0.046498768 0.04669386 0.046835702
        0.0469112 0.046908695 0.04681805 0.04663024 0.046336602 0.04592803
        0.04539433 0.044723853 0.04390353 0.042919375 0.04175742 0.040404845
        0.038850974 0.037087735 0.035109494 0.0329124 0.030493896 0.027852813
        0.02499031 0.02191146 0.01862698 0.015154597 0.011519715 0.0077552325
        0.0039005694 3.8844365e-07 0.0463312 0.046659037 0.046908233 0.047101084
        0.047224194 0.047268018 0.047225747 0.04709195 0.046861358 0.046527866
        0.04608385 0.045519784 0.044824127 0.043983556 0.042983603 0.04180965
        0.040448125 0.038887594 0.03711929 0.03513701 0.032936495 0.030514933
        0.027871024 0.02500587 0.021924525 0.01863769 0.015163084 0.0115260845
        0.0077595506 0.0039028246 2.1398122e-07 0.046898436 0.04725959 0.0475112
        0.047666058 0.047729623 0.047705535 0.047595333 0.047398318 0.047111508
        0.046729576 0.046244834 0.045647245 0.04492456 0.044062685 0.043046337
        0.041860063 0.040489472 0.03892231 0.03714909 0.03516299 0.032959316
        0.030534966 0.027888473 0.02502087 0.021937182 0.01864811 0.015171362
        0.011532307 0.007763766 0.0039050106 7.994353e-08 0.047961015 0.048172515
        0.04829473 0.04833141 0.04828779 0.048168197 0.047974616 0.047706164
        0.047359116 0.046927072 0.046401177 0.04577024 0.04502096 0.044138264
        0.043105982 0.041907806 0.040528506 0.03895505 0.03717722 0.0351876
        0.032981038 0.030554138 0.027905263 0.02503537 0.021949466 0.018658249
        0.015179431 0.011538371 0.007767866 0.0039071133 0
      </DataArray>
      <DataArray type="Float32" Name="aspect_ratio" format="ascii" RangeMin="1.000025987625122" RangeMax="10.075041770935059">
        2.987093 2.5262706 2.164945 1.8561792 1.5924037 1.3671131
        1.1747274 1.0104653 1.1491148 1.3323776 1.542295 1.7818314
        2.0539563 2.3615088 2.7070138 3.092442 3.518913 3.986344
        4.493055 5.0353556 5.6071534 6.1996355 6.801093 7.3969665
        7.970182 8.501836 8.972223 9.362176 9.65457 9.835836
        9.9585905 2.98431 2.5238142 2.1628885 1.8545289 1.591107
        1.3661033 1.1739413 1.009851 1.1497531 1.333057 1.5430218
        1.7826121 2.0547981 2.3624203 2.7080038 3.093521 3.5200937
        3.9876394 4.494479 5.036923 5.6088753 6.2015204 6.803144
        7.3991814 7.9725533 8.50435 8.974861 9.364914 9.657379
        9.838687 9.961467 2.9828556 2.522134 2.161239 1.8530688
        1.5898879 1.3651181 1.1731584 1.0092328 1.1503987 1.3337451
        1.5437572 1.7834007 2.055647 2.363337 2.7089977 3.0946028
        3.5212753 3.9889348 4.4959025 5.038488 5.6105943 6.203401
        6.8051906 7.4013915 7.97492 8.506859 8.977495 9.367649
        9.660188 9.841537 9.964344 2.981731 2.5209248 2.1600168
        1.8519144 1.5888579 1.3642384 1.1724298 1.0086408 1.1510293
        1.3344246 1.5444877 1.7841865 2.0564935 2.3642516 2.709989
        3.0956812 3.5224524 3.9902241 4.4973183 5.0400443 5.612303
        6.205271 6.8072257 7.40359 7.9772754 8.509359 8.980122
        9.3703785 9.6629925 9.844387 9.967224 2.9807255 2.5199127
        2.1590173 1.8509582 1.5879776 1.3634583 1.1717609 1.0080816
        1.1516383 1.3350903 1.54521 1.7849675 2.0573378 2.3651648
        2.710979 3.0967577 3.523627 3.9915102 4.4987297 5.041595
        5.614005 6.2071333 6.8092523 7.4057813 7.9796233 8.511852
        8.982741 9.373103 9.665795 9.847237 9.970105 2.9797761
        2.5190003 2.1581411 1.8501267 1.5872053 1.3627601 1.1711475
        1.0075566 1.1522223 1.3357387 1.5459213 1.7857423 2.0581787
        2.3660767 2.711969 3.0978343 3.5248017 3.9927957 4.50014
        5.0431437 5.6157045 6.208992 6.811275 7.407967 7.9819665
        8.51434 8.985358 9.375826 9.668596 9.850086 9.972989
        2.9788575 2.5181453 2.1573389 1.8493757 1.586509 1.3621255
        1.1705817 1.0070636 1.1527807 1.3363677 1.5466194 1.786509
        2.0590153 2.366987 2.7129588 3.0989122 3.525978 3.9940827
        4.5015516 5.044693 5.617403 6.2108493 6.813296 7.4101505
        7.9843073 8.516827 8.987973 9.378547 9.671397 9.852937
        9.975874 2.9779572 2.5173256 2.156584 1.8486784 1.5858668
        1.3615397 1.1700554 1.0065995 1.1533141 1.3369768 1.5473028
        1.787266 2.0598466 2.3678951 2.7139487 3.0999913 3.5271564
        3.995372 4.502965 5.0462437 5.6191025 6.212707 6.8153157
        7.412333 7.986646 8.519312 8.990586 9.381268 9.674198
        9.855788 9.978761 2.9770691 2.5165296 2.155861 1.8480182
        1.5852636 1.360991 1.169561 1.0061605 1.1538244 1.3375659
        1.5479707 1.7880121 2.060671 2.3688 2.714938 3.1010718
        3.528337 3.9966643 4.5043817 5.0477967 5.6208043 6.2145658
        6.8173366 7.4145155 7.988985 8.521796 8.9932 9.383987
        9.677 9.858641 9.981649 2.9761887 2.5157497 2.1551597
        1.8473846 1.5846893 1.3604708 1.1690924 1.0057425 1.154314
        1.3381358 1.5486227 1.7887464 2.0614877 2.3697004 2.715926
        3.102153 3.52952 3.9979599 4.505801 5.049353 5.6225085
        6.2164264 6.8193583 7.416699 7.9913244 8.524281 8.995813
        9.386709 9.679803 9.861494 9.984539 2.9753134 2.5149813
        2.1544745 1.8467703 1.5841364 1.3599725 1.1686444 1.0053426
        1.1547852 1.338688 1.5492591 1.7894682 2.0622957 2.370596
        2.7169118 3.1032348 3.5307052 3.9992583 4.5072246 5.0509133
        5.6242166 6.21829 6.8213825 7.4188833 7.9936647 8.526766
        8.998427 9.389431 9.682606 9.864349 9.987432 2.9744422
        2.514221 2.1538012 1.8461705 1.5835999 1.3594913 1.1682131
        1.0049576 1.1552402 1.339224 1.5498805 1.7901777 2.0630946
        2.3714857 2.717895 3.1043162 3.5318923 4.0005603 4.508652
        5.052478 5.6259274 6.2201567 6.823409 7.42107 7.9960065
        8.529252 9.001043 9.392154 9.6854105 9.867207 9.990326
        2.9735734 2.5134668 2.1531365 1.8455819 1.5830761 1.3590238
        1.1677953 1.004585 1.1556813 1.3397452 1.5504878 1.790875
        2.063884 2.3723693 2.7188752 3.1053975 3.5330808 4.001865
        4.5100837 5.054046 5.627643 6.2220263 6.8254385 7.423259
        7.99835 8.53174 9.003659 9.394877 9.688217 9.870065
        9.993221 2.9727068 2.5127175 2.1524787 1.8450017 1.5825622
        1.358567 1.1673886 1.0042229 1.1561104 1.3402534 1.551082
        1.7915604 2.0646641 2.373246 2.7198517 3.1064777 3.534271
        4.003173 4.511519 5.055619 5.6293626 6.2239003 6.827471
        7.4254503 8.000695 8.534229 9.006277 9.397603 9.691025
        9.872925 9.996119 2.9718416 2.5119717 2.151826 1.8444283
        1.5820563 1.3581189 1.1669908 1.0038695 1.1565293 1.3407497
        1.5516644 1.7922345 2.0654345 2.374116 2.7208242 3.1075568
        3.5354624 4.004484 4.512958 5.0571957 5.6310863 6.225778
        6.829507 7.4276443 8.003043 8.53672 9.008897 9.400331
        9.693834 9.875787 9.999018 2.9709773 2.5112286 2.1511776
        1.8438601 1.5815566 1.3576778 1.1666003 1.0035235 1.1569393
        1.341236 1.5522356 1.7928982 2.0661957 2.374979 2.7217925
        3.1086342 3.5366545 4.005798 4.5144014 5.058778 5.632815
        6.22766 6.8315463 7.4298415 8.005393 8.539214 9.011518
        9.403059 9.696645 9.87865 10.001919 2.9701138 2.5104878
        2.1505322 1.8432963 1.581062 1.3572426 1.166216 1.0031836
        1.1573417 1.3417133 1.5527971 1.793552 2.0669484 2.3758352
        2.7227564 3.1097102 3.5378475 4.007114 4.515849 5.0603642
        5.634548 6.2295465 6.8335896 7.4320416 8.007746 8.541709
        9.014141 9.405789 9.699457 9.8815155 10.004822 2.9692507
        2.5097487 2.1498897 1.8427359 1.5805717 1.356812 1.1658368
        1.002849 1.1577376 1.3421826 1.5533497 1.7941967 2.0676925
        2.3766847 2.723716 3.1107845 3.5390413 4.0084333 4.5173
        5.061955 5.6362863 6.2314377 6.8356366 7.434245 8.010101
        8.544208 9.016767 9.408522 9.702271 9.884382 10.007727
        2.9683883 2.509011 2.1492493 1.8421782 1.5800846 1.3563854
        1.1654619 1.0025188 1.158128 1.342645 1.5538944 1.7948333
        2.0684292 2.377528 2.7246716 3.111857 3.5402358 4.009755
        4.518756 5.063551 5.638029 6.233333 6.8376884 7.4364524
        8.01246 8.546707 9.019394 9.411256 9.705088 9.887251
        10.010633 2.9675262 2.5082746 2.1486106 1.841623 1.5796003
        1.3559619 1.1650906 1.0021924 1.1585137 1.3431016 1.5544322
        1.7954624 2.0691586 2.3783655 2.7256231 3.112928 3.541431
        4.0110793 4.520215 5.0651517 5.639777 6.2352333 6.839744
        7.4386635 8.014821 8.549211 9.022023 9.413993 9.707906
        9.890121 10.013542 2.9666643 2.507539 2.1479733 1.8410695
        1.5791185 1.3555411 1.1647222 1.0018691 1.1588953 1.3435528
        1.5549638 1.7960848 2.0698817 2.3791976 2.726571 3.1139975
        3.5426269 4.012407 4.521679 5.066757 5.64153 6.2371383
        6.841804 7.440878 8.017186 8.551716 9.024655 9.416731
        9.710726 9.892995 10.016452 2.965803 2.5068042 2.1473374
        1.8405176 1.5786386 1.3551227 1.1643565 1.0015485 1.1592733
        1.3439996 1.55549 1.7967013 2.070599 2.3800247 2.727516
        3.1150658 3.5438237 4.0137367 4.5231466 5.0683675 5.643288
        6.2390485 6.8438683 7.4430966 8.019554 8.554225 9.02729
        9.419472 9.713548 9.895869 10.019364 2.964942 2.5060704
        2.1467023 1.8399671 1.5781602 1.3547062 1.1639928 1.0012304
        1.1596484 1.3444426 1.5560116 1.7973129 2.0713115 2.380848
        2.728458 3.1161332 3.5450218 4.0150695 4.524618 5.069983
        5.645051 6.2409635 6.8459373 7.445319 8.021926 8.556736
        9.029927 9.4222145 9.7163725 9.898746 10.022278 2.9640813
        2.505337 2.146068 1.8394177 1.5776832 1.3542912 1.163631
        1.0009141 1.1600212 1.3448822 1.5565293 1.7979201 2.0720196
        2.3816676 2.729398 3.1172004 3.5462213 4.0164056 4.5260944
        5.0716033 5.6468196 6.242883 6.848011 7.4475455 8.024302
        8.559251 9.032567 9.42496 9.719198 9.901624 10.025194
        2.963221 2.5046046 2.1454349 1.8388693 1.5772074 1.3538775
        1.1632706 1.0005995 1.1603919 1.3453194 1.5570438 1.7985239
        2.0727246 2.382485 2.7303367 3.1182678 3.5474226 4.017745
        4.5275755 5.073229 5.6485934 6.2448087 6.8500896 7.449776
        8.02668 8.561769 9.035209 9.427708 9.722027 9.904504
        10.028111 2.9623616 2.503873 2.1448026 1.8383217 1.5767326
        1.3534651 1.1629115 1.0002862 1.160761 1.3457544 1.5575559
        1.7991252 2.0734272 2.3833003 2.7312748 3.1193361 3.5486264
        4.019088 4.529061 5.0748596 5.650373 6.2467394 6.852173
        7.4520116 8.029062 8.56429 9.037854 9.430457 9.724857
        9.907386 10.031031 2.961503 2.5031424 2.1441708 1.837775
        1.5762587 1.3530535 1.1625535 1.000026 1.1611289 1.346188
        1.5580664 1.7997248 2.0741286 2.384115 2.7322133 3.1204057
        3.5498328 4.020435 4.5305514 5.076496 5.652158 6.2486753
        6.854261 7.4542513 8.031449 8.566814 9.040503 9.43321
        9.72769 9.910271 10.033953 2.9606457 2.5024128 2.1435401
        1.8372291 1.5757855 1.3526428 1.1621963 1.0003375 1.1614959
        1.3466206 1.558576 1.8003237 2.0748296 2.3849304 2.7331529
        3.1214778 3.5510428 4.021786 4.532047 5.0781384 5.653949
        6.2506166 6.856354 7.4564953 8.03384 8.569342 9.043154
        9.435966 9.730525 9.9131565 10.036876 2.9597898 2.5016847
        2.1429107 1.8366841 1.5753132 1.3522328 1.1618397 1.0006486
        1.1618627 1.3470532 1.5590857 1.8009232 2.0755317 2.3857472
        2.7340949 3.1225529 3.5522566 4.023143 4.533548 5.079786
        5.6557455 6.252564 6.8584533 7.4587445 8.036235 8.571874
        9.045809 9.438724 9.733362 9.916045 10.039801 2.9589362
        2.5009584 2.1422825 1.8361402 1.5748416 1.3518233 1.1614835
        1.0009599 1.1622298 1.3474863 1.5595967 1.8015245 2.0762362
        2.3865669 2.7350402 3.123632 3.5534751 4.024504 4.5350547
        5.08144 5.657548 6.254517 6.8605576 7.4609985 8.038634
        8.5744095 9.048467 9.441484 9.736202 9.918936 10.042727
        2.9580858 2.5002348 2.1416562 1.8355975 1.5743709 1.3514143
        1.1611274 1.0012715 1.1625979 1.3479213 1.5601101 1.8021291
        2.0769446 2.387391 2.7359903 3.1247163 3.5546992 4.0258718
        4.5365677 5.0831003 5.659357 6.2564764 6.862667 7.463258
        8.041038 8.576949 9.051128 9.444248 9.739045 9.921828
        10.045655 2.9572396 2.4995146 2.141032 1.8350563 1.5739009
        1.3510056 1.160771 1.0015842 1.1629679 1.3483591 1.5606277
        1.8027387 2.0776587 2.388221 2.7369463 3.1258066 3.5559294
        4.0272455 4.5380874 5.0847673 5.661173 6.258442 6.8647833
        7.465523 8.043447 8.5794935 9.053793 9.447016 9.74189
        9.924723 10.048586 2.9563997 2.4987993 2.1404114 1.8345172
        1.5734318 1.3505967 1.1604135 1.0018989 1.1633413 1.3488017
        1.5611513 1.8033552 2.07838 2.3890586 2.73791 3.1269042
        3.5571668 4.0286264 4.539614 5.0864415 5.662996 6.2604146
        6.8669057 7.4677935 8.045861 8.582042 9.056462 9.449786
        9.744738 9.92762 10.051518 2.9555683 2.498091 2.1397955
        1.8339808 1.5729637 1.3501871 1.160054 1.0022168 1.1637197
        1.3492513 1.5616832 1.8039812 2.0791113 2.389906 2.7388828
        3.1280103 3.5584123 4.030015 4.5411487 5.0881233 5.6648264
        6.2623944 6.869035 7.4700704 8.048281 8.584596 9.059136
        9.452561 9.747589 9.93052 10.054452 2.9547505 2.4973931
        2.1391861 1.8334477 1.5724962 1.3497754 1.1596905 1.00254
        1.1641057 1.3497106 1.5622263 1.8046191 2.0798545 2.3907645
        2.7398663 3.1291263 3.5596669 4.0314126 4.542692 5.0898137
        5.6666646 6.264382 6.8711715 7.4723544 8.050707 8.587155
        9.061815 9.455339 9.750443 9.933422 10.057388 2.9539533
        2.4967105 2.1385863 1.8329186 1.5720278 1.3493595 1.1593201
        1.0028715 1.1645029 1.3501831 1.5627842 1.805272 2.0806124
        2.3916368 2.7408621 3.1302538 3.5609322 4.03282 4.544245
        5.091513 5.6685123 6.2663784 6.873317 7.474646 8.053141
        8.589722 9.064499 9.458123 9.753302 9.936327 10.060326
        2.9531898 2.4960518 2.1379995 1.8323934 1.5715556 1.3489342
        1.1589377 1.0032161 1.1649162 1.3506738 1.5633609 1.8059435
        2.0813878 2.3925254 2.7418725 3.1313944 3.5622096 4.0342393
        4.5458083 5.0932236 5.6703706 6.268385 6.8754716 7.476947
        8.055582 8.592295 9.06719 9.460911 9.756164 9.939234
        10.063266 2.9524877 2.4954312 2.13743 1.8318679 1.5710711
        1.34849 1.1585343 1.0035806 1.1653521 1.3511883 1.5639613
        1.8066375 2.0821838 2.3934326 2.7429 3.1325502 3.563501
        4.035671 4.5473843 5.094946 5.6722403 6.270403 6.8776374
        7.479258 8.058034 8.594876 9.069888 9.463706 9.75903
        9.942145 10.066207 2.9519107 2.4948719 2.1368759 1.8313271
        1.5705546 1.3480085 1.158096 1.0039748 1.1658189 1.3517333
        1.5645905 1.8073581 2.083004 2.3943615 2.7439468 3.1337237
        3.5648086 4.037119 4.5489755 5.096683 5.6741247 6.272435
        6.8798165 7.481582 8.060497 8.597469 9.072596 9.466508
        9.761903 9.94506 10.06915 2.9516563 2.4943955 2.1363027
        1.8307216 1.5699625 1.3474584 1.1576023 1.0044106 1.1663257
        1.3523151 1.565253 1.8081086 2.0838509 2.395314 2.7450147
        3.1349165 3.566134 4.0385833 4.550583 5.098436 5.6760244
        6.2744827 6.882011 7.48392 8.062973 8.600074 9.075312
        9.469317 9.764781 9.947978 10.072095 2.9525669 2.4943554
        2.135828 1.8300828 1.5693018 1.346843 1.157058 1.0048835
        1.1668664 1.3529276 1.5659426 1.8088827 2.0847182 2.3962846
        2.7460988 3.1361234 3.5674725 4.0400596 4.5522017 5.1001997
        5.6779346 6.2765393 6.884214 7.4862666 8.065457 8.602684
        9.078035 9.472133 9.767663 9.950899 10.075042
      </DataArray>
      <DataArray type="Float32" Name="jacobian" format="ascii" RangeMin="0.0012037982232868671" RangeMax="0.03618672117590904">
        0.0012037982 0.0014250278 0.0016642871 0.0019423426 0.002265088 0.0026391572
        0.0030719563 0.0035716766 0.004147273 0.0048083956 0.0055652536 0.00642839
        0.007408344 0.008515169 0.009757783 0.011143127 0.01267512 0.014353406
        0.016171956 0.01811758 0.0201685 0.022293195 0.024449755 0.026586043
        0.028640902 0.030546619 0.032232624 0.03363028 0.03467828 0.035328012
        0.035768457 0.0012049883 0.0014258628 0.0016648525 0.0019427256 0.002265367
        0.0026393984 0.0030722152 0.0035719995 0.004147701 0.0048089656 0.005566001
        0.0064293495 0.0074095516 0.008516662 0.009759603 0.011145322 0.01267774
        0.0143565135 0.016175613 0.018121846 0.02017343 0.022298831 0.02445612
        0.026593136 0.0286487 0.030555073 0.032241665 0.033639815 0.03468819
        0.03533817 0.03577879 0.0012056079 0.001426421 0.0016653577 0.0019431796
        0.0022657833 0.0026398008 0.0030726348 0.0035724712 0.004148261 0.0048096515
        0.005566849 0.006430397 0.007410835 0.008518222 0.0097614825 0.011147569
        0.01268041 0.014359667 0.016179314 0.018126156 0.020178404 0.022304509
        0.024462525 0.026600266 0.028656533 0.030563561 0.032250736 0.03364937
        0.034698118 0.03534834 0.035789125 0.0012060831 0.0014269418 0.0016659002
        0.0019437328 0.0022663423 0.0026403698 0.0030732274 0.0035731103 0.0041489764
        0.004810476 0.0055678203 0.006431552 0.0074122148 0.008519867 0.00976344
        0.011149889 0.012683149 0.014362886 0.016183078 0.01813053 0.020183442
        0.022310251 0.024468992 0.026607458 0.028664423 0.0305721 0.032259848
        0.033658963 0.03470807 0.035358526 0.03579947 0.0012065048 0.0014274268
        0.0016664353 0.0019443132 0.0022669637 0.0026410306 0.0030739321 0.0035738712
        0.004149814 0.0048114182 0.0055688987 0.0064328047 0.0074136807 0.008521589
        0.009765466 0.01115227 0.012685945 0.014366161 0.016186899 0.018134959
        0.020188535 0.022316048 0.024475513 0.026614701 0.028672362 0.03058068
        0.032268997 0.033668585 0.034718048 0.035368726 0.03580982 0.0012069006
        0.0014278888 0.0016669568 0.0019448964 0.0022676091 0.0026417382 0.0030747042
        0.0035747148 0.004150742 0.0048124525 0.005570066 0.006434139 0.0074152197
        0.008523377 0.009767548 0.011154703 0.012688788 0.014369479 0.01619076
        0.01813943 0.02019367 0.022321885 0.024482073 0.026621982 0.028680336
        0.030589296 0.032278176 0.03367823 0.034728043 0.035378937 0.035820175
        0.0012072818 0.0014283358 0.0016674673 0.0019454759 0.002268262 0.0026424685
        0.0030755152 0.003575612 0.0041517355 0.004813557 0.0055713053 0.0064355414
        0.007416821 0.008525219 0.009769679 0.011157177 0.012691669 0.014372833
        0.016194656 0.018143933 0.020198837 0.022327757 0.024488667 0.026629295
        0.028688338 0.030597936 0.032287378 0.033687893 0.034738053 0.03538916
        0.035830535 0.0012076541 0.0014287733 0.0016679695 0.0019460504 0.0022689162
        0.002643209 0.003076348 0.0035765434 0.004152774 0.0048147147 0.0055726008
        0.006437 0.007418475 0.0085271085 0.009771852 0.011159689 0.012694582
        0.0143762175 0.016198581 0.018148467 0.020204032 0.022333656 0.024495289
        0.026636634 0.028696366 0.030606598 0.032296598 0.033697575 0.034748074
        0.035399392 0.035840906 0.0012080206 0.0014292041 0.0016684657 0.0019466206
        0.0022695693 0.0026439535 0.0030771925 0.0035774957 0.004153842 0.0048159105
        0.005573939 0.006438503 0.007420173 0.008529038 0.009774061 0.011162233
        0.012697524 0.014379628 0.016202532 0.018153023 0.020209253 0.022339579
        0.024501933 0.026643995 0.028704414 0.030615281 0.032305837 0.03370727
        0.034758106 0.035409633 0.03585128 0.0012083832 0.0014296306 0.0016689576
        0.0019471872 0.0022702203 0.0026446993 0.0030780428 0.0035784603 0.0041549304
        0.004817133 0.00557531 0.0064400416 0.007421906 0.008531001 0.0097763
        0.011164804 0.012700492 0.014383063 0.016206507 0.018157603 0.020214496
        0.022345524 0.024508601 0.026651377 0.028712483 0.03062398 0.03231509
        0.033716977 0.03476815 0.03541988 0.03586166 0.001208743 0.0014300536
        0.0016694464 0.001947751 0.0022708694 0.0026454446 0.0030788956 0.0035794314
        0.0041560307 0.0048183734 0.005576704 0.0064416067 0.007423667 0.008532993
        0.009778565 0.011167398 0.012703481 0.014386518 0.0162105 0.018162206
        0.02021976 0.022351492 0.024515288 0.026658779 0.028720569 0.030632695
        0.03232436 0.033726696 0.034778204 0.035430137 0.03587205 0.0012091007
        0.0014304745 0.0016699329 0.0019483125 0.0022715167 0.002646189 0.003079749
        0.0035804058 0.004157138 0.004819625 0.0055781133 0.0064431904 0.0074254484
        0.008535003 0.00978085 0.011170012 0.012706488 0.014389992 0.016214514
        0.018166825 0.020225044 0.022357477 0.024521993 0.026666198 0.02872867
        0.030641425 0.03233364 0.033736426 0.03478827 0.035440404 0.035882443
        0.001209457 0.0014308934 0.0016704174 0.0019488722 0.0022721621 0.0026469317
        0.0030806013 0.0035813805 0.0041582477 0.0048208823 0.0055795317 0.0064447867
        0.007427244 0.008537031 0.009783151 0.011172642 0.012709513 0.014393482
        0.016218545 0.018171465 0.020230347 0.022363482 0.024528716 0.026673634
        0.028736787 0.03065017 0.032342933 0.033746168 0.034798343 0.035450675
        0.035892844 0.0012098122 0.001431311 0.0016709006 0.0019494303 0.002272806
        0.0026476725 0.003081452 0.0035823542 0.0041593574 0.0048221415 0.0055809543
        0.006446389 0.0074290484 0.0085390685 0.009785464 0.011175284 0.012712551
        0.014396989 0.016222592 0.01817612 0.020235667 0.022369504 0.024535457
        0.026681084 0.02874492 0.030658927 0.032352235 0.03375592 0.034808423
        0.035460956 0.03590325 0.0012101667 0.0014317277 0.0016713826 0.0019499871
        0.0022734478 0.0026484116 0.0030823003 0.003583325 0.0041604647 0.0048233992
        0.0055823764 0.0064479928 0.0074308566 0.008541111 0.009787783 0.011177936
        0.0127156 0.014400508 0.016226655 0.018180793 0.020241005 0.022375543
        0.024542212 0.026688552 0.028753065 0.030667698 0.032361552 0.033765685
        0.034818515 0.035471242 0.035913665 0.0012105205 0.0014321434 0.0016718635
        0.0019505427 0.0022740883 0.0026491482 0.003083146 0.0035842925 0.0041615674
        0.004824652 0.005583795 0.0064495937 0.007432663 0.008543154 0.009790107
        0.011180595 0.012718659 0.01440404 0.016230732 0.018185483 0.02024636
        0.0223816 0.024548987 0.026696034 0.028761225 0.030676479 0.03237088
        0.033775453 0.03482861 0.03548154 0.035924084 0.0012108738 0.0014325584
        0.0016723436 0.0019510969 0.002274727 0.0026498826 0.0030839879 0.0035852552
        0.004162665 0.004825898 0.0055852053 0.0064511877 0.007434464 0.008545195
        0.00979243 0.011183255 0.012721725 0.014407582 0.016234823 0.018190186
        0.02025173 0.022387672 0.024555774 0.026703529 0.028769396 0.030685272
        0.032380216 0.033785235 0.034838717 0.03549184 0.03593451 0.0012112268
        0.0014329728 0.0016728227 0.0019516499 0.0022753638 0.002650614 0.0030848256
        0.0035862122 0.0041637546 0.0048271352 0.005586606 0.0064527714 0.007436256
        0.008547229 0.009794749 0.011185918 0.012724796 0.014411134 0.016238926
        0.018194906 0.02025712 0.022393761 0.024562579 0.02671104 0.028777583
        0.030694077 0.032389563 0.033795025 0.03484883 0.03550215 0.035944942
        0.0012115794 0.0014333867 0.0016733011 0.0019522016 0.0022759982 0.0026513422
        0.003085659 0.0035871626 0.0041648354 0.004828361 0.0055879937 0.0064543416
        0.0074380348 0.008549252 0.009797063 0.011188579 0.012727872 0.014414694
        0.016243042 0.018199641 0.020262523 0.022399865 0.024569398 0.026718564
        0.028785778 0.030702893 0.032398917 0.033804823 0.034858953 0.035512466
        0.035955384 0.0012119318 0.0014337999 0.0016737784 0.0019527515 0.0022766306
        0.0026520665 0.0030864866 0.003588105 0.0041659055 0.0048295734 0.005589366
        0.0064558946 0.0074397973 0.00855126 0.009799367 0.011191236 0.012730949
        0.014418263 0.01624717 0.018204391 0.020267941 0.022405986 0.02457623
        0.0267261 0.028793987 0.030711718 0.032408282 0.033814628 0.034869082
        0.03552279 0.03596583 0.001212284 0.0014342126 0.0016742547 0.0019532999
        0.00227726 0.0026527867 0.0030873078 0.0035890387 0.004166964 0.0048307707
        0.0055907196 0.006457428 0.0074415402 0.008553253 0.009801659 0.011193887
        0.012734027 0.014421837 0.01625131 0.018209156 0.020273376 0.022412121
        0.024583079 0.026733652 0.028802209 0.030720554 0.032417655 0.03382444
        0.034879223 0.03553312 0.035976283 0.0012126358 0.0014346245 0.0016747296
        0.001953846 0.002277886 0.0026535017 0.0030881215 0.0035899617 0.004168008
        0.00483195 0.0055920524 0.0064589386 0.007443261 0.008555226 0.009803937
        0.011196531 0.012737105 0.014425419 0.01625546 0.018213933 0.020278826
        0.022418274 0.02458994 0.026741214 0.02881044 0.0307294 0.03242704
        0.03383426 0.034889363 0.035543457 0.035986744 0.0012129875 0.0014350357
        0.0016752033 0.00195439 0.0022785082 0.002654211 0.0030889264 0.0035908723
        0.0041690357 0.0048331087 0.0055933613 0.0064604236 0.007444957 0.008557177
        0.009806198 0.011199167 0.012740182 0.014429006 0.016259622 0.018218726
        0.020284291 0.02242444 0.024596818 0.02674879 0.028818682 0.030738255
        0.03243643 0.03384409 0.034899514 0.035553798 0.03599721 0.0012133388
        0.0014354461 0.0016756753 0.0019549308 0.0022791256 0.0026549129 0.0030897213
        0.003591769 0.004170045 0.0048342445 0.0055946433 0.0064618797 0.0074466243
        0.008559105 0.009808443 0.011201792 0.012743257 0.014432598 0.016263794
        0.018223532 0.020289773 0.022430621 0.024603708 0.026756378 0.028826935
        0.03074712 0.03244583 0.033853926 0.034909673 0.03556415 0.03600768
        0.0012136898 0.0014358553 0.0016761451 0.0019554682 0.0022797375 0.0026556065
        0.0030905039 0.0035926485 0.004171032 0.0048353537 0.0055958955 0.006463304
        0.007448262 0.008561006 0.009810668 0.011204408 0.01274633 0.014436196
        0.016267978 0.01822835 0.020295268 0.022436818 0.02461061 0.026763977
        0.028835198 0.030755991 0.032455236 0.03386377 0.03491984 0.035574507
        0.03601816 0.0012140404 0.0014362632 0.0016766125 0.0019560014 0.0022803429
        0.0026562898 0.003091272 0.0035935089 0.0041719945 0.004836433 0.0055971136
        0.0064646937 0.0074498667 0.00856288 0.009812874 0.011207012 0.012749401
        0.014439799 0.01627217 0.018233184 0.02030078 0.022443028 0.024617529
        0.026771588 0.028843472 0.030764872 0.03246465 0.03387362 0.03493001
        0.03558487 0.036028646 0.0012143905 0.0014366696 0.0016770768 0.0019565292
        0.0022809398 0.0026569613 0.003092023 0.0035943463 0.0041729277 0.004837478
        0.0055982945 0.006466046 0.007451437 0.0085647255 0.009815059 0.011209605
        0.01275247 0.014443407 0.016276376 0.018238032 0.020306304 0.022449253
        0.024624458 0.026779208 0.028851753 0.03077376 0.03247407 0.033883475
        0.034940187 0.03559524 0.036039136 0.0012147398 0.0014370739 0.0016775373
        0.0019570508 0.0022815268 0.002657618 0.0030927537 0.0035951568 0.0041738283
        0.004838485 0.0055994345 0.0064673573 0.00745297 0.008566541 0.009817223
        0.011212187 0.0127555365 0.01444702 0.01628059 0.018242892 0.020311844
        0.022455491 0.0246314 0.026786841 0.028860044 0.030782657 0.032483496
        0.03389334 0.034950368 0.035605613 0.036049638 0.0012150882 0.0014374756
        0.001677993 0.0019575644 0.0022821014 0.0026582566 0.0030934596 0.0035959356
        0.00417469 0.0048394483 0.0056005293 0.006468625 0.007454465 0.008568326
        0.009819367 0.011214759 0.012758601 0.0144506395 0.016284816 0.018247766
        0.020317398 0.022461742 0.024638351 0.026794482 0.028868342 0.03079156
        0.032492932 0.033903208 0.034960557 0.035615996 0.036060143 0.0012154352
        0.0014378739 0.0016784425 0.0019580678 0.0022826607 0.002658873 0.0030941358
        0.0035966767 0.0041755075 0.004840363 0.005601574 0.0064698462 0.0074559203
        0.008570082 0.009821491 0.01121732 0.012761666 0.014454265 0.016289052
        0.018252654 0.020322965 0.022468006 0.024645315 0.026802132 0.028876645
        0.03080047 0.032502368 0.03391308 0.034970753 0.035626385 0.036070656
        0.0012157806 0.0014382679 0.0016788841 0.0019585583 0.0022832004 0.0026594622
        0.0030947756 0.003597373 0.0041762735 0.0048412234 0.0056025656 0.0064710197
        0.007457336 0.008571806 0.009823596 0.011219873 0.0127647305 0.014457896
        0.016293298 0.018257553 0.020328544 0.022474281 0.024652287 0.02680979
        0.028884957 0.030809382 0.03251181 0.03392296 0.034980953 0.03563678
        0.036081173 0.0012161238 0.0014386561 0.0016793153 0.001959032 0.0022837152
        0.0026600168 0.0030953712 0.0035980162 0.004176981 0.004842023 0.0056034997
        0.006472143 0.0074587115 0.008573503 0.009825683 0.011222418 0.012767795
        0.014461535 0.016297556 0.018262465 0.020334136 0.022480568 0.024659269
        0.026817454 0.028893273 0.0308183 0.03252126 0.03393284 0.034991156
        0.03564718 0.036091696 0.0012164637 0.0014390366 0.0016797327 0.0019594836
        0.0022841978 0.0026605278 0.0030959123 0.0035985964 0.00417762 0.004842756
        0.0056043738 0.0064732153 0.0074600484 0.008575173 0.009827755 0.011224957
        0.01277086 0.01446518 0.016301824 0.01826739 0.020339739 0.022486862
        0.024666257 0.026825123 0.028901594 0.030827219 0.032530706 0.033942726
        0.035001364 0.035657585 0.03610223 0.001216799 0.0014394062 0.0016801311
        0.0019599057 0.0022846384 0.0026609837 0.0030963863 0.0035991021 0.0041781836
        0.004843417 0.0056051845 0.006474237 0.0074613476 0.008576818 0.009829813
        0.011227491 0.012773928 0.014468832 0.0163061 0.018272322 0.02034535
        0.022493163 0.024673251 0.026832795 0.028909914 0.03083614 0.032540157
        0.03395261 0.035011575 0.035667993 0.036112767 0.0012171278 0.0014397604
        0.0016805027 0.001960287 0.0022850223 0.002661368 0.003096778 0.0035995203
        0.004178662 0.004844002 0.005605932 0.00647521 0.007462612 0.00857844
        0.009831859 0.011230022 0.012776999 0.014472489 0.016310384 0.018277261
        0.020350968 0.02249947 0.024680248 0.026840467 0.028918235 0.030845061
        0.032549605 0.033962496 0.03502179 0.03567841 0.036123313 0.0012174465
        0.0014400916 0.0016808355 0.0019606107 0.0022853296 0.00266166 0.0030970683
        0.0035998372 0.0041790474 0.004844507 0.0056066173 0.0064761373 0.0074638454
        0.008580044 0.009833895 0.011232549 0.012780071 0.014476152 0.016314674
        0.018282209 0.02035659 0.022505779 0.024687242 0.026848137 0.028926551
        0.030853976 0.032559052 0.033972383 0.035032004 0.035688825 0.036133863
        0.0012177489 0.0014403871 0.0016811091 0.00196085 0.002285531 0.0026618326
        0.0030972366 0.0036000402 0.0041793343 0.0048449347 0.005607243 0.006477023
        0.0074650515 0.008581632 0.009835922 0.011235074 0.012783145 0.014479818
        0.016318968 0.018287156 0.020362211 0.022512084 0.02469423 0.0268558
        0.02893486 0.030862885 0.032568492 0.033982266 0.03504222 0.03569925
        0.036144424 0.0012180228 0.0014406223 0.0016812874 0.0019609628 0.002285585
        0.0026618526 0.003097262 0.00360012 0.004179523 0.0048452877 0.005607817
        0.0064778733 0.0074662347 0.008583205 0.009837942 0.011237595 0.012786215
        0.014483482 0.01632326 0.0182921 0.020367825 0.022518378 0.024701208
        0.026863448 0.028943155 0.03087178 0.03257792 0.03399214 0.03505243
        0.03570967 0.036154985 0.0012182394 0.0014407445 0.0016813012 0.0019608797
        0.002285437 0.0026616862 0.0030971302 0.003600077 0.0041796206 0.004845577
        0.005608347 0.0064786943 0.007467399 0.008584765 0.009839953 0.011240109
        0.012789279 0.014487138 0.01632754 0.018297032 0.020373425 0.022524655
        0.024708165 0.026871076 0.028951429 0.030880658 0.032587335 0.034002002
        0.035062637 0.035720095 0.036165558 0.0012183122 0.0014406161 0.0016810116
        0.0019604978 0.0022850307 0.002661316 0.0030968485 0.0035999292 0.0041796486
        0.004845821 0.0056088488 0.006479498 0.007468552 0.008586318 0.009841958
        0.011242616 0.012792337 0.014490784 0.016331809 0.018301945 0.020379003
        0.022530908 0.024715096 0.026878677 0.028959677 0.030889511 0.03259673
        0.034011852 0.035072833 0.03573052 0.036176134 0.0012178749 0.0014400734
        0.0016804221 0.001959918 0.002284507 0.0026608866 0.0030965465 0.0035997855
        0.004179694 0.0048460895 0.0056093778 0.0064803283 0.0074697295 0.008587893
        0.009843982 0.011245139 0.012795405 0.01449444 0.016336082 0.018306863
        0.02038458 0.022537159 0.024722023 0.026886271 0.028967919 0.030898357
        0.03260612 0.0340217 0.035083033 0.035740945 0.03618672
      </DataArray>
    </PointData>
    <CellData>
    </CellData>
    <Points>
      <DataArray type="Float32" Name="Points" NumberOfComponents="3" format="ascii" RangeMin="0.8952161503740408" RangeMax="1.0006818982600976">
        0.7592267 0.00091826235 0.47658885 0.75957435 0.00091830036 0.47660857
        0.7599804 0.00091834465 0.47663158 0.7604543 0.00091839634 0.47665837
        0.7610071 0.0009184564 0.47668958 0.7616514 0.0009185263 0.47672585
        0.76240176 0.0009186075 0.476768 0.7632748 0.0009187017 0.47681686
        0.7642893 0.0009188107 0.47687346 0.7654668 0.00091893674 0.47693887
        0.7668312 0.0009190821 0.4770143 0.76840943 0.0009192492 0.47710103
        0.7702312 0.0009194408 0.47720048 0.77232903 0.0009196598 0.47731414
        0.7747382 0.000919909 0.4774435 0.77749604 0.00092019135 0.47759002
        0.7806417 0.0009205095 0.47775516 0.78421485 0.000920866 0.47794017
        0.7882546 0.0009212626 0.47814602 0.7927978 0.00092170056 0.4783733
        0.7978766 0.00092217996 0.47862214 0.80351645 0.0009226998 0.47889194
        0.80973315 0.00092325744 0.47918138 0.8165298 0.00092384877 0.47948825
        0.82389456 0.00092446775 0.47980952 0.83179796 0.0009251068 0.4801412
        0.8401917 0.000925757 0.48047864 0.8490085 0.0009264082 0.48081663
        0.8581629 0.00092704984 0.48114967 0.86755407 0.0009276716 0.48147234
        0.87706995 0.00092826376 0.4817797 0.75919247 0.001632315 0.476585
        0.75954044 0.0016327258 0.47660476 0.75994676 0.0016330798 0.47662777
        0.7604209 0.0016333883 0.47665456 0.760974 0.0016336617 0.47668576
        0.76161855 0.0016339096 0.4767221 0.7623692 0.0016341407 0.47676423
        0.76324254 0.0016343622 0.47681314 0.7642575 0.0016345808 0.47686976
        0.7654353 0.0016348028 0.4769352 0.76680017 0.001635035 0.47701064
        0.76837885 0.0016352838 0.47709742 0.77020115 0.0016355566 0.47719693
        0.7722996 0.001635861 0.47731063 0.7747094 0.0016362059 0.47744
        0.777468 0.0016366002 0.4775866 0.7806145 0.0016370534 0.47775182
        0.7841886 0.0016375744 0.4779369 0.78822947 0.0016381713 0.47814283
        0.79277384 0.0016388496 0.47837022 0.79785407 0.0016396127 0.47861913
        0.80349547 0.0016404598 0.47888902 0.8097139 0.0016413865 0.47917858
        0.81651247 0.0016423849 0.47948557 0.8238793 0.0016434434 0.47980693
        0.8317849 0.0016445469 0.48013875 0.8401811 0.0016456784 0.48047632
        0.8490004 0.0016468191 0.48081443 0.8581574 0.001647949 0.48114756
        0.86755127 0.0016490489 0.48147035 0.87706995 0.0016501003 0.4817778
        0.7591582 0.0023463583 0.47658008 0.7595064 0.0023469864 0.47659984
        0.7599129 0.0023475734 0.47662285 0.76038736 0.0023481117 0.47664967
        0.7609407 0.0023486011 0.4766809 0.76158553 0.0023490447 0.47671723
        0.7623365 0.0023494493 0.47675943 0.7632102 0.0023498235 0.47680834
        0.7642254 0.0023501762 0.476865 0.7654037 0.002350517 0.47693047
        0.766769 0.0023508563 0.47700596 0.76834816 0.0023512046 0.47709274
        0.770171 0.0023515741 0.47719228 0.77227 0.0023519774 0.47730604
        0.77468055 0.0023524298 0.47743547 0.7774399 0.002352946 0.47758213
        0.78058726 0.0023535427 0.47774738 0.78416234 0.002354236 0.47793254
        0.7882043 0.0023550396 0.47813854 0.79274994 0.0023559642 0.47836602
        0.7978315 0.0023570156 0.47861505 0.8034745 0.0023581947 0.47888502
        0.8096946 0.0023594943 0.47917467 0.8164951 0.0023609032 0.4794818
        0.82386404 0.0023624043 0.4798033 0.8317719 0.002363975 0.4801352
        0.8401705 0.00236559 0.4804729 0.8489923 0.002367222 0.4808111
        0.858152 0.0023688418 0.48114434 0.8675485 0.0023704215 0.48146725
        0.87706995 0.0023719333 0.48177478 0.759124 0.0030603902 0.47657406
        0.7594723 0.0030611744 0.47659385 0.759879 0.0030619383 0.4766169
        0.7603536 0.0030626676 0.47664374 0.7609072 0.0030633518 0.476675
        0.7615524 0.0030639863 0.4767113 0.76230365 0.003064571 0.4767535
        0.7631777 0.0030651109 0.47680247 0.7641933 0.0030656138 0.47685915
        0.765372 0.0030660906 0.47692463 0.7667377 0.0030665535 0.47700015
        0.7683174 0.0030670168 0.477087 0.77014077 0.003067497 0.4771866
        0.77224046 0.0030680117 0.47730038 0.7746516 0.003068582 0.47742987
        0.77741176 0.00306923 0.47757658 0.78055996 0.0030699787 0.47774193
        0.78413606 0.0030708513 0.47792715 0.7881791 0.003071868 0.4781332
        0.7927259 0.0030730444 0.47836077 0.7978089 0.0030743896 0.47860986
        0.80345345 0.0030759044 0.47887996 0.80967534 0.003077581 0.47916973
        0.8164777 0.0030794037 0.47947693 0.8238487 0.00308135 0.47979853
        0.83175886 0.0030833902 0.48013058 0.84015983 0.0030854912 0.4804684
        0.8489842 0.0030876163 0.4808067 0.8581465 0.0030897276 0.48114005
        0.8675458 0.0030917877 0.48146304 0.87706995 0.0030937607 0.48177066
        0.75908977 0.0037744096 0.47656703 0.75943816 0.0037753168 0.4765868
        0.759845 0.003776223 0.47660983 0.7603199 0.0037771114 0.47663668
        0.7608737 0.0037779675 0.47666797 0.7615191 0.0037787787 0.47670433
        0.7622707 0.0037795394 0.47674656 0.763145 0.003780248 0.47679552
        0.76416105 0.0037809105 0.47685224 0.76534015 0.0037815345 0.47691774
        0.7667063 0.0037821338 0.4769933 0.7682865 0.0037827252 0.4770802
        0.7701105 0.0037833278 0.47717983 0.7722108 0.0037839655 0.47729364
        0.7746226 0.0037846644 0.4774232 0.77738357 0.0037854528 0.47756994
        0.78053266 0.0037863615 0.47773534 0.7841097 0.003787421 0.47792062
        0.7881538 0.003788657 0.47812676 0.79270196 0.0037900906 0.47835442
        0.7977863 0.0037917343 0.47860363 0.8034324 0.0037935888 0.47887382
        0.809656 0.003795646 0.47916368 0.8164604 0.0037978857 0.47947103
        0.8238334 0.00380028 0.47979274 0.8317458 0.0038027924 0.4801249
        0.8401492 0.003805381 0.48046282 0.84897614 0.0038080006 0.48080122
        0.858141 0.0038106046 0.4811347 0.86754304 0.0038131466 0.48145777
        0.87706995 0.0038155816 0.48176548 0.75905555 0.004488415 0.4765589
        0.75940406 0.004489424 0.47657865 0.75981104 0.0044904496 0.47660172
        0.76028603 0.0044914745 0.47662857 0.76084006 0.004492481 0.47665986
        0.76148576 0.004493454 0.47669625 0.7622376 0.004494381 0.4767385
        0.7631123 0.0044952566 0.47678748 0.7641287 0.004496081 0.4768442
        0.7653082 0.0044968594 0.47690976 0.7666749 0.004497605 0.47698534
        0.7682556 0.004498334 0.47707227 0.7700801 0.0044990703 0.47717193
        0.77218103 0.0044998406 0.4772858 0.7745936 0.004500677 0.47741544
        0.7773553 0.0045016147 0.47756225 0.78050524 0.004502692 0.4777277
        0.7840833 0.004503944 0.47791305 0.78812855 0.0045054057 0.47811928
        0.7926779 0.004507102 0.478347 0.79776365 0.004509049 0.4785963
        0.80341136 0.004511248 0.4788666 0.8096367 0.0045136893 0.47915658
        0.81644297 0.004516349 0.47946402 0.8238181 0.0045191934 0.47978583
        0.83173275 0.0045221793 0.48011813 0.84013855 0.0045252577 0.48045614
        0.848968 0.004528374 0.4807947 0.8581355 0.0045314715 0.48112825
        0.8675403 0.0045344965 0.48145142 0.87706995 0.004537394 0.48175922
        0.75902134 0.0052024038 0.47654966 0.75936997 0.005203502 0.47656944
        0.75977707 0.00520463 0.47659254 0.76025224 0.005205774 0.4766194
        0.76080644 0.005206914 0.47665069 0.7614523 0.005208034 0.4766871
        0.7622045 0.0052091177 0.47672936 0.7630795 0.0052101538 0.47677836
        0.76409626 0.005211139 0.47683513 0.7652762 0.005212075 0.4769007
        0.7666433 0.0052129724 0.47697634 0.76822454 0.0052138474 0.4770633
        0.77004963 0.005214726 0.477163 0.77215123 0.005215638 0.47727692
        0.7745645 0.005216621 0.47740656 0.777327 0.005217716 0.47755346
        0.7804778 0.005218968 0.47771898 0.7840569 0.0052204207 0.4779044
        0.7881032 0.005222114 0.4781107 0.79265386 0.005224079 0.47833854
        0.797741 0.005226333 0.47858793 0.80339026 0.005228881 0.47885832
        0.80961734 0.005231709 0.4791484 0.8164255 0.005234792 0.47945592
        0.8238028 0.0052380897 0.47977787 0.8317197 0.005241552 0.48011026
        0.8401279 0.0052451217 0.4804484 0.84895986 0.0052487347 0.48078704
        0.8581301 0.0052523273 0.48112074 0.86753756 0.0052558356 0.481444
        0.87706995 0.0052591953 0.4817519 0.75898707 0.0059163757 0.4765394
        0.7593358 0.0059175505 0.4765592 0.7597431 0.005918771 0.47658226
        0.7602184 0.00592002 0.47660917 0.76077276 0.0059212805 0.47664046
        0.76141894 0.005922534 0.47667685 0.7621713 0.0059237634 0.47671914
        0.7630467 0.0059249536 0.4767682 0.7640638 0.005926097 0.47682494
        0.7652441 0.00592719 0.47689056 0.7666117 0.0059282426 0.47696623
        0.7681935 0.00592927 0.47705323 0.7700191 0.005930297 0.47715297
        0.77212137 0.0059313593 0.47726697 0.77453536 0.005932496 0.47739667
        0.7772986 0.0059337555 0.4775436 0.78045034 0.00593519 0.47770917
        0.78403044 0.0059368494 0.4778947 0.7880779 0.00593878 0.47810107
        0.7926297 0.005941018 0.47832897 0.79771835 0.005943585 0.47857842
        0.80336916 0.0059464853 0.47884893 0.80959797 0.005949705 0.47913912
        0.8164081 0.0059532137 0.47944677 0.82378745 0.0059569674 0.47976884
        0.83170664 0.005960908 0.48010135 0.8401173 0.00596497 0.48043957
        0.84895176 0.0059690825 0.48077834 0.8581246 0.005973171 0.48111212
        0.86753476 0.005977162 0.4814355 0.87706995 0.0059809857 0.48174345
        0.75895286 0.006630328 0.47652805 0.7593017 0.0066315737 0.47654787
        0.7597091 0.0066328757 0.47657093 0.7601845 0.006634219 0.47659785
        0.7607391 0.0066355886 0.47662914 0.76138544 0.006636965 0.47666556
        0.7621381 0.00663833 0.47670788 0.7630138 0.006639666 0.47675693
        0.76403123 0.006640962 0.47681373 0.765212 0.006642212 0.4768794
        0.76658005 0.006643421 0.47695506 0.7681623 0.0066446043 0.4770421
        0.76998854 0.0066457866 0.4771419 0.7720914 0.006647004 0.4772559
        0.77450615 0.0066483016 0.47738567 0.77727026 0.006649733 0.47753268
        0.78042287 0.006651356 0.47769833 0.7840039 0.006653229 0.47788388
        0.7880525 0.0066554034 0.47809038 0.79260564 0.00665792 0.47831833
        0.79769564 0.006660805 0.4785679 0.803348 0.006664061 0.47883847
        0.8095786 0.006667676 0.47912878 0.81639063 0.0066716135 0.47943655
        0.82377213 0.0066758245 0.4797587 0.83169353 0.0066802455 0.48009133
        0.8401066 0.0066848015 0.48042968 0.84894365 0.006689414 0.48076856
        0.85811913 0.006693999 0.48110244 0.867532 0.006698475 0.4814259
        0.87706995 0.006702762 0.48173398 0.75891864 0.00734426 0.47651565
        0.75926757 0.007345569 0.47653544 0.7596751 0.0073469444 0.47655854
        0.7601507 0.007348376 0.47658545 0.7607054 0.007349845 0.47661677
        0.761352 0.0073513347 0.4766532 0.7621049 0.0073528257 0.47669554
        0.7629808 0.0073543005 0.4767446 0.7639987 0.007355743 0.47680143
        0.7651798 0.007357147 0.4768671 0.7665483 0.007358513 0.4769428
        0.7681311 0.0073598535 0.4770299 0.7699579 0.007361194 0.47712973
        0.7720614 0.0073625725 0.47724378 0.7744769 0.0073640374 0.4773736
        0.77724177 0.0073656472 0.47752067 0.7803953 0.0073674666 0.47768638
        0.7839773 0.0073695583 0.477872 0.7880271 0.007371982 0.47807857
        0.7925815 0.007374783 0.47830662 0.79767287 0.0073779896 0.47855625
        0.8033269 0.007381607 0.47882697 0.8095592 0.0073856195 0.47911733
        0.81637317 0.0073899888 0.47942522 0.82375675 0.0073946607 0.4797475
        0.8316805 0.007399563 0.48008025 0.84009594 0.0074046156 0.48041874
        0.84893554 0.007409729 0.4807577 0.85811365 0.0074148118 0.48109168
        0.8675293 0.0074197724 0.48141524 0.87706995 0.0074245236 0.4817234
        0.75888443 0.008058169 0.47650215 0.7592335 0.008059536 0.47652197
        0.7596411 0.0080609815 0.47654507 0.7601168 0.008062491 0.476572
        0.76067173 0.008064053 0.47660333 0.7613185 0.008065648 0.47663975
        0.76207167 0.008067258 0.4766821 0.76294786 0.008068862 0.47673118
        0.763966 0.008070447 0.47678804 0.76514757 0.008072 0.47685376
        0.7665165 0.008073521 0.4769295 0.76809984 0.00807502 0.4770166
        0.76992726 0.0080765225 0.4771165 0.7720314 0.008078067 0.47723058
        0.77444756 0.008079704 0.47736046 0.7772133 0.008081498 0.47750756
        0.78036773 0.008083518 0.47767335 0.78395075 0.008085836 0.47785908
        0.78800166 0.008088515 0.47806567 0.7925573 0.008091606 0.47829384
        0.79765016 0.008095139 0.47854358 0.8033057 0.00809912 0.47881436
        0.8095398 0.008103535 0.47910485 0.8163557 0.008108338 0.47941282
        0.8237414 0.008113473 0.47973523 0.83166736 0.00811886 0.48006806
        0.8400852 0.00812441 0.48040664 0.8489274 0.008130026 0.48074573
        0.85810816 0.008135607 0.48107982 0.8675265 0.008141053 0.4814035
        0.87706995 0.008146268 0.48171172 0.7588502 0.008772056 0.47648764
        0.7591994 0.008773477 0.47650743 0.7596071 0.008774984 0.47653052
        0.76008296 0.008776569 0.47655746 0.76063806 0.008778215 0.47658882
        0.761285 0.008779908 0.47662526 0.7620384 0.008781629 0.4766676
        0.7629149 0.008783358 0.47671673 0.7639334 0.008785076 0.4767736
        0.7651153 0.008786776 0.4768393 0.76648474 0.00878845 0.4769151
        0.76806855 0.0087901065 0.47700223 0.7698965 0.008791773 0.47710216
        0.7720013 0.008793485 0.4772163 0.77441823 0.0087953005 0.47734624
        0.7771847 0.008797284 0.4774934 0.7803401 0.008799512 0.47765926
        0.7839241 0.00880206 0.477845 0.78797615 0.008805 0.47805172
        0.79253304 0.008808386 0.47827995 0.79762733 0.008812251 0.4785298
        0.8032845 0.008816602 0.47880068 0.80952036 0.00882142 0.4790913
        0.8163382 0.008826663 0.47939938 0.823726 0.008832263 0.47972187
        0.83165425 0.008838135 0.48005483 0.84007454 0.008844185 0.48039353
        0.8489192 0.008850303 0.48073274 0.8581027 0.008856384 0.4810669
        0.8675237 0.008862316 0.48139068 0.87706995 0.008867996 0.481699
        0.758816 0.009485914 0.476472 0.7591652 0.009487387 0.4764918
        0.7595731 0.009488954 0.47651494 0.7600491 0.009490605 0.47654185
        0.7606044 0.009492332 0.4765732 0.7612515 0.009494117 0.47660968
        0.76200515 0.009495943 0.47665206 0.76288193 0.009497789 0.47670117
        0.76390076 0.009499638 0.4767581 0.765083 0.009501477 0.4768238
        0.76645285 0.0095033 0.47689962 0.7680372 0.009505116 0.47698683
        0.76986575 0.009506946 0.47708675 0.7719712 0.00950883 0.47720096
        0.7743888 0.009510825 0.47733095 0.7771561 0.009513004 0.47747818
        0.7803124 0.009515445 0.4776441 0.78389746 0.00951823 0.4778299
        0.78795063 0.009521437 0.4780367 0.79250884 0.009525121 0.47826502
        0.79760456 0.009529323 0.47851494 0.8032633 0.009534048 0.47878593
        0.80950093 0.009539275 0.47907662 0.8163207 0.009544958 0.4793848
        0.8237106 0.009551025 0.47970745 0.83164114 0.009557386 0.48004052
        0.8400638 0.009563935 0.4803793 0.8489111 0.009570559 0.4807186
        0.8580972 0.009577138 0.4810529 0.867521 0.009583557 0.48137674
        0.87706995 0.009589702 0.48168513 0.75878173 0.010199748 0.4764553
        0.75913113 0.010201267 0.47647512 0.75953907 0.010202889 0.47649822
        0.76001525 0.010204606 0.47652516 0.76057065 0.010206407 0.47655657
        0.761218 0.010208278 0.47659305 0.7619719 0.010210201 0.4766354
        0.7628489 0.01021216 0.47668454 0.76386803 0.010214131 0.4767415
        0.7650507 0.010216106 0.47680724 0.766421 0.010218076 0.47688308
        0.7680058 0.010220048 0.47697031 0.76983494 0.010222042 0.4770703
        0.771941 0.010224099 0.47718453 0.77435935 0.0102262795 0.4773146
        0.7771275 0.010228657 0.47746184 0.78028464 0.010231316 0.47762784
        0.78387076 0.010234344 0.47781375 0.78792506 0.010237822 0.4780206
        0.7924845 0.010241814 0.478249 0.7975817 0.010246355 0.47849903
        0.803242 0.010251458 0.4787701 0.80948144 0.010257097 0.47906092
        0.8163032 0.010263223 0.4793692 0.8236952 0.010269761 0.47969192
        0.831628 0.010276611 0.4800251 0.84005314 0.010283663 0.48036402
        0.84890294 0.010290793 0.48070344 0.8580917 0.010297872 0.48103783
        0.8675182 0.010304779 0.48136175 0.87706995 0.0103113875 0.48167023
        0.7587475 0.010913553 0.47643754 0.759097 0.0109151155 0.47645736
        0.7595051 0.010916789 0.47648048 0.7599814 0.010918566 0.47650743
        0.76053697 0.010920438 0.4765388 0.7611845 0.01092239 0.47657531
        0.7619386 0.010924407 0.4766177 0.7628159 0.010926469 0.47666687
        0.7638354 0.010928561 0.4767238 0.7650184 0.010930666 0.4767896
        0.7663891 0.010932779 0.4768655 0.7679744 0.010934903 0.4769527
        0.7698041 0.010937062 0.47705278 0.77191085 0.0109392945 0.47716707
        0.7743299 0.010941663 0.47729713 0.77709883 0.010944243 0.47744447
        0.78025687 0.010947124 0.47761053 0.783844 0.0109504005 0.47779652
        0.78789943 0.0109541565 0.4780034 0.7924602 0.010958458 0.4782319
        0.7975588 0.010963346 0.47848204 0.8032208 0.0109688295 0.47875318
        0.80946195 0.010974886 0.4790441 0.8162856 0.010981458 0.4793525
        0.82367975 0.010988468 0.47967535 0.83161485 0.010995811 0.48000863
        0.8400424 0.011003365 0.48034766 0.8488948 0.011011 0.48068717
        0.85808617 0.011018583 0.48102167 0.86751544 0.011025975 0.48134568
        0.87706995 0.01103305 0.48165426 0.7587133 0.011627326 0.4764187
        0.7590629 0.01162893 0.47643855 0.75947106 0.0116306525 0.47646168
        0.75994754 0.011632488 0.47648862 0.76050323 0.011634426 0.47652003
        0.76115096 0.011636455 0.47655654 0.7619053 0.0116385585 0.47659892
        0.7627829 0.011640721 0.47664812 0.76380265 0.011642925 0.47670507
        0.76498604 0.011645158 0.4767709 0.7663572 0.01164741 0.47684678
        0.76794297 0.011649685 0.47693408 0.7697732 0.011652006 0.47703415
        0.77188057 0.011654414 0.4771485 0.77430034 0.011656972 0.47727862
        0.7770701 0.011659758 0.47742602 0.7802291 0.011662869 0.4775921
        0.78381723 0.0116663985 0.4777782 0.7878738 0.011670437 0.47798517
        0.7924359 0.011675055 0.47821373 0.7975359 0.011680293 0.47846395
        0.80319947 0.011686162 0.47873524 0.80944246 0.011692638 0.47902623
        0.8162681 0.011699661 0.47933474 0.82366437 0.011707145 0.47965768
        0.8316017 0.011714981 0.47999108 0.8400317 0.01172304 0.4803302
        0.8488866 0.011731183 0.48066986 0.8580807 0.011739267 0.48100442
        0.86751264 0.011747147 0.48132855 0.87706995 0.011754686 0.48163718
        0.7586791 0.012341068 0.47639883 0.75902873 0.012342712 0.47641864
        0.7594371 0.0123444805 0.47644177 0.7599136 0.012346369 0.47646874
        0.76046956 0.01234837 0.47650012 0.76111746 0.012350469 0.47653666
        0.761872 0.0123526575 0.47657907 0.76274985 0.012354916 0.47662827
        0.7637699 0.0123572275 0.4766853 0.7649537 0.012359581 0.47675112
        0.7663252 0.012361967 0.47682706 0.7679115 0.012364391 0.47691435
        0.7697423 0.012366873 0.47701448 0.7718503 0.012369458 0.47712886
        0.7742708 0.012372207 0.477259 0.7770413 0.012375204 0.47740647
        0.78020126 0.012378547 0.47757265 0.7837904 0.012382335 0.47775877
        0.7878481 0.012386663 0.47796586 0.7924115 0.012391601 0.4781945
        0.797513 0.012397195 0.4784448 0.8031782 0.012403456 0.47871616
        0.8094229 0.012410353 0.47900727 0.8162505 0.012417828 0.47931588
        0.82364887 0.01242579 0.47963893 0.83158857 0.01243412 0.47997245
        0.84002095 0.012442687 0.4803117 0.84887844 0.012451339 0.4806514
        0.8580752 0.012459924 0.48098612 0.8675099 0.012468293 0.4813103
        0.87706995 0.012476298 0.48161903 0.7586449 0.013054777 0.47637784
        0.75899464 0.013056457 0.4763977 0.75940305 0.013058269 0.47642082
        0.75987977 0.013060208 0.4764478 0.7604358 0.013062268 0.4764792
        0.76108396 0.013064436 0.47651574 0.76183873 0.0130667025 0.47655815
        0.7627168 0.013069052 0.47660738 0.76373714 0.013071466 0.47666436
        0.76492125 0.013073937 0.47673026 0.7662932 0.0130764535 0.4768062
        0.76787996 0.013079022 0.47689357 0.7697113 0.013081665 0.4769937
        0.77181995 0.013084425 0.47710812 0.77424115 0.013087367 0.47723836
        0.7770125 0.013090577 0.47738588 0.7801733 0.013094158 0.47755212
        0.7837635 0.013098209 0.47773832 0.7878224 0.013102831 0.47794548
        0.79238707 0.013108095 0.4781742 0.79749006 0.01311405 0.47842458
        0.80315685 0.013120704 0.47869602 0.80940336 0.013128028 0.47898725
        0.8162329 0.013135959 0.47929597 0.82363343 0.013144401 0.47961912
        0.8315754 0.01315323 0.47995272 0.8400102 0.013162302 0.4802921
        0.8488703 0.013171464 0.48063192 0.85806966 0.013180554 0.4809667
        0.8675071 0.01318941 0.481291 0.87706995 0.013197881 0.4815998
        0.75861067 0.013768449 0.4763558 0.7589605 0.013770167 0.47637564
        0.7593691 0.013772018 0.4763988 0.7598459 0.013774006 0.47642577
        0.76040214 0.01377612 0.4764572 0.7610504 0.013778353 0.47649372
        0.7618054 0.0137806935 0.47653618 0.76268375 0.013783128 0.47658542
        0.7637044 0.013785643 0.47664243 0.7648889 0.013788224 0.47670835
        0.7662612 0.013790867 0.47678432 0.7678485 0.0137935765 0.4768717
        0.7696804 0.013796379 0.4769719 0.7717896 0.013799314 0.47708634
        0.7742115 0.013802452 0.47721663 0.7769837 0.013805878 0.4773642
        0.7801454 0.0138097 0.47753048 0.7837366 0.01381402 0.47771674
        0.7877967 0.01381894 0.477924 0.79236263 0.013824536 0.4781528
        0.79746705 0.013830856 0.47840327 0.80313545 0.013837909 0.47867483
        0.8093838 0.0138456635 0.47896615 0.8162153 0.013854054 0.47927496
        0.82361794 0.013862977 0.47959825 0.83156216 0.013872304 0.47993195
        0.8399995 0.013881886 0.4802714 0.8488621 0.013891559 0.48061132
        0.8580642 0.013901152 0.4809462 0.86750436 0.013910498 0.48127058
        0.87706995 0.013919434 0.48157948 0.7585764 0.0144820865 0.47633266
        0.7589264 0.014483836 0.47635254 0.75933504 0.014485727 0.4763757
        0.75981206 0.014487758 0.47640267 0.7603684 0.014489925 0.4764341
        0.7610169 0.014492219 0.47647068 0.7617721 0.0144946305 0.47651315
        0.7626507 0.014497147 0.47656238 0.7636717 0.014499754 0.47661942
        0.76485646 0.014502443 0.47668535 0.7662292 0.0145052085 0.47676134
        0.7678169 0.014508056 0.47684875 0.7696494 0.014511014 0.47694898
        0.7717592 0.014514126 0.4770635 0.77418184 0.014517458 0.4771938
        0.77695477 0.014521105 0.47734144 0.7801174 0.014525171 0.4775078
        0.78370965 0.0145297665 0.47769415 0.7877709 0.014534989 0.47790146
        0.7923382 0.014540923 0.47813034 0.79744405 0.0145476125 0.4783809
        0.8031141 0.014555069 0.47865257 0.8093642 0.014563257 0.47894394
        0.8161977 0.014572108 0.47925287 0.82360244 0.014581516 0.47957623
        0.831549 0.014591346 0.47991008 0.8399887 0.014601437 0.48024964
        0.8488539 0.014611621 0.48058966 0.85805863 0.01462172 0.48092464
        0.86750156 0.0146315545 0.48124912 0.87706995 0.014640956 0.48155808
        0.7585422 0.015195685 0.47630852 0.75889224 0.015197463 0.47632834
        0.75930107 0.015199391 0.47635153 0.7597782 0.015201467 0.47637853
        0.76033473 0.015203681 0.47640994 0.7609834 0.015206033 0.47644654
        0.7617388 0.015208511 0.476489 0.76261765 0.015211105 0.47653827
        0.7636389 0.0152138 0.47659534 0.76482403 0.015216591 0.47666126
        0.7661972 0.015219475 0.4767373 0.7677854 0.015222459 0.47682476
        0.76961833 0.01522557 0.47692502 0.77172875 0.0152288545 0.4770396
        0.7741521 0.015232386 0.47716993 0.77692586 0.015236255 0.47731763
        0.7800894 0.0152405705 0.47748402 0.78368264 0.015245444 0.47767043
        0.78774506 0.015250977 0.47787783 0.7923137 0.015257253 0.4781068
        0.797421 0.015264317 0.47835743 0.8030927 0.01527218 0.4786292
        0.8093446 0.015280807 0.4789207 0.81618005 0.0152901225 0.47922972
        0.82358694 0.015300019 0.47955322 0.8315358 0.015310349 0.47988713
        0.839978 0.015320954 0.48022678 0.8488457 0.015331651 0.48056692
        0.85805315 0.015342253 0.48090202 0.86749876 0.015352577 0.48122656
        0.87706995 0.015362445 0.4815356 0.75850797 0.015909243 0.47628325
        0.75885814 0.01591105 0.47630313 0.75926703 0.015913013 0.4763263
        0.7597443 0.015915126 0.4763533 0.760301 0.015917387 0.47638476
        0.76094985 0.015919793 0.47642133 0.7617055 0.015922332 0.47646382
        0.76258457 0.015925 0.47651312 0.76360613 0.01592778 0.4765702
        0.7647916 0.01593067 0.47663614 0.7661652 0.015933666 0.4767122
        0.7677538 0.015936783 0.47679967 0.7695873 0.015940046 0.47689998
        0.7716983 0.015943503 0.4770146 0.7741223 0.015947234 0.477145
        0.7768969 0.015951328 0.47729272 0.7800613 0.015955895 0.47745922
        0.78365564 0.015961053 0.47764567 0.78771925 0.0159669 0.47785312
        0.79228914 0.015973523 0.47808218 0.7973979 0.01598097 0.4783329
        0.80307126 0.015989244 0.47860473 0.809325 0.015998311 0.47889635
        0.8161624 0.016008096 0.47920552 0.82357144 0.016018478 0.47952908
        0.8315226 0.016029315 0.47986314 0.8399672 0.016040431 0.48020288
        0.8488375 0.016051644 0.4805431 0.8580476 0.016062753 0.48087826
        0.867496 0.016073566 0.48120293 0.87706995 0.016083902 0.48151204
        0.75847375 0.016622758 0.47625694 0.758824 0.016624594 0.47627681
        0.75923306 0.016626587 0.47629997 0.75971043 0.016628738 0.476327
        0.76026726 0.016631043 0.47635844 0.76091635 0.016633498 0.47639504
        0.7616722 0.016636096 0.47643757 0.76255155 0.01663883 0.47648683
        0.76357335 0.01664169 0.47654393 0.7647592 0.016644673 0.47660992
        0.7661331 0.01664778 0.47668603 0.76772213 0.016651025 0.47677353
        0.76955616 0.016654437 0.47687387 0.77166784 0.016658071 0.4769885
        0.7740925 0.016661998 0.47711897 0.77686787 0.01666632 0.47726676
        0.78003323 0.016671147 0.4774333 0.7836286 0.016676592 0.47761983
        0.7876933 0.016682759 0.47782737 0.7922645 0.016689735 0.4780565
        0.79737484 0.016697565 0.4783073 0.8030498 0.016706254 0.47857925
        0.8093053 0.016715769 0.47887093 0.8161447 0.016726023 0.4791802
        0.82355595 0.016736899 0.47950387 0.83150935 0.01674824 0.479838
        0.83995646 0.016759872 0.48017788 0.8488293 0.0167716 0.48051822
        0.85804206 0.016783215 0.48085347 0.8674932 0.016794518 0.4811782
        0.87706995 0.016805317 0.4814874 0.75843954 0.017336233 0.47622955
        0.7587899 0.017338093 0.47624943 0.759199 0.017340114 0.4762726
        0.7596766 0.0173423 0.47629964 0.7602336 0.017344642 0.4763311
        0.7608828 0.017347146 0.47636768 0.7616389 0.017349796 0.47641024
        0.76251847 0.017352596 0.47645953 0.76354057 0.01735553 0.47651663
        0.7647267 0.017358603 0.47658265 0.76610106 0.017361814 0.4766588
        0.76769054 0.017365186 0.47674632 0.76952505 0.017368745 0.4768467
        0.7716373 0.01737255 0.47696137 0.7740627 0.017376678 0.47709188
        0.77683884 0.017381232 0.47723973 0.7800051 0.017386317 0.4774063
        0.78360146 0.017392054 0.47759292 0.7876674 0.017398551 0.47780052
        0.79223996 0.017405884 0.47802973 0.7973517 0.017414106 0.47828063
        0.8030283 0.017423214 0.47855264 0.80928564 0.017433178 0.47884443
        0.81612706 0.017443905 0.4791538 0.8235404 0.017455274 0.4794776
        0.8314961 0.017467126 0.47981185 0.8399457 0.017479276 0.4801518
        0.8488211 0.017491516 0.48049223 0.8580365 0.01750364 0.4808276
        0.8674904 0.017515434 0.48115242 0.87706995 0.0175267 0.4814617
        0.7584053 0.018049661 0.4762011 0.75875574 0.018051546 0.476221
        0.75916505 0.018053593 0.47624415 0.7596427 0.018055808 0.4762712
        0.76019984 0.01805819 0.47630268 0.7608493 0.018060733 0.4763393
        0.76160556 0.018063435 0.4763818 0.7624854 0.01806629 0.47643116
        0.7635078 0.018069299 0.4764883 0.7646942 0.018072454 0.47655433
        0.76606894 0.018075766 0.47663045 0.7676589 0.018079259 0.47671804
        0.7694939 0.018082963 0.47681844 0.77160674 0.018086944 0.47693318
        0.7740328 0.018091274 0.47706372 0.77680975 0.018096058 0.47721162
        0.7799769 0.018101411 0.47737825 0.78357434 0.018107448 0.4775649
        0.7876414 0.018114273 0.47777262 0.7922153 0.01812197 0.4780019
        0.79732853 0.018130584 0.4782529 0.8030068 0.018140119 0.478525
        0.809266 0.018150536 0.4788169 0.8161093 0.01816174 0.47912636
        0.82352483 0.018173605 0.47945023 0.8314829 0.018185968 0.4797846
        0.8399349 0.018198634 0.48012465 0.84881294 0.018211393 0.4804652
        0.858031 0.018224023 0.48080063 0.8674876 0.018236307 0.48112553
        0.87706995 0.01824804 0.48143488 0.7583711 0.018763043 0.47617155
        0.75872165 0.018764948 0.47619146 0.759131 0.01876702 0.47621465
        0.7596088 0.018769262 0.4762417 0.76016617 0.018771674 0.47627318
        0.76081574 0.018774258 0.47630978 0.76157224 0.018777005 0.47635236
        0.7624523 0.018779917 0.47640172 0.763475 0.018782986 0.47645885
        0.7646617 0.018786224 0.47652492 0.7660368 0.018789634 0.47660106
        0.7676272 0.018793246 0.47668868 0.7694627 0.018797094 0.47678912
        0.7715761 0.018801246 0.47690386 0.77400285 0.01880578 0.47703448
        0.7767806 0.018810803 0.47718242 0.77994865 0.018816425 0.47734913
        0.78354716 0.018822763 0.47753584 0.7876154 0.018829925 0.47774363
        0.7921906 0.018837992 0.47797298 0.79730535 0.018847005 0.47822407
        0.80298525 0.018856969 0.47849628 0.80924624 0.018867841 0.47878826
        0.8160916 0.018879527 0.4790978 0.8235093 0.018891891 0.4794218
        0.83146966 0.018904766 0.47975627 0.83992404 0.01891795 0.48009643
        0.84880465 0.018931227 0.48043704 0.85802543 0.018944364 0.48077258
        0.86748487 0.018957142 0.48109758 0.87706995 0.01896934 0.481407
        0.75833684 0.019476378 0.47614098 0.7586875 0.0194783 0.47616085
        0.75909704 0.019480392 0.4761841 0.75957495 0.019482661 0.47621113
        0.76013243 0.019485101 0.4762426 0.7607822 0.019487718 0.47627926
        0.76153886 0.019490505 0.47632182 0.7624192 0.019493466 0.47637117
        0.76344216 0.019496597 0.47642836 0.76462924 0.019499911 0.47649443
        0.7660047 0.019503415 0.4765706 0.76759547 0.01950714 0.47665825
        0.7694315 0.01951113 0.47675872 0.77154547 0.019515455 0.47687355
        0.7739729 0.019520193 0.47700417 0.7767514 0.019525457 0.47715217
        0.7799204 0.019531352 0.4773189 0.7835199 0.019538002 0.47750574
        0.7875894 0.019545505 0.47771356 0.79216594 0.019553944 0.477943
        0.79728216 0.019563364 0.47819418 0.80296373 0.019573763 0.47846648
        0.8092265 0.019585093 0.47875857 0.8160739 0.01959726 0.4790682
        0.8234937 0.019610127 0.4793923 0.83145636 0.019623516 0.47972685
        0.83991325 0.019637221 0.48006713 0.8487965 0.019651018 0.48040786
        0.8580199 0.019664664 0.4807435 0.86748207 0.019677931 0.48106855
        0.87706995 0.0196906 0.48137805 0.7583026 0.020189663 0.47610933
        0.7586534 0.0201916 0.4761292 0.759063 0.02019371 0.47615242
        0.7595411 0.020195998 0.47617948 0.7600987 0.020198466 0.47621098
        0.7607487 0.02020111 0.4762476 0.76150554 0.020203935 0.4762902
        0.7623861 0.020206938 0.47633958 0.7634093 0.020210126 0.47639677
        0.76459676 0.020213507 0.47646287 0.76597255 0.0202171 0.4765391
        0.7675637 0.020220937 0.47662675 0.76940024 0.020225072 0.47672728
        0.77151483 0.020229569 0.4768421 0.7739429 0.020234518 0.4769728
        0.7767222 0.02024002 0.47712085 0.7798921 0.020246198 0.47728765
        0.7834926 0.02025316 0.4774745 0.7875633 0.020261012 0.4776824
        0.7921412 0.02026983 0.47791195 0.7972589 0.020279657 0.47816318
        0.80294216 0.020290496 0.47843558 0.8092068 0.02030229 0.47872776
        0.81605613 0.020314943 0.4790375 0.8234781 0.020328313 0.4793617
        0.8314431 0.020342221 0.47969636 0.83990246 0.020356448 0.48003674
        0.8487882 0.020370763 0.48037758 0.85801435 0.020384919 0.48071328
        0.86747926 0.02039868 0.48103845 0.87706995 0.020411812 0.481348
        0.7582684 0.020902896 0.47607657 0.7586193 0.020904845 0.47609648
        0.75902903 0.020906972 0.47611973 0.75950724 0.020909276 0.4761468
        0.760065 0.02091176 0.4761783 0.7607151 0.02091443 0.47621495
        0.7614722 0.020917285 0.47625753 0.762353 0.020920329 0.47630695
        0.7633765 0.020923564 0.47636414 0.7645642 0.02092701 0.47643027
        0.76594037 0.02093069 0.4765065 0.76753193 0.02093464 0.47659418
        0.76936895 0.020938914 0.47669473 0.7714841 0.020943584 0.47680962
        0.77391285 0.020948743 0.47694036 0.7766929 0.020954495 0.47708845
        0.7798637 0.020960955 0.4772553 0.7834653 0.020968236 0.47744226
        0.78753716 0.020976441 0.47765023 0.7921164 0.020985646 0.47787982
        0.7972356 0.020995889 0.47813118 0.8029205 0.021007167 0.47840363
        0.809187 0.021019429 0.47869593 0.81603837 0.021032572 0.47900572
        0.8234625 0.021046448 0.47933003 0.83142984 0.021060875 0.4796648
        0.8398916 0.021075625 0.4800053 0.84878 0.021090461 0.4803462
        0.8580088 0.02110513 0.48068202 0.86747646 0.02111938 0.48100725
        0.87706995 0.021132981 0.4813169 0.7582342 0.021616077 0.47604278
        0.75858516 0.021618037 0.4760627 0.758995 0.021620171 0.47608593
        0.7594733 0.021622486 0.476113 0.7600313 0.021624986 0.47614452
        0.76068157 0.021627676 0.47618118 0.76143885 0.021630554 0.47622377
        0.76231986 0.021633629 0.4762732 0.76334363 0.021636913 0.47633043
        0.7645316 0.021640418 0.47639656 0.7659081 0.021644179 0.47647285
        0.76750016 0.021648237 0.47656056 0.7693376 0.021652652 0.47666115
        0.7714533 0.0216575 0.47677606 0.77388275 0.02166287 0.4769068
        0.7766636 0.021668874 0.47705498 0.77983534 0.021675624 0.4772219
        0.78343797 0.02168323 0.4774089 0.787511 0.021691794 0.47761694
        0.7920916 0.021701388 0.47784662 0.79721236 0.021712054 0.47809803
        0.8028989 0.021723777 0.4783706 0.8091672 0.02173651 0.47866297
        0.81602055 0.021750147 0.4789729 0.82344687 0.021764532 0.47929728
        0.8314165 0.021779476 0.47963217 0.83988076 0.021794751 0.47997272
        0.84877175 0.021810109 0.48031375 0.85800326 0.021825287 0.48064962
        0.86747366 0.021840034 0.48097494 0.87706995 0.0218541 0.48128468
        0.7582 0.022329206 0.4760079 0.75855106 0.022331167 0.47602785
        0.75896096 0.022333305 0.47605106 0.75943947 0.02233563 0.47607815
        0.75999755 0.02233814 0.47610968 0.760648 0.022340838 0.47614637
        0.7614055 0.022343736 0.47618896 0.7622867 0.022346837 0.4762384
        0.76331073 0.022350157 0.47629565 0.76449907 0.022353722 0.4763618
        0.7658759 0.02235756 0.47643813 0.7674683 0.022361727 0.47652587
        0.76930624 0.022366285 0.47662646 0.7714225 0.022371309 0.47674143
        0.77385265 0.022376897 0.47687227 0.7766343 0.022383157 0.47702044
        0.7798069 0.0223902 0.47718742 0.7834106 0.022398138 0.47737446
        0.7874848 0.022407066 0.47758257 0.79206675 0.022417057 0.47781235
        0.797189 0.022428146 0.47806382 0.80287725 0.022440322 0.47833648
        0.8091474 0.02245353 0.47862896 0.8160028 0.022467662 0.478939
        0.82343125 0.022482557 0.47926348 0.8314032 0.022498026 0.47959846
        0.83987 0.022513827 0.4799391 0.8487635 0.022529708 0.48028022
        0.8579977 0.022545401 0.4806162 0.86747086 0.022560637 0.4809416
        0.87706995 0.022575174 0.4812514 0.7581658 0.023042275 0.47597197
        0.7585169 0.023044238 0.4759919 0.758927 0.023046378 0.47601512
        0.75940555 0.023048699 0.47604224 0.7599638 0.023051213 0.47607377
        0.76061445 0.023053916 0.47611046 0.76137215 0.023056826 0.4761531
        0.7622536 0.023059946 0.47620258 0.7632778 0.0230633 0.47625983
        0.7644664 0.023066916 0.47632602 0.7658436 0.02307083 0.47640234
        0.7674364 0.023075104 0.4764901 0.76927483 0.023079801 0.47659075
        0.7713917 0.02308501 0.4767057 0.7738224 0.023090817 0.47683656
        0.7766049 0.02309734 0.47698483 0.7797784 0.023104683 0.47715187
        0.78338313 0.023112958 0.47733897 0.7874586 0.023122258 0.47754714
        0.7920419 0.02313265 0.477777 0.79716563 0.023144169 0.4780286
        0.80285555 0.023156801 0.47830132 0.80912757 0.02317049 0.4785939
        0.81598496 0.023185117 0.478904 0.82341564 0.023200529 0.47922862
        0.8313899 0.023216521 0.47956365 0.8398591 0.02323285 0.4799044
        0.84875524 0.023249254 0.48024562 0.8579921 0.023265459 0.4805817
        0.86746806 0.023281189 0.48090717 0.87706995 0.023296192 0.48121703
        0.75813156 0.023755288 0.47593495 0.7584828 0.023757245 0.47595492
        0.75889295 0.023759378 0.47597814 0.7593717 0.023761695 0.47600526
        0.7599301 0.023764202 0.47603682 0.7605809 0.023766903 0.4760735
        0.7613387 0.023769813 0.47611618 0.7622204 0.023772946 0.47616565
        0.76324487 0.023776328 0.47622293 0.76443374 0.023779988 0.47628912
        0.76581126 0.023783982 0.47636548 0.76740444 0.023788363 0.47645327
        0.76924336 0.023793204 0.47655392 0.77136075 0.023798596 0.47666895
        0.7737922 0.023804631 0.47679988 0.7765754 0.02381142 0.47694814
        0.7797499 0.023819072 0.47711524 0.78335565 0.023827687 0.4773024
        0.7874323 0.023837365 0.47751066 0.792017 0.023848167 0.4777406
        0.79714227 0.023860121 0.47799224 0.80283386 0.023873212 0.47826508
        0.8091077 0.023887381 0.4785577 0.81596714 0.023902513 0.47886795
        0.82339996 0.02391844 0.4791926 0.83137655 0.023934959 0.47952777
        0.8398483 0.023951817 0.47986865 0.848747 0.023968747 0.48020992
        0.85798657 0.023985464 0.4805461 0.86746526 0.024001691 0.48087165
        0.87706995 0.024017163 0.48118156 0.75809735 0.024468241 0.4758969
        0.75844866 0.024470184 0.47591683 0.758859 0.024472306 0.47594008
        0.7593378 0.024474608 0.47596723 0.75989634 0.024477098 0.47599876
        0.7605473 0.02447979 0.4760355 0.76130533 0.024482692 0.47607815
        0.7621872 0.02448583 0.47612762 0.7632119 0.024489231 0.47618493
        0.764401 0.02449294 0.47625116 0.76577884 0.024497006 0.47632754
        0.7673725 0.024501495 0.47641537 0.7692118 0.024506485 0.47651607
        0.7713298 0.024512067 0.47663113 0.77376187 0.024518333 0.47676206
        0.7765459 0.024525397 0.47691038 0.77972126 0.024533361 0.47707757
        0.7833282 0.024542328 0.4772648 0.787406 0.024552388 0.4774731
        0.791992 0.024563603 0.4777031 0.79711884 0.024575995 0.47795483
        0.80281216 0.024589555 0.47822773 0.8090879 0.02460421 0.47852048
        0.81594926 0.024619848 0.47883078 0.8233843 0.024636293 0.4791556
        0.8313632 0.024653338 0.47949085 0.8398374 0.024670728 0.47983178
        0.84873873 0.024688186 0.48017317 0.857981 0.024705417 0.48050943
        0.86746246 0.024722137 0.48083508 0.87706995 0.024738075 0.48114508
        0.7580631 0.025181135 0.47585773 0.75841457 0.02518306 0.47587767
        0.75882494 0.025185155 0.47590098 0.7593039 0.02518743 0.47592807
        0.75986254 0.025189897 0.4759597 0.76051366 0.025192564 0.4759964
        0.76127183 0.025195451 0.47603908 0.7621539 0.025198586 0.47608855
        0.7631788 0.025202002 0.47614592 0.7643683 0.025205754 0.47621214
        0.7657464 0.025209894 0.47628853 0.7673404 0.025214497 0.47637638
        0.76918024 0.02521964 0.47647712 0.77129877 0.025225416 0.4765922
        0.7737315 0.025231922 0.4767232 0.7765163 0.025239263 0.47687158
        0.77969265 0.02524755 0.4770388 0.7833006 0.025256874 0.47722608
        0.7873797 0.025267323 0.47743446 0.79196703 0.025278956 0.47766453
        0.7970954 0.025291797 0.47791633 0.8027904 0.025305824 0.47818935
        0.80906796 0.02532097 0.47848216 0.8159314 0.025337111 0.47879258
        0.8233686 0.025354082 0.47911745 0.8313499 0.025371658 0.47945282
        0.8398265 0.025389582 0.47979388 0.84873044 0.025407566 0.48013535
        0.8579754 0.025425313 0.48047167 0.86745965 0.025442528 0.48079738
        0.87706995 0.025458936 0.48110744 0.75802886 0.025893966 0.47581753
        0.7583804 0.025895856 0.4758375 0.7587909 0.02589792 0.47586077
        0.75926995 0.025900155 0.4758879 0.75982875 0.02590258 0.47591949
        0.76048 0.025905212 0.47595626 0.76123834 0.025908075 0.47599894
        0.7621206 0.025911199 0.47604844 0.76314574 0.025914632 0.47610578
        0.76433545 0.025918424 0.47617206 0.76571393 0.025922641 0.47624847
        0.7673083 0.025927361 0.47633636 0.7691486 0.025932662 0.4764371
        0.7712677 0.02593864 0.47655225 0.77370113 0.025945392 0.4766833
        0.77648675 0.025953025 0.4768317 0.779664 0.025961636 0.47699896
        0.783273 0.025971325 0.4771863 0.7873533 0.02598217 0.47739473
        0.79194206 0.025994226 0.47762486 0.79707193 0.026007518 0.47787678
        0.80276865 0.02602202 0.47814986 0.80904806 0.026037658 0.47844276
        0.8159135 0.026054313 0.4787533 0.82335293 0.026071807 0.47907826
        0.8313365 0.026089914 0.4794137 0.8398157 0.026108373 0.47975487
        0.84872216 0.026126888 0.48009643 0.8579699 0.02614515 0.48043284
        0.86745685 0.02616286 0.48075864 0.87706995 0.026179738 0.4810688
        0.75799465 0.026606733 0.47577626 0.75834626 0.026608579 0.47579622
        0.7587569 0.026610589 0.4758195 0.75923604 0.026612768 0.47584665
        0.75979495 0.026615141 0.47587827 0.7604463 0.02661772 0.475915
        0.7612048 0.026620546 0.47595772 0.7620872 0.026623655 0.47600725
        0.7631126 0.026627097 0.47606462 0.7643025 0.026630934 0.4761309
        0.7656813 0.026635235 0.47620735 0.76727605 0.026640076 0.47629526
        0.7691169 0.026645547 0.47639602 0.77123654 0.026651734 0.4765112
        0.7736707 0.02665874 0.47664225 0.7764571 0.026666667 0.47679076
        0.77963525 0.026675617 0.47695807 0.7832453 0.026685676 0.47714546
        0.7873269 0.026696924 0.47735396 0.791917 0.026709413 0.47758418
        0.79704845 0.02672316 0.47783616 0.80274683 0.026738137 0.4781093
        0.80902815 0.026754277 0.47840232 0.8158956 0.026771447 0.47871292
        0.8233372 0.026789466 0.479038 0.83132315 0.026808107 0.47937354
        0.83980477 0.026827103 0.47971478 0.84871393 0.026846146 0.48005643
        0.8579643 0.026864927 0.48039293 0.86745405 0.026883135 0.4807188
        0.87706995 0.026900481 0.481029 0.75796044 0.027319435 0.4757339
        0.75831217 0.027321212 0.4757539 0.7587228 0.02732315 0.47577718
        0.75920206 0.027325252 0.47580433 0.75976104 0.027327549 0.47583595
        0.7604125 0.027330067 0.47587276 0.76117116 0.027332846 0.47591546
        0.7620537 0.027335934 0.475965 0.7630793 0.02733939 0.4760224
        0.76426953 0.027343275 0.4760887 0.7656486 0.027347665 0.47616515
        0.7672438 0.027352639 0.47625306 0.76908505 0.027358284 0.47635388
        0.7712053 0.027364692 0.4764691 0.7736401 0.027371963 0.4766002
        0.7764273 0.027380195 0.47674873 0.77960646 0.027389487 0.4769161
        0.78321767 0.027399926 0.47710353 0.7873004 0.027411584 0.47731212
        0.79189193 0.02742451 0.4775424 0.7970249 0.027438717 0.47779447
        0.802725 0.02745418 0.4780677 0.8090082 0.02747082 0.4783608
        0.81587774 0.027488505 0.4786715 0.82332146 0.027507056 0.47899663
        0.8313098 0.027526235 0.4793323 0.83979386 0.027545769 0.47967362
        0.84870565 0.027565345 0.48001537 0.8579587 0.027584644 0.48035195
        0.86745125 0.027603349 0.4806779 0.87706995 0.027621165 0.48098817
        0.7579262 0.028032066 0.4756905 0.75827795 0.028033746 0.47571048
        0.7586887 0.028035577 0.4757338 0.759168 0.028037572 0.47576097
        0.75972706 0.028039774 0.4757926 0.76037866 0.028042214 0.4758294
        0.7611374 0.02804494 0.4758721 0.7620202 0.028048012 0.4759217
        0.7630459 0.028051486 0.4759791 0.7642364 0.02805543 0.4760454
        0.7656158 0.02805992 0.4761219 0.76721144 0.028065039 0.47620985
        0.76905316 0.028070873 0.4763107 0.771174 0.028077511 0.47642595
        0.7736095 0.028085057 0.47655708 0.7763976 0.028093603 0.4767056
        0.7795776 0.028103245 0.47687304 0.7831899 0.028114071 0.47706056
        0.78727394 0.028126147 0.4772692 0.79186684 0.028139517 0.47749954
        0.79700136 0.02815419 0.4777517 0.8027032 0.02817014 0.47802502
        0.8089882 0.028187284 0.47831818 0.8158598 0.028205493 0.47862896
        0.8233057 0.028224576 0.47895426 0.8312964 0.028244294 0.47928998
        0.83978295 0.028264366 0.4796314 0.8486973 0.028284477 0.47997323
        0.85795313 0.028304296 0.48030987 0.86744845 0.028323498 0.4806359
        0.87706995 0.028341783 0.48094624 0.757892 0.02874463 0.47564602
        0.7582438 0.028746156 0.47566602 0.75865453 0.02874783 0.47568935
        0.7591339 0.028749686 0.47571653 0.759693 0.028751766 0.47574815
        0.7603446 0.028754123 0.47578496 0.7611035 0.028756803 0.47582772
        0.76198643 0.028759863 0.4758773 0.7630124 0.028763369 0.4759347
        0.76420313 0.028767385 0.47600105 0.7655829 0.02877199 0.47607756
        0.76717895 0.028777268 0.47616556 0.7690212 0.0287833 0.4762664
        0.77114266 0.028790185 0.4763817 0.7735789 0.028798016 0.47651285
        0.7763677 0.028806888 0.47666147 0.77954876 0.028816892 0.47682893
        0.7831621 0.02882811 0.4770165 0.78724736 0.028840607 0.4772252
        0.7918417 0.028854428 0.47745562 0.79697776 0.028869577 0.47770783
        0.8026813 0.028886016 0.47798127 0.80896825 0.028903672 0.47827452
        0.81584185 0.028922403 0.4785854 0.82329 0.028942022 0.47891074
        0.83128303 0.028962282 0.47924656 0.83977205 0.028982896 0.47958806
        0.848689 0.029003542 0.47992998 0.8579475 0.029023882 0.48026672
        0.86744565 0.029043583 0.48059282 0.87706995 0.02906234 0.48090324
        0.7578578 0.029457128 0.47560045 0.75820947 0.029458366 0.47562048
        0.7586202 0.029459812 0.4756438 0.75909954 0.029461497 0.47567102
        0.7596587 0.029463457 0.47570267 0.7603104 0.029465739 0.47573948
        0.7610694 0.029468387 0.47578225 0.7619525 0.029471459 0.47583184
        0.76297873 0.029475015 0.47588927 0.76416975 0.029479126 0.47595564
        0.7655499 0.029483866 0.47603217 0.76714635 0.029489316 0.47612017
        0.76898915 0.029495567 0.47622108 0.7711112 0.029502708 0.4763364
        0.7735481 0.029510835 0.47646758 0.77633786 0.029520042 0.47661623
        0.7795198 0.029530417 0.47678375 0.7831343 0.029542038 0.4769714
        0.7872208 0.029554969 0.47718015 0.79181653 0.029569244 0.4774106
        0.79695415 0.02958487 0.47766292 0.80265945 0.029601809 0.47793642
        0.8089483 0.029619977 0.47822976 0.81582385 0.029639237 0.47854072
        0.82327425 0.029659394 0.47886616 0.8312696 0.029680198 0.47920206
        0.83976114 0.029701358 0.4795437 0.84868073 0.02972254 0.47988567
        0.8579419 0.029743401 0.4802225 0.8674428 0.029763604 0.48054868
        0.87706995 0.029782834 0.48085916
        <InformationKey name="L2_NORM_RANGE" location="vtkDataArray" length="2">
          <Value index="0">
            0.89521615037
          </Value>
          <Value index="1">
            1.0006818983
          </Value>
        </InformationKey>
      </DataArray>
    </Points>
  </Piece>
  </StructuredGrid>
</VTKFile>
