<?xml version="1.0"?>
<VTKFile type="StructuredGrid" version="0.1" byte_order="LittleEndian" header_type="UInt32" compressor="vtkZLibDataCompressor">
  <StructuredGrid WholeExtent="0 30 0 40 0 0">
  <Piece Extent="0 30 0 40 0 0">
    <PointData>
      <DataArray type="Float32" Name="orthogonality" format="ascii" RangeMin="0" RangeMax="0.9999620914459229">
        0.99885356 0.99947953 0.9993535 0.9978157 0.9941709 0.98740333
        0.9752657 0.9532778 0.9139904 0.8476197 0.74395007 0.5963363
        0.4171481 0.25261614 0.14361377 0.08806043 0.064483814 0.055483837
        0.051723514 0.04925508 0.046726618 0.04377342 0.0403337 0.036423225
        0.032077808 0.02734267 0.022271682 0.01692759 0.01138155 0.0057117143
        0 0.997974 0.99924684 0.99857134 0.99615604 0.9913281
        0.98264456 0.9671903 0.9399999 0.894179 0.8220171 0.71601653
        0.57186085 0.40174338 0.24635823 0.14214152 0.0881764 0.06497279
        0.055991653 0.052162573 0.049615737 0.047020152 0.04401435 0.040534828
        0.036594663 0.032226995 0.027474606 0.02238919 0.017031586 0.011471334
        0.005785182 5.350551e-05 0.9969578 0.9991196 0.99797237 0.9947846
        0.988381 0.9764879 0.95542383 0.92050046 0.8670306 0.7902656
        0.6845026 0.5461747 0.38628078 0.24027026 0.14089356 0.08855926
        0.06573906 0.056764327 0.052845914 0.050199524 0.04751763 0.04444241
        0.04090849 0.036925968 0.032525074 0.027745942 0.022637919 0.017259805
        0.011679415 0.0059719793 0.00021584117 0.99697995 0.99893516 0.9972424
        0.9929625 0.9841546 0.96774364 0.9399678 0.8977046 0.8387874
        0.7599994 0.6560568 0.5237091 0.37300012 0.23526429 0.14027153
        0.08946014 0.066980585 0.057967998 0.05391425 0.051125623 0.048319936
        0.045143068 0.04152725 0.03747905 0.03302527 0.028202979 0.023058815
        0.01764922 0.012039981 0.0063045267 0.00051801733 0.9985411 0.9987396
        0.9963871 0.99051297 0.97836494 0.95650125 0.9221326 0.8742662
        0.81222486 0.7329872 0.63126487 0.50413936 0.3610351 0.23022637
        0.13910729 0.08978612 0.06773434 0.058776762 0.054666985 0.051801965
        0.048927274 0.04569471 0.042035993 0.03795579 0.033478905 0.02864062
        0.023486024 0.018070275 0.012458165 0.006722337 0.0009346445 0.9999541
        0.99846834 0.99483913 0.9857082 0.96763855 0.9381466 0.89698535
        0.8451261 0.7820413 0.7042121 0.6063241 0.4857732 0.35119173
        0.2277469 0.14056306 0.092550844 0.07063819 0.06143184 0.056989957
        0.053813063 0.050673936 0.047225527 0.0433938 0.039176967 0.034594294
        0.029676702 0.024466183 0.019016193 0.0133915 0.0076668262 0.0019001254
        0.9999578 0.99799424 0.99228364 0.9789511 0.9550655 0.91965365
        0.8739573 0.8195522 0.75595003 0.679724 0.5858923 0.4721093
        0.34600642 0.22965539 0.14599133 0.09875435 0.07640831 0.066417396
        0.06117731 0.057295475 0.053563118 0.049622737 0.045383547 0.040827636
        0.035960216 0.030800138 0.025378961 0.019740954 0.013942563 0.008050515
        0.0021145365 0.9999621 0.9969363 0.98801476 0.96999055 0.94074714
        0.90011024 0.8496617 0.7912048 0.7249006 0.6482823 0.55724937
        0.44986877 0.33276376 0.2247726 0.14610676 0.100832574 0.078879714
        0.06868818 0.06309125 0.058856413 0.054819096 0.050625432 0.046177316
        0.041448027 0.036434714 0.031149222 0.025617037 0.0198771 0.013981114
        0.0079913465 0.0019550475 0.99989074 0.99404687 0.9812213 0.957936
        0.92234117 0.8746187 0.8170027 0.7524277 0.682308 0.6051335
        0.5174252 0.41742623 0.31063333 0.21260934 0.14056247 0.09853913
        0.07789069 0.068152204 0.06269787 0.058511216 0.054499503 0.050327923
        0.045901675 0.041193586 0.036199745 0.030930959 0.025411794 0.019680409
        0.013787833 0.007795678 0.0017525703 0.99880564 0.9892117 0.9718719
        0.9424102 0.8991537 0.843034 0.7777066 0.7076177 0.6350311
        0.5587295 0.47542608 0.38336015 0.28697798 0.19898576 0.13384093
        0.09539938 0.07629338 0.06715792 0.061946053 0.05788113 0.053952824
        0.04985003 0.045483798 0.04082831 0.035880033 0.030649919 0.025162619
        0.01945635 0.013582199 0.007601763 0.0015655358 0.99655634 0.9826594
        0.9598668 0.92307806 0.8710623 0.80614066 0.7338989 0.6599989
        0.5867745 0.512735 0.4345662 0.35046867 0.264016 0.1855563
        0.12713611 0.09229274 0.074763335 0.06624025 0.06126528 0.057312123
        0.05345718 0.049414195 0.04510019 0.0404906 0.03558212 0.03038574
        0.024926081 0.019241331 0.013382544 0.007411239 0.0013796968 0.99280447
        0.97378147 0.94439113 0.89883167 0.83684814 0.76298654 0.6849804
        0.60905033 0.5368588 0.46629718 0.39393604 0.31793967 0.24115452
        0.17194189 0.120191306 0.08902334 0.073143244 0.06527177 0.06055252
        0.056721214 0.05294606 0.04896746 0.044709057 0.040147897 0.03528116
        0.030120065 0.02468939 0.019027418 0.013185283 0.0072245365 0.0011992923
        0.9872744 0.96206677 0.924545 0.8685009 0.79558 0.7133379
        0.6313245 0.5553466 0.48578277 0.41976252 0.35375315 0.2859247
        0.21853957 0.1582867 0.11311913 0.08566723 0.07148502 0.06429052
        0.059837256 0.056131825 0.052438192 0.04852473 0.04432219 0.039809417
        0.034984224 0.02985818 0.024456292 0.018817028 0.012991649 0.0070417966
        0.0010234305 0.97945017 0.9466113 0.89890915 0.83045006 0.7460777
        0.6568015 0.5730285 0.49906874 0.43362865 0.37309673 0.31391326
        0.2543175 0.19611807 0.14458814 0.10592786 0.08222463 0.06978256
        0.06328875 0.05911229 0.055537928 0.051928703 0.04808215 0.043936577
        0.03947286 0.034689616 0.029598888 0.02422604 0.018609805 0.012801647
        0.0068633645 0.0008527831 0.96849066 0.9260084 0.86541575 0.7826133
        0.6871545 0.5931681 0.51033837 0.44050142 0.38057578 0.32636762
        0.27441373 0.22310087 0.1739024 0.13088642 0.098655134 0.07871749
        0.06804653 0.062271897 0.058381032 0.05494204 0.051419612 0.047641397
        0.043553617 0.03913941 0.03439834 0.029343065 0.023999399 0.018406427
        0.012615887 0.0066898 0.00068786304 0.95287865 0.8978995 0.8209551
        0.7223797 0.61764127 0.5223767 0.4435642 0.37993222 0.32679188
        0.2796361 0.23525295 0.19226213 0.15190633 0.11721976 0.091336675
        0.07516673 0.066286996 0.06124504 0.057646632 0.054346554 0.05091291
        0.047204174 0.043174814 0.038810406 0.03411161 0.029091822 0.023777405
        0.018207882 0.012435326 0.00652204 0.00052959775 0.9297696 0.85821706
        0.76090354 0.64668256 0.53663796 0.4446793 0.37319246 0.31774315
        0.27250797 0.23301604 0.19647677 0.1618282 0.13017143 0.103643715
        0.08401988 0.07160213 0.064521 0.06021887 0.05691685 0.053757645
        0.050413713 0.046774797 0.042803828 0.038488977 0.03383213 0.028847506
        0.023562117 0.018015986 0.0122615835 0.0063615437 0.00037930254 0.8935117
        0.7997245 0.6786244 0.55241877 0.44391206 0.3608205 0.299971
        0.25446174 0.21805222 0.18669665 0.15819317 0.13187534 0.10877445
        0.09023692 0.0767682 0.06806566 0.0627753 0.05921197 0.05620593
        0.053186852 0.049931586 0.046361264 0.042447384 0.038180806 0.03356471
        0.028614216 0.023357034 0.017833741 0.012097233 0.0062105157 0.00023884338
        0.8320102 0.70939225 0.5656035 0.43761122 0.3405371 0.27229366
        0.22504343 0.19085403 0.16391994 0.14099534 0.12061169 0.10255865
        0.087849595 0.07711815 0.06967413 0.06462162 0.06109447 0.05825743
        0.055540025 0.05265554 0.04948421 0.045978274 0.042117737 0.03789612
        0.033317897 0.028399093 0.023168111 0.017666087 0.011946337 0.006072237
        0.000110774505 0.7171024 0.56499887 0.41420048 0.3036981 0.22972754
        0.18166478 0.15014496 0.12807131 0.11088641 0.09644444 0.084109925
        0.0741634 0.067628756 0.06447829 0.06288484 0.0613776 0.05955823
        0.057417132 0.054968957 0.05220453 0.04910524 0.045653645 0.04183788
        0.03765391 0.033107344 0.028214965 0.023005776 0.01752137 0.011815411
        0.005951565 1.6086124e-06 0.4825311 0.33852893 0.22605224 0.15829925
        0.117398985 0.09274204 0.07771676 0.06773819 0.060071398 0.05383735
        0.049268164 0.04713391 0.04846902 0.052608132 0.056629807 0.058510255
        0.058304045 0.056800816 0.054581955 0.051906973 0.048854794 0.045436762
        0.041648317 0.03748728 0.032959934 0.028083451 0.022887124 0.017412739
        0.011714072 0.0058548837 9.500552e-05 0.046007127 0.029405907 0.01836081
        0.012086815 0.008872736 0.008160081 0.0091271475 0.010594446 0.011878933
        0.0133951865 0.016218327 0.021575011 0.03048222 0.041630108 0.05102627
        0.056119487 0.05741317 0.05647419 0.054432344 0.051806208 0.048768062
        0.045356102 0.04157194 0.03741446 0.03288997 0.028015511 0.022820212
        0.01734568 0.011645478 0.0057831667 0.00017054738 0.41465226 0.28614572
        0.1898892 0.13357398 0.09902648 0.075936 0.059125744 0.046310708
        0.036114976 0.026843688 0.01659504 0.003706468 0.012790886 0.030915327
        0.04561416 0.053851124 0.056601323 0.05620422 0.054327466 0.051742442
        0.048712295 0.04530126 0.04151689 0.03735903 0.032833967 0.027958564
        0.022761768 0.017284982 0.011581525 0.005714732 0.00024385982 0.6757474
        0.5240032 0.38053226 0.27867123 0.21052405 0.16417031 0.13111351
        0.10635645 0.08665972 0.069089085 0.050916396 0.030046863 0.0055906763
        0.019751742 0.03986754 0.05129764 0.05554055 0.055721886 0.05404494
        0.051531274 0.048534345 0.045144938 0.041377313 0.037233 0.03271889
        0.027852219 0.022662189 0.017190384 0.011490206 0.005625036 0.00033244197
        0.8040432 0.6777898 0.5359696 0.41353154 0.32127514 0.25467774
        0.20606248 0.16926837 0.13971825 0.113406636 0.08683167 0.057500057
        0.024662122 0.00818198 0.033842508 0.048510034 0.05427233 0.05506025
        0.05361114 0.05119375 0.048250943 0.044900328 0.04116347 0.037044186
        0.032550506 0.027700484 0.022523958 0.017063016 0.011371406 0.0055127856
        0.0004387332 0.87262714 0.7745728 0.6529454 0.52996135 0.42521596
        0.34361574 0.2815314 0.23344044 0.19419998 0.15903167 0.123778425
        0.08562334 0.044055074 0.0034897418 0.02777751 0.04567036 0.05293797
        0.054332092 0.053117745 0.050804973 0.047923736 0.04461801 0.040916767
        0.036826357 0.03235618 0.027525296 0.022364363 0.0169161 0.011234725
        0.005384255 0.00055962836 0.9132807 0.83752394 0.7385264 0.62601197
        0.51888406 0.42829984 0.3557274 0.2977029 0.24933633 0.2054473
        0.16138795 0.11412548 0.06352048 0.015057252 0.02182742 0.0428897
        0.051619522 0.053601295 0.052616283 0.050407182 0.04758756 0.04432675
        0.040660962 0.03659912 0.032152034 0.027339859 0.02219411 0.01675819
        0.011086818 0.0052443827 0.00069180905 0.9395461 0.8804812 0.8012282
        0.7033981 0.6010131 0.5071377 0.42747158 0.3612992 0.30466956
        0.25238115 0.19948423 0.1428628 0.08291889 0.026396934 0.016082589
        0.04022783 0.05035784 0.052898254 0.052130897 0.05002015 0.0472588
        0.0440402 0.04040747 0.036372013 0.031946078 0.027150882 0.022018822
        0.016593985 0.010931581 0.0050963573 0.0008327451 0.9576987 0.9111766
        0.8478335 0.76511 0.67168015 0.5792846 0.49598613 0.4237301
        0.3599366 0.2997186 0.23801823 0.17178774 0.10217883 0.037433974
        0.010596346 0.037715904 0.04917126 0.052235313 0.051671 0.049651578
        0.04694392 0.043763842 0.04016097 0.036149077 0.031741798 0.02696142
        0.021841194 0.016425882 0.010771169 0.0049421317 0.0009806609 0.97086835
        0.9339713 0.88310724 0.81415284 0.731613 0.644319 0.56068546
        0.48459563 0.41494656 0.347409 0.27699655 0.20089439 0.121255405
        0.048111767 0.0054074107 0.035373453 0.04806909 0.05161759 0.051240113
        0.049304243 0.04664526 0.043499704 0.039923232 0.035931878 0.031540617
        0.026772767 0.021662425 0.016255008 0.010606666 0.004782763 0.0011345188
        0.9807013 0.95142615 0.9103463 0.8532052 0.7819272 0.70220447
        0.621218 0.543663 0.46966028 0.39554513 0.3165522 0.23027419
        0.14016889 0.058417268 0.00052284263 0.033196326 0.047042534 0.05103599
        0.050830312 0.04897167 0.046357654 0.043243717 0.039691117 0.035718046
        0.031340808 0.026583754 0.021481834 0.016081126 0.0104382355 0.0046187975
        0.0012933996 0.988011 0.964971 0.93165183 0.88425905 0.82352936
        0.7526843 0.6768304 0.6002347 0.523613 0.44386637 0.35653794
        0.2598002 0.15877366 0.068220064 0.0039695073 0.031239191 0.04612827
        0.050517548 0.050462656 0.048670597 0.04609446 0.04300651 0.039473012
        0.03551412 0.031147365 0.02639808 0.021302007 0.015905848 0.010266623
        0.0044501834 0.0014581158 0.99347967 0.9757805 0.94884306 0.9094575
        0.8581823 0.7967772 0.7281364 0.65499216 0.57769924 0.49337822
        0.39790037 0.2902068 0.17754114 0.07781413 0.008281223 0.029334906
        0.045191567 0.049953446 0.050049357 0.048330393 0.045799077 0.042742997
        0.039233312 0.035292353 0.03093912 0.026200138 0.021112135 0.015722575
        0.010089027 0.0042776386 0.0016245947 0.99671286 0.98356736 0.962116
        0.9291078 0.88526124 0.8321432 0.771263 0.70340633 0.6275192
        0.5401964 0.4373924 0.3188895 0.19448316 0.08576966 0.011398586
        0.028233713 0.04481457 0.04980742 0.049963526 0.048251778 0.045713328
        0.04264667 0.039125636 0.035173256 0.030808844 0.026059179 0.020961192
        0.015562461 0.009920533 0.0041013323 0.0018069019 0.996846 0.9866986
        0.97110736 0.9438443 0.9052196 0.8572015 0.80133855 0.7374319
        0.6630238 0.5736779 0.46494406 0.33717465 0.2027326 0.08690947
        0.0093793105 0.031052466 0.04753318 0.05217253 0.051942933 0.0498803
        0.047039807 0.04371698 0.039978717 0.035841156 0.03131765 0.026429925
        0.021210568 0.015703326 0.009962214 0.0040497133 0.00194798 0.9927112
        0.9868418 0.9771411 0.956696 0.9244458 0.88112414 0.8280769
        0.7651358 0.68969494 0.59700793 0.48224217 0.3459973 0.20295107
        0.0817752 0.0026257997 0.03752398 0.0531812 0.05695572 0.055951275
        0.053226504 0.049828965 0.046039023 0.04190823 0.037439283 0.03263417
        0.027505035 0.022076292 0.01638452 0.010477223 0.004410608 0.0017358633
        0.9801921 0.98595583 0.9811219 0.9674889 0.9434116 0.90717375
        0.8584509 0.7970227 0.7207372 0.62492317 0.5043582 0.35965696
        0.20774235 0.08080765 0.00047286166 0.040913362 0.056300547 0.059700906
        0.058338985 0.055300888 0.051636674 0.047622424 0.043304328 0.03868033
        0.033748675 0.028518772 0.023013258 0.017267903 0.011330442 0.0052585313
        0.0008791808 0.9705096 0.9846139 0.9823902 0.97275513 0.95465875
        0.9254536 0.88284826 0.8252436 0.7501837 0.6529335 0.52785265
        0.37546417 0.21498813 0.08236024 0.0011633036 0.04213618 0.057538763
        0.060839053 0.059360728 0.05621291 0.052450713 0.0483505 0.043957587
        0.039268978 0.034282204 0.02900618 0.023463264 0.017689096 0.011731391
        0.0056478153 0.00049522094 0.9687999 0.9836339 0.98325735 0.97649544
        0.96327937 0.9410495 0.9061131 0.8546419 0.7826202 0.6846834
        0.55465734 0.3930557 0.22226487 0.08310238 0.0027055722 0.044037204
        0.059301358 0.062391147 0.06071372 0.05738974 0.053473867 0.04924004
        0.04473106 0.039941747 0.034867857 0.029516876 0.023909997 0.01808187
        0.012079299 0.0059590153 0.00021486782 0.974241 0.9833949 0.9838804
        0.97897875 0.96924347 0.95281714 0.9257523 0.88241273 0.81612754
        0.71949476 0.58510035 0.41334516 0.23072685 0.08426535 0.003922796
        0.045572728 0.06069288 0.06359806 0.06175714 0.05829136 0.054251563
        0.049908973 0.045304444 0.04043132 0.0352842 0.029869676 0.02420821
        0.018333822 0.0122927055 0.0061408994 5.8817208e-05 0.980812 0.9848006
        0.98586017 0.9821119 0.9743411 0.9613379 0.939492 0.9027344
        0.84281296 0.74988735 0.61382514 0.4334876 0.23932156 0.08556171
        0.004928171 0.046845306 0.0618166 0.064554475 0.06257326 0.058988184
        0.05484434 0.050410017 0.04572438 0.040779617 0.035569474 0.030099913
        0.024390915 0.01847609 0.01240122 0.006221853 0
      </DataArray>
      <DataArray type="Float32" Name="aspect_ratio" format="ascii" RangeMin="1.000725507736206" RangeMax="39.42532730102539">
        1.4584805 1.9188427 2.0062168 1.83382 1.6924996 1.663733
        1.7707734 2.0496633 2.5621657 3.3890858 4.6083612 6.2317157
        8.079797 9.830749 11.40314 12.947606 14.577554 16.33127
        18.213074 20.212484 22.30853 24.470152 26.656069 28.815073
        30.887188 32.805977 34.502068 35.90773 36.962097 37.616478
        38.073757 1.4946984 1.9579635 1.9353648 1.7872828 1.7081662
        1.7385216 1.8990804 2.2306736 2.7985766 3.6832297 4.9573226
        6.628001 8.532251 10.375867 12.060963 13.707332 15.420804
        17.242926 19.180765 21.22373 23.348564 25.520803 27.695473
        29.817945 31.82557 33.650394 35.223057 36.477604 37.356853
        37.817547 38.069454 1.6279447 2.021532 1.8934466 1.7527276
        1.7156658 1.7993872 2.0246172 2.4331129 3.0847852 4.050107
        5.392228 7.116058 9.0799 11.021027 12.827368 14.586385
        16.394 18.294044 20.295958 22.388664 24.546135 26.729963
        28.890965 30.970657 32.90341 34.619644 36.050095 37.130962
        37.80932 38.048176 38.065144 1.9485928 2.0417008 1.8387094
        1.7272085 1.7386816 1.8790557 2.1701 2.651701 3.3778007
        4.4121556 5.8118105 7.581192 9.598728 11.630885 13.554068
        15.42455 17.326862 19.30631 21.374607 23.520245 25.714418
        27.914707 30.067533 32.110287 33.97399 35.586967 36.87956
        37.789566 38.267822 38.283176 38.06082 2.803784 1.9897625
        1.7940357 1.7434334 1.8302044 2.0583785 2.451529 3.0496736
        3.9073212 5.0893006 6.6517015 8.598019 10.814079 13.073861
        15.234232 17.325048 19.42348 21.577356 23.79942 26.074553
        28.366516 30.623158 32.78015 34.764126 36.496292 37.89706
        38.891712 39.416626 39.425327 38.893444 38.056484 3.683571
        1.8812234 1.7086748 1.6844984 1.7862083 2.0155 2.3908637
        2.9458978 3.7293854 4.799256 6.205577 7.9582057 9.978961
        12.093374 14.165039 16.193657 18.238317 20.345156 22.530815
        24.784706 27.074667 29.352057 31.55538 33.613205 35.447453
        36.977757 38.126904 38.827023 39.02577 38.691624 38.05222
        2.580365 1.7494322 1.5998318 1.5589627 1.5932581 1.7067722
        1.918319 2.256357 2.7581527 3.4675927 4.426658 5.6578364
        7.1346087 8.759154 10.427001 12.114746 13.857509 15.695382
        17.650784 19.725042 21.901215 24.147457 26.419235 28.660862
        30.807314 32.787067 34.526165 35.953377 37.005993 37.635605
        38.04777 1.78844 1.6078339 1.5164165 1.4776077 1.4894545
        1.5637115 1.7183108 1.9769814 2.3701184 2.9341817 3.7067127
        4.716103 5.961469 7.383494 8.892782 10.450637 12.077572
        13.810852 15.676638 17.6823 19.817701 22.057983 24.365345
        26.69004 28.971556 31.140778 33.12345 34.844902 36.23567
        37.23744 38.043167 1.5867362 1.5255065 1.462382 1.4337599
        1.4555773 1.5413797 1.707266 1.9733336 2.3649483 2.913385
        3.653443 4.617334 5.8184533 7.216165 8.723685 10.287705
        11.91796 13.650466 15.513772 17.517452 19.652683 21.895336
        24.208063 26.541405 28.835001 31.01974 33.02119 34.76431
        36.179085 37.206493 38.038544 1.5624275 1.4765006 1.4116586
        1.3920977 1.4284426 1.5326794 1.7190942 2.0046103 2.4100766
        2.9622164 3.6935294 4.639387 5.8242793 7.2214613 8.745573
        10.330835 11.977468 13.7203045 15.589926 17.597542 19.734974
        21.978132 24.289463 26.619278 28.907045 31.08359 33.074554
        34.805138 36.205715 37.217804 38.03393 1.4828411 1.4108455
        1.3541552 1.3452803 1.395622 1.51643 1.7202657 2.0210886
        2.4359856 2.9881802 3.7085595 4.6353307 5.8022375 7.194314
        8.728446 10.328952 11.987502 13.737501 15.611215 17.621374
        19.760487 22.004618 24.316154 26.645285 28.931381 31.105207
        33.092426 34.818317 36.213436 37.219536 38.029324 1.4092909
        1.3421613 1.2925278 1.2952191 1.3607354 1.499232 1.7212589
        2.037826 2.4628413 3.0168705 3.7297766 4.6423674 5.7960505
        7.185466 8.729668 10.344903 12.015294 13.77277 15.651003
        17.664028 19.804918 22.049812 24.360985 26.688467 28.971502
        31.140802 33.122055 34.840675 36.227455 37.22447 38.024723
        1.3243977 1.2660296 1.2254872 1.2410518 1.3228593 1.47973
        1.7198788 2.0515587 2.4861786 3.0423963 3.749503 4.65067
        5.793662 7.18098 8.733791 10.361897 12.042878 13.807193
        15.689651 17.705404 19.848001 22.093636 24.404457 26.730347
        29.010422 31.175337 33.150803 34.862362 36.241028 37.229187
        38.02013 1.2323096 1.1834378 1.1535056 1.1837047 1.2835369
        1.4598787 1.7183315 2.0647888 2.5088868 3.0680287 3.7713006
        4.664021 5.7992024 7.1856775 8.74648 10.386279 12.077087
        13.847971 15.734642 17.753176 19.89749 22.143787 24.454067
        26.778044 29.054703 31.214636 33.183582 34.887215 36.25679
        37.23503 38.015545 1.1317654 1.094254 1.0771677 1.1243804
        1.2442476 1.4410197 1.7177024 2.0784628 2.5318859 3.0946636
        3.7959447 4.682977 5.813067 7.20004 8.768462 10.418969
        12.118949 13.896202 15.787131 17.808537 19.954609 22.201496
        24.511026 26.832727 29.105438 31.259682 33.22123 34.9159
        36.27521 37.242245 38.010967 1.0233648 1.0007255 1.0020455
        1.065157 1.2071391 1.4250131 1.7196091 2.0941617 2.5568655
        3.1241338 3.8253691 4.7095304 5.8373823 7.226545 8.802702
        10.463344 12.172133 13.955776 15.851176 17.87567 20.023596
        22.270988 24.579466 26.898335 29.166273 31.313725 33.2665
        34.95058 36.297775 37.251583 38.0064 1.1015087 1.1111943
        1.0890138 1.0088153 1.1746895 1.4138359 1.7257434 2.113558
        2.5856364 3.158437 3.8617392 4.745994 5.874685 7.268137
        8.852664 10.523326 12.240909 14.031225 15.93151 17.959446
        20.109394 22.357197 24.664204 26.979462 29.24146 31.380556
        33.322598 34.993767 36.326218 37.26394 38.001846 1.2711037
        1.2518736 1.1881242 1.0428534 1.1497369 1.4096969 1.7380673
        2.138673 2.6204422 3.2000995 3.9078686 4.7954783 5.9284678
        7.328854 8.923027 10.604169 12.33098 14.128599 16.03445
        18.066366 20.218594 22.466686 24.77165 27.082222 29.336658
        31.465208 33.393784 35.0488 36.36284 37.280483 37.997303
        1.509409 1.4281485 1.2932762 1.0873379 1.1353259 1.4149204
        1.7587163 2.1717806 2.663852 3.2520492 3.9670665 4.8617024
        6.0029464 7.41355 9.019359 10.712088 12.449076 14.25503
        16.16743 18.20407 20.358927 22.607147 24.909306 27.213745
        29.458447 31.573536 33.484997 35.11955 36.4103 37.30257
        37.992767 1.8512161 1.6357465 1.3896732 1.1167281 1.133984
        1.4311614 1.7891045 2.2143574 2.7175303 3.3161824 4.0414677
        4.947042 6.1007695 7.5252137 9.145036 10.850814 12.599211
        14.414739 16.334818 18.377007 20.534855 22.782982 25.081415
        27.378038 29.610489 31.708757 33.598927 35.20809 36.470013
        37.330914 37.988247 2.3091025 1.8388606 1.4550856 1.1263905
        1.1442126 1.4552504 1.8249598 2.2611902 2.775313 3.3852968
        4.122677 5.0416627 6.2103395 7.650225 9.284406 11.002893
        12.762427 14.587538 16.515436 18.563278 20.72407 22.971838
        25.266043 27.554075 29.773233 31.853369 33.720688 35.302692
        36.533848 37.361336 37.983734 2.6378815 1.9436834 1.4777596
        1.1255422 1.1526853 1.4698927 1.8451837 2.287155 2.8076909
        3.4250433 4.1708713 5.0993094 6.2776833 7.7258177 9.365853
        11.0888605 12.85278 14.682262 16.614054 18.664787 20.827032
        23.07444 25.366144 27.649271 29.860943 31.930946 33.785572
        35.35256 36.56677 37.375935 37.979225 2.384679 1.8655154
        1.4612252 1.1262547 1.1463765 1.4590275 1.8304962 2.269411
        2.7878797 3.404262 4.1499534 5.0781226 6.2540994 7.695597
        9.325334 11.03793 12.79393 14.61811 16.546408 18.594896
        20.755991 23.003422 25.296484 27.582464 29.79861 31.874765
        33.737194 35.313515 36.538376 37.35919 37.974712 1.9270726
        1.674121 1.4027208 1.1188148 1.1358308 1.4356941 1.796554
        2.226459 2.7374847 3.3479862 4.08883 5.011551 6.178485
        7.6046877 9.214297 10.907192 12.647578 14.46042 16.380617
        18.423615 20.581821 22.82932 25.125862 27.419155 29.646759
        31.738663 33.621048 35.221207 36.473198 37.323627 37.970207
        1.5743064 1.4695004 1.3114532 1.0923339 1.1357555 1.4188559
        1.7664688 2.185835 2.6888864 3.2939732 4.0313506 4.9505596
        6.1102214 7.521929 9.111087 10.783486 12.507621 14.308784
        16.220705 18.258064 20.4132 22.660503 24.960175 27.260347
        29.498896 31.60596 33.507656 35.13097 36.409397 37.28874
        37.965706 1.3283528 1.2930641 1.2094296 1.050411 1.1485404
        1.4128147 1.7459102 2.1544702 2.6503606 3.2520103 3.9890447
        4.9086943 6.0651383 7.465593 9.0364 10.689744 12.39892
        14.189669 16.094427 18.126951 20.279354 22.526234 24.828127
        27.133524 29.380558 31.499502 33.416435 35.058098 36.35755
        37.259953 37.96122 1.1536856 1.1511974 1.1123055 1.0010537
        1.171629 1.4159343 1.7335232 2.1310127 2.6204748 3.2205906
        3.9603553 4.8843136 6.04135 7.433345 8.987421 10.622803
        12.318096 14.099552 15.99817 18.026611 20.176636 22.422926
        24.726282 27.03546 29.28881 31.416718 33.34524 35.000946
        36.316544 37.236713 37.956738 1.0252641 1.038961 1.0267026
        1.0518256 1.2017342 1.4256421 1.7269099 2.1129262 2.5964336
        3.19664 3.9419322 4.873713 6.0345554 7.4200134 8.958081
        10.575883 12.257841 14.030718 15.923901 17.948797 20.096695
        22.342283 24.646545 26.958454 29.216543 31.351288 33.28874
        34.95533 36.283504 37.217552 37.95227 1.0778496 1.0528828
        1.0482919 1.1069131 1.2356827 1.4393231 1.7236481 2.0976932
        2.5754995 3.177188 3.9305902 4.87342 6.040729 7.420719
        8.942636 10.542573 12.211249 13.97587 15.864016 17.885687
        20.031607 22.276403 24.581202 26.895155 29.15695 31.297152
        33.241802 34.917233 36.255665 37.201057 37.94781 1.1756384
        1.1394951 1.1202071 1.1616778 1.2710246 1.4549627 1.7220035
        2.0836284 2.555935 3.1604702 3.924604 4.8817143 6.057891
        7.432906 8.937945 10.519339 12.174518 13.93099 15.81432
        17.832956 19.976973 22.22089 24.525942 26.841444 29.106213
        31.250893 33.201538 34.884373 36.23144 37.186424 37.943363
        1.2658291 1.2212281 1.18854 1.2139539 1.3049759 1.4695983
        1.71888 2.0673625 2.5340252 3.1424599 3.9196904 4.893973
        6.08071 7.450159 8.936562 10.497971 12.138867 13.886837
        15.765199 17.78073 19.922798 22.165802 24.471077 26.788094
        29.055807 31.20494 33.16154 34.851746 36.207397 37.17189
        37.93892 1.3638092 1.3025669 1.2550572 1.2647163 1.3384571
        1.4848058 1.7168764 2.052576 2.5145993 3.129349 3.9237046
        4.9198813 6.120484 7.484998 8.952129 10.493244 12.1200905
        13.860038 15.733915 17.74668 19.886904 22.128796 24.43375
        26.751352 29.020676 31.172514 33.13293 34.828003 36.189453
        37.16046 37.934486 1.4157366 1.3691784 1.3157263 1.3099068
        1.3645738 1.4899211 1.7011391 2.0199614 2.4738028 3.0927224
        3.90351 4.921069 6.1327357 7.4864173 8.9277725 10.443427
        12.052421 13.781488 15.648764 17.657373 19.795197 22.036392
        24.342546 26.663488 28.938473 31.098383 33.069233 34.776913
        36.152782 37.139538 37.93006 1.628906 1.4716969 1.3862103
        1.3647004 1.4056016 1.5182134 1.7194506 2.0346801 2.4962146
        3.1383138 3.987958 5.0513644 6.2967124 7.657489 9.087831
        10.591492 12.194934 13.923796 15.792997 17.803247 19.941074
        22.179905 24.480898 26.793606 29.05714 31.202402 33.155594
        34.842976 36.196457 37.159435 37.925648 2.368005 1.6485392
        1.5182573 1.5031146 1.5729947 1.731018 1.9952047 2.395121
        2.968974 3.7568936 4.786984 6.052616 7.489823 9.003425
        10.553018 12.162802 13.868214 15.692751 17.6452 19.71945
        21.895212 24.139225 26.406294 28.640392 30.77641 32.742996
        34.46666 35.876938 36.91215 37.525055 37.921223 3.349094
        1.8352535 1.7146223 1.7456931 1.9064934 2.1954427 2.6305077
        3.2472756 4.093721 5.2196913 6.6544385 8.367275 10.235739
        12.113481 13.966984 15.850483 17.811958 19.871222 22.026573
        24.258749 26.532887 28.800432 31.001043 33.064804 34.915276
        36.473743 37.664574 38.42132 38.692898 38.448864 37.91666
        2.613488 1.9585253 1.8247089 1.831395 1.9790004 2.273009
        2.7333395 3.396944 4.316205 5.5482025 7.1252627 8.999064
        11.000564 12.954251 14.850149 16.770973 18.771978 20.86927
        23.055603 25.30701 27.584887 29.837603 32.002346 34.007458
        35.775734 37.2289 38.293186 38.905464 39.01935 38.610214
        37.91199 1.8595362 1.964766 1.8235266 1.7665298 1.8344818
        2.0398479 2.4034011 2.961076 3.7644458 4.8724203 6.3202996
        8.053985 9.884494 11.635201 13.3260145 15.059529 16.893082
        18.840445 20.89454 23.035294 25.230917 27.438354 29.604124
        31.665813 33.554546 35.198605 36.528152 37.480675 38.006603
        38.074333 37.90735 1.5608915 1.9228287 1.8533741 1.7687247
        1.7850986 1.9303687 2.229432 2.7222447 3.4654794 4.5249496
        5.941525 7.6499567 9.423997 11.073479 12.651867 14.286626
        16.038141 17.916836 19.913588 22.00891 24.173552 26.368021
        28.54268 30.638733 32.59023 34.32728 35.780376 36.885586
        37.589993 37.8568 37.902683 1.4239714 1.8428372 1.8688821
        1.7783991 1.7506481 1.8380072 2.0700321 2.490569 3.1636865
        4.165451 5.5449567 7.2255573 8.939261 10.483029 11.947897
        13.485076 15.156296 16.968307 18.910137 20.963032 23.100307
        25.285936 27.47396 29.608934 31.62751 33.461227 35.040493
        36.299507 37.181625 37.64456 37.898006 1.3749237 1.7855875
        1.9041357 1.7915804 1.7052095 1.7366016 1.9185735 2.2911682
        2.9168177 3.8756251 5.2244596 6.8796253 8.535373 9.978879
        11.339256 12.788766 14.388828 16.142113 18.035639 20.051132
        22.164078 24.341473 26.540592 28.70897 30.78558 32.70328
        34.392464 35.785748 36.82327 37.45794 37.893326
      </DataArray>
      <DataArray type="Float32" Name="jacobian" format="ascii" RangeMin="-1.2540198440547101e-05" RangeMax="0.009575695730745792">
        1.3554069e-05 9.717548e-06 1.4115813e-05 3.86231e-05 9.284231e-05 0.0001881052
        0.00033444355 0.0005337626 0.0007731958 0.0010276206 0.0012750917 0.0015115663
        0.0017533924 0.0020274154 0.0023482312 0.0027155622 0.003127391 0.0035828569
        0.004080419 0.004616608 0.0051854076 0.0057778875 0.0063820155 0.0069827107
        0.0075622145 0.008100832 0.008578042 0.008973927 0.009270777 0.009454671
        0.009575696 1.4918187e-05 1.2042116e-05 2.5581261e-05 6.291967e-05 0.0001288334
        0.0002268679 0.00035918423 0.0005252548 0.00071981066 0.0009319946 0.001150622
        0.0013733915 0.001611385 0.0018830098 0.0021975243 0.002554016 0.0029517584
        0.0033916156 0.0038736872 0.0043959334 0.0049536186 0.0055390317 0.0061413185
        0.0067464886 0.0073376903 0.007895835 0.008400596 0.0088317515 0.009170744
        0.009402277 0.009574613 1.5771004e-05 1.4495769e-05 3.7944377e-05 8.745279e-05
        0.00016179976 0.00025855165 0.00037585455 0.0005133686 0.00067123864 0.0008476123
        0.0010392284 0.0012463657 0.0014767969 0.0017421728 0.0020472836 0.0023906454
        0.0027725121 0.0031951403 0.0036600565 0.0041665602 0.0047112033 0.0052875686
        0.005886115 0.0064941263 0.0070958845 0.007673166 0.008206111 0.008674448
        0.009058985 0.009343189 0.009573529 1.529798e-05 1.9736983e-05 5.560229e-05
        0.000115174706 0.00019131355 0.0002792781 0.00037832395 0.00049166963 0.0006236012
        0.00077608513 0.00094898115 0.0011438731 0.0013669269 0.0016255984 0.0019215007
        0.0022525718 0.0026196886 0.0030261448 0.0034746027 0.00396548 0.004496456
        0.0050623105 0.005654779 0.006262467 0.006870935 0.0074630813 0.008019873
        0.008521446 0.008948488 0.009283766 0.009572441 1.0942026e-05 2.9074363e-05
        7.718824e-05 0.00013914755 0.00020600898 0.00027536758 0.00035054228 0.00043785427
        0.00054288754 0.0006685612 0.0008161614 0.0009882071 0.001190036 0.0014263912
        0.0016967773 0.001998852 0.0023340166 0.00270645 0.0031199916 0.0035765166
        0.0040754927 0.004613873 0.00518598 0.0057833814 0.006394889 0.007006793
        0.00760341 0.008167985 0.008683894 0.009136068 0.009571346 3.1408854e-06
        4.6927365e-05 0.00010565115 0.00017009088 0.0002351668 0.00030243347 0.00037785966
        0.00046828762 0.0005786969 0.00071168435 0.0008689148 0.001053581 0.0012711984
        0.001525319 0.0018136249 0.0021324975 0.0024828988 0.0028690782 0.0032949122
        0.0037620103 0.00426928 0.0048129195 0.0053863986 0.005980418 0.0065829847
        0.007179724 0.0077545107 0.008290432 0.008771037 0.009181767 0.009570261
        -8.123309e-06 7.405306e-05 0.00014013491 0.00021131989 0.00028815996 0.0003768731
        0.00048494502 0.000618303 0.0007800236 0.0009708102 0.0011912369 0.0014447324
        0.0017375827 0.0020720304 0.0024416188 0.0028385282 0.0032619732 0.0037160078
        0.0042038816 0.0047253044 0.005276105 0.005848581 0.006431822 0.007011974
        0.007572625 0.008095454 0.008561213 0.008950979 0.009247616 0.00943721
        0.009569138 -1.2540198e-05 0.000102014434 0.00017692902 0.00025296528 0.0003369836
        0.00043773785 0.0005631 0.00071856 0.0009068189 0.0011286567 0.0013852563
        0.0016810438 0.002022767 0.0024102258 0.0028314174 0.00327361 0.0037345104
        0.004218868 0.004730551 0.0052689123 0.005828613 0.006400397 0.0069717607
        0.007527469 0.008050142 0.00852108 0.008921391 0.009233345 0.0094418395
        0.0095357755 0.009567983 2.2077691e-05 0.0001398862 0.00021613532 0.00029118796
        0.00037370098 0.00047174463 0.0005918966 0.0007392824 0.0009177947 0.0011306136
        0.0013815666 0.0016771466 0.0020250946 0.0024239118 0.0028576893 0.0033099425
        0.0037771538 0.0042648343 0.004777972 0.0053166174 0.0058757016 0.006446017
        0.0070150383 0.007567511 0.008086064 0.008552054 0.008946689 0.009252386
        0.009454234 0.009541352 0.009566825 7.130065e-05 0.00018395584 0.00025576205
        0.0003266815 0.00040463702 0.00049639447 0.0006076291 0.00074347464 0.00090883096
        0.0011086564 0.0013488397 0.0016377158 0.0019842363 0.0023864582 0.0028257275
        0.0032824536 0.0037518546 0.004239933 0.0047526397 0.005290725 0.0058494974
        0.006419936 0.0069896183 0.007543348 0.008063782 0.008532268 0.008929964
        0.009239198 0.009444926 0.009536109 0.009565667 0.00011927629 0.00022622995
        0.00029299958 0.00035880852 0.00043138486 0.00051688973 0.0006206321 0.0007477815
        0.00090372347 0.0010943944 0.0013270424 0.0016114764 0.0019578137 0.0023639544
        0.0028090028 0.0032705772 0.0037426422 0.004231582 0.0047442038 0.005281882
        0.005840244 0.006410414 0.006980039 0.007533966 0.008054877 0.008524125
        0.008922859 0.009233371 0.009440563 0.009533326 0.009564511 0.00016790433
        0.00026744968 0.00032733887 0.0003867374 0.0004531858 0.00053238333 0.00062928273
        0.00074891536 0.0008968675 0.0010796948 0.0013056325 0.0015856889 0.0019310565
        0.0023397242 0.0027891013 0.0032544315 0.003728493 0.0042179297 0.004730285
        0.005267494 0.005825481 0.006395514 0.0069653178 0.0075197844 0.008041623
        0.008512191 0.008912612 0.00922513 0.0094345715 0.009529729 0.009563356
        0.00021576342 0.00030612212 0.00035787706 0.00041026468 0.0004706687 0.0005442393
        0.00063539314 0.000748868 0.00089031336 0.0010667096 0.0012870308 0.001563257
        0.0019075278 0.0023180363 0.002770892 0.003239326 0.0037150267 0.0042048143
        0.004716862 0.0052535958 0.0058112075 0.0063810963 0.0069510587 0.007506034
        0.008028756 0.008500587 0.008902632 0.009217087 0.009428708 0.009526194
        0.009562203 0.00026190706 0.00034133595 0.000384037 0.00042932387 0.00048420043
        0.0005529498 0.0006392722 0.00074758235 0.00088356837 0.0010545254 0.0012699825
        0.0015426945 0.001885607 0.0022971747 0.002752546 0.0032233002 0.0037001623
        0.0041900617 0.0047016977 0.005237921 0.005795162 0.0063649435 0.006935134
        0.00749072 0.008014462 0.008487728 0.008891602 0.009208228 0.009422286
        0.0095223775 0.009561051 0.00030545687 0.00037219035 0.000405474 0.00044413062
        0.00049431325 0.00055907405 0.0006413427 0.00074528455 0.00087664515 0.0010429578
        0.0012541638 0.0015236235 0.0018649434 0.0022768518 0.0027338143 0.0032061043
        0.0036836306 0.0041733827 0.004684486 0.005220152 0.0057770205 0.0063467305
        0.006917224 0.0074735363 0.007998458 0.008473362 0.008879306 0.009198384
        0.009415191 0.00951822 0.009559901 0.00034551724 0.00039797227 0.00042204926
        0.0004549541 0.00050136633 0.00056285283 0.0006416703 0.0007418558 0.0008692309
        0.0010315028 0.0012389092 0.0015052668 0.0018446998 0.002256195 0.0027137776
        0.003186754 0.0036643809 0.0041536707 0.0046640816 0.0051991185 0.005755605
        0.0063252933 0.0068962006 0.007453417 0.007979765 0.008456622 0.008865021
        0.009186993 0.009407038 0.009513527 0.009558754 0.00038123483 0.0004181453
        0.00043374853 0.00046202465 0.00050553994 0.0005643166 0.0006401441 0.0007370473
        0.00086092635 0.0010196054 0.0012235204 0.001486812 0.0018239834 0.002234249
        0.0026914116 0.0031641454 0.0036412326 0.0041296817 0.0046391906 0.005173496
        0.0057295808 0.006299308 0.0068707783 0.007429144 0.007957263 0.00843652
        0.008847915 0.009173406 0.009397384 0.009508075 0.0095576085 0.0004117092
        0.00043228825 0.00044055196 0.00046541923 0.0005067814 0.0005632681 0.0006364548
        0.0007304367 0.0008511786 0.0010065679 0.0012071537 0.0014672809 0.0018016971
        0.0022098084 0.0026654021 0.0031368546 0.0036126617 0.004099808 0.0046081417
        0.005141569 0.0056972145 0.006267054 0.0068392833 0.007399127 0.007929487
        0.008411755 0.008826892 0.00915677 0.009385644 0.009501567 0.009556466
        0.00043583964 0.0004399629 0.00044236664 0.00046506524 0.0005048594 0.0005593571
        0.0006301693 0.0007215015 0.000839353 0.0009916238 0.0011889009 0.001445622
        0.0017766505 0.0021815512 0.0026342988 0.0031033088 0.003576984 0.00406227
        0.0045690783 0.005101428 0.0056565697 0.0062266025 0.0067998325 0.007361573
        0.007894781 0.0083808545 0.008800709 0.009136111 0.009371149 0.009493662
        0.009555326 0.00045201194 0.00044073933 0.0004393067 0.00046103037 0.0004996673
        0.0005524053 0.0006210806 0.0007099979 0.00082514976 0.0009744025 0.0011683146
        0.0014213161 0.0017482694 0.0021488657 0.0025974615 0.0030628336 0.0035334816
        0.004016303 0.0045211925 0.0050522285 0.005606777 0.0061770724 0.0067515527
        0.0073156375 0.007852351 0.008343102 0.008768753 0.009110942 0.009353559
        0.009484186 0.009554189 0.00045842878 0.00043568548 0.00043319093 0.00045484494
        0.0004926153 0.00054391584 0.00061084825 0.00069775974 0.0008105998 0.0009571738
        0.0011479697 0.0013973388 0.0017200495 0.002115869 0.002559639 0.0030207247
        0.0034878768 0.0039679473 0.0044707498 0.0050003747 0.0055542826 0.0061248415
        0.006700625 0.007267167 0.0078075635 0.008303238 0.008734998 0.009084353
        0.009334986 0.009474204 0.009553053 0.0004578765 0.00043174165 0.00043011308
        0.00045200254 0.00048941444 0.0005401022 0.00060628436 0.00069229986 0.00080406823
        0.00094936154 0.0011386202 0.0013861262 0.0017065183 0.00209949 0.0025401697
        0.0029984342 0.0034633286 0.0039416947 0.004443245 0.004972025 0.005525519
        0.006096161 0.006672596 0.007240422 0.007782775 0.00828109 0.008716144
        0.009069376 0.009324359 0.009468251 0.00955192 0.0004586952 0.00043642867
        0.0004347635 0.00045687106 0.0004948711 0.0005462951 0.00061326614 0.0007001177
        0.00081280427 0.00095914083 0.0011495957 0.0013984551 0.0017202304 0.0021142978
        0.0025556271 0.0030142975 0.0034796116 0.003958462 0.004460465 0.00498955
        0.0055431137 0.0061135227 0.006689374 0.007256226 0.0077971932 0.008293706
        0.00872656 0.009077237 0.0093293805 0.00947024 0.009550785 0.00045435692
        0.00044360224 0.0004434239 0.00046604362 0.00050525746 0.0005583757 0.0006272672
        0.0007162174 0.00083123357 0.0009802062 0.0011736613 0.0014259068 0.0017512852
        0.002148681 0.0025926796 0.003053477 0.00352068 0.0040012626 0.0045047165
        0.005034788 0.005588703 0.006158681 0.006733194 0.007297701 0.007835257
        0.008327278 0.008754612 0.009098852 0.009343822 0.009477008 0.009549651
        0.00044086343 0.00044532752 0.00044950223 0.00047356772 0.00051437016 0.00056961254
        0.00064093265 0.00073250657 0.0008503523 0.0010024022 0.0011991975 0.0014549993
        0.001783888 0.0021842085 0.0026302757 0.0030926384 0.0035613566 0.0040434767
        0.0045482903 0.0050793053 0.005633551 0.0062030926 0.006776274 0.0073384605
        0.007872645 0.008360238 0.0087821325 0.00912004 0.00935796 0.009483617
        0.00954852 0.00041980643 0.00043995425 0.00045058577 0.00047740835 0.0005203161
        0.0005780172 0.0006521044 0.00074662606 0.0008675552 0.0010228052 0.0012228593
        0.0014818325 0.001813438 0.0022154879 0.0026622573 0.003124977 0.0035943268
        0.004077395 0.0045831865 0.0051149176 0.0056694103 0.006238587 0.0068106866
        0.0073709935 0.007902456 0.008386478 0.0088039925 0.009136807 0.009369067
        0.009488687 0.00954739 0.00039289522 0.00042786705 0.0004463042 0.0004772754
        0.000523047 0.00058366277 0.0006609201 0.00075877405 0.0008831047 0.0010417352
        0.0012450049 0.0015067803 0.0018403091 0.002242899 0.0026890363 0.003150956
        0.0036201105 0.0041035865 0.004610015 0.005142266 0.005696944 0.006265839
        0.0068371007 0.007395951 0.007925303 0.008406552 0.008820669 0.009149533
        0.009377406 0.0094923545 0.009546262 0.00036123354 0.00040957925 0.00043660591
        0.0004730534 0.0005226768 0.00058686803 0.0006678531 0.0007695678 0.0008977629
        0.0010600921 0.0012666568 0.0015309716 0.0018657377 0.0022678082 0.0027121357
        0.003172263 0.0036405378 0.004123998 0.0046308073 0.00516344 0.0057182685
        0.006286955 0.0068575707 0.0074152877 0.007942988 0.008422065 0.008833514
        0.009159275 0.0093837045 0.009494988 0.009545138 0.0003256343 0.0003856175
        0.00042143726 0.0004644694 0.0005191048 0.0005877932 0.000673294 0.0007796055
        0.00091232074 0.001078835 0.0012889075 0.0015556035 0.0018910172 0.0022916282
        0.0027331188 0.0031906199 0.0036574719 0.0041405996 0.004647615 0.005180543
        0.0057355054 0.0063040378 0.0068741413 0.0074309413 0.0079572955 0.008434594
        0.008843855 0.00916707 0.00938867 0.009496947 0.009544015 0.00028655867
        0.00035658604 0.00040077855 0.00045102424 0.0005118098 0.0005861494 0.00067723193
        0.0007891355 0.0009272488 0.0010985994 0.001312488 0.0015814408 0.0019169168
        0.0023151487 0.0027528377 0.0032069671 0.003671937 0.004154484 0.004661579
        0.005194747 0.0057498408 0.0063182674 0.00688796 0.0074440036 0.007969232
        0.008445034 0.0088524455 0.009173502 0.009392706 0.009498436 0.009542895
        0.00024479599 0.00032328255 0.0003749202 0.0004324037 0.00050028175 0.00058167375
        0.0006798567 0.00079882576 0.0009436348 0.0011207951 0.0013390271 0.0016102558
        0.0019453281 0.0023404073 0.0027735145 0.0032237198 0.0036865142 0.004168358
        0.004675493 0.0052088923 0.005764119 0.006332442 0.006901725 0.0074570123
        0.007981115 0.008455418 0.008860982 0.0091798855 0.009396702 0.009499903
        0.009541775 0.00020000098 0.00028669907 0.00034432422 0.00040802217 0.00048300347
        0.0005723899 0.000679141 0.0008067683 0.00095965364 0.00114352 0.0013663439
        0.0016394063 0.0019730316 0.0023636094 0.0027908834 0.0032362696 0.0036963476
        0.0041771852 0.0046842 0.0052177696 0.005773155 0.0063414914 0.0069105793
        0.007465427 0.007988825 0.008462155 0.008866488 0.009183936 0.00939912
        0.00950058 0.009540658 0.00015405874 0.00024708165 0.00030992468 0.00037892628
        0.00046098907 0.0005599565 0.0006783327 0.0008183947 0.00098296 0.0011763591
        0.0014056659 0.001681661 0.002014405 0.002400815 0.002822607 0.0032636465
        0.0037215461 0.004201874 0.0047091367 0.0052430546 0.005798536 0.0063665416
        0.006934778 0.0074881963 0.008009562 0.008480264 0.008881417 0.009195218
        0.009406411 0.009503689 0.009539543 0.00010775775 0.00020909014 0.0002732727
        0.00034358283 0.00042853202 0.00053324807 0.0006602371 0.00081032724 0.0009840654
        0.0011837055 0.0014150526 0.0016882789 0.0020134028 0.0023886808 0.0027988201
        0.003230634 0.003682682 0.0041598114 0.0046655242 0.0051989253 0.005754691
        0.0063237525 0.0068938485 0.007449964 0.007974869 0.00844991 0.008856122
        0.009175568 0.009392819 0.009496359 0.00953843 6.6578265e-05 0.00016824361
        0.00023067475 0.00029380288 0.0003666557 0.00045557678 0.0005641246 0.0006937546
        0.00084505737 0.0010195592 0.0012215534 0.0014592286 0.001741595 0.002069432
        0.0024330802 0.0028239815 0.0032419558 0.0036912246 0.004174832 0.004692313
        0.0052394825 0.00580875 0.006389373 0.0069676707 0.007527378 0.008050269
        0.008517119 0.008908953 0.00920849 0.009401609 0.009537314 3.944516e-05
        0.00012082553 0.0001841215 0.0002384781 0.0002922325 0.0003529451 0.00042616873
        0.0005155377 0.0006234613 0.00075205776 0.00090443424 0.0010861609 0.0013041673
        0.0015608522 0.0018517902 0.002172995 0.0025258635 0.002914755 0.0033433463
        0.0038129683 0.0043222597 0.0048671574 0.005440851 0.0060337195 0.006633395
        0.0072250655 0.0077921017 0.008317001 0.008782617 0.009173541 0.00953617
        4.2146945e-05 8.8938075e-05 0.00015078437 0.00021004696 0.00026732174 0.00032856184
        0.00040005034 0.00048636747 0.00059022807 0.0007133269 0.00085792603 0.0010289416
        0.001233593 0.0014753898 0.0017511811 0.00205811 0.00239804 0.002775285
        0.0031934818 0.0036541768 0.004156477 0.0046969545 0.005269517 0.0058652773
        0.006472547 0.0070770765 0.007662607 0.008211759 0.008707212 0.009133081
        0.009535007 5.0663686e-05 7.298139e-05 0.00012814417 0.00019674702 0.00027170335
        0.00035360598 0.00044677808 0.00055546704 0.00068183575 0.0008263496 0.0009902106
        0.0011787757 0.0014017201 0.0016647179 0.0019646466 0.0022981986 0.0026668818
        0.0030743484 0.003523208 0.0040136804 0.0045432486 0.0051065334 0.0056951526
        0.0062976326 0.006899495 0.0074836365 0.008031063 0.008521976 0.008937146
        0.009259414 0.009533841 5.3751006e-05 6.328361e-05 0.000104475446 0.00016985132
        0.00025288 0.00035081696 0.00046448468 0.00059542235 0.0007431265 0.0009051574
        0.0010808158 0.0012761954 0.0015045706 0.0017748028 0.0020842506 0.0024293545
        0.0028112675 0.0032329236 0.0036960125 0.004199793 0.004740764 0.0053125033
        0.0059055216 0.0065072062 0.007101984 0.007671805 0.008196988 0.008657426
        0.009034044 0.009310368 0.00953267 5.6218665e-05 5.886181e-05 8.594832e-05
        0.00014155457 0.0002248451 0.00033511443 0.00047217525 0.00063393207 0.00081361237
        0.0010015094 0.001192756 0.0013951258 0.0016280612 0.0019051784 0.0022243592
        0.0025815573 0.0029773628 0.00341376 0.0038913083 0.0044081477 0.0049596853
        0.0055383993 0.0061336863 0.0067318548 0.007316372 0.007868457 0.008368042
        0.008795074 0.009131044 0.009360569 0.009531493 5.8000896e-05 5.569235e-05
        6.866441e-05 0.000111624366 0.00019055452 0.00031067512 0.00047388053 0.00067355466
        0.0008924152 0.0011098129 0.0013161682 0.0015225573 0.0017564544 0.0020372537
        0.002363605 0.0027309135 0.003138982 0.0035886054 0.0040790616 0.004607319
        0.005167716 0.005751708 0.0063476996 0.0069410787 0.007514544 0.008048793
        0.008523588 0.008919128 0.0092176255 0.009404881 0.009530316
      </DataArray>
    </PointData>
    <CellData>
    </CellData>
    <Points>
      <DataArray type="Float32" Name="Points" NumberOfComponents="3" format="ascii" RangeMin="0.8952161503740408" RangeMax="1.000681901741192">
        0.7578578 0.029457128 0.47560045 0.75820947 0.029458366 0.47562048
        0.7586202 0.029459812 0.4756438 0.75909954 0.029461497 0.47567102
        0.7596587 0.029463457 0.47570267 0.7603104 0.029465739 0.47573948
        0.7610694 0.029468387 0.47578225 0.7619525 0.029471459 0.47583184
        0.76297873 0.029475015 0.47588927 0.76416975 0.029479126 0.47595564
        0.7655499 0.029483866 0.47603217 0.76714635 0.029489316 0.47612017
        0.76898915 0.029495567 0.47622108 0.7711112 0.029502708 0.4763364
        0.7735481 0.029510835 0.47646758 0.77633786 0.029520042 0.47661623
        0.7795198 0.029530417 0.47678375 0.7831343 0.029542038 0.4769714
        0.7872208 0.029554969 0.47718015 0.79181653 0.029569244 0.4774106
        0.79695415 0.02958487 0.47766292 0.80265945 0.029601809 0.47793642
        0.8089483 0.029619977 0.47822976 0.81582385 0.029639237 0.47854072
        0.82327425 0.029659394 0.47886616 0.8312696 0.029680198 0.47920206
        0.83976114 0.029701358 0.4795437 0.84868073 0.02972254 0.47988567
        0.8579419 0.029743401 0.4802225 0.8674428 0.029763604 0.48054868
        0.87706995 0.029782834 0.48085916 0.7580149 0.02946515 0.47560894
        0.7583587 0.029464386 0.4756286 0.75879663 0.029469859 0.47565326
        0.75932395 0.02948266 0.47568247 0.7599327 0.029501835 0.47571585
        0.7606214 0.029526202 0.47575337 0.7613946 0.029553967 0.4757953
        0.7622645 0.029582344 0.47584254 0.7632534 0.029607898 0.47589642
        0.76439273 0.029627819 0.47595885 0.7657174 0.029641438 0.47603166
        0.76726204 0.02965043 0.47611654 0.7690618 0.029657716 0.476215
        0.77115315 0.029665936 0.47632852 0.7735719 0.029675929 0.4764586
        0.7763526 0.029687371 0.47660664 0.77953076 0.029700022 0.4767738
        0.7831438 0.029713864 0.47696123 0.78722984 0.029728925 0.4771698
        0.79182523 0.029745234 0.47740015 0.7969625 0.029762793 0.47765228
        0.8026673 0.029781558 0.47792563 0.80895555 0.029801438 0.47821885
        0.8158306 0.029822286 0.47852963 0.82328016 0.029843912 0.47885495
        0.8312747 0.029866057 0.47919074 0.8397653 0.029888429 0.4795322
        0.8486839 0.029910699 0.4798741 0.8579441 0.029932518 0.48021084
        0.8674439 0.029953549 0.4805369 0.87706995 0.029973477 0.48084733
        0.75815535 0.029472189 0.47561654 0.7585087 0.029471787 0.47563672
        0.7589934 0.029486867 0.4756634 0.7595734 0.029516613 0.47569454
        0.7602212 0.02955725 0.47572878 0.7609264 0.0296048 0.4757657
        0.761692 0.029654643 0.47580582 0.7625345 0.029701663 0.47585025
        0.7634842 0.029741198 0.475901 0.7645793 0.029770385 0.47596037
        0.7658594 0.029789278 0.47603032 0.7673623 0.029800743 0.4761127
        0.76912636 0.029809246 0.47620907 0.7711913 0.02981889 0.47632104
        0.77359384 0.029830955 0.47645012 0.77636635 0.029844807 0.47659755
        0.7795411 0.029859964 0.47676435 0.7831529 0.02987631 0.4769515
        0.78723836 0.029893856 0.47715995 0.79183346 0.029912626 0.47739008
        0.7969704 0.029932598 0.47764206 0.80267483 0.029953731 0.47791523
        0.80896264 0.029975936 0.47820824 0.815837 0.029999051 0.4785189
        0.82328594 0.030022884 0.47884402 0.83127964 0.030047167 0.47917962
        0.8397694 0.03007161 0.47952095 0.84868705 0.030095872 0.47986263
        0.8579462 0.0301196 0.48019922 0.867445 0.030142453 0.48052514
        0.87706995 0.030164119 0.4808354 0.7582798 0.029478323 0.47562325
        0.7586692 0.029482871 0.47564518 0.7592165 0.029514415 0.4756744
        0.7598437 0.02956619 0.4757068 0.7605117 0.029629802 0.4757407
        0.76121175 0.029697949 0.47577602 0.76195383 0.029764058 0.47581372
        0.7627633 0.029822685 0.47585553 0.763677 0.029870009 0.47590375
        0.7647358 0.029904298 0.47596067 0.76598024 0.02992644 0.4760284
        0.7674493 0.029939927 0.47610876 0.7691836 0.02994993 0.47620338
        0.7712258 0.029961307 0.47631398 0.77361405 0.029975595 0.47644213
        0.77637917 0.029991975 0.47658896 0.7795508 0.030009786 0.47675544
        0.7831614 0.03002885 0.4769424 0.78724647 0.030049156 0.4771506
        0.79184127 0.030070718 0.47738054 0.796978 0.030093526 0.47763228
        0.80268204 0.030117534 0.47790527 0.8089694 0.030142628 0.47819808
        0.81584316 0.03016867 0.4785085 0.8232915 0.03019545 0.4788334
        0.83128446 0.030222708 0.47916877 0.8397734 0.030250145 0.47950986
        0.84869015 0.030277414 0.47985137 0.8579483 0.030304164 0.48018768
        0.86744606 0.030330053 0.48051336 0.87706995 0.030354751 0.4808234
        0.75839424 0.029483879 0.47562945 0.7588518 0.029500902 0.47565445
        0.75946873 0.0295563 0.47568613 0.7601262 0.029632943 0.47571865
        0.7607922 0.029717771 0.47575107 0.76147044 0.029801598 0.47578412
        0.76218194 0.029878076 0.4758194 0.7629596 0.029943213 0.475859
        0.76384246 0.029994762 0.47590515 0.7648715 0.030032052 0.4759602
        0.7660866 0.030056495 0.47602612 0.7675272 0.030071847 0.47610474
        0.7692358 0.030083558 0.4761978 0.7712578 0.030096851 0.47630718
        0.7736331 0.030113421 0.47643447 0.77639145 0.030132346 0.47658077
        0.7795601 0.030152848 0.47674692 0.7831696 0.030174704 0.4769336
        0.7872543 0.030197892 0.4771416 0.7918489 0.03022242 0.47737136
        0.7969853 0.030248279 0.4776229 0.802689 0.030275416 0.47789562
        0.80897593 0.030303743 0.4781882 0.81584924 0.030333105 0.47849837
        0.8232969 0.030363308 0.47882304 0.8312892 0.03039409 0.47915813
        0.83977735 0.030425142 0.47949895 0.8486932 0.030456144 0.47984016
        0.85795045 0.030486746 0.4801762 0.86744714 0.030516597 0.48050162
        0.87706995 0.030545386 0.4808113 0.7584818 0.029488085 0.4756342
        0.7590724 0.029530454 0.4756652 0.7597428 0.02961464 0.47569805
        0.7603984 0.02971319 0.47572908 0.76103675 0.02981132 0.47575903
        0.7616796 0.029901452 0.47578967 0.7623578 0.029980164 0.47582287
        0.7631071 0.03004592 0.47586077 0.76396585 0.030097853 0.47590554
        0.7649728 0.03013585 0.47595927 0.76616657 0.030161433 0.4760239
        0.7675866 0.030178279 0.47610125 0.7692762 0.030191753 0.47619316
        0.77128303 0.03020709 0.47630158 0.7736483 0.030226013 0.47642815
        0.7764014 0.03024756 0.476574 0.7795677 0.030270899 0.47673985
        0.7831764 0.030295778 0.4769263 0.7872608 0.030322187 0.47713405
        0.7918552 0.030350149 0.47736356 0.79699147 0.030379672 0.47761485
        0.802695 0.030410737 0.4778873 0.8089816 0.03044328 0.4781796
        0.8158545 0.030477192 0.47848946 0.8233017 0.030512316 0.47881377
        0.8312934 0.030548442 0.4791485 0.8397809 0.030585349 0.47948888
        0.84869605 0.030622775 0.47982964 0.8579524 0.030660484 0.4801652
        0.86744815 0.030698271 0.48049006 0.87706995 0.030736009 0.48079917
        0.7586184 0.029494766 0.47564155 0.7593511 0.029579077 0.47567803
        0.7600398 0.029695112 0.4757099 0.76067966 0.029816251 0.47573853
        0.7612933 0.029929915 0.4757661 0.76191044 0.030030632 0.47579452
        0.7625643 0.030116579 0.47582588 0.76329035 0.030187279 0.4758621
        0.76412547 0.030242639 0.47590527 0.7651075 0.030283134 0.47595742
        0.7662749 0.030310726 0.47602043 0.76766795 0.030329302 0.47609615
        0.76933223 0.030344345 0.47618654 0.77131844 0.030361248 0.47629368
        0.77366996 0.030381918 0.4764194 0.7764157 0.03040539 0.4765647
        0.77957875 0.030430762 0.47673023 0.7831861 0.030457726 0.4769165
        0.7872699 0.030486252 0.47712407 0.7918639 0.030516356 0.4773534
        0.7969998 0.030548042 0.4776045 0.8027028 0.030581292 0.4778768
        0.8089888 0.030616036 0.4781689 0.8158611 0.030652158 0.47847858
        0.8233076 0.030689515 0.4788027 0.83129853 0.030727884 0.47913724
        0.8397851 0.030767033 0.47947744 0.8486993 0.030806715 0.479818
        0.8579546 0.030846668 0.48015335 0.8674493 0.03088669 0.48047805
        0.87706995 0.030926632 0.48078695 0.7589208 0.029523851 0.475657
        0.75967526 0.029654725 0.47569174 0.7603473 0.029802132 0.4757206
        0.76096606 0.029946746 0.47574654 0.7615608 0.030079287 0.47577175
        0.7621618 0.030196073 0.4757982 0.7628004 0.030295713 0.47582772
        0.76350945 0.03037744 0.47586226 0.7643235 0.030440878 0.47590366
        0.7652792 0.03048671 0.47595397 0.76641566 0.030517444 0.47601503
        0.76777524 0.030537516 0.47608873 0.7694071 0.030552812 0.4761773
        0.7713664 0.030569166 0.47628298 0.77369994 0.030589024 0.47640774
        0.77643573 0.030611692 0.47655258 0.7795941 0.030636279 0.47671786
        0.78319937 0.030662455 0.47690403 0.78728205 0.030690154 0.4771116
        0.79187524 0.030719392 0.47734094 0.7970103 0.030750168 0.47759205
        0.8027125 0.030782467 0.47786433 0.80899763 0.030816218 0.47815645
        0.8158689 0.030851316 0.47846612 0.8233144 0.030887593 0.47879022
        0.83130425 0.030924847 0.47912478 0.83978975 0.03096284 0.479465
        0.8487028 0.031001305 0.4798056 0.85795695 0.031040002 0.48014098
        0.8674505 0.031078698 0.48046568 0.87706995 0.031117244 0.48077464
        0.75928664 0.02959179 0.47567356 0.76000446 0.029760495 0.4757038
        0.76064867 0.029936263 0.47572926 0.76124346 0.030102318 0.47575238
        0.7618178 0.030252 0.47577527 0.7624013 0.03038287 0.47579977
        0.76302344 0.030493796 0.4758276 0.763715 0.030583985 0.47586054
        0.76450896 0.030653272 0.47590038 0.7654407 0.030702818 0.47594905
        0.7665493 0.030735636 0.47600836 0.7678785 0.030756528 0.47608033
        0.7694803 0.03077154 0.47616723 0.77141434 0.030786786 0.47627157
        0.77373034 0.030805185 0.47639546 0.7764564 0.030826362 0.47653982
        0.7796101 0.030849483 0.47670496 0.7832132 0.030874193 0.4768911
        0.7872947 0.030900406 0.47709867 0.791887 0.030928137 0.47732806
        0.79702115 0.030957388 0.47757918 0.80272245 0.030988138 0.47785154
        0.8090066 0.031020327 0.47814366 0.8158769 0.031053832 0.47845337
        0.82332134 0.031088503 0.47877756 0.8313101 0.031124122 0.47911212
        0.83979446 0.03116045 0.4794524 0.8487063 0.03119723 0.47979304
        0.85795933 0.031234195 0.4801285 0.86745167 0.031271126 0.48045322
        0.87706995 0.031307857 0.48076227 0.7596319 0.029690515 0.47568703
        0.7603227 0.029895958 0.47571337 0.7609374 0.030096568 0.47573546
        0.7615052 0.030280272 0.47575587 0.762056 0.030442873 0.47577652
        0.7626188 0.030583095 0.47579917 0.76322216 0.030700406 0.47582543
        0.76389563 0.030794667 0.47585702 0.7646707 0.030866442 0.4758956
        0.76558167 0.030917495 0.47594297 0.76666665 0.030951187 0.4760009
        0.7679702 0.030972388 0.4760714 0.7695465 0.030987052 0.47615686
        0.77145845 0.031001328 0.47626007 0.77375895 0.031018464 0.47638315
        0.7764762 0.031038346 0.47652712 0.77962565 0.031060189 0.4766921
        0.7832268 0.031083621 0.4768782 0.7873071 0.031108541 0.47708577
        0.7918985 0.031134956 0.47731516 0.7970318 0.031162871 0.47756636
        0.8027322 0.031192262 0.4778387 0.8090155 0.031223064 0.47813088
        0.8158848 0.031255167 0.47844064 0.8233282 0.031288404 0.4787648
        0.8313159 0.03132257 0.47909942 0.83979917 0.031357408 0.47943977
        0.8487098 0.031392664 0.4797804 0.85796165 0.031428073 0.48011592
        0.8674528 0.031463396 0.48044074 0.87706995 0.031498462 0.48074982
        0.7599759 0.029825252 0.4756981 0.7606306 0.030061552 0.47572035
        0.76121163 0.030282455 0.47573915 0.7617497 0.030479439 0.47575694
        0.76227486 0.030650524 0.47577548 0.76281565 0.030795697 0.4757965
        0.7633999 0.030915443 0.4758215 0.764056 0.0310106 0.47585195
        0.764814 0.031082591 0.47588953 0.7657068 0.031133693 0.47593582
        0.7667716 0.031167423 0.47599256 0.7680531 0.031188525 0.47606182
        0.7696072 0.031202693 0.47614607 0.7714997 0.031215966 0.47624826
        0.77378625 0.03123182 0.4763707 0.77649546 0.031250384 0.47651428
        0.779641 0.031270918 0.47667912 0.7832402 0.031293046 0.47686517
        0.7873194 0.03131665 0.47707278 0.79191 0.031341735 0.47730222
        0.7970425 0.0313683 0.4775534 0.802742 0.031396326 0.47782582
        0.80902433 0.031425744 0.478118 0.81589276 0.031456437 0.47842777
        0.82333505 0.031488247 0.47875202 0.8313217 0.031520963 0.47908667
        0.8398038 0.031554323 0.47942698 0.8487134 0.031588066 0.47976774
        0.85796404 0.03162192 0.48010328 0.867454 0.031655654 0.48042816
        0.87706995 0.031689066 0.4807373 0.7603087 0.029994396 0.47570634
        0.76092356 0.030256405 0.47572455 0.761468 0.030492289 0.47574022
        0.7619742 0.030697323 0.47575557 0.7624725 0.03087189 0.4757723
        0.76299095 0.031017564 0.4757919 0.76355666 0.031136127 0.47581586
        0.7641968 0.031229535 0.47584552 0.7649397 0.031299956 0.4758823
        0.7658168 0.03134999 0.47592774 0.7668644 0.031383146 0.47598353
        0.7681272 0.03140387 0.47605175 0.7696622 0.03141747 0.47613496
        0.77153784 0.031429764 0.47623625 0.7738121 0.031444386 0.4763581
        0.77651405 0.03146166 0.47650138 0.779656 0.031480927 0.4766661
        0.78325343 0.03150179 0.47685215 0.78733164 0.03152412 0.47705975
        0.7919214 0.03154792 0.4772892 0.79705304 0.031573176 0.47754043
        0.8027517 0.031599887 0.47781286 0.80903316 0.03162797 0.47810507
        0.81590056 0.031657312 0.4784149 0.8233419 0.03168775 0.47873914
        0.83132744 0.031719066 0.47907382 0.83980846 0.03175101 0.4794142
        0.84871686 0.031783298 0.47975498 0.85796636 0.031815656 0.48009053
        0.8674552 0.031847846 0.48041546 0.87706995 0.03187966 0.4807247
        0.7606281 0.030198645 0.47571152 0.76119864 0.030479591 0.47572583
        0.76170397 0.030724183 0.47573858 0.76217705 0.030931516 0.47575182
        0.7626483 0.031104567 0.47576702 0.76314527 0.031246712 0.47578558
        0.76369387 0.03136111 0.47580877 0.76431966 0.031450704 0.4758378
        0.76504946 0.031518206 0.47587398 0.7659131 0.031566355 0.47591877
        0.7669462 0.03159847 0.47597378 0.76819307 0.031618606 0.47604117
        0.76971185 0.031631578 0.4761235 0.7715729 0.031642914 0.47622406
        0.77383643 0.031656332 0.47634536 0.776532 0.03167235 0.47648838
        0.7796707 0.031690374 0.47665298 0.78326654 0.031709995 0.47683904
        0.78734374 0.03173108 0.47704664 0.7919327 0.031753626 0.47727612
        0.7970635 0.031777617 0.47752738 0.8027614 0.031803045 0.47779983
        0.8090419 0.03182983 0.4780921 0.8159084 0.03185787 0.47840193
        0.8233487 0.03188698 0.47872618 0.83133316 0.031916942 0.47906095
        0.8398131 0.03194751 0.47940132 0.8487204 0.031978384 0.4797421
        0.8579687 0.032009296 0.48007777 0.8674563 0.032039996 0.48040274
        0.87706995 0.032070253 0.480712 0.76092964 0.03043729 0.47571334
        0.7614524 0.030729447 0.47572407 0.761917 0.030975722 0.4757343
        0.76235694 0.031179354 0.47574574 0.7628021 0.031346116 0.47575977
        0.7632792 0.03148122 0.4757776 0.7638124 0.031589027 0.4758003
        0.76442575 0.031673197 0.47582898 0.7651443 0.03173676 0.47586474
        0.76599663 0.031782415 0.47590902 0.76701754 0.03181316 0.47596344
        0.7682512 0.03183255 0.47603008 0.7697563 0.031844858 0.47611174
        0.77160496 0.031855274 0.47621164 0.77385926 0.031867534 0.47633252
        0.7765493 0.031882335 0.4764753 0.7796851 0.031899147 0.4766398
        0.7832795 0.03191756 0.47682583 0.7873557 0.031937446 0.4770335
        0.79194385 0.031958774 0.477263 0.79707396 0.031981543 0.4775143
        0.802771 0.03200573 0.47778675 0.8090506 0.03203128 0.47807905
        0.8159161 0.032058053 0.4783889 0.82335544 0.032085888 0.4787132
        0.8313389 0.03211455 0.47904795 0.8398177 0.03214379 0.4793884
        0.8487239 0.032173313 0.47972924 0.8579711 0.032202832 0.4800649
        0.8674575 0.032232083 0.48038992 0.87706995 0.03226084 0.48069924
        0.76120913 0.030709459 0.47571164 0.7616817 0.031003868 0.4757192
        0.76210535 0.031244246 0.47572735 0.7625131 0.031438243 0.47573748
        0.7629342 0.031594425 0.47575077 0.76339346 0.031719543 0.47576818
        0.76391345 0.031818815 0.47579065 0.7645161 0.03189633 0.47581908
        0.76522523 0.031955197 0.47585464 0.7660682 0.031997908 0.47589853
        0.767079 0.032027032 0.4759525 0.7683017 0.032045577 0.47601858
        0.7697956 0.03205722 0.4760996 0.771634 0.03206674 0.476199
        0.77388054 0.03207789 0.47631952 0.7765658 0.032091517 0.47646216
        0.77969915 0.032107163 0.47662657 0.7832922 0.03212442 0.4768126
        0.7873676 0.03214314 0.47702026 0.791955 0.0321633 0.4772498
        0.79708433 0.0321849 0.47750112 0.8027805 0.032207914 0.47777364
        0.80905926 0.032232262 0.47806594 0.81592387 0.03225783 0.47837582
        0.8233622 0.032284446 0.47870013 0.8313446 0.03231187 0.4790349
        0.83982235 0.03233984 0.4793754 0.84872735 0.032368068 0.47971624
        0.8579734 0.03239625 0.48005196 0.86745864 0.03242411 0.48037705
        0.87706995 0.03245142 0.48068646 0.7614621 0.031013489 0.47570622
        0.7618836 0.031300172 0.4757112 0.7622675 0.03152686 0.4757178
        0.7626454 0.03170565 0.47572717 0.76304495 0.031847533 0.4757401
        0.76348895 0.03196027 0.47575742 0.76399773 0.032049507 0.4757799
        0.76459163 0.03211944 0.4758083 0.765293 0.032173045 0.47584373
        0.76612836 0.03221248 0.4758874 0.76713115 0.032239832 0.475941
        0.76834506 0.03225747 0.47600666 0.7698299 0.03226845 0.47608724
        0.77166003 0.032277133 0.47618622 0.7739003 0.032287236 0.47630644
        0.77658165 0.03229975 0.47644892 0.77971286 0.032314286 0.4766133
        0.78330475 0.032330435 0.4767993 0.7873793 0.03234805 0.477007
        0.79196596 0.032367107 0.47723657 0.7970945 0.032387592 0.4774879
        0.8027899 0.032409485 0.47776043 0.80906785 0.032432705 0.47805277
        0.8159315 0.032457136 0.47836265 0.82336885 0.032482594 0.47868702
        0.83135027 0.03250885 0.47902182 0.83982694 0.03253562 0.4793623
        0.8487308 0.032562613 0.47970322 0.8579757 0.032589525 0.48003894
        0.86745983 0.032616064 0.48036408 0.87706995 0.032641996 0.48067352
        0.76168406 0.031346995 0.47569683 0.76205575 0.031615198 0.47570005
        0.7624025 0.03182053 0.47570583 0.7627538 0.03197915 0.47571495
        0.76313496 0.032103647 0.47572792 0.7635663 0.032202125 0.47574544
        0.7640661 0.03228018 0.4757681 0.764653 0.03234185 0.47579664
        0.7653483 0.032389805 0.47583207 0.7661778 0.032425757 0.47587565
        0.76717424 0.03245123 0.47592902 0.7683814 0.032467946 0.47599435
        0.7698594 0.032478295 0.47607455 0.77168316 0.03248621 0.47617325
        0.77391845 0.032495342 0.47629327 0.77659667 0.032506812 0.47643563
        0.77972615 0.03252031 0.4766 0.783317 0.03253543 0.47678602
        0.7873909 0.032552015 0.4769937 0.7919768 0.032570034 0.47722328
        0.7971047 0.032589488 0.47747466 0.8027993 0.03261033 0.47774723
        0.80907637 0.03263251 0.47803956 0.8159391 0.03265588 0.47834948
        0.8233755 0.032680262 0.47867388 0.83135587 0.032705426 0.47900867
        0.8398315 0.03273108 0.4793492 0.84873426 0.032756925 0.4796901
        0.857978 0.032782644 0.4800259 0.86746097 0.032807946 0.48035106
        0.87706995 0.032832563 0.48066056 0.76187074 0.031706695 0.47568354
        0.76219594 0.031945277 0.47568586 0.7625097 0.032122094 0.47569162
        0.76283854 0.032256335 0.47570097 0.7632048 0.032361005 0.47571442
        0.76362634 0.03244379 0.4757324 0.76411927 0.03250986 0.47575542
        0.76470095 0.03256282 0.47578424 0.7653917 0.032604873 0.47581983
        0.7662168 0.03263723 0.47586337 0.76720876 0.03266079 0.47591656
        0.7684111 0.032676604 0.47598168 0.769884 0.032686394 0.47606167
        0.77170324 0.03269363 0.47616017 0.773935 0.032701887 0.47628003
        0.776611 0.03271242 0.4764223 0.7797391 0.032724965 0.47658667
        0.7833291 0.03273915 0.4767727 0.78740233 0.032754797 0.47698042
        0.7919876 0.03277188 0.47721002 0.79711473 0.03279039 0.4774614
        0.8028086 0.032810293 0.47773397 0.80908483 0.032831516 0.47802633
        0.8159467 0.03285393 0.47833627 0.82338214 0.032877337 0.47866064
        0.8313615 0.032901503 0.47899547 0.839836 0.03292614 0.47933602
        0.8487377 0.03295093 0.47967696 0.8579803 0.03297556 0.48001277
        0.86746216 0.032999713 0.48033795 0.87706995 0.033023134 0.4806475
        0.7620181 0.032088388 0.47566625 0.7623026 0.03228623 0.47566885
        0.7625889 0.0324282 0.47567528 0.7629 0.03253473 0.47568548
        0.76325524 0.03261777 0.4756997 0.7636697 0.0326839 0.47571838
        0.7641579 0.032737475 0.47574198 0.76473594 0.032781478 0.4757712
        0.7654237 0.03281753 0.47580698 0.76624596 0.032846265 0.4758506
        0.767235 0.03286795 0.47590378 0.7684342 0.032882933 0.47596875
        0.7699041 0.032892253 0.47604856 0.77172047 0.03289892 0.47614697
        0.77395004 0.03290644 0.47626677 0.7766245 0.03291616 0.476409
        0.77975166 0.032927886 0.47657335 0.783341 0.032941252 0.4767594
        0.78741354 0.032956082 0.47696713 0.79199815 0.032972354 0.47719675
        0.7971246 0.032990046 0.47744814 0.80281776 0.033009134 0.4777207
        0.8090932 0.033029534 0.47801307 0.8159542 0.033051107 0.478323
        0.8233887 0.033073667 0.4786474 0.8313671 0.033096965 0.47898227
        0.83984053 0.033120707 0.4793228 0.8487411 0.03314457 0.47966373
        0.85798264 0.03316823 0.47999957 0.8674633 0.033191364 0.4803248
        0.87706995 0.033213694 0.48063436 0.7621227 0.03248698 0.47564507
        0.76237464 0.03263324 0.4756492 0.76264036 0.03273526 0.47565714
        0.76293904 0.03281173 0.47566864 0.76328707 0.032872006 0.475684
        0.7636973 0.03292095 0.47570357 0.76418275 0.032961834 0.47572786
        0.7647588 0.032996822 0.47575757 0.765445 0.033026915 0.47579366
        0.76626575 0.033052098 0.47583744 0.76725334 0.033072002 0.47589064
        0.7684511 0.033086266 0.47595558 0.76991963 0.033095263 0.47603536
        0.7717349 0.03310152 0.47613367 0.7739635 0.03310846 0.47625348
        0.7766372 0.03311753 0.47639573 0.77976376 0.033128597 0.47656006
        0.78335255 0.0331413 0.4767461 0.78742456 0.033155486 0.47695386
        0.7920086 0.033171095 0.4771835 0.7971344 0.03318813 0.4774349
        0.8028268 0.033206556 0.47770745 0.80910146 0.03322629 0.4779998
        0.8159616 0.033247184 0.47830975 0.8233952 0.033269055 0.47863412
        0.83137256 0.03329164 0.47896898 0.839845 0.033314653 0.47930953
        0.8487445 0.033337742 0.4796505 0.8579849 0.03336059 0.4799863
        0.8674644 0.033382855 0.48031154 0.87706995 0.03340425 0.4806212
        0.762182 0.032896608 0.47562024 0.762412 0.03298109 0.4756273
        0.7626652 0.0330397 0.4756375 0.7629573 0.033084843 0.47565076
        0.76330197 0.033121865 0.4756675 0.76371044 0.03315353 0.47568816
        0.7641949 0.033181798 0.47571325 0.76477045 0.033207934 0.47574353
        0.76545626 0.03323221 0.47577998 0.76627684 0.033254 0.475824
        0.7672643 0.03327228 0.47587729 0.7684622 0.033285998 0.47594228
        0.769931 0.033294838 0.47602206 0.77174664 0.03330088 0.47612044
        0.7739755 0.033307448 0.47624025 0.7766492 0.03331606 0.4763825
        0.7797755 0.033326656 0.47654688 0.7833639 0.033338897 0.4767329
        0.7874354 0.033352606 0.47694066 0.7920189 0.033367757 0.4771703
        0.79714406 0.033384327 0.47742167 0.80283576 0.033402283 0.47769424
        0.8091096 0.033421535 0.47798657 0.815969 0.033441946 0.47829652
        0.82340163 0.033463314 0.4786209 0.83137804 0.033485383 0.4789557
        0.8398495 0.033507843 0.47929624 0.8487479 0.033530354 0.4796372
        0.85798717 0.033552572 0.47997302 0.86746556 0.033574153 0.48029828
        0.87706995 0.0335948 0.48060787 0.7621946 0.033310864 0.47559214
        0.7624169 0.033326045 0.47560355 0.76266676 0.033339746 0.47561663
        0.7629577 0.03335322 0.47563204 0.7633022 0.03336703 0.47565037
        0.763711 0.03338161 0.47567225 0.764196 0.033397507 0.4756982
        0.7647721 0.033415 0.47572914 0.7654586 0.033433665 0.475766
        0.76628 0.03345224 0.47581026 0.7672686 0.03346905 0.47586372
        0.76846796 0.03348237 0.47592878 0.7699386 0.03349122 0.47600868
        0.771756 0.033497225 0.47610715 0.7739862 0.033503592 0.47622707
        0.7766605 0.033511933 0.47636938 0.7797869 0.03352224 0.47653374
        0.783375 0.03353419 0.47671983 0.7874461 0.033547617 0.47692755
        0.792029 0.033562478 0.47715715 0.79715365 0.033578757 0.4774085
        0.80284464 0.033596415 0.47768104 0.8091178 0.033615373 0.47797337
        0.81597626 0.033635475 0.47828326 0.82340807 0.03365652 0.4786076
        0.8313835 0.03367824 0.4789424 0.83985394 0.033700332 0.47928292
        0.8487513 0.033722434 0.47962385 0.8579895 0.033744197 0.47995967
        0.86746675 0.03376527 0.4802849 0.87706995 0.033785343 0.48059452
        0.7621602 0.033723105 0.47556114 0.7623928 0.03366977 0.47557798
        0.76264846 0.03363899 0.47559452 0.76294285 0.033621013 0.47561234
        0.76328975 0.033611726 0.47563243 0.76370037 0.033609293 0.47565562
        0.764187 0.033612844 0.47568253 0.7647646 0.033621717 0.47571415
        0.7654526 0.03363476 0.4757515 0.7662759 0.033650097 0.47579607
        0.7672668 0.033665434 0.47584978 0.7684689 0.03367835 0.475915
        0.7699427 0.03368721 0.4759951 0.7717633 0.03369319 0.47609374
        0.7739958 0.033699386 0.47621375 0.7766714 0.03370749 0.47635615
        0.77979815 0.03371753 0.47652057 0.7833861 0.033729207 0.47670662
        0.7874568 0.033742364 0.47691435 0.7920392 0.033756953 0.4771439
        0.7971632 0.03377296 0.47739527 0.8028535 0.033790354 0.47766778
        0.8091259 0.033809025 0.47796008 0.81598353 0.03382884 0.47826996
        0.8234145 0.033849582 0.47859424 0.83138895 0.033870984 0.47892904
        0.83985835 0.033892725 0.47926953 0.84875464 0.033914447 0.4796104
        0.85799176 0.033935785 0.47994623 0.8674679 0.03395637 0.48027146
        0.87706995 0.03397588 0.48058107 0.7620799 0.034126803 0.47552782
        0.76233685 0.03401424 0.47555032 0.76260716 0.03394146 0.47557074
        0.7629103 0.03389283 0.4755912 0.7632627 0.033860628 0.47561327
        0.7636772 0.03384111 0.47563788 0.7641668 0.03383214 0.47566587
        0.76474714 0.033832163 0.47569823 0.76543784 0.033839356 0.47573617
        0.7662641 0.03385125 0.47578114 0.76725847 0.033864904 0.47583517
        0.7684648 0.03387723 0.4759007 0.76994336 0.033885937 0.47598103
        0.77176857 0.033891734 0.4760799 0.7740045 0.033897612 0.47620016
        0.77668196 0.033905312 0.47634268 0.77980936 0.03391493 0.47650713
        0.78339726 0.033926185 0.4766932 0.78746754 0.03393891 0.47690094
        0.79204947 0.033953078 0.47713053 0.7971728 0.03396866 0.47738186
        0.8028624 0.033985626 0.47765434 0.80913407 0.034003872 0.47794664
        0.8159909 0.034023244 0.47825646 0.8234209 0.03404354 0.47858077
        0.83139443 0.034064468 0.47891554 0.8398628 0.034085706 0.479256
        0.84875804 0.034106895 0.4795969 0.857994 0.034127653 0.47993273
        0.867469 0.034147605 0.48025796 0.87706995 0.034166418 0.4805676
        0.76195586 0.034515887 0.47549275 0.76224655 0.03435592 0.4755207
        0.7625393 0.034245525 0.4755451 0.76285684 0.03416805 0.4755685
        0.7632185 0.0341137 0.4755927 0.7636394 0.034077317 0.47561887
        0.7641339 0.0340558 0.47564808 0.76471835 0.034046836 0.47568133
        0.76541305 0.03404799 0.4757199 0.76624364 0.034056224 0.47576538
        0.767243 0.03406799 0.47581983 0.76845527 0.034079526 0.47588572
        0.76994026 0.034087878 0.47596642 0.7717716 0.034093298 0.47606567
        0.7740122 0.03409867 0.47618622 0.77669215 0.03410579 0.4763289
        0.7798205 0.0341148 0.47649345 0.78340846 0.034125447 0.47667956
        0.7874784 0.03413757 0.47688732 0.7920597 0.034151126 0.47711688
        0.7971825 0.034166113 0.47736824 0.8028714 0.034182467 0.47764072
        0.8091423 0.034200106 0.47793302 0.81599826 0.034218866 0.47824284
        0.8234274 0.034238525 0.47856715 0.8313999 0.03425881 0.4789019
        0.8398673 0.034279373 0.47924235 0.84876144 0.034299858 0.4795833
        0.8579963 0.034319863 0.47991908 0.86747015 0.03433901 0.48024434
        0.87706995 0.034356948 0.480554 0.7617912 0.034884986 0.47545654
        0.7621222 0.034689493 0.47548947 0.7624436 0.03454749 0.4755179
        0.76278067 0.034444083 0.47554433 0.7631554 0.034369066 0.4755708
        0.76358545 0.03431653 0.4755987 0.76408684 0.03428275 0.47562912
        0.76467717 0.03426485 0.4756634 0.76537746 0.0342599 0.4757027
        0.7662139 0.034264345 0.4757488 0.76722 0.034274064 0.47580373
        0.7684399 0.034284636 0.47587013 0.7699332 0.034292467 0.47595134
        0.7717724 0.03429736 0.47605106 0.77401876 0.034302074 0.47617194
        0.776702 0.03430846 0.47631487 0.7798315 0.03431672 0.47647953
        0.78341967 0.0343266 0.4766657 0.78748924 0.03433797 0.4768735
        0.7920701 0.03435077 0.47710305 0.79719216 0.034365002 0.47735444
        0.8028804 0.034380607 0.47762692 0.8091505 0.034397487 0.47791922
        0.81600565 0.034415483 0.47822908 0.8234338 0.03443437 0.47855338
        0.8314054 0.034453858 0.47888812 0.83987176 0.03447361 0.47922862
        0.84876484 0.034493234 0.47956952 0.85799855 0.03451235 0.47990537
        0.8674713 0.034530547 0.48023066 0.87706995 0.03454747 0.48054034
        0.7615899 0.03522963 0.47541976 0.76196533 0.035010092 0.47545716
        0.7623199 0.034843538 0.47548935 0.7626809 0.034718163 0.4755188
        0.76307243 0.034624677 0.47554758 0.7635144 0.034557197 0.47557727
        0.7640249 0.034511767 0.47560912 0.7646229 0.034485213 0.47564444
        0.76533043 0.034474235 0.4756846 0.7661745 0.03447486 0.4757314
        0.7671891 0.034482434 0.47578698 0.7684186 0.034491923 0.47585398
        0.76992214 0.034499105 0.47593582 0.7717708 0.034503337 0.4760361
        0.7740242 0.034507282 0.47615743 0.77671134 0.034512818 0.47630063
        0.77984244 0.03452021 0.4764654 0.7834308 0.03452922 0.47665164
        0.78750014 0.034539707 0.47685948 0.79208046 0.034551647 0.47708908
        0.79720193 0.03456501 0.47734046 0.80288947 0.034579746 0.477613
        0.80915874 0.034595758 0.4779053 0.81601304 0.034612875 0.47821516
        0.8234403 0.034630872 0.4785395 0.83141094 0.034649454 0.47887427
        0.83987623 0.034668278 0.47921476 0.84876823 0.03468694 0.4795557
        0.8580008 0.034705054 0.47989154 0.8674724 0.03472219 0.48021686
        0.87706995 0.03473799 0.48052663 0.761356 0.035546303 0.475383
        0.761778 0.035313543 0.47542414 0.76216877 0.035130117 0.47545975
        0.762557 0.034987632 0.4754921 0.7629686 0.034878604 0.4755232
        0.7634253 0.03479789 0.47555473 0.7639472 0.034741778 0.47558802
        0.7645548 0.034707077 0.47562447 0.76527137 0.034690306 0.47566563
        0.76612484 0.03468717 0.47571322 0.7671499 0.034692552 0.47576955
        0.76839113 0.034700867 0.4758373 0.769907 0.034707293 0.47591987
        0.7717669 0.034710776 0.4760208 0.7740286 0.03471386 0.47614264
        0.7767202 0.034718473 0.47628614 0.7798532 0.034724906 0.4764511
        0.78344196 0.03473295 0.47663742 0.787511 0.034742482 0.4768453
        0.79209083 0.03475346 0.47707495 0.79721165 0.034765873 0.47732636
        0.80289847 0.034779657 0.4775989 0.80916697 0.03479471 0.47789124
        0.8160204 0.03481087 0.47820112 0.8234468 0.03482789 0.47852546
        0.8314164 0.03484548 0.47886026 0.83988065 0.034863282 0.47920078
        0.8487716 0.034880903 0.47954175 0.8580031 0.034897912 0.47987762
        0.86747354 0.034913912 0.480203 0.87706995 0.0349285 0.4805128
        0.76109415 0.035832394 0.4753467 0.7615629 0.035596244 0.47539094
        0.7619911 0.035403837 0.47542945 0.762409 0.035249833 0.4754644
        0.76284325 0.035128925 0.47549775 0.7633172 0.03503726 0.4755311
        0.7638527 0.03497183 0.47556588 0.76447195 0.03492974 0.47560355
        0.7651995 0.03490756 0.47564572 0.76606447 0.034900814 0.47569427
        0.7671022 0.034904025 0.47575143 0.7683574 0.034911104 0.47582006
        0.76988775 0.03491669 0.47590348 0.77176076 0.034919348 0.47600523
        0.7740319 0.03492151 0.47612762 0.77672875 0.034925133 0.47627148
        0.77986383 0.034930546 0.47643664 0.78345305 0.034937564 0.47662306
        0.7875219 0.03494607 0.47683096 0.7921012 0.034956027 0.47706068
        0.7972214 0.03496741 0.47731212 0.8029075 0.034980178 0.4775847
        0.80917525 0.034994204 0.47787705 0.8160278 0.035009332 0.47818696
        0.8234533 0.03502531 0.47851133 0.8314219 0.035041835 0.47884613
        0.8398851 0.035058558 0.4791867 0.84877497 0.035075054 0.47952774
        0.85800534 0.035090912 0.47986367 0.8674747 0.035105694 0.48018906
        0.87706995 0.03511901 0.4804989 0.7608086 0.036086235 0.47531137
        0.76132286 0.035855215 0.47535792 0.7617884 0.035661485 0.47539878
        0.7622369 0.035502058 0.47543597 0.76269567 0.035373658 0.47547132
        0.76318914 0.035273958 0.47550642 0.7637404 0.035201024 0.4755427
        0.76437336 0.03515263 0.47558165 0.76511407 0.035125613 0.47562492
        0.76599276 0.03511551 0.47567448 0.7670456 0.03511661 0.47573265
        0.7683172 0.035122413 0.4758023 0.7698645 0.0351271 0.47588676
        0.7717524 0.035128858 0.47598937 0.77403414 0.035130046 0.47611243
        0.77673686 0.035132628 0.47625667 0.7798743 0.035136968 0.476422
        0.78346413 0.03514291 0.4766085 0.78753275 0.035150334 0.47681648
        0.7921116 0.035159215 0.47704625 0.7972312 0.035169523 0.47729772
        0.8029166 0.035181213 0.47757035 0.80918354 0.035194155 0.47786275
        0.8160353 0.03520819 0.4781727 0.8234598 0.03522307 0.4784971
        0.8314274 0.03523848 0.47883195 0.8398896 0.035254054 0.47917253
        0.84877837 0.035269376 0.4795136 0.8580076 0.035284016 0.47984958
        0.8674758 0.035297528 0.48017505 0.87706995 0.03530951 0.48048493
        0.76050407 0.036306456 0.47527736 0.76106155 0.036087986 0.47532555
        0.76156294 0.035899937 0.4753681 0.7620415 0.03574135 0.47540703
        0.7625256 0.035610456 0.4754441 0.76304007 0.03550633 0.47548077
        0.7636091 0.035428297 0.47551847 0.7642579 0.03537506 0.4755587
        0.765014 0.035344027 0.47560316 0.76590896 0.03533095 0.4756539
        0.76697963 0.03533006 0.47571322 0.76827055 0.035334587 0.47578403
        0.7698371 0.0353383 0.4758696 0.7717419 0.03533912 0.47597322
        0.77403545 0.035339292 0.47609702 0.7767446 0.0353408 0.47624168
        0.7798847 0.035344034 0.47640723 0.78347516 0.035348855 0.47659388
        0.78754365 0.03535516 0.4768019 0.792122 0.03536292 0.4770317
        0.797241 0.035372112 0.47728324 0.80292565 0.035382673 0.47755587
        0.8091918 0.03539449 0.47784832 0.81604266 0.03540739 0.47815832
        0.82346624 0.035421114 0.47848275 0.83143294 0.03543536 0.47881764
        0.83989406 0.035449736 0.47915828 0.8487817 0.03546384 0.47949937
        0.8580099 0.03547721 0.4798354 0.86747694 0.035489406 0.48016092
        0.87706995 0.035500005 0.4804709 0.760183 0.03649352 0.47524482
        0.76078194 0.03629307 0.4752941 0.76131713 0.036116652 0.4753378
        0.76182413 0.035964932 0.47537792 0.76233274 0.03583699 0.47541624
        0.76286876 0.035732806 0.47545418 0.763457 0.035652775 0.47549316
        0.76412374 0.035596687 0.47553468 0.7648979 0.03556277 0.4755804
        0.765812 0.035547264 0.47563237 0.76690364 0.035544563 0.47569305
        0.7682169 0.035547804 0.4757652 0.7698056 0.03555049 0.47585207
        0.7717293 0.035550307 0.4759568 0.7740359 0.035549417 0.47608137
        0.776752 0.0355498 0.47622648 0.779895 0.03555188 0.4763923
        0.78348625 0.03555553 0.47657907 0.78755456 0.03556066 0.47678718
        0.79213244 0.035567246 0.47701702 0.79725075 0.03557526 0.4772686
        0.8029347 0.035584643 0.47754133 0.8092001 0.035595275 0.4778338
        0.8160501 0.03560698 0.4781438 0.82347274 0.0356195 0.4784683
        0.8314384 0.03563252 0.47880325 0.8398985 0.03564565 0.47914392
        0.8487851 0.035658464 0.47948506 0.85801214 0.03567051 0.47982118
        0.8674781 0.035681337 0.48014674 0.87706995 0.035690494 0.4804568
        0.7598551 0.036644485 0.4752146 0.7604891 0.036468767 0.47526407
        0.761055 0.036308978 0.47530836 0.7615877 0.036169287 0.4753491
        0.7621188 0.036049582 0.4753881 0.7626755 0.035950113 0.47542694
        0.76328355 0.03587188 0.475467 0.76396996 0.035815556 0.47550964
        0.7647647 0.035780337 0.47555667 0.7657013 0.03576321 0.47561005
        0.7668174 0.035759035 0.47567222 0.76815647 0.03576107 0.4757459
        0.7697702 0.035762724 0.47583425 0.7717148 0.035761528 0.4759402
        0.7740355 0.035759594 0.47606564 0.77675915 0.035758875 0.47621122
        0.7799052 0.03575981 0.47637728 0.7834972 0.0357623 0.47656417
        0.78756547 0.035766263 0.47677234 0.79214287 0.035771675 0.47700226
        0.7972606 0.03577851 0.4772539 0.8029438 0.035786718 0.47752666
        0.8092084 0.035796165 0.47781914 0.81605756 0.035806667 0.47812924
        0.82347924 0.03581797 0.47845376 0.83144397 0.03582975 0.47878876
        0.839903 0.035841614 0.47912946 0.8487885 0.035853133 0.4794707
        0.8580144 0.035863843 0.4798068 0.8674792 0.03587327 0.4801325
        0.87706995 0.03588098 0.4804426 0.75950235 0.03676756 0.47518504
        0.7601815 0.0366162 0.4752353 0.7607778 0.036476377 0.47527984
        0.7613331 0.03635325 0.4753207 0.76188284 0.036247224 0.4753598
        0.7624572 0.036158215 0.4753989 0.7630838 0.036086895 0.47543952
        0.76379097 0.03603416 0.47548312 0.7646094 0.035999965 0.47553143
        0.7655727 0.03598234 0.47558638 0.7667181 0.035977025 0.47565025
        0.76808757 0.035977807 0.47572574 0.76973003 0.03597824 0.4758158
        0.7716981 0.035975836 0.47592315 0.77403426 0.035972655 0.4760495
        0.77676606 0.035970636 0.47619563 0.77991533 0.035970226 0.47636196
        0.7835083 0.035971362 0.476549 0.78757644 0.035973962 0.4767573
        0.7921533 0.035978016 0.47698727 0.7972704 0.035983484 0.47723898
        0.80295295 0.03599032 0.4775118 0.80921674 0.035998393 0.47780436
        0.816065 0.036007512 0.47811452 0.8234858 0.03601742 0.47843906
        0.83144945 0.03602779 0.47877413 0.83990747 0.036038216 0.4791149
        0.84879184 0.036048274 0.47945616 0.85801667 0.036057476 0.4797924
        0.86748034 0.03606536 0.4801181 0.87706995 0.036071457 0.48042834
        0.75920576 0.03684245 0.4751624 0.75987715 0.036732044 0.47520912
        0.7604951 0.036615703 0.47525313 0.761071 0.036510836 0.4752938
        0.7616375 0.036420565 0.4753327 0.76222724 0.03634485 0.47537175
        0.7628709 0.036283657 0.47541258 0.7635989 0.036237445 0.47545692
        0.7644427 0.0362065 0.47550642 0.76543546 0.03618981 0.475563
        0.76661307 0.03618424 0.47562873 0.76801544 0.036184367 0.47570613
        0.76968855 0.036184113 0.47579792 0.7716809 0.03618109 0.47590664
        0.77403283 0.036177307 0.47603393 0.77677274 0.03617463 0.47618052
        0.77992535 0.03617351 0.4763471 0.7835192 0.036173906 0.47653422
        0.7875872 0.036175743 0.47674257 0.79216367 0.036179014 0.47697258
        0.79728013 0.03618369 0.4772243 0.80296195 0.036189705 0.47749713
        0.80922496 0.036196932 0.47778973 0.8160724 0.036205187 0.47809988
        0.8234922 0.0362142 0.4784245 0.83145493 0.03622364 0.47875956
        0.8399119 0.036233105 0.47910038 0.84879524 0.03624214 0.47944167
        0.85801893 0.036250282 0.47977793 0.86748147 0.036257036 0.4801037
        0.87706995 0.03626193 0.480414 0.7590671 0.036870472 0.47515228
        0.7596199 0.0368133 0.4751882 0.7602318 0.036723185 0.47522992
        0.76082814 0.036633402 0.47527063 0.7614185 0.036553007 0.4753102
        0.7620309 0.03648409 0.47535 0.76269615 0.036427453 0.47539178
        0.7634458 0.0363841 0.47543713 0.76431227 0.036354885 0.47548786
        0.7653293 0.03633939 0.4755457 0.7665324 0.036334876 0.47561282
        0.76796055 0.036336157 0.47569153 0.76965743 0.036337294 0.47578454
        0.7716687 0.036335964 0.47589418 0.77403283 0.036334064 0.47602198
        0.776779 0.036333337 0.47616878 0.77993417 0.036334176 0.47633535
        0.78352875 0.03633655 0.47652233 0.7875967 0.036340386 0.47673053
        0.7921728 0.036345683 0.4769604 0.7972888 0.036352422 0.47721192
        0.80297005 0.03636052 0.47748455 0.8092324 0.03636987 0.47777697
        0.8160792 0.036380272 0.4780869 0.8234983 0.036391456 0.4784113
        0.8314601 0.036403086 0.47874618 0.83991617 0.036414754 0.47908676
        0.8487985 0.03642601 0.47942787 0.85802114 0.036436368 0.47976393
        0.8674826 0.036445327 0.4800895 0.87706995 0.0364524 0.4803996
        0.75897545 0.03688877 0.47514564 0.75941753 0.036868352 0.4751724
        0.75999594 0.036804892 0.47521022 0.76060516 0.036729127 0.4752506
        0.7612233 0.036655176 0.47529128 0.7618638 0.036588877 0.47533256
        0.7625538 0.036533233 0.47537565 0.76332515 0.036490377 0.47542223
        0.76421165 0.03646174 0.47547406 0.76524836 0.036447152 0.47553295
        0.7664715 0.036443908 0.47560108 0.7679194 0.036446784 0.4756808
        0.7696345 0.036449835 0.47577468 0.7716601 0.03645076 0.4758849
        0.77403337 0.036451366 0.47601303 0.77678436 0.036453295 0.4761599
        0.77994144 0.036456935 0.47632632 0.78353655 0.036462247 0.47651315
        0.7876045 0.036469202 0.47672108 0.79218036 0.03647781 0.47695065
        0.79729605 0.036488064 0.4772019 0.80297697 0.03649992 0.47747424
        0.80923885 0.03651329 0.47776634 0.8160851 0.03652801 0.4780759
        0.8235036 0.036543842 0.4783999 0.8314648 0.03656049 0.47873437
        0.8399201 0.036577616 0.47907454 0.8488016 0.03659481 0.47941512
        0.85802335 0.036611684 0.47975066 0.86748374 0.036627818 0.48007563
        0.87706995 0.03664286 0.4803851 0.7588568 0.03691231 0.47513708
        0.75924027 0.036910176 0.47515908 0.7597643 0.036873676 0.4751917
        0.7603579 0.036819756 0.47522956 0.76098686 0.036761228 0.4752697
        0.7616504 0.036705166 0.47531155 0.76236665 0.036656123 0.47535565
        0.7631646 0.036617517 0.47540346 0.7640776 0.036591705 0.47545657
        0.7651413 0.036579095 0.47551686 0.7663917 0.036577374 0.4755864
        0.7678663 0.036581643 0.4756675 0.7696052 0.03658639 0.47576258
        0.77164906 0.036589477 0.4758737 0.7740339 0.036592524 0.47600222
        0.7767906 0.03659698 0.47614923 0.7799501 0.036603168 0.47631556
        0.7835458 0.036611084 0.4765022 0.7876137 0.03662071 0.47670996
        0.79218924 0.036632057 0.47693926 0.79730445 0.036645144 0.4771903
        0.80298483 0.03665992 0.47746235 0.8092462 0.03667629 0.47775415
        0.8160917 0.036694102 0.47806346 0.8235095 0.036713127 0.4783872
        0.8314699 0.03673307 0.47872138 0.83992434 0.036753573 0.47906125
        0.8488049 0.03677425 0.47940153 0.85802555 0.036794692 0.47973672
        0.86748487 0.036814503 0.4800614 0.87706995 0.036833316 0.48037055
        0.7587276 0.036937796 0.4751277 0.7590793 0.036943346 0.47514734
        0.7595517 0.036927238 0.47517547 0.76011187 0.036895797 0.47520974
        0.7607335 0.03685708 0.47524798 0.7614098 0.036816683 0.47528934
        0.76215047 0.03677909 0.475334 0.7629778 0.03674834 0.4753829
        0.76392245 0.0367276 0.4754374 0.76501864 0.036718063 0.47549933
        0.7663017 0.036718052 0.4755706 0.7678075 0.036723472 0.47565335
        0.7695734 0.036729656 0.47574982 0.7716373 0.03673485 0.47586185
        0.7740345 0.036740348 0.47599086 0.7767974 0.0367473 0.476138
        0.7799593 0.03675596 0.4763043 0.7835556 0.036766358 0.47649077
        0.78762335 0.03677849 0.47669828 0.79219854 0.03679239 0.4769274
        0.7973133 0.03680806 0.4771782 0.80299306 0.036825456 0.47745
        0.80925375 0.036844496 0.47774157 0.81609863 0.036865007 0.47805065
        0.82351565 0.03688676 0.47837412 0.8314752 0.036909465 0.47870803
        0.8399287 0.036932755 0.47904763 0.8488082 0.03695624 0.47938767
        0.8580278 0.036979504 0.47972262 0.86748606 0.03700214 0.48004702
        0.87706995 0.037023768 0.4803559 0.75858194 0.036966357 0.47511718
        0.7589251 0.03697208 0.4751363 0.75935733 0.03696866 0.4751612
        0.7598755 0.03695672 0.47519156 0.7604711 0.036939524 0.47522673
        0.7611433 0.036919728 0.4752663 0.7618994 0.03689987 0.4753105
        0.7627558 0.036882844 0.47536 0.7637372 0.03687146 0.47541592
        0.7648736 0.036867253 0.4754797 0.7661971 0.036869545 0.47555307
        0.7677405 0.036875755 0.47563788 0.76953787 0.036882967 0.475736
        0.7716245 0.03689012 0.47584915 0.7740352 0.036897995 0.47597873
        0.7768048 0.036907308 0.47612602 0.7799692 0.036918253 0.47629228
        0.7835661 0.03693086 0.4764786 0.7876337 0.036945187 0.4766859
        0.79220843 0.036961254 0.47691485 0.7973226 0.036979083 0.4771654
        0.80300176 0.036998615 0.47743702 0.80926174 0.03701976 0.4777284
        0.81610584 0.037042346 0.47803727 0.82352203 0.03706614 0.47836053
        0.8314806 0.03709084 0.47869423 0.83993316 0.03711608 0.47903362
        0.8488116 0.037141453 0.47937348 0.85803014 0.037166543 0.47970822
        0.86748725 0.03719092 0.48003247 0.87706995 0.037214216 0.4803412
        0.758419 0.036998075 0.4751054 0.75876904 0.036999624 0.47512525
        0.75917786 0.037001427 0.4751484 0.759655 0.03700353 0.4751754
        0.7602115 0.037005972 0.4752068 0.7608602 0.03700882 0.47524333
        0.7616157 0.037012123 0.47528577 0.7624946 0.037015952 0.47533497
        0.76351607 0.03702039 0.47539195 0.76470155 0.03702552 0.4754578
        0.76607525 0.03703143 0.47553372 0.7676642 0.03703823 0.47562104
        0.76949835 0.037046026 0.47572118 0.7716105 0.037054937 0.47583556
        0.77403605 0.037065078 0.47596577 0.7768127 0.037076563 0.47611326
        0.77997977 0.037089508 0.4762795 0.7835773 0.037104007 0.4764657
        0.7876447 0.03712014 0.47667286 0.79221886 0.03713795 0.47690162
        0.79733235 0.037157454 0.477152 0.8030108 0.03717859 0.47742346
        0.80927 0.037201267 0.47771466 0.8161133 0.037225306 0.47802335
        0.8235286 0.03725047 0.47834647 0.8314862 0.037276443 0.47868
        0.8399377 0.037302863 0.47901928 0.84881514 0.037329316 0.479359
        0.8580325 0.03735538 0.47969365 0.8674884 0.037380617 0.48001775
        0.87706995 0.037404653 0.48032638
        <InformationKey name="L2_NORM_RANGE" location="vtkDataArray" length="2">
          <Value index="0">
            0.89521615037
          </Value>
          <Value index="1">
            1.0006819017
          </Value>
        </InformationKey>
      </DataArray>
    </Points>
  </Piece>
  </StructuredGrid>
</VTKFile>
