<?xml version="1.0"?>
<VTKFile type="StructuredGrid" version="0.1" byte_order="LittleEndian" header_type="UInt32" compressor="vtkZLibDataCompressor">
  <StructuredGrid WholeExtent="0 30 0 40 0 0">
  <Piece Extent="0 30 0 40 0 0">
    <PointData>
      <DataArray type="Float32" Name="orthogonality" format="ascii" RangeMin="0" RangeMax="1">
        0.9982784 0.99916404 0.99811417 0.99428076 0.9865145 0.9718618
        0.9439384 0.89229554 0.8044298 0.6693461 0.48750448 0.29745606
        0.15985064 0.08870432 0.060152374 0.050942555 0.04843286 0.04746914
        0.04641092 0.044866998 0.042786755 0.04018918 0.037103564 0.033561897
        0.029600412 0.025261892 0.020597368 0.015666865 0.010539078 0.0052899835
        0 0.99729055 0.99872327 0.9967902 0.9917652 0.98204935
        0.9637613 0.92995113 0.8713015 0.7783892 0.6434787 0.4687334
        0.2888853 0.15766765 0.08871245 0.060648713 0.0514586 0.048862386
        0.047803026 0.04666428 0.045058172 0.042932015 0.040301815 0.037194002
        0.033637952 0.029667512 0.025323335 0.02065455 0.015719548 0.010585679
        0.0053278417 2.5294932e-05 0.99668133 0.9984382 0.99580944 0.98943764
        0.9765716 0.95218635 0.9097871 0.8433495 0.74716246 0.6151132
        0.44930816 0.2802418 0.15554884 0.08886923 0.061330076 0.052161682
        0.049467716 0.048298858 0.047066536 0.04538671 0.043204527 0.04053284
        0.03739505 0.033817783 0.029832432 0.025477435 0.020799994 0.01585684
        0.01071397 0.0054452047 0.00012830879 0.9973847 0.99809474 0.9946443
        0.9862534 0.9688697 0.9370887 0.88660276 0.8149172 0.71796507
        0.58980244 0.43233016 0.27276558 0.15392071 0.08937203 0.062334202
        0.053164892 0.05034501 0.04903886 0.047687985 0.045912616 0.043655485
        0.04092598 0.037744205 0.034133848 0.030123686 0.02574985 0.0210575
        0.01610163 0.010946809 0.005665692 0.00033375452 0.99905425 0.9977914
        0.99327135 0.98200196 0.95895296 0.9196992 0.8630166 0.78845
        0.69192505 0.5674028 0.41682243 0.26508585 0.15131544 0.08884304
        0.06245311 0.053440385 0.050629713 0.0492983 0.04792125 0.046126503
        0.043857373 0.041122332 0.03794041 0.03433426 0.030331722 0.025968082
        0.021287816 0.0163454 0.011205152 0.005939754 0.00062271673 1
        0.997372 0.99058276 0.97367984 0.9420079 0.8948062 0.8340299
        0.75923383 0.66545355 0.54656786 0.4044038 0.26128197 0.1526749
        0.091945246 0.06571427 0.05636466 0.053124618 0.051398028 0.049689278
        0.04762475 0.045139074 0.04223185 0.038914453 0.03520323 0.031120902
        0.026698804 0.021978594 0.017013218 0.0118670175 0.0066147936 0.0013187526
        0.99987537 0.9966454 0.9865384 0.96356165 0.9251025 0.87295353
        0.80998534 0.73564285 0.6450026 0.5322292 0.39877975 0.26412177
        0.16012175 0.10032367 0.07337478 0.0628794 0.058518138 0.055823017
        0.05331217 0.05059213 0.047572333 0.044229582 0.040555995 0.036551807
        0.032226246 0.027599229 0.022702634 0.017580884 0.01229066 0.0068995124
        0.0014621454 0.9999188 0.99504703 0.9803682 0.9514256 0.9072106
        0.8501065 0.78302276 0.70623404 0.6162028 0.50813174 0.3833047
        0.25827944 0.16070248 0.10343365 0.07689279 0.06604019 0.061148845
        0.057953183 0.055020373 0.051956423 0.048658773 0.045091666 0.041236274
        0.03708358 0.032634992 0.027903773 0.02291612 0.017711533 0.012342381
        0.006872285 0.0013535225 0.9999139 0.99114454 0.9712226 0.9356209
        0.8838343 0.8188119 0.7448414 0.66406924 0.5743711 0.47161758
        0.35665315 0.2430465 0.15392962 0.10091014 0.07599884 0.06565263
        0.060883205 0.05770621 0.05477531 0.051716477 0.048429284 0.044876546
        0.04103768 0.03690208 0.032469794 0.027752908 0.022776619 0.017579606
        0.012213574 0.006741575 0.0012168294 0.99876326 0.98500943 0.9591536
        0.91569847 0.85473496 0.7808004 0.70037234 0.6170459 0.52918303
        0.4327559 0.32803088 0.22594096 0.14559442 0.0972526 0.0742931
        0.06465531 0.060141254 0.057080977 0.054228753 0.051236544 0.048009377
        0.044511043 0.040721122 0.03662902 0.032234702 0.027550172 0.022600533
        0.017424399 0.012073453 0.006610732 0.0010908366 0.996302 0.9769586
        0.94407034 0.8914703 0.8204997 0.7382127 0.6531734 0.56935334
        0.48476443 0.3952106 0.3004454 0.20925468 0.13735226 0.09366562
        0.07269154 0.06376949 0.059500255 0.05654174 0.053754013 0.050816126
        0.04763849 0.044185635 0.04043706 0.036381967 0.032020103 0.027363239
        0.022436282 0.017277677 0.011938999 0.00648319 0.0009661416 0.99218935
        0.9663239 0.9250228 0.8616891 0.77998966 0.6902932 0.6026061
        0.52016914 0.4401104 0.35796902 0.27307573 0.19243994 0.12884298
        0.08988269 0.07098311 0.06282539 0.0588235 0.055978604 0.05326296
        0.05038475 0.047260508 0.043855876 0.04015056 0.036133796 0.0318053
        0.027176782 0.022273079 0.017132582 0.0118068345 0.006358756 0.0008455633
        0.98614436 0.9525385 0.900989 0.8252439 0.7327306 0.63735354
        0.54928625 0.47002703 0.39557964 0.3212617 0.24610817 0.17567922
        0.12021652 0.08600659 0.069237694 0.061874125 0.058150604 0.055423044
        0.052780762 0.04996254 0.046891466 0.04353448 0.039871633 0.035892308
        0.031596273 0.026995268 0.022114113 0.0169912 0.011678073 0.0062376563
        0.00072849187 0.9776179 0.9345916 0.8704051 0.78065324 0.6780741
        0.5794393 0.4934024 0.4189946 0.3511091 0.2849698 0.21945478
        0.15894957 0.111476764 0.082035474 0.06744614 0.060904764 0.057471644
        0.054866813 0.052300747 0.049544144 0.046527103 0.043218084 0.039597657
        0.03565548 0.031391516 0.026817609 0.021958664 0.016853126 0.011552598
        0.006120045 0.0006153372 0.965711 0.9109269 0.83110356 0.7262515
        0.61555624 0.51678 0.43525964 0.3672457 0.3067477 0.24908233
        0.19311397 0.14228588 0.10266584 0.077995144 0.06562033 0.05992285
        0.056789845 0.05431221 0.051824722 0.049131036 0.046168614 0.042907674
        0.039329443 0.035424 0.031191602 0.026644303 0.02180716 0.016718743
        0.011430752 0.0060062343 0.0005063868 0.9488094 0.8789913 0.7800186
        0.6601888 0.5448809 0.44968733 0.3751591 0.314935 0.26253426
        0.21358691 0.16708381 0.12571907 0.093821615 0.07390865 0.06377035
        0.058932584 0.056107406 0.053760774 0.051353928 0.048724253 0.04581691
        0.042604044 0.039067708 0.035198517 0.030997133 0.026475914 0.021660147
        0.016588582 0.011313065 0.005896759 0.00040218767 0.9239172 0.83451235
        0.7129549 0.5806805 0.46611103 0.37866908 0.3134943 0.26227847
        0.21856064 0.17851844 0.14139841 0.109302804 0.08499646 0.069809735
        0.06191458 0.0579448 0.055431888 0.0532184 0.050893165 0.048327766
        0.04547529 0.04230996 0.038814776 0.034981 0.030809795 0.026313895
        0.021518886 0.01646375 0.011200517 0.0057924967 0.00030352443 0.88514954
        0.77019346 0.62456495 0.4864995 0.37989324 0.30452058 0.25080597
        0.20958942 0.17499538 0.14397392 0.11613823 0.09312153 0.07626354
        0.06574759 0.060083553 0.056980073 0.054778777 0.05269746 0.050452538
        0.047949888 0.045150615 0.042031102 0.03857537 0.034775395 0.030632885
        0.026161013 0.021385701 0.0163462 0.011094748 0.0056948154 0.00021151581
        0.82007784 0.6736737 0.5092213 0.37788972 0.287784 0.22847511
        0.18788396 0.15735362 0.1321389 0.11015318 0.0914604 0.077313535
        0.06773416 0.06180025 0.058330603 0.056077387 0.054178517 0.05222253
        0.050052106 0.04760706 0.044856384 0.041778576 0.038358632 0.034589224
        0.030472603 0.026022362 0.02126476 0.01623931 0.010998449 0.0056057973
        0.00012767577 0.70039314 0.52591664 0.36407095 0.25788105 0.19263723
        0.15240546 0.12591285 0.106338546 0.09050569 0.07742105 0.067646585
        0.0621086 0.05958804 0.058099262 0.056752115 0.055310693 0.05369005
        0.051841408 0.04973086 0.04733114 0.044618648 0.041573677 0.03818196
        0.034436684 0.030340478 0.025907248 0.021163488 0.016148884 0.010916
        0.0055285334 5.3882122e-05 0.462968 0.3073706 0.19472046 0.13320088
        0.09867814 0.07884622 0.06649078 0.057604667 0.050829984 0.04631198
        0.04511097 0.047841236 0.052090608 0.05484819 0.055504758 0.054803733
        0.053413052 0.05163507 0.049554765 0.047175877 0.04448118 0.04145201
        0.03807426 0.034341127 0.030255264 0.025830556 0.021093471 0.016083654
        0.010853593 0.005466894 8.203888e-06 0.040152084 0.02475122 0.015289896
        0.010538363 0.00874515 0.009048663 0.01019096 0.011409785 0.013223049
        0.016886687 0.023920022 0.03460196 0.045341257 0.05213579 0.0546609
        0.05461451 0.053394154 0.051641114 0.049554106 0.04716563 0.044463504
        0.041429147 0.038047843 0.0343122 0.03022436 0.02579779 0.021058585
        0.016046055 0.0108123645 0.0054207994 5.983695e-05 0.40305546 0.26263863
        0.16446616 0.11179364 0.08085743 0.060518436 0.045950193 0.034645736
        0.024220534 0.012326552 0.0029844318 0.021616533 0.038788162 0.0495486
        0.053894896 0.05447972 0.0534183 0.051683262 0.049584206 0.047181536
        0.04446789 0.041424688 0.03803656 0.034295496 0.030203126 0.025772475
        0.021029267 0.016012471 0.010773916 0.0053765504 0.00011028778 0.66450185
        0.49050796 0.33566236 0.23644502 0.17453136 0.1338967 0.10527181
        0.08324152 0.06361592 0.042955954 0.01890098 0.008024381 0.031813074
        0.04662041 0.05283852 0.05410138 0.053242087 0.05156206 0.04948139
        0.04708916 0.04438383 0.04134775 0.037965663 0.034229595 0.030141195
        0.025713507 0.020972256 0.015956383 0.010717651 0.0053188964 0.00016976838
        0.79671675 0.64663994 0.4841924 0.35750827 0.27012542 0.21036701
        0.16761157 0.13443804 0.105094336 0.07511853 0.041793603 0.0061693015
        0.024452586 0.04339064 0.051524438 0.053505253 0.052885816 0.051293522
        0.049258254 0.046898354 0.044218957 0.041204143 0.037839476 0.03411759
        0.03004064 0.02562209 0.020888004 0.015877582 0.010642751 0.005246433
        0.00024025477 0.86830765 0.7491152 0.6031124 0.4678417 0.36329508
        0.2873614 0.23137328 0.18719244 0.14793874 0.108284816 0.06526913
        0.020613333 0.016984947 0.040070776 0.05011483 0.052819375 0.05245261
        0.050961412 0.048983 0.046664644 0.04401844 0.04103057 0.037687745
        0.03398348 0.029920684 0.025513442 0.020788323 0.015784925 0.010555453
        0.005163004 0.00032018055 0.91096216 0.8175138 0.69456136 0.563925
        0.45094356 0.36288527 0.29531643 0.24071805 0.19162774 0.14207728
        0.08902146 0.0350521 0.009606407 0.036801565 0.048712403 0.0521228
        0.05200563 0.050616995 0.04869745 0.046422195 0.043810204 0.040849846
        0.037529085 0.033842433 0.029793635 0.025397476 0.020681106 0.015684567
        0.010460385 0.0050718593 0.00040759632 0.93851805 0.86489135 0.76403457
        0.6452057 0.5313069 0.4356012 0.3586169 0.2945347 0.23587734
        0.17630118 0.1128805 0.049330525 0.002435723 0.0336624 0.047370844
        0.05145503 0.051575918 0.050285395 0.048422143 0.046187863 0.0436081
        0.040673364 0.03737288 0.03370218 0.02966586 0.02527943 0.020570638
        0.015579987 0.01036033 0.004975161 0.0005009152 0.9574756 0.89902323
        0.8169782 0.7127628 0.603576 0.5046285 0.420724 0.34836456
        0.2805645 0.21088679 0.1367662 0.063356616 0.0044551548 0.030696696
        0.046115775 0.050833233 0.05117649 0.049977094 0.048165686 0.045968767
        0.04341804 0.040506054 0.03722326 0.033566196 0.029540297 0.025161803
        0.020459052 0.015473019 0.010256869 0.004874277 0.0005989639 0.971115
        0.9244757 0.8577183 0.7682983 0.6675105 0.56932443 0.4811965
        0.40200698 0.32563284 0.24581847 0.16063489 0.0770616 0.011012079
        0.02793366 0.04496179 0.050265912 0.05081335 0.049696818 0.04793197
        0.04576814 0.043242723 0.040350188 0.037082158 0.033436123 0.029418362
        0.025045825 0.020347437 0.015364629 0.010150874 0.0047700056 0.00070100743
        0.981196 0.94401383 0.88951504 0.813729 0.72335947 0.6293395
        0.53978634 0.45543274 0.37118366 0.28121173 0.18453592 0.09043745
        0.01722346 0.025371125 0.043899797 0.04974307 0.05047776 0.049437433
        0.047715284 0.045581467 0.043078616 0.040203027 0.03694747 0.033310402
        0.029298944 0.024930766 0.020235391 0.015254715 0.0100425165 0.004662778
        0.00080636307 0.98859054 0.95921624 0.91455334 0.85058314 0.7712117
        0.6839492 0.59575754 0.50816035 0.41694722 0.31689143 0.20829585
        0.10331516 0.022967685 0.023085171 0.042980317 0.049301833 0.050198633
        0.049221966 0.04753407 0.045423504 0.04293749 0.04007392 0.036826584
        0.03319481 0.029186483 0.024819955 0.020125303 0.015144848 0.009932646
        0.0045527816 0.0009154682 0.99406594 0.9714091 0.9348599 0.88095015
        0.81243247 0.7339336 0.64991105 0.5612206 0.46403986 0.35383832
        0.23260494 0.11612206 0.02853584 0.020851893 0.042024758 0.04879881
        0.04986075 0.048957907 0.047314182 0.045234963 0.042772107 0.039925415
        0.036690027 0.033066418 0.029063486 0.024700444 0.020008098 0.015029331
        0.009818579 0.004440119 0.0010255758 0.99718964 0.98029846 0.95064926
        0.90467167 0.8451326 0.77543414 0.6974166 0.60985976 0.5082957
        0.3886253 0.254789 0.12690511 0.03255558 0.019668056 0.041796993
        0.04883854 0.049948648 0.049034916 0.04736887 0.045267202 0.042783555
        0.03991767 0.036664493 0.033024404 0.029006293 0.024629412 0.019924607
        0.01493475 0.009714169 0.004326891 0.0011457645 0.99749404 0.98419887
        0.9616954 0.92229176 0.8683747 0.8039129 0.7299275 0.64335555
        0.53841054 0.4108042 0.26619312 0.12906834 0.030087635 0.023362529
        0.045369018 0.051930204 0.052526493 0.05115518 0.049102806 0.046679467
        0.04392816 0.040838793 0.037398063 0.033599578 0.029446652 0.024953904
        0.020148255 0.015069159 0.009767838 0.0043053455 0.0012388808 0.9945168
        0.9850082 0.96978617 0.9385893 0.8909293 0.8296515 0.7561496
        0.66750056 0.55765855 0.42213258 0.26791385 0.1234824 0.0218325
        0.031411123 0.052353706 0.057785794 0.057382517 0.055169057 0.0524183
        0.04941791 0.046189345 0.04270414 0.03893379 0.03485939 0.030473934
        0.025783453 0.020807618 0.015579613 0.0101450095 0.0045595104 0.0011029807
        0.9850339 0.98492724 0.97576946 0.95367116 0.9153396 0.85982835
        0.78791887 0.6976693 0.58336 0.44021517 0.27627346 0.12403456
        0.018975204 0.034911107 0.05560362 0.06061639 0.059807707 0.057240807
        0.054191165 0.0509403 0.047502358 0.043842416 0.039926704 0.035732154
        0.03124854 0.026479539 0.021443233 0.016171928 0.010711072 0.0051170764
        0.00054353045 0.97637945 0.9843215 0.97823554 0.96181804 0.93158287
        0.8837542 0.8164361 0.727187 0.61041665 0.46102858 0.2880085
        0.12806652 0.019395612 0.03551096 0.056377467 0.061366916 0.060495704
        0.05786264 0.054751478 0.05144514 0.047957543 0.044253323 0.04029839
        0.03606951 0.03155646 0.026763054 0.021707604 0.016422741 0.010954279
        0.0053590075 0.00029757404 0.97307736 0.9840656 0.9801357 0.96793795
        0.9449715 0.9060523 0.845853 0.759482 0.64069486 0.48406407
        0.30004495 0.13104646 0.018540576 0.037173446 0.05799203 0.062793024
        0.061734 0.05893425 0.05567836 0.05224679 0.048650682 0.04485226
        0.040815476 0.036515553 0.031941082 0.027094945 0.021994755 0.016672546
        0.011173582 0.0055540656 0.00012192537 0.97630143 0.9842625 0.9815893
        0.97222364 0.9549101 0.9246082 0.8735829 0.79304606 0.67410845
        0.5102322 0.31374085 0.13446055 0.017848942 0.038621217 0.059358362
        0.06397929 0.062756516 0.05981537 0.056436844 0.052898332 0.049208608
        0.045328032 0.041219093 0.036855884 0.032226156 0.02733216 0.022191022
        0.016834369 0.0113070505 0.0056647803 2.9194576e-05 0.98200136 0.98582697
        0.9841572 0.9764646 0.9624229 0.9377012 0.8940229 0.8202037
        0.7038965 0.53534603 0.32737577 0.13789909 0.01726791 0.039879605
        0.060514472 0.06496567 0.06359856 0.06053572 0.057052076 0.05342164
        0.049651034 0.04569904 0.041526943 0.037107944 0.032429136 0.027492322
        0.022314299 0.01692643 0.01137328 0.005710203 0
      </DataArray>
      <DataArray type="Float32" Name="aspect_ratio" format="ascii" RangeMin="1.0115947723388672" RangeMax="60.38035202026367">
        1.9000336 2.48277 2.379291 2.1161711 2.006648 2.1055453
        2.4587216 3.148263 4.275439 5.9102583 7.9604115 10.056898
        11.947307 13.784493 15.752371 17.925657 20.328548 22.968002
        25.840038 28.928923 32.20501 35.622467 39.11757 42.608173
        45.99497 49.164944 51.997337 54.37181 56.178177 57.326538
        58.14564 1.9848467 2.4763856 2.2939675 2.0995624 2.0734494
        2.2473874 2.6736624 3.4406602 4.6497684 6.3651032 8.49847
        10.7134495 12.758962 14.748087 16.850044 19.14416 21.659616
        24.40408 27.370693 30.538649 33.87199 37.317966 40.805855
        44.247047 47.537 50.55948 53.193214 55.32063 56.83781
        57.66446 58.14165 2.2335064 2.4942973 2.2336948 2.082579
        2.1274238 2.3888452 2.9200013 3.8016682 5.1223683 6.936869
        9.166082 11.512184 13.729271 15.890099 18.146418 20.580986
        23.227652 26.094349 29.170622 32.42964 35.82809 39.305202
        42.782223 46.163185 49.337673 52.185947 54.586403 56.424885
        57.604908 58.057396 58.13766 2.7347488 2.4685018 2.1712554
        2.08101 2.2031155 2.5548315 3.1868815 4.1719704 5.591045
        7.4944777 9.813525 12.28531 14.669232 17.000128 19.410925
        21.986767 24.766142 27.757456 30.946789 34.30134 37.770363
        41.284927 44.75794 48.085617 51.151096 53.830418 56.00085
        57.550858 58.390675 58.461857 58.133667 3.933922 2.381616
        2.142952 2.15704 2.402114 2.8977005 3.6955228 4.8708143
        6.508327 8.659214 11.257433 14.048466 16.77683 19.4437
        22.171412 25.05142 28.127302 31.405453 34.863495 38.455593
        42.11474 45.753395 49.264473 52.523983 55.396164 57.741314
        59.425945 60.33439 60.380352 59.516525 58.12966 4.8389454
        2.2295513 2.0368335 2.0789073 2.3276286 2.7942889 3.5205648
        4.5745 6.033312 7.9462953 10.274171 12.830206 15.396723
        17.94109 20.55382 23.320442 26.288939 29.471918 32.853348
        36.39386 40.032974 43.689457 47.26175 50.630005 53.66053
        56.212948 58.14991 59.34852 59.712093 59.18039 58.12574
        3.1411116 2.0599592 1.8798974 1.8544037 1.9523058 2.1907585
        2.6067383 3.2512896 4.182406 5.4461346 7.0435386 8.886114
        10.832153 12.829784 14.926717 17.19081 19.671741 22.394375
        25.361702 28.558306 31.95135 35.489708 39.102806 42.700512
        46.174957 49.404816 52.26224 54.622128 56.37288 57.42735
        58.12166 2.1257331 1.8930842 1.7697426 1.73007 1.7806033
        1.9436721 2.2505689 2.7425776 3.4679651 4.47065 5.7707553
        7.3272247 9.035104 10.829716 12.734167 14.807897 17.103071
        19.651134 22.463556 25.534784 28.842974 32.34866 35.992897
        39.696228 43.359318 46.86602 50.08911 52.89868 55.172466
        56.80704 58.117447 1.8772657 1.7927111 1.7024134 1.6781694
        1.7446328 1.9228041 2.2386034 2.7259212 3.4261534 4.38224
        5.626124 7.1417365 8.838515 10.63699 12.542756 14.611511
        16.898304 19.437555 22.242517 25.308664 28.614891 32.12238
        35.772762 39.487045 43.166206 46.69418 49.943565 52.783966
        55.09234 56.764194 58.113224 1.837282 1.7272141 1.6404111
        1.6338286 1.7243621 1.9295388 2.2706625 2.7748926 3.4773796
        4.4201775 5.6448126 7.154282 8.868419 10.695176 12.625034
        14.710467 17.00915 19.557867 22.370749 25.443222 28.75373
        32.26289 35.91177 39.620876 43.29082 46.8054 50.037323
        52.85661 55.140938 56.786816 58.109005 1.7351681 1.645158
        1.5726032 1.5844475 1.6967939 1.9248621 2.2858086 2.80117
        3.501375 4.428212 5.631369 7.129738 8.852794 10.699095
        12.645906 14.7422695 17.047968 19.601948 22.419281 25.495535
        28.808971 32.319912 35.969112 39.676792 43.343365 46.852505
        50.076965 52.886963 55.160545 56.79473 58.10479 1.642218
        1.56099 1.5020282 1.5333511 1.6687193 1.9207085 2.3021815
        2.8298118 3.530536 4.4464483 5.6342797 7.125952 8.8590765
        10.724792 12.688908 14.797169 17.111122 19.67159 22.494423
        25.575216 28.891953 32.40457 36.05344 39.75843 43.41969
        46.920776 50.1345 52.931335 55.189796 56.80756 58.10058
        1.5384402 1.4702228 1.4271647 1.4791996 1.6384401 1.9143846
        2.3156233 2.8549454 3.5569186 4.464354 5.640047 7.1266236
        8.868616 10.751453 12.731179 14.850436 17.172186 19.738874
        22.567007 25.65219 28.972124 32.48638 36.13495 39.837353
        43.4935 46.98682 50.190174 52.97428 55.2181 56.819927
        58.09637 1.4284188 1.3739239 1.3485583 1.4232657 1.6079824
        1.9083451 2.3289793 2.8799098 3.58433 4.486084 5.653198
        7.1370244 8.887787 10.786473 12.780917 14.910944 17.24065
        19.81384 22.647547 25.737318 29.060545 32.5764 36.224472
        39.923935 43.574413 47.05922 50.251255 53.0215 55.249374
        56.833824 58.092167 1.310401 1.2719066 1.2668744 1.3669282
        1.5788256 1.9037678 2.3432152 2.9056149 3.6136038 4.5122576
        5.674084 7.157468 8.917156 10.830667 12.839075 14.979742
        17.317652 19.89771 22.737339 25.83196 29.15862 32.676064
        36.323444 40.019558 43.66374 47.139156 50.318764 53.073807
        55.28419 56.84956 58.08797 1.1846685 1.164952 1.1838279
        1.3125073 1.5531199 1.9024572 2.3600602 2.9339278 3.646775
        4.545014 5.7049627 7.190551 8.959915 10.887813 12.90989
        15.061446 17.408144 19.995747 22.84191 25.941854 29.272213
        32.791256 36.43766 40.129784 43.766655 47.231277 50.396652
        53.134308 55.324703 56.86822 58.083782 1.0516243 1.0545623
        1.1021367 1.262922 1.5331922 1.9062802 2.3813248 2.9668348
        3.6860552 4.586759 5.748464 7.2393265 9.019761 10.962247
        12.998219 15.161353 17.517824 20.114 22.967617 26.073587
        29.408058 32.928745 36.57377 40.26101 43.889114 47.340908
        50.48944 53.206577 55.37337 56.89108 58.079594 1.0957929
        1.0598011 1.0257838 1.2216855 1.5216031 1.917342 2.409151
        3.0067503 3.7341979 4.64059 5.8080854 7.307881 9.101561
        11.05962 13.110376 15.286346 17.65408 20.260315 23.122694
        26.235693 29.574863 33.09726 36.740356 40.42145 44.038765
        47.47489 50.60295 53.29518 55.433353 56.919743 58.075417
        1.298361 1.1949723 1.0415459 1.1926397 1.5209054 1.9377633
        2.4457622 3.056223 3.7941465 4.7098694 5.8876743 7.4007063
        9.210615 11.186039 13.253167 15.443831 17.824852 20.443108
        23.31595 26.437279 29.781904 33.30609 36.94653 40.61983
        44.22369 47.640446 50.743286 53.40491 55.50795 56.955894
        58.071247 1.5860023 1.3470911 1.0971667 1.1790378 1.5326321
        1.9685004 2.492043 3.1162348 3.8670154 4.7958264 5.988565
        7.5192814 9.348615 11.343421 13.428699 15.636063 18.03251
        20.664833 23.549906 26.680885 30.031704 33.557693 37.19463
        40.858315 44.44584 47.83925 50.911823 53.536808 55.597847
        56.99987 58.06708 1.9603544 1.487396 1.1305621 1.1800234
        1.5530597 2.0041435 2.5412047 3.1785965 3.9430575 4.8868732
        6.0968866 7.6469517 9.495868 11.509168 13.611764 15.835491
        18.247356 20.893831 23.791185 26.931782 30.288652 33.816177
        37.449215 41.10276 44.67331 48.04262 51.084087 53.671528
        55.689625 57.044777 58.06292 2.215151 1.5556866 1.1408542
        1.1841073 1.56544 2.0233731 2.5671678 3.2120166 3.9851415
        4.9390845 6.1604424 7.7215347 9.579291 11.599745 13.709501
        15.940923 18.360628 21.014526 23.91837 27.064032 30.42404
        33.952267 37.58308 41.231056 44.792385 48.148693 51.173466
        53.74085 55.736115 57.066463 58.058758 2.0165286 1.5046767
        1.1339927 1.1801255 1.5549961 2.00782 2.5475957 3.1897273
        3.9615097 4.914909 6.134682 7.690127 9.536975 11.544664
        13.64376 15.867357 18.281101 20.930107 23.8299 26.97246
        30.330555 33.858353 37.49052 41.141903 44.7089 48.07327
        51.10849 53.68859 55.698547 57.045128 58.054596 1.6432984
        1.3730098 1.1049708 1.1772367 1.5338761 1.9725883 2.5008092
        3.1335912 3.8979902 4.844777 6.05563 7.5955215 9.4191675
        11.401388 13.478404 15.684288 18.083317 20.719627 23.608652
        26.742844 30.095686 33.622143 37.25768 40.917843 44.499584
        47.884953 50.947407 53.56054 55.60852 56.99691 58.050434
        1.3463258 1.2233835 1.0529535 1.1881119 1.5202669 1.9407694
        2.4550622 3.0775516 3.834933 4.7764897 5.9800696 7.5052
        9.304963 11.260212 13.313802 15.501087 17.88482 20.507975
        23.38581 26.511227 29.858438 33.38323 37.021877 40.690674
        44.28714 47.693645 50.783623 53.43026 55.51688 56.947838
        58.046276 1.1367556 1.0880678 1.0115948 1.2144573 1.5190423
        1.9192294 2.4189763 3.0321026 3.7849674 4.725184 5.9261
        7.440636 9.21941 11.149685 13.181743 15.352502 17.723087
        20.335108 23.203484 26.321423 29.663721 33.186844 36.82776
        40.503376 44.11171 47.5354 50.64789 53.322025 55.440464
        56.906548 58.042126 1.0130318 1.0251681 1.0841863 1.2530335
        1.5287861 1.9072006 2.3919563 2.9967136 3.7476616 4.6905704
        5.8935094 7.4014874 9.161902 11.069022 13.081382 15.237688
        17.597286 20.200226 23.060923 26.172737 29.510914 33.032455
        36.674885 40.35561 43.973045 47.41007 50.540123 53.235825
        55.37929 56.87307 58.03798 1.1406312 1.1310878 1.1620084
        1.2997894 1.5467539 1.902376 2.3716145 2.9687457 3.7201135
        4.669474 5.8786736 7.3833194 9.126997 11.011901 13.005704
        15.149039 17.499283 20.094723 22.949112 26.055857 29.390532
        32.910572 36.553944 40.23847 43.862885 47.31027 50.454082
        53.166756 55.329983 56.845684 58.03384 1.2616783 1.2343142
        1.2410548 1.3509128 1.569984 1.9021975 2.3553271 2.945329
        3.6992023 4.6585217 5.877766 7.381439 9.10892 10.971625
        12.947286 15.078504 17.420446 20.009438 22.858446 25.960829
        29.292418 32.811 36.45492 40.142345 43.772293 47.22801
        50.38298 53.109478 55.288853 56.8225 58.029705 1.3776469
        1.3342165 1.3190663 1.4035953 1.596132 1.9047794 2.341323
        2.9246557 3.6831295 4.6559834 5.8889594 7.3934884 9.10458
        10.944535 12.902066 15.021675 17.356045 19.939339 22.783628
        25.882147 29.21093 32.72807 36.37222 40.06186 43.696247
        47.158775 50.322968 53.06095 55.2538 56.80244 58.025578
        1.4851067 1.4293835 1.3942927 1.4549682 1.6218619 1.9066161
        2.3257658 2.9024534 3.6672356 4.6568365 5.9065847 7.4125733
        9.105647 10.921125 12.859592 14.96725 17.29398 19.871605
        22.711218 25.805906 29.131891 32.64756 36.291893 39.983646
        43.622334 47.091484 50.26464 53.013798 55.219727 56.782906
        58.021454 1.6015984 1.5243744 1.4685099 1.506197 1.648831
        1.9106402 2.3130617 2.8847072 3.6593988 4.671229 5.9431114
        7.453064 9.128149 10.91915 12.839328 14.936279 17.256746
        19.83001 22.666054 25.75772 29.081327 32.595467 36.23935
        39.931957 43.572987 47.046097 50.224857 52.981194 55.19568
        56.76849 58.017338 1.6655681 1.6041481 1.5368582 1.5507567
        1.6658305 1.9000709 2.280502 2.8426738 3.6247776 4.657826
        5.9496813 7.4574084 9.105916 10.8647785 12.760552 14.841651
        17.15131 19.7162 22.545326 25.63149 28.95136 32.464
        36.109093 39.806065 43.454933 46.939533 50.133396 52.908176
        55.14391 56.74 58.01322 1.9147099 1.7211148 1.61756
        1.6109704 1.7080886 1.9286339 2.3047848 2.879034 3.6944945
        4.7789545 6.122024 7.654534 9.298993 11.0469475 12.939259
        15.024832 17.342865 19.916752 22.753647 25.84529 29.167566
        32.678856 36.318233 40.004612 43.637684 47.101208 50.26893
        53.013042 55.21447 56.77378 58.009117 2.8179636 1.9228752
        1.7813226 1.7985634 1.949383 2.249845 2.737122 3.4618099
        4.474083 5.798489 7.396615 9.153135 10.978059 12.889717
        14.948326 17.204275 19.690779 22.423544 25.401377 28.60683
        32.005726 35.545795 39.155514 42.744095 46.20349 49.412827
        52.24539 54.57793 56.301296 57.33114 58.004997 4.180856
        2.1522315 2.040393 2.1529286 2.4652057 2.987521 3.7626083
        4.8541408 6.3238506 8.1892605 10.360052 12.637552 14.909212
        17.23547 19.706127 22.374495 25.264624 28.378162 31.696434
        35.181385 38.77555 42.40157 45.962334 49.34289 52.414707
        55.04261 57.094227 58.45116 59.020615 58.74573 58.00078
        3.4213822 2.310936 2.1681762 2.2535923 2.562923 3.1136687
        3.9499476 5.139668 6.7525015 8.803033 11.160608 13.567337
        15.91535 18.307875 20.852442 23.600065 26.568115 29.752222
        33.128567 36.654247 40.26698 43.884697 47.406048 50.71273
        53.674286 56.15552 58.02634 59.17309 59.510113 58.989677
        57.996483 2.4418733 2.3337424 2.1431348 2.127456 2.3187158
        2.739241 3.4327707 4.465366 5.9079776 7.7759714 9.923283
        12.074312 14.146074 16.272245 18.564764 21.069326 23.800537
        26.756638 29.921099 33.26172 36.729343 40.25677 43.758488
        47.131996 50.26131 53.022884 55.293865 56.962097 57.936718
        58.15795 57.992207 2.0161686 2.3197343 2.1737595 2.1017063
        2.2151635 2.549485 3.1556008 4.1070695 5.4831758 7.3010364
        9.385071 11.418796 13.341298 15.325715 17.492537 19.882603
        22.50647 25.362133 28.435955 31.70058 35.11285 38.612152
        42.1197 45.5393 48.760185 51.662216 54.12344 56.029533
        57.28413 57.818653 57.98792 1.7968148 2.2665095 2.1991317
        2.0898464 2.1317978 2.3793237 2.8905876 3.7503538 5.051721
        6.8168807 8.837363 10.750781 12.522804 14.367226 16.410904
        18.689148 21.208672 23.967455 26.954824 30.148228 33.510353
        36.986942 40.50559 43.97596 47.291973 50.336304 52.987293
        55.127888 56.655754 57.493267 57.983624 1.7140831 2.2339377
        2.239185 2.0726447 2.0384667 2.2173467 2.6644197 3.4616613
        4.7073174 6.429585 8.393258 10.194832 11.829462 13.549366
        15.485341 17.666536 20.095697 22.770498 25.682701 28.813862
        32.131718 35.587532 39.11448 42.62736 46.024254 49.190388
        52.004467 54.347176 56.111088 57.210773 57.97932
      </DataArray>
      <DataArray type="Float32" Name="jacobian" format="ascii" RangeMin="-1.3858683814760298e-05" RangeMax="0.009218371473252773">
        1.2510467e-05 9.501157e-06 2.0585789e-05 5.5622975e-05 0.00012402059 0.00023432188
        0.00038673216 0.00056683976 0.00075197674 0.00092887133 0.0011029873 0.00129431
        0.0015205627 0.0017858486 0.0020907503 0.002437311 0.0028276918 0.0032630009
        0.0037426795 0.0042639966 0.0048215473 0.00540681 0.006007853 0.0066092946
        0.007192627 0.007736969 0.008220277 0.008620959 0.008919725 0.009101456
        0.0092183715 1.3265139e-05 1.271582e-05 3.2732427e-05 7.7625285e-05 0.0001496409
        0.00024955763 0.0003755025 0.0005211203 0.000676441 0.00083491957 0.001000495
        0.0011869661 0.0014062593 0.0016606867 0.0019512813 0.0022811692 0.0026536477
        0.003070846 0.0035331738 0.004038922 0.0045838244 0.0051606023 0.0057586115
        0.0063637015 0.006958409 0.0075225676 0.008034384 0.008471941 0.008814997
        0.009046878 0.009217739 1.3102869e-05 1.6151216e-05 4.54586e-05 9.848107e-05
        0.00017089026 0.00025921792 0.00036213163 0.0004791994 0.0006086553 0.00074908056
        0.00090406655 0.0010828348 0.001292621 0.0015342768 0.0018091154 0.0021210448
        0.002474267 0.0028718042 0.003314985 0.0038031342 0.0043331794 0.004899194
        0.0054919817 0.006098842 0.006703624 0.007287185 0.007828303 0.0083050355
        0.008696439 0.008984424 0.009217106 1.1616594e-05 2.207989e-05 6.148231e-05
        0.0001187014 0.00018551045 0.00025950934 0.00034329243 0.00044057428 0.0005527175
        0.0006800849 0.0008260645 0.00099734 0.0011981366 0.0014281956 0.0016889028
        0.0019846647 0.0023203322 0.0026996052 0.0031245484 0.0035953543 0.0041100043
        0.0046638176 0.005249006 0.0058543626 0.006465209 0.0070637083 0.0076296194
        0.008141497 0.008578276 0.008921063 0.0092164725 7.1478903e-06 3.113816e-05
        7.8086e-05 0.00013083483 0.00018329905 0.00023808688 0.00030136274 0.0003779923
        0.0004699325 0.0005782871 0.00070633314 0.0008590704 0.00103866 0.0012441132
        0.0014767933 0.0017413085 0.0020429215 0.0023859672 0.0027734283 0.00320679
        0.0036857831 0.004207989 0.0047684093 0.005359121 0.005969129 0.006584521
        0.007189013 0.007764918 0.0082945265 0.008761804 0.009215836 5.7856e-09
        4.7015074e-05 0.00010011879 0.00015214946 0.00020289955 0.0002583185 0.00032507954
        0.00040724105 0.00050633267 0.0006237369 0.0007632135 0.000929565 0.0011238725
        0.0013441173 0.0015912137 0.001869857 0.00218546 0.0025422617 0.0029428673
        0.0033881597 0.0038771003 0.004406374 0.004970003 0.005559057 0.0061615813
        0.0067628436 0.0073459717 0.007893008 0.008386347 0.008810446 0.009215209
        -1.0642947e-05 7.005205e-05 0.00012768514 0.00018731384 0.00025450406 0.00033710912
        0.00044062638 0.00056684646 0.00071522687 0.0008863849 0.0010849892 0.0013164646
        0.001579961 0.0018702508 0.0021867554 0.0025345497 0.002919384 0.0033447212
        0.003811207 0.0043168035 0.00485677 0.0054234383 0.006005974 0.006590305
        0.0071593514 0.0076936437 0.008172365 0.008574771 0.008881867 0.009078128
        0.00921456 -1.3858684e-05 9.30398e-05 0.0001558059 0.00022033148 0.0002968774
        0.00039408152 0.0005169235 0.0006667064 0.0008429072 0.0010467592 0.0012838766
        0.0015592407 0.001868447 0.002201838 0.0025569696 0.0029395425 0.0033561874
        0.0038103291 0.0043016807 0.00482672 0.0053789364 0.0059487894 0.006523622
        0.007087758 0.007622923 0.008109062 0.008525555 0.008852764 0.009073746
        0.009175907 0.009213894 1.4728171e-05 0.00012156412 0.00018386837 0.00024729565
        0.00032218688 0.00041561373 0.0005319833 0.0006739923 0.0008437714 0.0010449986
        0.0012846857 0.0015676292 0.0018868172 0.0022291127 0.0025903794 0.0029766916
        0.0033956398 0.0038512764 0.0043435385 0.004868912 0.005420819 0.0059896386
        0.006562644 0.007124118 0.007655779 0.008137607 0.008549065 0.0088706445
        0.009085577 0.009181475 0.009213225 5.39506e-05 0.0001535692 0.00021134227
        0.00027112203 0.00034135877 0.00042768073 0.0005344086 0.0006654819 0.00082502636
        0.0010186527 0.001254704 0.0015382554 0.0018606418 0.0022059982 0.0025685974
        0.002954639 0.003372489 0.00382681 0.004317872 0.004842337 0.005393746
        0.0059625753 0.006536186 0.0070989234 0.00763254 0.008117009 0.008531737
        0.008857112 0.009076214 0.009176468 0.009212557 9.108944e-05 0.00018367356
        0.00023672484 0.00029218785 0.0003574617 0.0004375826 0.00053699437 0.0006603048
        0.0008127335 0.0010011847 0.0012351528 0.0015201458 0.0018462482 0.002195221
        0.0025598344 0.002946345 0.003363806 0.003817425 0.00430775 0.0048315707
        0.0053825015 0.0059510786 0.006524712 0.00708779 0.00762209 0.0081075905
        0.008523678 0.008850691 0.009071635 0.00917384 0.00921189 0.00012778866
        0.0002124201 0.00025959473 0.00030985265 0.00036980808 0.00044410792 0.00053716946
        0.00065389724 0.00080018124 0.0009838754 0.0012154572 0.0015009472 0.0018295756
        0.002181159 0.0025471116 0.0029336652 0.003350453 0.0038031654 0.0042926106
        0.00481571 0.005366162 0.0059345723 0.0065084137 0.0070721232 0.0076075075
        0.008094547 0.008512601 0.008841942 0.00906548 0.009170422 0.009211224
        0.00016317311 0.0002388914 0.00027948208 0.0003242631 0.0003792421 0.00044859012
        0.0005364721 0.00064787024 0.0007891156 0.00096878386 0.0011981808 0.0014838394
        0.0018143957 0.002168068 0.0025350663 0.002921556 0.003337657 0.0037894826
        0.004278072 0.0048004678 0.0053504473 0.0059186835 0.00649271 0.007057011
        0.007593424 0.0080819335 0.00850187 0.008833449 0.00905949 0.009167084
        0.009210558 0.00019675562 0.00026255896 0.00029609355 0.000335521 0.0003861085
        0.00045130073 0.0005348761 0.0006418251 0.00077879726 0.0009549195 0.0011821755
        0.0014675722 0.0017993535 0.0021544648 0.002522085 0.0029082845 0.003323583
        0.0037744555 0.0042621484 0.0047838166 0.00533332 0.0059014005 0.0064756554
        0.00704062 0.007578163 0.008068274 0.008490257 0.008824266 0.009053024
        0.009163502 0.009209892 0.00022810375 0.0002829108 0.00030932185 0.00034391962
        0.00039085082 0.00045260665 0.0005325781 0.000635774 0.0007690857 0.0009420557
        0.0011672062 0.0014519538 0.0017842997 0.0021402112 0.0025080182 0.0028936847
        0.0033080487 0.0037578875 0.004244629 0.004765536 0.0053145504 0.0058824895
        0.0064570173 0.007022723 0.007561511 0.008053376 0.008477596 0.008814259
        0.009045989 0.009159629 0.009209228 0.00025673053 0.00029954765 0.00031918014
        0.00034972504 0.00039371743 0.0004526103 0.0005295119 0.0006294822 0.0007595929
        0.0009296881 0.0011526981 0.0014363714 0.0017685826 0.002124599 0.0024920923
        0.0028769209 0.0032901622 0.0037388375 0.0042245323 0.0047446154 0.0052931155
        0.0058609312 0.0064358003 0.007002374 0.0075425943 0.008036464 0.008463234
        0.00880292 0.009038039 0.009155291 0.009208564 0.00028211478 0.00031217115
        0.0003257512 0.00035314044 0.0003948135 0.00045128027 0.000525518 0.00062266114
        0.0007499054 0.0009172977 0.0011380549 0.0014201727 0.0017514945 0.0021068528
        0.0024734584 0.0028570732 0.0032689397 0.0037162649 0.004200771 0.0047199326
        0.0052678734 0.005835585 0.0064108893 0.006978508 0.0075204275 0.008016663
        0.008446429 0.008789669 0.009028774 0.009150283 0.0092079 0.0003036172
        0.00032054522 0.0003291079 0.0003542442 0.000394083 0.00044844477 0.0005203228
        0.00061492843 0.0007395266 0.00090427883 0.0011225744 0.0014025703 0.0017321619
        0.0020860073 0.0024510582 0.0028329962 0.003243154 0.0036888698 0.004171984
        0.0046900804 0.0052373917 0.005805017 0.006380879 0.006949781 0.0074937646
        0.007992858 0.0084262425 0.00877377 0.009017689 0.009144351 0.0092072375
        0.00032039208 0.00032444848 0.0003293051 0.00035302297 0.00039137766 0.00044387096
        0.00051361974 0.00060589117 0.000727966 0.0008900413 0.0011055708 0.0013827884
        0.001709722 0.00206111 0.002423849 0.002803558 0.0032115905 0.0036553612
        0.0041368143 0.0046536513 0.0052002314 0.005767782 0.0063443473 0.00691483
        0.007461338 0.007963918 0.0084017115 0.008754467 0.009004263 0.009137226
        0.009206576 0.00033130863 0.00032381114 0.00032661346 0.0003496043 0.0003867169
        0.00043754908 0.00050537987 0.00059549185 0.00071513286 0.00087446644 0.0010869144
        0.0013607106 0.001684085 0.0020320925 0.0023917684 0.0027686902 0.0031741667
        0.0036156406 0.0040951455 0.0046105115 0.0051562428 0.005723717 0.0063011204
        0.006873475 0.0074229673 0.007929671 0.008372683 0.0087316325 0.008988404
        0.009128861 0.009205916 0.00033556003 0.0003198355 0.00032245324 0.00034515423
        0.00038127738 0.000430781 0.0004970593 0.00058536814 0.00070289365 0.0008597244
        0.0010691854 0.0013394428 0.0016589455 0.0020032092 0.002359552 0.0027335377
        0.0031363845 0.0035755194 0.0040530455 0.004566913 0.005111773 0.0056791543
        0.0062573864 0.0068316134 0.0073841056 0.007894963 0.008343244 0.008708458
        0.008972297 0.009120364 0.009205257 0.00033574319 0.0003174096 0.00032067968
        0.00034331804 0.00037901677 0.0004279629 0.00049357483 0.000581081 0.0006976308
        0.0008532617 0.0010612123 0.0013295232 0.0016467146 0.0019886596 0.0023429743
        0.0027152542 0.0031166296 0.0035544748 0.004030908 0.0045439373 0.005088289
        0.005655573 0.006234198 0.006809373 0.007363413 0.007876434 0.008327471
        0.008695972 0.008963524 0.009115588 0.009204597 0.00033696645 0.000321165
        0.0003241061 0.00034695206 0.00038315236 0.00043269887 0.00049896876 0.00058721
        0.00070460374 0.00086121046 0.0010702483 0.001339573 0.0016574959 0.001999959
        0.002354807 0.002727726 0.0031297912 0.003568291 0.0040452736 0.004558692
        0.0051032244 0.0056704334 0.006248682 0.00682314 0.0073760957 0.007887652
        0.008336854 0.0087031815 0.008968279 0.009117688 0.009203937 0.00033499824
        0.0003272689 0.00033051116 0.00035383145 0.00039118822 0.00044220212 0.0005101214
        0.0006002174 0.0007197318 0.00087877875 0.0010905701 0.0013627075 0.001683126
        0.0020277256 0.0023846014 0.002759576 0.0031636667 0.0036040326 0.0040825894
        0.0045971633 0.0051423023 0.0057094414 0.006286821 0.0068595083 0.007409718
        0.007917525 0.0083620045 0.008722729 0.008981503 0.009124089 0.0092032775
        0.000326432 0.00033021034 0.00033575098 0.00036004 0.00039888336 0.00045178115
        0.00052180036 0.0006141885 0.0007362147 0.00089800556 0.0011127027 0.0013875851
        0.0017102351 0.0020566678 0.0024153774 0.0027923433 0.0031984698 0.0036407374
        0.004120905 0.004636659 0.0051824134 0.005749471 0.006325947 0.0068968036
        0.007444182 0.007948131 0.008387757 0.008742733 0.008995029 0.009130637
        0.009202618 0.0003118237 0.00032829682 0.00033798697 0.00036406517 0.00040472875
        0.00045979625 0.00053219247 0.0006270897 0.00075172336 0.00091615884 0.0011333739
        0.0014102665 0.0017341712 0.0020814745 0.0024412558 0.002819654 0.0032273869
        0.0036712056 0.0041526984 0.0046694223 0.005215677 0.0057826545 0.0063583665
        0.0069276877 0.0074726995 0.007973431 0.008409015 0.00875921 0.009006127
        0.0091359485 0.00920196 0.00029235255 0.00032147148 0.00033672174 0.00036561087
        0.00040858955 0.0004661735 0.0005412594 0.00063891156 0.0007662613 0.00093322794
        0.0011525291 0.0014306367 0.0017547698 0.0021019569 0.00246204 0.00284131
        0.0032502206 0.0036952414 0.004177779 0.004695271 0.0052419216 0.005808834
        0.0063839373 0.0069520376 0.0074951686 0.007993343 0.008425718 0.00877212
        0.009014772 0.009140012 0.009201302 0.00026892743 0.0003099576 0.0003317569
        0.00036455665 0.00041054885 0.00047114026 0.0005493431 0.0006501015 0.0007803681
        0.00094982516 0.00117084 0.0014494339 0.0017728606 0.0021190553 0.002478782
        0.0028584644 0.003268213 0.003714167 0.004197536 0.004715647 0.0052626217
        0.0058294907 0.006404117 0.0069712517 0.0075128903 0.008009032 0.008438855
        0.00878224 0.009021501 0.009143102 0.009200646 0.000242242 0.0002940546
        0.0003229356 0.00036069425 0.00041060234 0.00047490068 0.0005568222 0.0006611887
        0.0007946944 0.0009666903 0.0011891155 0.0014675434 0.0017894345 0.0021338884
        0.002492726 0.0028724729 0.0032828187 0.0037295225 0.0042135823 0.0047322144
        0.0052794693 0.0058463165 0.006420563 0.006986913 0.00752733 0.0080218045
        0.008449529 0.008790432 0.009026906 0.009145519 0.009199989 0.00021269145
        0.0002741306 0.0003101078 0.00035361166 0.0004084455 0.00047738024 0.0005638404
        0.0006724915 0.00080967415 0.0009843099 0.0012078498 0.001485464 0.0018050253
        0.0021470566 0.0025045471 0.0028840778 0.0032948374 0.0037421577 0.004226809
        0.0047458983 0.0052934093 0.005860258 0.006434204 0.006999911 0.007539315
        0.008032398 0.008458367 0.008797189 0.009031327 0.009147435 0.009199334
        0.00018086488 0.00025070301 0.0002933463 0.0003430037 0.00040381847 0.00047865693
        0.0005708733 0.0006848257 0.0008263679 0.001003902 0.0012283727 0.0015046446
        0.0018212401 0.0021603492 0.00251621 0.0028953976 0.0033065206 0.003754437
        0.0042396695 0.0047592097 0.005306975 0.0058738277 0.00644748 0.007012557
        0.0075509683 0.008042688 0.0084669385 0.008803731 0.009035592 0.009149269
        0.00919868 0.00014652069 0.00022443195 0.00027274017 0.0003281032 0.0003953753
        0.00047723416 0.0005764889 0.000696797 0.00084326335 0.0010236568 0.0012484323
        0.0015223349 0.0018348739 0.0021701967 0.0025238506 0.0029023136 0.0033135265
        0.0037618298 0.004247491 0.0047673914 0.0053153946 0.005882323 0.006455853
        0.007020579 0.0075583914 0.008049254 0.008472399 0.008807862 0.009038219
        0.00915028 0.009198026 0.00011079452 0.00019548075 0.00024899165 0.00030970757
        0.00038424812 0.00047539736 0.0005847536 0.00071431865 0.0008678615 0.0010524526
        0.0012782762 0.0015502598 0.0018591685 0.0021912563 0.0025433735 0.0029218204
        0.0033337963 0.0037830716 0.004269613 0.00479015 0.0053384486 0.0059052506
        0.0064781634 0.0070417253 0.0075777937 0.008066331 0.008486605 0.00881873
        0.009045395 0.009153561 0.009197373 7.511256e-05 0.000167171 0.0002225304
        0.00028516285 0.00036353854 0.0004611464 0.00057834375 0.00071479473 0.0008722752
        0.0010568593 0.0012784401 0.0015425554 0.0018420673 0.0021659392 0.0025123465
        0.0028871961 0.003296822 0.0037444443 0.004229841 0.0047497516 0.0052980226
        0.0058654905 0.0064398474 0.007005692 0.007544906 0.008037432 0.008462465
        0.008799992 0.009032523 0.009146803 0.009196721 4.5203407e-05 0.00013593909
        0.00018941228 0.0002443899 0.0003104434 0.00039268212 0.0004924639 0.0006096155
        0.00074517546 0.00090366014 0.0010931968 0.0013195464 0.001579197 0.0018653722
        0.0021778385 0.0025219114 0.0029032056 0.0033250353 0.0037880372 0.004290285
        0.004827217 0.0053913724 0.005972121 0.0065555666 0.0071247444 0.0076602143
        0.008141079 0.008546397 0.008856867 0.009056578 0.009196067 2.7113645e-05
        9.953108e-05 0.00015247108 0.00019658198 0.0002417983 0.00029575656 0.00036259208
        0.00044420705 0.00054211926 0.0006593285 0.00080133084 0.00097296387 0.0011734811
        0.0013998972 0.0016534184 0.0019389942 0.002261997 0.0026264866 0.003034836
        0.0034876503 0.0039835423 0.0045187534 0.005086747 0.005677907 0.006279452
        0.0068756775 0.0074485843 0.007978922 0.008447584 0.008837227 0.0091953995
        3.034798e-05 7.485238e-05 0.00012857789 0.00017732677 0.00022451603 0.0002775753
        0.00034195502 0.00042017573 0.0005134243 0.0006239751 0.00075698 0.0009178128
        0.0011066227 0.0013213335 0.0015636075 0.0018383085 0.0021506392 0.0025046947
        0.002903119 0.003346968 0.0038354357 0.0043654433 0.004931198 0.0055238474
        0.006131338 0.006738584 0.0073280185 0.007880566 0.008376982 0.008799447
        0.009194722 3.775147e-05 6.189549e-05 0.00011385709 0.00017478305 0.00023934228
        0.0003104519 0.00039275773 0.0004885715 0.0005982378 0.0007235375 0.00087079976
        0.0010477325 0.0012554063 0.0014916342 0.0017580728 0.0020594308 0.0024004893
        0.0027847055 0.003213854 0.0036878244 0.004204283 0.004758228 0.0053415494
        0.0059427344 0.0065468275 0.007135761 0.0076891156 0.008185329 0.00860327
        0.0089240065 0.009194045 4.088141e-05 5.2799533e-05 9.525916e-05 0.00015816321
        0.0002344454 0.00032233426 0.0004227505 0.0005353058 0.00065802166 0.00079174107
        0.00094455446 0.0011275138 0.0013431659 0.0015893782 0.0018677344 0.0021825815
        0.002538138 0.00293726 0.0033810865 0.0038687785 0.004397136 0.004960145
        0.0055485656 0.0061496967 0.006747425 0.0073226728 0.007854288 0.008320387
        0.008700034 0.008975071 0.009193366 4.3130745e-05 4.7525173e-05 7.890989e-05
        0.00013752797 0.00022082147 0.00032668468 0.0004519155 0.0005895076 0.00073101866
        0.00087501545 0.0010329768 0.0012214822 0.0014452147 0.0017019487 0.0019930194
        0.0023222202 0.0026930266 0.0031075475 0.0035661734 0.0040672454 0.004606629
        0.0051772594 0.0057687755 0.0063673556 0.0069558714 0.0075144568 0.008021528
        0.008455239 0.00879524 0.009024538 0.009192685 4.4400305e-05 4.3086704e-05
        6.281719e-05 0.000114033806 0.00020139666 0.0003263266 0.00048156336 0.0006495278
        0.0008119806 0.00096515927 0.001125632 0.0013169888 0.0015465973 0.0018121669
        0.0021146075 0.002456928 0.0028416933 0.003270186 0.0037420304 0.0042547747
        0.0048034117 0.0053799246 0.005972964 0.006567757 0.007146361 0.0076883393
        0.008171896 0.00857542 0.008879294 0.009067754 0.009192003
      </DataArray>
    </PointData>
    <CellData>
    </CellData>
    <Points>
      <DataArray type="Float32" Name="Points" NumberOfComponents="3" format="ascii" RangeMin="1.0967509853170618" RangeMax="1.2618578230437132">
        0.8306942 0.03007509 0.7154756 0.83122116 0.030075142 0.7154769
        0.831841 0.030075202 0.7154783 0.8325697 0.03007527 0.71547997
        0.83342594 0.03007535 0.7154819 0.8344313 0.03007544 0.71548396
        0.83561087 0.03007554 0.71548635 0.8369935 0.030075653 0.71548903
        0.8386125 0.030075777 0.715492 0.8405057 0.030075913 0.7154952
        0.8427164 0.030076059 0.71549875 0.8452933 0.030076217 0.7155025
        0.848291 0.030076386 0.7155065 0.85177 0.030076575 0.71551096
        0.8557966 0.030076792 0.71551615 0.86044216 0.030077064 0.71552265
        0.86578256 0.030077415 0.71553093 0.87189585 0.03007786 0.71554154
        0.87886053 0.030078417 0.7155548 0.886752 0.030079106 0.7155712
        0.89563847 0.030079948 0.7155912 0.905576 0.030080957 0.7156152
        0.91660273 0.030082148 0.7156435 0.92873305 0.030083526 0.71567637
        0.94195133 0.03008509 0.71571356 0.9562072 0.030086827 0.71575487
        0.9714117 0.03008871 0.7157997 0.98743653 0.030090699 0.715847
        1.0041158 0.03009274 0.71589553 1.0212518 0.030094769 0.7159438
        1.0386229 0.030096715 0.7159901 0.8308741 0.030085526 0.7154756
        0.83139783 0.030083863 0.71547693 0.832066 0.030093743 0.71547806
        0.8328596 0.030114016 0.715479 0.83376837 0.030142227 0.7154798
        0.8347949 0.030175205 0.71548057 0.8359564 0.030208185 0.71548146
        0.8372888 0.030235548 0.7154829 0.83884174 0.030253515 0.7154849
        0.84066796 0.030262409 0.71548766 0.8428197 0.030265693 0.7154909
        0.84535193 0.03026749 0.7154945 0.84832203 0.030269954 0.7154984
        0.8517874 0.030272901 0.7155027 0.85580856 0.0302759 0.7155078
        0.8604525 0.030278858 0.7155141 0.86579245 0.030281782 0.71552235
        0.8719057 0.030284682 0.71553284 0.87887025 0.030287573 0.715546
        0.8867615 0.03029046 0.71556234 0.8956476 0.030293355 0.71558225
        0.90558463 0.030296264 0.7156062 0.9166108 0.030299202 0.7156344
        0.9287404 0.030302167 0.7156671 0.9419579 0.030305158 0.7157043
        0.9562128 0.030308157 0.71574557 0.9714163 0.030311149 0.71579033
        0.98744 0.030314092 0.7158376 1.0041182 0.030316932 0.7158861
        1.021253 0.030319622 0.71593434 1.0386229 0.030322094 0.71598065
        0.83103496 0.030094568 0.7154756 0.8315816 0.030095847 0.7154769
        0.8323166 0.030123256 0.7154774 0.8331706 0.03017026 0.71547735
        0.83410925 0.030229012 0.7154769 0.83512914 0.030291272 0.71547633
        0.83625525 0.03034828 0.71547616 0.8375367 0.030392647 0.7154767
        0.839034 0.03042102 0.7154781 0.84080625 0.030435305 0.7154805
        0.84290975 0.030441087 0.7154836 0.8454043 0.030444747 0.71548706
        0.84835035 0.03044966 0.7154908 0.8518035 0.030455478 0.715495
        0.8558197 0.030461438 0.71549994 0.86046207 0.030467343 0.7155062
        0.86580175 0.030473182 0.71551424 0.8719149 0.030478965 0.7155246
        0.8788794 0.030484691 0.71553767 0.8867705 0.030490361 0.7155539
        0.8956563 0.03049598 0.71557367 0.90559286 0.030501552 0.71559745
        0.91661847 0.030507073 0.71562564 0.9287474 0.030512543 0.71565825
        0.94196415 0.030517954 0.71569526 0.95621824 0.030523285 0.71573645
        0.97142076 0.030528516 0.7157811 0.98744345 0.030533599 0.71582824
        1.0041206 0.030538496 0.7158767 1.0212542 0.03054314 0.71592486
        1.0386229 0.030547468 0.715971 0.8311776 0.03010235 0.7154757
        0.8317821 0.030113988 0.7154766 0.832595 0.030167377 0.7154762
        0.8334928 0.0302452 0.71547484 0.8344335 0.030332338 0.7154731
        0.83542496 0.030416522 0.7154716 0.83650815 0.030488316 0.7154707
        0.83774346 0.03054197 0.71547073 0.8391953 0.030576069 0.71547186
        0.840924 0.030593833 0.71547395 0.8429881 0.030601848 0.7154769
        0.84545076 0.03060758 0.71548015 0.84837586 0.030615052 0.7154838
        0.8518182 0.030623788 0.71548784 0.85583 0.0306328 0.7154926
        0.86047107 0.030641817 0.71549875 0.8658104 0.030650815 0.7155067
        0.8719235 0.030659799 0.7155169 0.878888 0.030668765 0.7155298
        0.8867789 0.030677719 0.71554583 0.89566445 0.030686652 0.7155655
        0.90560067 0.030695572 0.7155892 0.9166258 0.030704472 0.7156172
        0.92875415 0.030713348 0.71564966 0.9419702 0.030722193 0.71568656
        0.9562235 0.030730981 0.71572757 0.9714251 0.030739695 0.7157721
        0.98744684 0.03074829 0.71581906 1.0041229 0.030756718 0.7158674
        1.0212554 0.030764922 0.7159153 1.0386229 0.03077284 0.7159614
        0.831309 0.030109331 0.7154757 0.8320102 0.030142114 0.7154759
        0.8328997 0.030229358 0.7154742 0.83381426 0.030338282 0.71547157
        0.83473206 0.030448213 0.7154688 0.83568394 0.030546604 0.71546656
        0.83672535 0.030626597 0.7154652 0.8379212 0.030685224 0.7154649
        0.83933556 0.030722728 0.7154658 0.84102803 0.030743057 0.71546775
        0.8430584 0.03075321 0.7154705 0.84549326 0.030761119 0.71547365
        0.84839964 0.030771166 0.7154771 0.8518321 0.030782789 0.71548104
        0.85583985 0.030794857 0.7154857 0.8604796 0.030807026 0.71549165
        0.8658187 0.030819273 0.71549946 0.8719318 0.03083159 0.71550953
        0.8788962 0.030843992 0.7155223 0.88678694 0.030856473 0.7155382
        0.89567226 0.030869037 0.7155577 0.9056082 0.03088169 0.7155812
        0.9166329 0.030894428 0.7156091 0.9287607 0.03090726 0.7156413
        0.94197613 0.030920174 0.71567804 0.9562286 0.030933162 0.71571887
        0.9714294 0.030946206 0.71576315 0.9874502 0.03095927 0.71581
        1.0041251 0.030972326 0.7158581 1.0212564 0.03098532 0.71590585
        1.0386229 0.030998211 0.7159517 0.83140874 0.03011452 0.7154757
        0.8322794 0.030184947 0.7154747 0.8332142 0.030308627 0.71547157
        0.8341041 0.03044015 0.7154679 0.8349748 0.030560093 0.7154646
        0.83588135 0.030661356 0.7154621 0.8368858 0.030741762 0.71546054
        0.83805126 0.030800628 0.7154602 0.83943826 0.030838922 0.71546096
        0.84110487 0.030860605 0.7154628 0.84311104 0.030872513 0.7154654
        0.84552544 0.030882528 0.71546847 0.8484178 0.030895052 0.7154718
        0.8518428 0.030909458 0.71547556 0.8558475 0.03092453 0.7154801
        0.86048627 0.030939901 0.7154859 0.86582524 0.03095554 0.71549356
        0.87193835 0.030971467 0.7155035 0.8789028 0.030987699 0.7155161
        0.88679355 0.031004272 0.7155318 0.8956787 0.031021217 0.71555114
        0.90561444 0.031038571 0.71557444 0.91663885 0.031056378 0.71560204
        0.92876625 0.031074693 0.7156341 0.9419812 0.03109357 0.7156706
        0.95623314 0.031113077 0.7157111 0.9714332 0.031133287 0.71575505
        0.9874532 0.031154294 0.71580154 1.0041273 0.03117622 0.7158492
        1.0212576 0.031199232 0.71589655 1.0386229 0.031223578 0.7159419
        0.831569 0.030122912 0.7154757 0.8326112 0.030251203 0.7154727
        0.83355236 0.030414354 0.7154678 0.83441204 0.03057125 0.7154629
        0.8352476 0.030707357 0.71545887 0.83612114 0.030819021 0.7154558
        0.83709455 0.03090615 0.71545386 0.8382286 0.030969413 0.7154532
        0.83958256 0.03101077 0.71545374 0.8412149 0.03103481 0.7154554
        0.84318745 0.031048715 0.7154579 0.84557307 0.031060627 0.71546084
        0.84844536 0.031075202 0.71546406 0.85185945 0.031091886 0.7154677
        0.8558595 0.03110935 0.7154721 0.8604967 0.031127162 0.7154778
        0.86583513 0.031145269 0.7154854 0.8719481 0.031163683 0.71549517
        0.8789123 0.031182416 0.7155076 0.8868028 0.031201508 0.7155233
        0.8956876 0.03122098 0.7155425 0.9056228 0.03124087 0.7155656
        0.91664666 0.031261224 0.71559316 0.9287734 0.0312821 0.7156251
        0.9419875 0.03130354 0.7156614 0.9562386 0.03132562 0.7157018
        0.97143775 0.031348407 0.7157457 0.9874567 0.031371996 0.71579206
        1.0041296 0.031396493 0.7158396 1.0212588 0.031422064 0.71588683
        1.0386229 0.031448938 0.715932 0.8319313 0.030159216 0.715475
        0.8329904 0.030349743 0.71546936 0.8339021 0.030551976 0.7154627
        0.834733 0.030737562 0.7154565 0.8355461 0.030897226 0.71545124
        0.8364001 0.031028913 0.71544725 0.8373516 0.031132072 0.71544456
        0.8384571 0.03120679 0.7154433 0.8397747 0.031255323 0.7154435
        0.8413647 0.03128327 0.71544486 0.84329355 0.031298775 0.7154472
        0.84564054 0.03131073 0.71545005 0.8484854 0.031324636 0.7154532
        0.8518843 0.03134048 0.7154569 0.8558776 0.031357065 0.7154613
        0.86051214 0.031373944 0.71546704 0.86584944 0.03139105 0.7154746
        0.8719616 0.0314084 0.7154845 0.87892514 0.031426005 0.715497
        0.88681483 0.031443898 0.7155127 0.89569885 0.031462107 0.71553195
        0.9056332 0.031480677 0.7155552 0.91665614 0.031499658 0.7155827
        0.92878187 0.031519093 0.7156147 0.9419949 0.031539038 0.7156511
        0.9562448 0.03155957 0.71569157 0.9714428 0.03158076 0.7157355
        0.9874605 0.031602688 0.7157819 1.0041322 0.031625476 0.71582955
        1.0212601 0.031649277 0.7158768 1.0386229 0.0316743 0.71592206
        0.8323699 0.030243035 0.71547246 0.83337265 0.030483576 0.7154645
        0.83424395 0.03072096 0.7154562 0.83504397 0.03093286 0.7154487
        0.83583295 0.031113796 0.7154424 0.8366657 0.031262603 0.71543753
        0.83759445 0.031378537 0.71543425 0.8386727 0.031461902 0.7154325
        0.83995706 0.031515725 0.71543235 0.84150857 0.031546466 0.71543354
        0.8433972 0.03156286 0.71543574 0.8457078 0.03157421 0.7154385
        0.84852624 0.03158667 0.71544176 0.8519102 0.03160082 0.71544546
        0.85589665 0.03161566 0.7154499 0.86052835 0.03163075 0.7154558
        0.8658644 0.031646017 0.71546346 0.8719757 0.031661484 0.71547335
        0.87893844 0.031677164 0.71548593 0.88682735 0.031693093 0.71550167
        0.89571047 0.031709306 0.71552104 0.9056439 0.031725835 0.71554434
        0.9166658 0.031742744 0.715572 0.92879045 0.031760074 0.71560407
        0.9420024 0.03177789 0.71564054 0.9562512 0.031796254 0.71568114
        0.9714479 0.031815246 0.7157251 0.9874643 0.031834953 0.7157717
        1.0041348 0.03185548 0.71581936 1.0212613 0.03187698 0.7158667
        1.0386229 0.031899657 0.7159121 0.83278245 0.030363856 0.7154683
        0.8337409 0.030651927 0.7154581 0.83457005 0.030919416 0.7154483
        0.83533543 0.031152276 0.7154398 0.83609587 0.031348318 0.7154327
        0.83690333 0.031507507 0.7154273 0.8378079 0.031630043 0.7154235
        0.8388606 0.0317174 0.71542156 0.84011614 0.031773638 0.7154212
        0.8416352 0.03180575 0.7154223 0.8434898 0.031822555 0.7154243
        0.84576905 0.03183331 0.7154271 0.8485642 0.031844515 0.7154304
        0.8519348 0.031857207 0.71543413 0.855915 0.03187054 0.71543866
        0.8605442 0.031884085 0.7154445 0.865879 0.031897765 0.71545225
        0.87198955 0.0319116 0.7154623 0.87895155 0.031925607 0.7154749
        0.8868396 0.031939816 0.71549076 0.895722 0.03195427 0.7155102
        0.90565443 0.03196901 0.71553355 0.9166754 0.031984083 0.7155613
        0.928799 0.03199955 0.71559346 0.9420098 0.03201546 0.71563
        0.9562574 0.032031894 0.71567065 0.97145295 0.032048915 0.71571475
        0.9874681 0.032066613 0.7157613 1.0041373 0.032085087 0.7158091
        1.0212626 0.032104492 0.71585655 1.0386229 0.03212501 0.715902
        0.8331921 0.030527815 0.7154622 0.8340956 0.030854968 0.7154501
        0.83487844 0.031146413 0.7154391 0.8356062 0.03139435 0.7154297
        0.8363356 0.03159949 0.71542215 0.8371168 0.031763457 0.7154164
        0.83799773 0.03188808 0.71541244 0.83902717 0.03197631 0.71541035
        0.8402576 0.03203309 0.7154099 0.84174883 0.0320656 0.7154108
        0.8435739 0.032082397 0.71541286 0.8458258 0.032092426 0.7154156
        0.84860015 0.032102328 0.7154189 0.8519585 0.032113522 0.7154227
        0.85593307 0.03212531 0.7154273 0.8605599 0.03213728 0.71543324
        0.86589354 0.032149352 0.71544105 0.8720033 0.032161534 0.7154511
        0.87896454 0.032173853 0.7154639 0.8868519 0.032186344 0.7154798
        0.89573336 0.032199044 0.7154992 0.9056649 0.032211997 0.7155227
        0.91668487 0.032225247 0.7155505 0.9288075 0.032238863 0.7155827
        0.94201726 0.032252893 0.7156193 0.95626366 0.03226741 0.7156601
        0.971458 0.032282487 0.71570426 0.98747194 0.0322982 0.71575093
        1.0041398 0.03231465 0.7157988 1.021264 0.032331977 0.71584636
        1.0386229 0.03235036 0.71589184 0.83358693 0.030732526 0.7154543
        0.83443177 0.031091353 0.7154406 0.8351653 0.03139959 0.71542865
        0.8358531 0.03165567 0.7154187 0.8365504 0.031863492 0.7154108
        0.83730555 0.03202694 0.7154049 0.8381644 0.03214981 0.715401
        0.8391732 0.032236435 0.7153989 0.84038204 0.03229231 0.71539843
        0.8418496 0.032324497 0.7153993 0.84364957 0.032340996 0.71540135
        0.84587765 0.032350246 0.7154041 0.8486338 0.03235888 0.7154074
        0.85198134 0.032368615 0.7154112 0.8559507 0.032378905 0.7154159
        0.8605753 0.03238935 0.7154219 0.8659079 0.032399867 0.7154298
        0.8720169 0.032410465 0.7154399 0.8789775 0.032421164 0.7154527
        0.886864 0.032432005 0.7154687 0.8957447 0.032443024 0.71548826
        0.90567535 0.032454263 0.7155118 0.91669434 0.032465775 0.71553963
        0.92881596 0.032477617 0.71557194 0.94202465 0.032489847 0.71560866
        0.9562699 0.032502532 0.7156494 0.971463 0.032515742 0.7156937
        0.98747575 0.032529548 0.71574044 1.0041424 0.032544054 0.71578836
        1.0212651 0.032559387 0.715836 1.0386229 0.03257571 0.71588165
        0.83396435 0.030978432 0.7154445 0.8347459 0.03135963 0.71542954
        0.8354278 0.03167643 0.71541697 0.83607477 0.031933308 0.7154068
        0.8367403 0.03213774 0.7153989 0.8374709 0.032296166 0.7153932
        0.8383099 0.03241427 0.7153894 0.83930063 0.032497425 0.7153873
        0.84049106 0.032551333 0.71538687 0.8419385 0.032582637 0.71538776
        0.8437171 0.03259862 0.7153897 0.8459249 0.032607045 0.7153925
        0.84866524 0.03261443 0.7153958 0.85200316 0.032622736 0.71539974
        0.85596794 0.03263156 0.71540445 0.8605906 0.032640517 0.7154105
        0.86592215 0.032649525 0.71541846 0.87203044 0.032658577 0.71542865
        0.87899023 0.032667708 0.7154415 0.88687605 0.03267695 0.71545756
        0.8957559 0.03268635 0.7154772 0.9056857 0.03269593 0.7155008
        0.9167038 0.03270577 0.7155287 0.92882437 0.0327159 0.7155611
        0.942032 0.0327264 0.7155979 0.9562761 0.032737322 0.71563876
        0.9714681 0.03274873 0.7156831 0.9874795 0.032760702 0.7157299
        1.0041449 0.03277333 0.71577793 1.0212665 0.03278673 0.7158256
        1.0386229 0.032801054 0.71587133 0.8343193 0.03126434 0.71543276
        0.8350344 0.03165755 0.71541697 0.83566356 0.031973876 0.7154042
        0.8362701 0.032224145 0.71539414 0.8369056 0.032419667 0.7153865
        0.83761394 0.032569334 0.715381 0.8384354 0.032680318 0.71537745
        0.8394107 0.032758594 0.7153756 0.8405856 0.032809738 0.71537524
        0.8420162 0.03283976 0.71537614 0.8437769 0.03285506 0.7153781
        0.84596753 0.032862645 0.71538085 0.8486943 0.03286881 0.71538424
        0.85202396 0.032875728 0.7153881 0.8559847 0.032883126 0.71539295
        0.86060554 0.032890648 0.7153991 0.8659362 0.03289819 0.7154071
        0.8720438 0.032905757 0.7154174 0.8790029 0.03291338 0.7154303
        0.886888 0.032921094 0.71544635 0.89576703 0.032928932 0.7154661
        0.90569603 0.032936934 0.7154898 0.9167132 0.032945167 0.71551776
        0.92883277 0.03295367 0.71555024 0.94203925 0.032962505 0.7155871
        0.9562823 0.032971736 0.715628 0.97147304 0.032981426 0.71567243
        0.9874833 0.032991637 0.7157193 1.0041474 0.03300246 0.71576744
        1.0212677 0.033013996 0.7158152 1.0386229 0.033026397 0.71586096
        0.8346471 0.03158888 0.71541923 0.8352938 0.03198239 0.7154031
        0.83587074 0.0322887 0.71539044 0.8364387 0.03252529 0.7153808
        0.8370469 0.032707132 0.7153737 0.8377358 0.032845043 0.7153686
        0.83854234 0.0329471 0.7153654 0.83950466 0.033019442 0.71536374
        0.8406666 0.033067234 0.7153635 0.84208333 0.033095673 0.71536446
        0.8438292 0.033110183 0.71536636 0.8460056 0.03311692 0.71536916
        0.84872115 0.033121906 0.71537256 0.8520438 0.033127487 0.71537656
        0.8560011 0.03313352 0.7153814 0.8606203 0.033139657 0.7153876
        0.86595017 0.033145797 0.7153956 0.872057 0.033151947 0.715406
        0.8790155 0.033158127 0.715419 0.8868999 0.033164375 0.71543515
        0.8957781 0.033170726 0.71545494 0.9057063 0.033177227 0.7154787
        0.9167225 0.03318393 0.7155068 0.92884105 0.03319088 0.7155393
        0.9420465 0.03319814 0.71557623 0.95628846 0.03320576 0.71561724
        0.97147804 0.033213805 0.7156617 0.9874871 0.03322234 0.7157086
        1.0041499 0.033231433 0.71575683 1.021269 0.03324119 0.7158047
        1.0386229 0.033251733 0.71585053 0.8349428 0.0319499 0.7154038
        0.8355213 0.03233083 0.7153879 0.836048 0.03261753 0.7153759
        0.8365808 0.032834027 0.715367 0.83716506 0.032998223 0.7153605
        0.8378374 0.033122025 0.71535605 0.8386316 0.033213794 0.71535325
        0.8395833 0.033279438 0.7153518 0.8407347 0.03332345 0.7153517
        0.84214026 0.0333501 0.7153527 0.8438743 0.03336375 0.7153547
        0.8460393 0.033369664 0.7153575 0.84874564 0.03337353 0.7153609
        0.8520625 0.033377834 0.71536493 0.85601693 0.03338256 0.7153699
        0.8606348 0.033387385 0.7153761 0.8659639 0.0333922 0.71538424
        0.87207013 0.033397 0.7153946 0.87902796 0.03340182 0.7154077
        0.88691163 0.033406686 0.71542394 0.8957891 0.033411637 0.7154438
        0.9057164 0.03341672 0.7154676 0.9167317 0.033421975 0.7154957
        0.92884934 0.033427466 0.7155283 0.9420538 0.033433236 0.71556526
        0.9562946 0.033439342 0.71560633 0.971483 0.03344584 0.7156509
        0.98749083 0.03345278 0.71569794 1.0041525 0.033460233 0.71574616
        1.0212703 0.03346829 0.71579415 1.0386229 0.033477068 0.71584004
        0.8352017 0.032344524 0.71538657 0.8357141 0.03269912 0.7153715
        0.8361947 0.032956958 0.71536064 0.8366966 0.033147812 0.7153528
        0.83726084 0.033291187 0.7153472 0.83791983 0.0333991 0.7153433
        0.8387041 0.033479597 0.715341 0.83964735 0.033537984 0.71533984
        0.8407906 0.03357793 0.7153399 0.8421875 0.033602666 0.715341
        0.84391236 0.03361544 0.71534294 0.84606856 0.03362057 0.7153458
        0.8487678 0.033623386 0.71534926 0.8520802 0.0336265 0.7153533
        0.8560323 0.03363001 0.71535826 0.86064905 0.033633605 0.7153646
        0.8659774 0.03363718 0.7153728 0.87208307 0.03364073 0.71538323
        0.87904024 0.03364428 0.7153964 0.88692325 0.033647865 0.7154126
        0.8958 0.033651516 0.7154325 0.9057265 0.033655282 0.7154564
        0.9167409 0.0336592 0.7154846 0.92885756 0.033663332 0.7155173
        0.942061 0.033667717 0.7155543 0.95630074 0.033672407 0.7155954
        0.971488 0.03367746 0.71564007 0.9874946 0.033682913 0.71568716
        1.004155 0.033688832 0.71573544 1.0212715 0.033695295 0.7157834
        1.0386229 0.0337024 0.7158295 0.835419 0.032768976 0.71536773
        0.8358704 0.033083003 0.71535414 0.8363104 0.033303525 0.7153448
        0.83678675 0.033464182 0.7153382 0.8373351 0.033584323 0.7153336
        0.8379838 0.03367506 0.7153305 0.8387606 0.03374361 0.7153287
        0.83969766 0.0337944 0.7153279 0.84083486 0.033830114 0.7153281
        0.8422254 0.033852883 0.71532923 0.8439436 0.033864796 0.71533126
        0.8460935 0.033869214 0.71533406 0.84878767 0.03387109 0.7153376
        0.8520968 0.03387312 0.7153417 0.85604715 0.033875518 0.7153467
        0.860663 0.033878 0.7153531 0.86599076 0.033880454 0.7153613
        0.8720958 0.033882868 0.71537185 0.8790524 0.03388527 0.715385
        0.88693476 0.033887688 0.71540135 0.8958108 0.03389016 0.7154213
        0.90573645 0.033892732 0.7154452 0.91675 0.03389544 0.7154735
        0.92886573 0.033898335 0.7155062 0.94206816 0.033901464 0.71554327
        0.95630676 0.033904865 0.7155845 0.9714929 0.033908594 0.71562916
        0.98749834 0.033912685 0.7156763 1.0041575 0.033917192 0.7157247
        1.0212728 0.033922177 0.71577275 1.0386229 0.033927727 0.7158188
        0.8355905 0.033218585 0.7153473 0.8359886 0.033477753 0.715336
        0.83639526 0.03365368 0.7153286 0.83685195 0.033780675 0.71532345
        0.8373888 0.033875868 0.71531993 0.8380303 0.03394861 0.71531767
        0.838802 0.034004822 0.71531636 0.83973473 0.034047846 0.71531594
        0.84086794 0.034079283 0.71531636 0.84225434 0.03410011 0.71531755
        0.84396833 0.034111235 0.7153196 0.8461142 0.03411505 0.71532243
        0.84880525 0.03411611 0.71532595 0.8521123 0.034117203 0.7153301
        0.85606146 0.034118637 0.7153352 0.86067665 0.03412015 0.71534157
        0.8660039 0.03412162 0.7153499 0.8721084 0.03412305 0.71536046
        0.87906444 0.034124445 0.7153737 0.88694614 0.034125853 0.7153901
        0.89582145 0.034127302 0.71541005 0.90574634 0.03412883 0.715434
        0.9167591 0.03413048 0.7154623 0.92887384 0.03413229 0.71549505
        0.94207525 0.034134313 0.71553224 0.95631284 0.034136582 0.7155735
        0.97149783 0.034139138 0.7156182 0.98750204 0.034142014 0.7156654
        1.00416 0.034145255 0.71571386 1.021274 0.03414891 0.71576196
        1.0386229 0.03415305 0.7158081 0.8357124 0.03368774 0.7153256
        0.83606786 0.033878136 0.7153173 0.83645004 0.034003794 0.7153121
        0.8368934 0.034094773 0.7153086 0.83742297 0.034163997 0.7153063
        0.8380602 0.034218352 0.71530485 0.8388289 0.03426212 0.71530414
        0.8397594 0.034297384 0.7153041 0.84089047 0.034324605 0.7153046
        0.8422747 0.034343585 0.7153059 0.84398675 0.03435405 0.71530795
        0.8461309 0.03435741 0.7153109 0.84882057 0.034357835 0.7153144
        0.8521267 0.034358162 0.7153186 0.8560753 0.03435881 0.7153237
        0.86069 0.034359533 0.7153301 0.86601675 0.03436021 0.71533847
        0.8721208 0.034360833 0.7153491 0.87907624 0.03436142 0.71536237
        0.88695735 0.034361996 0.71537876 0.895832 0.034362603 0.71539885
        0.9057562 0.034363274 0.7154228 0.916768 0.034364045 0.7154512
        0.9288819 0.034364965 0.71548396 0.9420823 0.034366067 0.71552116
        0.9563188 0.034367383 0.71556246 0.97150266 0.034368955 0.7156072
        0.9875058 0.034370802 0.71565443 1.0041625 0.03437296 0.71570295
        1.0212753 0.034375463 0.7157511 1.0386229 0.034378372 0.7157973
        0.8357819 0.03417002 0.7153029 0.8361087 0.0342788 0.7152983
        0.83647645 0.03435054 0.7152956 0.83691305 0.03440426 0.7152938
        0.8374394 0.034447152 0.71529275 0.8380749 0.034483116 0.71529216
        0.83884275 0.034514558 0.71529204 0.8397726 0.03454222 0.71529233
        0.8409032 0.03456538 0.71529305 0.84228724 0.03458267 0.7152944
        0.84399927 0.034592632 0.7152965 0.84614384 0.03459574 0.7152994
        0.84883386 0.034595728 0.71530294 0.8521401 0.034595508 0.7153072
        0.8560886 0.034595583 0.7153123 0.860703 0.034595724 0.7153188
        0.8660294 0.034595817 0.71532714 0.87213296 0.034595847 0.7153378
        0.8790879 0.034595825 0.71535105 0.88696843 0.03459579 0.71536756
        0.89584243 0.034595773 0.7153876 0.90576583 0.034595802 0.71541166
        0.9167769 0.034595914 0.71544003 0.9288899 0.034596156 0.7154729
        0.9420893 0.03459655 0.7155101 0.9563248 0.034597132 0.7155514
        0.97150755 0.034597933 0.7155962 0.9875094 0.034598965 0.7156435
        1.0041649 0.034600247 0.715692 1.0212765 0.034601808 0.7157402
        1.0386229 0.034603693 0.71578646 0.83579725 0.03465838 0.7152794
        0.8361142 0.034676466 0.71527916 0.8364784 0.034692712 0.7152791
        0.836914 0.03470884 0.7152791 0.8374405 0.03472548 0.71527934
        0.8380765 0.034743268 0.7152796 0.8388449 0.034762617 0.71528
        0.83977544 0.03478287 0.71528065 0.8409071 0.03480214 0.7152816
        0.8422926 0.034817882 0.71528304 0.84400654 0.034827493 0.7152851
        0.8461533 0.0348305 0.71528804 0.8488453 0.03483024 0.71529156
        0.8521527 0.034829658 0.71529585 0.8561015 0.034829345 0.715301
        0.8607158 0.034829095 0.7153075 0.86604184 0.03482879 0.7153159
        0.87214506 0.03482841 0.7153265 0.8790995 0.034827974 0.71533984
        0.8869794 0.034827515 0.71535635 0.89585274 0.034827054 0.71537644
        0.9057754 0.034826633 0.71540046 0.9167857 0.03482628 0.7154288
        0.92889786 0.03482603 0.7154617 0.9420963 0.034825914 0.715499
        0.9563307 0.03482595 0.71554035 0.9715124 0.034826167 0.7155851
        0.9875131 0.034826566 0.71563244 1.0041674 0.034827158 0.715681
        1.0212778 0.034827966 0.71572924 1.0386229 0.034829006 0.7157755
        0.835758 0.035145447 0.71525556 0.8360883 0.035073385 0.7152598
        0.8364592 0.035034426 0.7152624 0.83689874 0.03501308 0.71526426
        0.8374278 0.03500353 0.7152657 0.8380659 0.035003178 0.71526694
        0.83883625 0.03501043 0.7152679 0.8397689 0.035023257 0.7152689
        0.8409029 0.035038598 0.71527004 0.84229136 0.03505276 0.71527153
        0.84400904 0.035062004 0.7152737 0.8461599 0.035064902 0.71527654
        0.84885526 0.0350644 0.7152802 0.8521647 0.03506347 0.7152844
        0.85611427 0.035062786 0.7152896 0.8607286 0.035062153 0.71529615
        0.86605436 0.035061464 0.7153045 0.8721571 0.035060693 0.71531516
        0.87911105 0.03505986 0.7153285 0.8869904 0.035058994 0.715345
        0.89586306 0.035058115 0.7153651 0.9057851 0.03505726 0.71538925
        0.91679454 0.03505646 0.7154176 0.9289057 0.03505574 0.7154505
        0.94210327 0.03505513 0.7154878 0.9563367 0.03505465 0.71552914
        0.9715172 0.035054304 0.71557397 0.9875168 0.035054095 0.71562135
        1.00417 0.035054028 0.71566993 1.021279 0.0350541 0.71571827
        1.0386229 0.035054315 0.7157645 0.83566487 0.035623834 0.7152317
        0.8360275 0.035472106 0.71523994 0.83641577 0.035380203 0.7152453
        0.8368648 0.035322003 0.715249 0.8373998 0.035286307 0.7152518
        0.8380421 0.035267636 0.7152539 0.838816 0.035262555 0.7152555
        0.839752 0.035267692 0.71525687 0.84089 0.035278857 0.7152582
        0.84228325 0.035291214 0.7152598 0.8440065 0.03529987 0.71526194
        0.84616333 0.03530247 0.7152649 0.8488638 0.03530154 0.7152685
        0.8521762 0.03530009 0.71527284 0.85612696 0.03529885 0.715278
        0.8607415 0.035297666 0.7152845 0.866067 0.03529642 0.715293
        0.8721693 0.035295088 0.71530366 0.87912273 0.035293687 0.7153171
        0.8870015 0.03529224 0.7153336 0.8958735 0.035290785 0.7153537
        0.90579474 0.035289332 0.71537787 0.9168034 0.03528792 0.7154063
        0.9289137 0.035286576 0.7154392 0.9421103 0.03528531 0.71547645
        0.95634264 0.035284143 0.7155179 0.9715221 0.035283074 0.71556276
        0.9875205 0.0352821 0.71561015 1.0041724 0.035281207 0.7156588
        1.0212802 0.035280388 0.7157071 1.0386229 0.035279624 0.7157535
        0.8355201 0.03608653 0.71520823 0.83592796 0.03586949 0.71522
        0.8363437 0.035729054 0.7152278 0.83680874 0.035635605 0.7152334
        0.8373536 0.035574283 0.71523744 0.8380028 0.035537347 0.7152404
        0.8387823 0.035519782 0.71524274 0.83972365 0.03551701 0.7152445
        0.84086746 0.03552375 0.7152461 0.84226745 0.035534043 0.71524775
        0.84399855 0.035541866 0.71524996 0.8461636 0.035543922 0.71525294
        0.8488707 0.035542343 0.71525663 0.85218716 0.03554015 0.7152609
        0.8561396 0.035538148 0.71526617 0.8607545 0.035536192 0.7152728
        0.86607975 0.035534173 0.7152812 0.8721816 0.035532072 0.715292
        0.87913454 0.035529893 0.7153054 0.88701266 0.035527673 0.71532196
        0.895884 0.035525423 0.7153421 0.9058045 0.035523172 0.7153663
        0.9168123 0.03552095 0.7153948 0.92892176 0.03551877 0.71542776
        0.9421173 0.03551665 0.71546507 0.9563486 0.035514604 0.7155065
        0.971527 0.03551262 0.71555144 0.9875242 0.03551068 0.7155989
        1.004175 0.03550877 0.7156475 1.0212815 0.03550686 0.7156959
        1.0386229 0.035504926 0.71574235 0.8353269 0.036527142 0.71518546
        0.8357894 0.03625994 0.71519995 0.8362409 0.036077477 0.71521014
        0.8367283 0.03595159 0.71521735 0.8372874 0.035865888 0.7152227
        0.8379466 0.035811163 0.71522665 0.83873403 0.035781227 0.71522963
        0.8396828 0.035770472 0.7152318 0.84083444 0.03577263 0.71523356
        0.8422435 0.035780657 0.7152354 0.8439849 0.03578743 0.71523774
        0.84616035 0.035788734 0.7152407 0.84887594 0.035786305 0.7152445
        0.8521975 0.03578318 0.7152488 0.85615206 0.035780225 0.7152541
        0.8607674 0.035777315 0.71526074 0.86609256 0.035774346 0.71526927
        0.872194 0.03577129 0.71528006 0.87914634 0.03576816 0.7152935
        0.88702387 0.035764974 0.71531016 0.8958945 0.03576176 0.71533036
        0.9058143 0.035758536 0.71535456 0.91682124 0.035755325 0.7153831
        0.9289298 0.035752144 0.71541613 0.94212437 0.035748996 0.7154535
        0.9563546 0.0357459 0.715495 0.9715318 0.035742823 0.71554
        0.9875279 0.03573976 0.7155875 1.0041773 0.03573666 0.7156362
        1.0212827 0.0357335 0.71568465 1.0386229 0.035730224 0.7157311
        0.83508945 0.03694019 0.71516377 0.8356127 0.036637846 0.7151804
        0.8361065 0.036421515 0.7151924 0.83662206 0.03626725 0.71520126
        0.8371998 0.036159188 0.7152078 0.83787215 0.036087647 0.71521264
        0.83867013 0.036045745 0.71521616 0.8396286 0.03602713 0.71521884
        0.8407904 0.036024652 0.71522087 0.842211 0.036030278 0.71522284
        0.84396523 0.036035836 0.7152252 0.84615356 0.036036216 0.71522826
        0.8488795 0.036032777 0.7152321 0.8522072 0.036028568 0.71523654
        0.8561644 0.03602451 0.71524185 0.8607804 0.036020506 0.7152486
        0.8661054 0.03601644 0.71525717 0.87220645 0.036012284 0.715268
        0.87915826 0.036008056 0.71528155 0.88703513 0.03600377 0.71529824
        0.89590514 0.035999447 0.7153185 0.90582407 0.035995107 0.71534276
        0.91683024 0.03599077 0.7153713 0.92893785 0.035986446 0.7154044
        0.94213146 0.035982147 0.7154419 0.95636064 0.035977855 0.7154834
        0.9715367 0.03597356 0.7155284 0.9875316 0.03596923 0.715576
        1.0041798 0.035964813 0.7156248 1.021284 0.035960265 0.71567327
        1.0386229 0.035955526 0.7157198 0.8348124 0.03732118 0.71514344
        0.8353999 0.036998138 0.71516144 0.8359406 0.036757242 0.7151749
        0.83648914 0.036579873 0.71518505 0.83708966 0.03645231 0.71519274
        0.83777845 0.036365446 0.7151984 0.8385896 0.03631232 0.71520257
        0.8395602 0.03628615 0.7152056 0.84073484 0.036279097 0.7152079
        0.84216964 0.036282253 0.7152101 0.8439395 0.036286462 0.7152125
        0.8461432 0.03628578 0.7152157 0.84888136 0.036281206 0.7152195
        0.85221624 0.036275797 0.715224 0.8561765 0.03627053 0.71522945
        0.8607934 0.03626531 0.7152362 0.86611825 0.03626003 0.7152449
        0.8722189 0.03625467 0.7152558 0.8791702 0.03624923 0.7152693
        0.88704646 0.036243733 0.71528614 0.89591575 0.036238194 0.71530646
        0.90583396 0.036232635 0.71533084 0.91683924 0.036227062 0.71535945
        0.9289459 0.036221493 0.7153926 0.9421385 0.036215916 0.7154301
        0.95636666 0.036210332 0.7154717 0.9715416 0.03620471 0.7155168
        0.9875353 0.036199007 0.71556437 1.0041823 0.036193166 0.71561325
        1.0212852 0.03618713 0.7156618 1.0386229 0.036180817 0.71570843
        0.8345009 0.037666608 0.71512467 0.8351537 0.037336294 0.7151433
        0.83574384 0.03708076 0.7151578 0.8363289 0.036886677 0.715169
        0.8369559 0.036743376 0.7151776 0.83766437 0.036643293 0.71518403
        0.8384915 0.036580056 0.71518874 0.839477 0.03654685 0.7151922
        0.8406671 0.036535412 0.71519476 0.8421191 0.036536083 0.715197
        0.8439076 0.036538843 0.7151996 0.84612936 0.036536984 0.7152028
        0.8488816 0.036531176 0.7152068 0.8522247 0.036524486 0.7152114
        0.8561885 0.036517907 0.7152169 0.8608063 0.03651139 0.7152237
        0.8661311 0.03650482 0.71523243 0.87223136 0.036498163 0.7152434
        0.8791821 0.03649143 0.7152571 0.8870578 0.036484636 0.7152739
        0.89592636 0.036477793 0.7152943 0.9058438 0.03647092 0.71531874
        0.91684824 0.03646403 0.7153474 0.928954 0.03645712 0.7153806
        0.9421456 0.036450192 0.7154182 0.9563727 0.03644323 0.7154599
        0.9715465 0.036436193 0.71550506 0.98753905 0.036429033 0.71555275
        1.0041848 0.036421683 0.7156017 1.0212865 0.036414072 0.7156504
        1.0386229 0.036406104 0.71569705 0.83416003 0.037974086 0.71510774
        0.83487713 0.037648447 0.7151264 0.8355173 0.037388265 0.71514136
        0.8361411 0.037184764 0.7151532 0.8367975 0.037030466 0.71516246
        0.83752865 0.036919978 0.71516955 0.8383747 0.036848187 0.7151748
        0.83937794 0.03680873 0.71517855 0.84058666 0.036793206 0.7151814
        0.84205914 0.036791436 0.71518385 0.84386945 0.036792684 0.71518654
        0.846112 0.036789544 0.7151899 0.84888023 0.036782425 0.7151939
        0.8522326 0.03677437 0.71519864 0.8562002 0.036766425 0.7152042
        0.8608192 0.03675854 0.71521103 0.86614406 0.0367506 0.7152199
        0.8722439 0.03674258 0.71523094 0.8791941 0.03673448 0.71524465
        0.88706917 0.036726315 0.7152615 0.895937 0.0367181 0.715282
        0.9058537 0.036709845 0.7153065 0.9168573 0.03670156 0.7153353
        0.9289621 0.036693245 0.71536857 0.9421527 0.036684893 0.71540624
        0.9563787 0.036676474 0.71544796 0.97155136 0.03666795 0.7154932
        0.9875427 0.036659263 0.715541 1.0041873 0.03665034 0.71559
        1.0212877 0.036641084 0.71563876 1.0386229 0.03663139 0.71568555
        0.8337953 0.03824156 0.71509266 0.8345741 0.037931222 0.71511084
        0.83526313 0.037675902 0.71512574 0.835926 0.037470847 0.71513784
        0.83661354 0.03731125 0.71514755 0.8373699 0.037194032 0.71515507
        0.8382378 0.037115823 0.71516067 0.83926195 0.037071224 0.7151648
        0.8404927 0.037052087 0.7151679 0.8419893 0.037047997 0.7151705
        0.843825 0.037047673 0.7151733 0.8460913 0.037043184 0.71517676
        0.8488773 0.03703468 0.7151809 0.85223985 0.037025217 0.71518564
        0.85621184 0.03701585 0.7151913 0.8608321 0.037006542 0.71519834
        0.866157 0.036997188 0.7152072 0.8722564 0.036987748 0.7152183
        0.87920606 0.036978222 0.71523213 0.88708055 0.036968634 0.7152491
        0.8959477 0.03695899 0.7152697 0.9058636 0.036949296 0.71529424
        0.9168663 0.03693956 0.71532303 0.9289702 0.036929782 0.7153564
        0.94215983 0.03691994 0.7153942 0.9563847 0.03691001 0.715436
        0.97155625 0.036899943 0.71548134 0.98754644 0.03688967 0.71552914
        1.0041898 0.036879107 0.71557826 1.0212889 0.036868144 0.7156271
        1.0386229 0.036856674 0.715674 0.8334097 0.038469255 0.71507967
        0.8342481 0.03818238 0.7150968 0.8349838 0.037940357 0.7151112
        0.8356841 0.037741773 0.7151231 0.836403 0.037583496 0.7151329
        0.8371864 0.03746423 0.7151406 0.8380788 0.037382487 0.71514654
        0.8391273 0.03733428 0.7151509 0.8403841 0.0373122 0.7151542
        0.84190893 0.03730596 0.715157 0.84377396 0.037304025 0.7151599
        0.84606713 0.037298087 0.71516347 0.848873 0.037288133 0.7151677
        0.85224664 0.037277196 0.7151726 0.85622334 0.037266344 0.7151783
        0.86084497 0.037255555 0.7151854 0.8661699 0.037244715 0.71519434
        0.872269 0.03723379 0.7152056 0.8792181 0.03722278 0.71521944
        0.88709193 0.0372117 0.71523654 0.8959584 0.03720055 0.7152571
        0.90587354 0.037189357 0.71528184 0.9168754 0.037178103 0.71531075
        0.9289784 0.037166785 0.7153442 0.9421669 0.037155394 0.715382
        0.95639074 0.03714388 0.71542394 0.97156113 0.0371322 0.71546936
        0.98755014 0.03712027 0.7155172 1.0041922 0.037108 0.71556646
        1.0212902 0.037095275 0.7156154 1.0386229 0.037081957 0.71566236
        0.83301514 0.03865328 0.7150689 0.83390486 0.03839945 0.7150845
        0.8346836 0.038177934 0.71509796 0.83541846 0.037993096 0.7151093
        0.83616704 0.03784301 0.7151187 0.8369777 0.037727237 0.7151264
        0.8378968 0.037645698 0.71513236 0.83897316 0.037596013 0.71513695
        0.8402604 0.03757198 0.71514034 0.8418181 0.037563927 0.7151433
        0.8437167 0.037560426 0.7151464 0.8460399 0.037553027 0.71515006
        0.8488674 0.03754163 0.7151544 0.852253 0.037529234 0.7151594
        0.8562347 0.037516918 0.7151652 0.86085784 0.037504658 0.7151724
        0.86618286 0.037492346 0.71518147 0.8722816 0.037479945 0.71519274
        0.8792302 0.03746745 0.71520674 0.8871034 0.03745488 0.71522385
        0.89596915 0.037442233 0.7152446 0.90588343 0.037429526 0.71526927
        0.9168845 0.03741675 0.71529835 0.9289865 0.03740389 0.7153318
        0.942174 0.037390932 0.71536976 0.95639676 0.037377827 0.7154117
        0.9715661 0.037364516 0.7154572 0.98755383 0.03735092 0.71550524
        1.0041947 0.037336923 0.71555454 1.0212914 0.037322413 0.71560353
        1.0386229 0.03730723 0.7156507 0.83259 0.038803432 0.7150598
        0.83354324 0.038583204 0.71507376 0.8343638 0.038387615 0.71508604
        0.8351289 0.03822351 0.7150964 0.83590263 0.038089488 0.7151051
        0.8367383 0.037984505 0.7151123 0.83768517 0.03790861 0.7151181
        0.8387935 0.03786061 0.71512264 0.8401169 0.03783598 0.7151262
        0.8417138 0.037826434 0.7151293 0.84365153 0.037821226 0.71513253
        0.8460089 0.03781211 0.71513635 0.8488604 0.03779902 0.7151409
        0.852259 0.037784923 0.715146 0.8562461 0.037770893 0.71515185
        0.8608708 0.03775692 0.7151591 0.866196 0.037742898 0.7151683
        0.8722943 0.037728786 0.7151797 0.87924236 0.037714582 0.71519375
        0.8871149 0.03770029 0.715211 0.89597994 0.037685927 0.7152318
        0.90589345 0.037671484 0.71525663 0.9168936 0.037656963 0.7152857
        0.92899466 0.037642352 0.71531934 0.94218117 0.037627615 0.71535736
        0.95640284 0.037612714 0.71539944 0.97157097 0.037597578 0.71544504
        0.98755753 0.037582114 0.7154932 1.0041972 0.03756621 0.71554255
        1.0212927 0.037549723 0.71559167 1.0386229 0.0375325 0.7156389
        0.83223236 0.038894698 0.715054 0.833183 0.038729537 0.7150651
        0.8340365 0.038564272 0.71507585 0.8348296 0.0384235 0.7150851
        0.83562607 0.038308937 0.71509284 0.83648473 0.038218867 0.71509933
        0.8374594 0.038152438 0.71510476 0.83860195 0.03810889 0.71510917
        0.83996505 0.03808533 0.71511275 0.84160465 0.038075235 0.71511596
        0.84358436 0.038068987 0.7151193 0.8459773 0.03805884 0.7151233
        0.84885323 0.03804483 0.7151278 0.8522648 0.038029835 0.71513295
        0.85625726 0.03801489 0.715139 0.86088353 0.037999976 0.71514624
        0.8662088 0.037984997 0.7151555 0.8723068 0.037969906 0.7151669
        0.87925434 0.037954696 0.71518105 0.88712627 0.03793938 0.71519834
        0.8959906 0.03792396 0.7152192 0.90590334 0.037908435 0.7152441
        0.91690266 0.037892804 0.7152733 0.92900276 0.037877046 0.71530694
        0.94218826 0.03786113 0.715345 0.95640886 0.037845004 0.7153872
        0.97157586 0.0378286 0.7154329 0.9875612 0.037811805 0.71548104
        1.0041997 0.037794508 0.7155306 1.0212939 0.037776552 0.71557975
        1.0386229 0.03775777 0.715627 0.83206564 0.038928673 0.7150518
        0.8328735 0.038834468 0.71505874 0.8337325 0.0387013 0.71506786
        0.8345588 0.03857753 0.7150762 0.8353888 0.038473193 0.71508354
        0.83627814 0.038389415 0.7150898 0.83728236 0.038326584 0.7150951
        0.83845544 0.038284972 0.71509945 0.83985066 0.03826259 0.71510303
        0.8415234 0.03825351 0.7151063 0.8435352 0.038248442 0.7151097
        0.8459552 0.03823988 0.7151136 0.8488495 0.03822783 0.71511805
        0.85227084 0.038214967 0.7151231 0.8562673 0.038202196 0.715129
        0.8608947 0.038189482 0.71513623 0.86622 0.038176727 0.7151453
        0.8723177 0.038163885 0.7151566 0.8792648 0.038150955 0.7151706
        0.8871362 0.038137946 0.71518785 0.896 0.038124863 0.7152086
        0.9059122 0.038111705 0.7152333 0.9169108 0.03809847 0.7152624
        0.9290102 0.038085133 0.7152959 0.9421949 0.038071655 0.7153339
        0.9564145 0.038057994 0.71537596 0.9715805 0.038044058 0.7154215
        0.98756486 0.038029745 0.71546954 1.0042021 0.03801492 0.71551883
        1.0212952 0.037999414 0.71556795 1.0386229 0.037983034 0.7156151
        0.831956 0.038950667 0.71505034 0.83262455 0.03890764 0.7150542
        0.83345884 0.038806774 0.71506155 0.83431554 0.038696893 0.7150693
        0.83518606 0.038597133 0.7150765 0.83611095 0.038514413 0.71508276
        0.83714485 0.038451787 0.71508807 0.83834445 0.038410544 0.7150925
        0.83976525 0.038389012 0.7150962 0.84146345 0.038381245 0.7150994
        0.84349936 0.038377907 0.7151027 0.8459396 0.03837152 0.7151065
        0.84884757 0.038362034 0.71511084 0.85227615 0.038351964 0.7151158
        0.85627544 0.038342137 0.7151215 0.8609037 0.038332514 0.7151286
        0.86622906 0.038323015 0.7151375 0.87232655 0.038313612 0.7151487
        0.87927336 0.03830432 0.71516246 0.88714445 0.038295172 0.71517944
        0.8960079 0.038286198 0.71519995 0.9059197 0.038277425 0.7152245
        0.9169178 0.038268875 0.71525335 0.92901665 0.038260568 0.7152866
        0.94220066 0.03825251 0.7153243 0.9564196 0.038244702 0.715366
        0.9715848 0.038237125 0.7154112 0.9875682 0.038229737 0.71545887
        1.0042045 0.038222507 0.7155078 1.0212964 0.038215373 0.71555644
        1.0386229 0.03820829 0.7156031 0.8318138 0.03897896 0.7150485
        0.8324012 0.038964707 0.7150506 0.8331777 0.03890023 0.7150558
        0.83403164 0.03881675 0.7150622 0.83492947 0.03873333 0.7150686
        0.83589035 0.03866007 0.7150745 0.83696043 0.0386029 0.71507967
        0.83819526 0.038564913 0.71508396 0.8396513 0.038545456 0.71508753
        0.84138423 0.038539164 0.71509075 0.8434527 0.038537305 0.71509403
        0.8459194 0.038532935 0.7150978 0.84884477 0.03852597 0.7151021
        0.8522823 0.038518608 0.71510684 0.8562852 0.03851154 0.71511245
        0.86091447 0.03850473 0.71511936 0.86623985 0.038498115 0.7151281
        0.872337 0.03849167 0.7151391 0.8792834 0.038485426 0.71515274
        0.8871541 0.03847941 0.71516955 0.896017 0.038473655 0.71518993
        0.9059282 0.038468193 0.7152143 0.9169257 0.038463056 0.715243
        0.92902386 0.038458265 0.715276 0.9422071 0.038453825 0.7153135
        0.9564252 0.03844974 0.71535504 0.9715894 0.038445987 0.71540004
        0.9875718 0.038442545 0.7154475 1.004207 0.03843936 0.7154962
        1.0212976 0.038436383 0.7155446 1.0386229 0.038433548 0.715591
        0.83165896 0.03900948 0.71504647 0.8321976 0.039009742 0.7150477
        0.8329115 0.03897564 0.7150511 0.83373773 0.03892225 0.7150559
        0.8346445 0.038862582 0.715061 0.83563626 0.038805816 0.7150661
        0.8367458 0.03875913 0.7150708 0.8380225 0.038727347 0.71507484
        0.83952075 0.038711205 0.71507835 0.8412951 0.0387065 0.7150816
        0.84340113 0.03870581 0.71508485 0.84589744 0.0387033 0.71508855
        0.84884185 0.03869885 0.7150927 0.85228896 0.038694166 0.71509737
        0.8562957 0.038689777 0.7151028 0.860926 0.038685657 0.7151096
        0.8662513 0.038681757 0.7151182 0.87234807 0.038678065 0.7151291
        0.87929404 0.03867462 0.71514255 0.8871642 0.038671434 0.71515924
        0.8960266 0.038668554 0.71517944 0.90593714 0.03866601 0.71520364
        0.91693395 0.038663823 0.71523213 0.9290313 0.038662016 0.7152651
        0.9422138 0.038660597 0.71530235 0.9564309 0.03865956 0.7153437
        0.9715941 0.03865888 0.71538854 0.9875754 0.038658526 0.71543586
        1.0042094 0.038658436 0.7154844 1.0212989 0.038658552 0.71553266
        1.0386229 0.0386588 0.7155789 0.83148426 0.039043568 0.7150442
        0.83200467 0.03904737 0.71504515 0.8326629 0.03903505 0.7150473
        0.8334432 0.039010916 0.71505034 0.83433497 0.03898057 0.7150539
        0.8353432 0.038948845 0.71505773 0.8364907 0.03892075 0.7150615
        0.8378161 0.038900733 0.71506506 0.8393667 0.038890477 0.7150684
        0.8411918 0.03888772 0.71507156 0.8433426 0.038887713 0.7150749
        0.84587306 0.038886745 0.7150786 0.8488386 0.038884707 0.71508265
        0.85229635 0.03888258 0.7150872 0.8563071 0.03888067 0.7150925
        0.8609384 0.038878962 0.71509916 0.8662636 0.038877446 0.7151076
        0.87236 0.03887612 0.71511835 0.87930536 0.038875017 0.71513176
        0.88717496 0.038874157 0.71514827 0.89603674 0.038873572 0.71516836
        0.90594655 0.038873293 0.71519244 0.91694266 0.038873337 0.7152208
        0.9290392 0.03887372 0.7152536 0.9422207 0.03887444 0.7152908
        0.9564368 0.038875487 0.71533203 0.971599 0.03887683 0.71537673
        0.9875791 0.038878433 0.715424 1.004212 0.03888022 0.7154724
        1.0213002 0.038882118 0.71552056 1.0386229 0.03888405 0.7155667
        0.83128875 0.039081268 0.7150417 0.8318142 0.039081335 0.7150429
        0.83243227 0.039081413 0.7150443 0.8331589 0.0390815 0.71504587
        0.8340127 0.0390816 0.7150477 0.8350152 0.039081715 0.7150498
        0.83619136 0.03908184 0.7150521 0.8375701 0.039081983 0.71505475
        0.8391844 0.03908214 0.7150576 0.8410722 0.03908231 0.7150608
        0.84327656 0.039082497 0.71506417 0.8458461 0.0390827 0.71506786
        0.84883523 0.03908292 0.7150718 0.8523043 0.039083157 0.71507627
        0.85631937 0.039083444 0.71508145 0.86095166 0.0390838 0.71508795
        0.86627674 0.03908426 0.71509635 0.8723726 0.03908484 0.715107
        0.8793174 0.039085567 0.71512026 0.8871863 0.039086465 0.7151367
        0.89604735 0.039087556 0.71515673 0.90595645 0.039088868 0.7151807
        0.91695166 0.039090414 0.715209 0.9290473 0.0390922 0.71524173
        0.94222784 0.039094232 0.7152788 0.9564429 0.039096482 0.71532
        0.97160393 0.039098922 0.7153647 0.9875829 0.0391015 0.71541184
        1.0042145 0.039104145 0.7154602 1.0213014 0.03910677 0.7155083
        1.0386229 0.039109293 0.7155544
        <InformationKey name="L2_NORM_RANGE" location="vtkDataArray" length="2">
          <Value index="0">
            1.0967509853
          </Value>
          <Value index="1">
            1.261857823
          </Value>
        </InformationKey>
      </DataArray>
    </Points>
  </Piece>
  </StructuredGrid>
</VTKFile>
