<?xml version="1.0"?>
<VTKFile type="StructuredGrid" version="0.1" byte_order="LittleEndian" header_type="UInt32" compressor="vtkZLibDataCompressor">
  <StructuredGrid WholeExtent="0 30 0 40 0 0">
  <Piece Extent="0 30 0 40 0 0">
    <PointData>
      <DataArray type="Float32" Name="orthogonality" format="ascii" RangeMin="0" RangeMax="0.20591866970062256">
        0.1886586 0.1933494 0.19723725 0.20033218 0.20268586 0.2043644
        0.2054278 0.20591867 0.20585735 0.20524012 0.2040379 0.2021951
        0.19962949 0.19623633 0.19190021 0.18651702 0.18002196 0.17241248
        0.16375114 0.15414293 0.14369608 0.13248661 0.12054331 0.10785697
        0.09440534 0.08018088 0.06521137 0.049570106 0.033376608 0.016790347
        0 0.18163054 0.18605301 0.18992077 0.19328877 0.1961265
        0.19841383 0.20013797 0.20128855 0.20185173 0.20180418 0.2011075
        0.19970353 0.19751205 0.19443357 0.19036049 0.1851981 0.17889136
        0.17144594 0.16292992 0.1534509 0.14311792 0.13200732 0.120148726
        0.10753448 0.094144404 0.07997306 0.06505021 0.04945085 0.033295985
        0.016746592 7.669295e-06 0.17745137 0.18100938 0.18432002 0.18752961
        0.19050545 0.19313131 0.19531253 0.19697464 0.19805764 0.19850746
        0.19826704 0.19726855 0.19542852 0.19264917 0.18882833 0.18387936
        0.17775618 0.17047225 0.16210076 0.15275142 0.14253348 0.13152318
        0.119750604 0.10720952 0.093881756 0.07976406 0.06488823 0.049331013
        0.033214953 0.016702548 1.5522633e-05 0.17453545 0.17776324 0.1806939
        0.1836317 0.18648069 0.18913093 0.19146897 0.19338685 0.1947869
        0.1955808 0.19568422 0.19501019 0.19346364 0.19094183 0.18734327
        0.18258625 0.17663178 0.16949987 0.16126777 0.15204617 0.1419434
        0.13103445 0.11934922 0.10688244 0.09361783 0.07955433 0.06472583
        0.04921094 0.033133775 0.0166584 2.3464598e-05 0.17233948 0.17541474
        0.17811878 0.18084049 0.18352073 0.18607996 0.18841997 0.19043057
        0.1919978 0.19300954 0.19335671 0.1929307 0.19162062 0.1893143
        0.18590727 0.18132012 0.17551906 0.16852951 0.16043155 0.15133566
        0.141348 0.1305414 0.11894472 0.10655333 0.093352675 0.07934391
        0.06456308 0.0490907 0.03305254 0.016614253 3.1375344e-05 0.17061414
        0.17360906 0.1761748 0.17874296 0.18127453 0.18371499 0.18598866
        0.1879986 0.18963145 0.19076462 0.19127183 0.19102554 0.18989837
        0.18776669 0.18452066 0.18008116 0.17441826 0.16756137 0.1595923
        0.15062006 0.14074747 0.1300441 0.11853715 0.10622221 0.0930863
        0.0791328 0.06439998 0.04897033 0.03297131 0.01657019 3.9147275e-05
        0.16922227 0.17217094 0.17464834 0.17710881 0.17952207 0.18184896
        0.18403278 0.18599355 0.18762763 0.18881233 0.1894126 0.18928714
        0.18829405 0.18629816 0.18318334 0.1788696 0.17332965 0.16659585
        0.15875047 0.14989983 0.14014217 0.12954283 0.11812669 0.10588918
        0.09281878 0.07892106 0.064236596 0.04884989 0.032890152 0.016526291
        4.668944e-05 0.16807954 0.17099984 0.17341836 0.17580228 0.17812397
        0.18035239 0.1824439 0.18433361 0.18593054 0.18711817 0.18775971
        0.18770571 0.18680316 0.1849069 0.18189472 0.17768538 0.17225349
        0.16563338 0.1579066 0.14917548 0.13953254 0.12903793 0.11771359
        0.10555441 0.09255022 0.078708775 0.06407298 0.04872944 0.032809135
        0.016482629 5.3926007e-05 0.16713008 0.17003223 0.17241003 0.17473835
        0.17698933 0.17913544 0.18114096 0.18295246 0.18449104 0.18564914
        0.18629298 0.18626992 0.18541989 0.18359011 0.18065359 0.17652813
        0.1711899 0.1646744 0.15706126 0.1484476 0.13891909 0.12852983
        0.11729814 0.10521811 0.09228075 0.07849604 0.06390923 0.04860905
        0.03272832 0.016439267 6.079386e-05 0.16633491 0.16922513 0.17157392
        0.17386092 0.17605683 0.1781349 0.18006365 0.18179742 0.18326728
        0.18437496 0.18499237 0.18496764 0.18413731 0.1823441 0.17945808
        0.17539704 0.17013878 0.16371918 0.15621497 0.14771679 0.13830237
        0.12801893 0.116880655 0.1048805 0.09201055 0.07828297 0.06374542
        0.0484888 0.032647777 0.01639626 6.724043e-05 0.16566579 0.16854805
        0.17087565 0.17313129 0.17528372 0.17730552 0.17916691 0.18082698
        0.18222417 0.18326855 0.18383878 0.18378633 0.18294778 0.1811644
        0.17830576 0.17429096 0.16909975 0.16276792 0.1553682 0.14698361
        0.13768291 0.12750567 0.11646145 0.104541786 0.09173975 0.078069665
        0.06358162 0.04836874 0.032567557 0.016353661 7.3221905e-05 0.16510165
        0.16797861 0.17029046 0.17252177 0.17463928 0.17661421 0.17841677
        0.18000847 0.18133269 0.1823062 0.18281436 0.18271357 0.18184313
        0.18004593 0.17719361 0.17320833 0.16807225 0.1618207 0.15452136
        0.1462486 0.13706124 0.1269905 0.11604084 0.1042022 0.09146851
        0.07785624 0.063417934 0.048248943 0.032487705 0.01631151 7.87018e-05
        0.16462637 0.16749994 0.16979988 0.17201199 0.17410101 0.17603637
        0.1777874 0.17931616 0.18056893 0.18146737 0.18190277 0.18173723
        0.18081494 0.17898314 0.17611822 0.17214724 0.16705552 0.16087745
        0.15367483 0.14551228 0.13643785 0.12647381 0.11561916 0.10386198
        0.09119699 0.0776428 0.063254416 0.048129454 0.032408275 0.016269846
        8.364981e-05 0.16422753 0.16709907 0.1693899 0.17158654 0.17365189
        0.17555343 0.17725883 0.17872965 0.17991321 0.18073429 0.18108912
        0.18084571 0.17985462 0.17797005 0.17507577 0.17110555 0.16604857
        0.15993802 0.15282889 0.14477514 0.13581325 0.12595604 0.11519671
        0.103521325 0.09092533 0.07742943 0.06309114 0.04801033 0.032329302
        0.016228698 8.8040935e-05 0.1638953 0.16676587 0.16904971 0.1712337
        0.17327899 0.17515106 0.17681561 0.17823265 0.17934924 0.18009171
        0.18036 0.18002792 0.17895363 0.1770005 0.17406212 0.17008081
        0.1650503 0.15900217 0.15198383 0.14403765 0.13518794 0.12543759
        0.1147738 0.10318046 0.090653665 0.07721624 0.06292816 0.04789162
        0.032250825 0.016188096 9.185474e-05 0.16362192 0.16649236 0.16877082
        0.17094429 0.17297225 0.1748182 0.17644554 0.1778121 0.17886353
        0.1795264 0.17970322 0.17927332 0.17810343 0.17606805 0.17307287
        0.16907041 0.16405943 0.15806958 0.15113983 0.14330024 0.13456236
        0.12491887 0.11435073 0.10283959 0.090382144 0.077003315 0.06276556
        0.04777336 0.03217287 0.016148064 9.507479e-05 0.16340125 0.16627227
        0.1685466 0.17071116 0.17272384 0.17454611 0.17613891 0.17745733
        0.17844476 0.17902686 0.17910773 0.17857192 0.17729561 0.17516619
        0.1721035 0.16807158 0.16307463 0.15713988 0.15029709 0.14256334
        0.133937 0.12440027 0.1139278 0.10249892 0.090110905 0.07679075
        0.062603384 0.047655597 0.03209547 0.016108617 9.76882e-05 0.16322842
        0.16610064 0.16837184 0.1705287 0.17252758 0.17432791 0.17588793
        0.17715962 0.17808335 0.1785829 0.17856328 0.17791413 0.17652178
        0.17428826 0.17114927 0.16708145 0.1620945 0.15621269 0.1494558
        0.14182736 0.13331228 0.123882174 0.11350529 0.10215864 0.08984008
        0.07657862 0.062441695 0.047538362 0.032018647 0.016069777 9.968526e-05
        0.16309963 0.16597359 0.16824245 0.17039254 0.17237867 0.17415813
        0.17568631 0.17691168 0.17777099 0.17818546 0.17806041 0.17729063
        0.17577365 0.17342758 0.1702054 0.16609709 0.16111761 0.15528756
        0.14861609 0.1410927 0.13268866 0.12336495 0.11308349 0.10181897
        0.089569785 0.07636701 0.062280532 0.047421694 0.03194242 0.016031552
        0.000101059166 0.16301198 0.16588818 0.16815537 0.17029934 0.17227335
        0.17403243 0.1755289 0.17670736 0.17750038 0.17782617 0.17759003
        0.17669235 0.1750429 0.17257735 0.16926707 0.16511554 0.16014254
        0.15436412 0.14777814 0.14035976 0.13206655 0.122848965 0.11266267
        0.101480074 0.08930015 0.076156 0.062119953 0.047305614 0.03186681
        0.015993956 0.0001018058 0.16296336 0.16584228 0.1681083 0.1702466
        0.17220873 0.17394735 0.1754114 0.17654124 0.17726487 0.17749707
        0.17714332 0.17611024 0.17432123 0.17173082 0.16832945 0.1641339
        0.15916787 0.15344197 0.1469421 0.13962892 0.13144638 0.12233458
        0.11224309 0.101142146 0.08903129 0.07594566 0.061959997 0.047190152
        0.031791832 0.015956994 0.00010192357 0.16295238 0.1658345 0.16809973
        0.17023256 0.17218271 0.17390017 0.17533022 0.17640854 0.17705822
        0.17719048 0.17671145 0.1755352 0.17360023 0.17088117 0.16738775
        0.16314936 0.1581923 0.15252076 0.14610815 0.13890056 0.13082854
        0.12182214 0.11182503 0.10080536 0.08876332 0.07573606 0.061800707
        0.04707533 0.031717498 0.015920673 0.00010141332 0.1629783 0.16586411
        0.16812885 0.17025621 0.17219383 0.17388876 0.17528221 0.17630474
        0.17687422 0.17689857 0.1762854 0.17495787 0.17287137 0.17002161
        0.16643734 0.16215917 0.15721461 0.15160021 0.1452765 0.1381751
        0.13021347 0.12131199 0.11140871 0.10046988 0.08849634 0.07552726
        0.06164212 0.046961173 0.031643815 0.015884994 0.000100278296 0.16304114
        0.16593108 0.1681955 0.17031711 0.1722412 0.17391145 0.1752645
        0.17622536 0.17670651 0.17661306 0.17585562 0.17436855 0.17212597
        0.1691454 0.1654737 0.16116086 0.1562337 0.15068011 0.1444474
        0.13745293 0.12960157 0.12080446 0.11099439 0.10013588 0.08823047
        0.07531933 0.061484266 0.046847694 0.031570792 0.015849955 9.8524106e-05
        0.16314156 0.16603608 0.16830023 0.17041549 0.17232443 0.17396688
        0.1752743 0.17616567 0.17654815 0.17632501 0.17541191 0.173757
        0.1713552 0.16824593 0.16449255 0.16015206 0.15524863 0.14976034
        0.14362112 0.13673444 0.1289932 0.12029987 0.11058231 0.0998035
        0.08796579 0.07511231 0.06132718 0.046734903 0.03149843 0.015815554
        9.6158845e-05 0.16328102 0.16618058 0.16844428 0.17055221 0.17244367
        0.17405395 0.17530867 0.1761204 0.17639124 0.17602427 0.174943
        0.17311248 0.1705501 0.1673167 0.1634899 0.15913077 0.15425865
        0.14884089 0.14279798 0.13602008 0.12838879 0.119798526 0.11017268
        0.099472895 0.08770239 0.074906275 0.061170883 0.046622813 0.031426728
        0.015781784 9.3193165e-05 0.16346186 0.16636688 0.16862974 0.17072879
        0.1725994 0.17417155 0.17536421 0.17608319 0.17622645 0.17569919
        0.17443644 0.17242348 0.16970153 0.16635156 0.16246212 0.15809526
        0.15326326 0.14792185 0.14197832 0.13531025 0.12778871 0.11930074
        0.10976572 0.09914421 0.08744037 0.07470124 0.061015397 0.046511427
        0.031355686 0.015748637 8.9640525e-05 0.1636875 0.16659832 0.16885959
        0.17094745 0.17279251 0.17431836 0.17543654 0.17604609 0.17604233
        0.17533608 0.17387828 0.17167789 0.16880047 0.16534463 0.16140606
        0.15704416 0.1522621 0.14700343 0.1411626 0.13460541 0.12719335
        0.1188068 0.10936163 0.09881757 0.08717979 0.074497275 0.060860742
        0.046400752 0.031285293 0.015716098 8.551742e-05 0.16396259 0.16687948
        0.1691379 0.17121117 0.173024 0.17449245 0.17551976 0.17599872
        0.17582464 0.17491868 0.1732529 0.17086291 0.16783799 0.16429067
        0.16031912 0.15597653 0.15125516 0.14608598 0.14035127 0.13390599
        0.12660307 0.118316986 0.108960606 0.09849309 0.086920716 0.07429439
        0.06070692 0.046290778 0.031215535 0.01568415 8.084381e-05 0.16429356
        0.16721654 0.16947006 0.17152373 0.1732949 0.17469065 0.17560542
        0.17592712 0.17555529 0.17442764 0.17254288 0.16996534 0.16680558
        0.16318503 0.15919931 0.1548919 0.1502426 0.14516994 0.13954483
        0.13321246 0.12601823 0.11783155 0.10856282 0.09817089 0.08666322
        0.07409262 0.060553942 0.0461815 0.0311464 0.015652772 7.5643635e-05
        0.16468899 0.16761772 0.16986309 0.17188969 0.17360568 0.17490758
        0.17568107 0.17581224 0.17521124 0.17383999 0.17172913 0.1689718
        0.16569543 0.16202405 0.15804538 0.15379018 0.1492249 0.14425594
        0.13874383 0.13252528 0.12543918 0.11735075 0.10816843 0.097851045
        0.08640733 0.07389198 0.0604018 0.046072897 0.03107786 0.015621939
        6.994553e-05 0.16516058 0.16809404 0.17032604 0.1723143 0.17395535
        0.17513384 0.17572802 0.17562787 0.1747632 0.17312884 0.1707911
        0.16786928 0.1645008 0.16080506 0.15685686 0.15267187 0.14820279
        0.14334466 0.13794887 0.1318449 0.124866255 0.1168748 0.10777757
        0.09753365 0.086153105 0.07369248 0.060250487 0.04596495 0.031009886
        0.015591613 6.3783824e-05 0.16572438 0.16866031 0.17087047 0.17280291
        0.17433971 0.17535305 0.17571795 0.1753379 0.17417432 0.17226334
        0.1697075 0.16664578 0.16321643 0.15952672 0.15563418 0.15153791
        0.14717722 0.14243689 0.13716057 0.13117176 0.12429976 0.1164039
        0.10739037 0.09721875 0.08590054 0.07349409 0.06009997 0.045857623
        0.03094244 0.015561757 5.7199893e-05 0.16640303 0.16933686 0.17151098
        0.1733597 0.17474777 0.17553674 0.17560779 0.17489295 0.17339918
        0.17120937 0.16845742 0.16529116 0.16183904 0.1581891 0.15437858
        0.15038973 0.14614938 0.14153355 0.13637953 0.13050628 0.12373995
        0.11593821 0.10700689 0.09690638 0.08564964 0.07329681 0.05995021
        0.045750864 0.030875467 0.015532316 5.024412e-05 0.16722941 0.170152
        0.17226532 0.17398413 0.17515443 0.17563544 0.17533253 0.17422695
        0.17238379 0.16993107 0.16702189 0.1637982 0.1603677 0.1567938
        0.1530922 0.14922915 0.14512064 0.14063552 0.13560635 0.12984882
        0.12318706 0.11547783 0.10662719 0.096596524 0.08540036 0.07310057
        0.059801146 0.04564461 0.0308089 0.015503224 4.297874e-05 0.1682538
        0.17114614 0.17315271 0.17466158 0.17550583 0.17556399 0.17479578
        0.17325455 0.17106736 0.16839385 0.1653861 0.16216356 0.15880413
        0.15534393 0.15177791 0.1480583 0.14409237 0.1397437 0.13484153
        0.12919965 0.12264118 0.1150228 0.106251225 0.09628913 0.085152626
        0.07290528 0.05965268 0.04553876 0.030742647 0.015474396 3.5482266e-05
        0.16955826 0.17237747 0.17418475 0.17533925 0.1756891 0.17517813
        0.1738598 0.17187181 0.16938722 0.16656858 0.16354153 0.16038842
        0.15715262 0.15384376 0.1504389 0.14687932 0.14306588 0.13885874
        0.13408539 0.12855884 0.12210227 0.11457297 0.10587884 0.095984004
        0.08490625 0.07271077 0.059504654 0.045433175 0.030676574 0.015445713
        2.7856775e-05 0.17129265 0.17392452 0.17532685 0.17586209 0.17547452
        0.1742437 0.17234066 0.16996384 0.16728725 0.16443628 0.16148724
        0.15847808 0.15541902 0.15229777 0.14907807 0.1456937 0.14204174
        0.13798067 0.13333762 0.12792596 0.12156984 0.11412789 0.10550958
        0.095680766 0.08466089 0.07251672 0.059356786 0.045327608 0.030610474
        0.015417001 2.024088e-05 0.17378682 0.17584091 0.17634787 0.17581597
        0.17442228 0.1724122 0.17001998 0.1674222 0.16472763 0.16199018
        0.15922803 0.15643886 0.15360785 0.15070817 0.14769581 0.14450072
        0.1410186 0.13710788 0.13259655 0.12729943 0.12104245 0.11368627
        0.10514235 0.09537845 0.08441572 0.07232246 0.059208516 0.045221597
        0.030543974 0.015387977 1.283477e-05 0.17803812 0.17772838 0.17632923
        0.17425027 0.17182109 0.16926457 0.16670191 0.164179 0.16169702
        0.15923642 0.1567711 0.15427439 0.151719 0.14907232 0.14628802
        0.1432957 0.13999173 0.13623591 0.13185817 0.12667571 0.12051707
        0.113245524 0.10477497 0.09507524 0.08416924 0.072126724 0.05905882
        0.045114316 0.030476432 0.015358165 5.9469985e-06 0.1886586 0.1815418
        0.17588715 0.1714545 0.16795106 0.16509296 0.16264436 0.16042987
        0.15832806 0.1562577 0.15416443 0.1520101 0.14976375 0.1473927
        0.14485191 0.1420728 0.13895382 0.13535714 0.13111538 0.12604873
        0.11998885 0.11280204 0.10440486 0.09476936 0.08392022 0.071928665
        0.058907058 0.04500525 0.030407393 0.015327135 6.11e-14
      </DataArray>
      <DataArray type="Float32" Name="aspect_ratio" format="ascii" RangeMin="1.0013619661331177" RangeMax="12.389678001403809">
        2.9890149 2.498212 2.119841 1.8004904 1.5307467 1.3027661
        1.1099924 1.056045 1.2361591 1.4446954 1.6853715 1.9621245
        2.2790244 2.6401458 3.0493784 3.5101638 4.025128 4.5956
        5.221018 5.898254 6.6209245 7.3787746 8.157242 8.937324
        9.695883 10.406494 11.040895 11.570986 11.971203 12.220971
        12.389678 2.966684 2.4859886 2.1133523 1.7974371 1.5296723
        1.3027778 1.1105591 1.0551367 1.2347952 1.4428567 1.6830244
        1.95922 2.2755003 2.6359313 3.0444076 3.5043921 4.0185504
        4.5882573 5.212989 5.889632 6.611791 7.36918 8.147203
        8.926838 9.684943 10.395111 11.029101 11.558844 11.958801
        12.208419 12.377026 2.9601836 2.48131 2.1100662 1.7954383
        1.5287124 1.3025665 1.1108335 1.0545193 1.2337418 1.4413261
        1.6809708 1.9565884 2.2722259 2.6319454 3.0396476 3.4988186
        4.0121613 4.581096 5.2051344 5.8811755 6.602811 7.3597255
        8.137291 8.916464 9.674104 10.383814 11.017383 11.546764
        11.94645 12.195907 12.364402 2.9586391 2.479717 2.1086824
        1.7944263 1.5281353 1.3024005 1.111 1.0540735 1.2329142
        1.4400514 1.6791844 1.9542232 2.2692108 2.6282089 3.0351288
        3.493481 4.0060067 4.5741687 5.1975117 5.8729463 6.59405
        7.350478 8.127571 8.906268 9.663424 10.372659 11.005784
        11.534783 11.934175 12.183445 12.351808 2.9591205 2.4797094
        2.1084943 1.7942069 1.5280025 1.3024231 1.1111963 1.0536848
        1.2322103 1.4389482 1.6775997 1.9520754 2.266419 2.6246967
        3.0308337 3.4883683 4.00008 4.5674734 5.1901226 5.8649483
        6.585513 7.3414435 8.118051 8.896255 9.652909 10.3616495
        10.99431 11.522905 11.921977 12.171037 12.339241 2.9605947
        2.480588 2.1090527 1.7945575 1.528254 1.3026648 1.1114857
        1.0532831 1.2315537 1.4379436 1.6761521 1.9500903 2.2638047
        2.62137 3.0267303 3.4834528 3.9943578 4.560989 5.1829486
        5.857164 6.577184 7.332606 8.108713 8.886408 9.642545
        10.350773 10.982951 11.51112 11.909851 12.158678 12.326703
        2.962616 2.4819977 2.11009 1.7953087 1.5288098 1.3031099
        1.1118894 1.0528303 1.2308941 1.4369828 1.674788 1.9482186
        2.2613246 2.6181917 3.0227854 3.4787064 3.9888148 4.554693
        5.175969 5.8495746 6.569044 7.3239474 8.099542 8.876713
        9.632316 10.340014 10.971692 11.499418 11.89779 12.146366
        12.314193 2.964963 2.4837434 2.1114445 1.796343 1.529599
        1.303729 1.112407 1.0523096 1.2302005 1.4360261 1.6734647
        1.9464185 2.25894 2.6151268 3.018969 3.4741025 3.9834282
        4.548566 5.1691656 5.8421636 6.5610776 7.3154526 8.09052
        8.867153 9.622208 10.329362 10.960525 11.487791 11.885788
        12.134096 12.301712 2.9675145 2.48571 2.1130152 1.7975798
        1.5305661 1.3044922 1.1130291 1.051716 1.2294555 1.4350468
        1.6721497 1.9446559 2.2566173 2.612145 3.0152538 3.4696174
        3.9781775 4.542589 5.162523 5.8349156 6.5532703 7.3071074
        8.081636 8.8577175 9.61221 10.318806 10.949439 11.476233
        11.87384 12.121868 12.289258 2.9701993 2.487827 2.1147368
        1.7989638 1.5316693 1.3053725 1.1137439 1.0510507 1.2286505
        1.4340272 1.6708188 1.9429027 2.2543285 2.6092186 3.0116155
        3.46523 3.9730449 4.5367475 5.156027 5.8278184 6.545611
        7.2989016 8.07288 8.848395 9.602312 10.308336 10.938427
        11.464736 11.861942 12.109678 12.276833 2.9729729 2.4900486
        2.116567 1.8004568 1.5328776 1.3063482 1.1145387 1.0503182
        1.2277824 1.4329562 1.6694543 1.9411371 2.2520492 2.6063247
        3.0080326 3.4609218 3.9680142 4.531028 5.149666 5.8208623
        6.5380893 7.290825 8.06424 8.839178 9.592505 10.297947
        10.9274845 11.453297 11.850092 12.097526 12.264436 2.9758067
        2.4923449 2.1184757 1.8020318 1.5341679 1.3074017 1.1154027
        1.0495242 1.2268512 1.4318273 1.6680433 1.9393413 2.2497597
        2.6034427 3.004486 3.456676 3.9630716 4.525418 5.1434298
        5.8140373 6.5306973 7.28287 8.055711 8.830058 9.582784
        10.287631 10.916604 11.44191 11.8382845 12.085408 12.252066
        2.9786818 2.494695 2.1204433 1.8036696 1.5355233 1.3085195
        1.1163266 1.0486742 1.2258586 1.4306366 1.6665765 1.9375015
        2.2474432 2.600555 3.0009594 3.4524784 3.958205 4.519908
        5.13731 5.8073354 6.5234275 7.275029 8.047285 8.821029
        9.573141 10.277383 10.905782 11.430573 11.826519 12.073325
        12.239724 2.9815855 2.4970846 2.1224554 1.8053565 1.5369313
        1.3096911 1.1173027 1.0477734 1.2248068 1.4293824 1.6650472
        1.9356067 2.2450855 2.597647 2.9974387 3.448316 3.9534037
        4.5144887 5.1312985 5.8007503 6.5162735 7.267297 8.038956
        8.812085 9.563573 10.267199 10.895015 11.419283 11.814793
        12.0612755 12.227411 2.9845085 2.4995039 2.1245017 1.8070827
        1.5383826 1.3109086 1.1183249 1.0468259 1.223698 1.4280635
        1.6634504 1.933648 2.2426753 2.5947056 2.9939113 3.4441786
        3.9486585 4.5091524 5.1253886 5.7942753 6.509229 7.2596674
        8.030719 8.803221 9.554073 10.257073 10.884298 11.408036
        11.803103 12.049257 12.215125 2.9874444 2.5019453 2.1265752
        1.808841 1.5398707 1.3121662 1.1193888 1.0458353 1.2225342
        1.4266795 1.661782 1.9316179 2.2402027 2.5917203 2.9903672
        3.440057 3.9439619 4.503893 5.1195745 5.787905 6.5022893
        7.2521353 8.02257 8.794434 9.54464 10.247004 10.87363
        11.396831 11.7914505 12.0372715 12.202867 2.9903889 2.504404
        2.1286707 1.8106265 1.5413907 1.3134596 1.1204911 1.0448039
        1.2213167 1.4252293 1.6600387 1.9295105 2.2376597 2.5886827
        2.986798 3.4359436 3.9393077 4.498704 5.1138515 5.7816353
        6.4954495 7.2446966 8.0145035 8.785717 9.535267 10.236987
        10.863006 11.385664 11.779832 12.025315 12.190636 2.9933386
        2.5068765 2.130785 1.8124359 1.5429394 1.3147862 1.1216297
        1.0437332 1.220046 1.4237123 1.6582173 1.9273205 2.2350395
        2.5855849 2.983197 3.4318328 3.9346907 4.4935822 5.1082144
        5.7754607 6.488705 7.237347 8.0065155 8.777069 9.525951
        10.227019 10.852425 11.374535 11.768246 12.01339 12.178432
        2.9962912 2.50936 2.1329155 1.8142668 1.5445151 1.3161445
        1.1228037 1.0426241 1.2187222 1.4221264 1.6563145 1.9250429
        2.2323363 2.5824218 2.979559 3.4277203 3.9301069 4.4885225
        5.10266 5.7693777 6.482053 7.230082 7.998603 8.768486
        9.516691 10.217098 10.841884 11.3634405 11.756691 12.0014925
        12.166257 2.9992452 2.5118535 2.1350615 1.8161186 1.5461171
        1.317534 1.1240131 1.041476 1.2173438 1.4204696 1.6543267
        1.9226733 2.2295456 2.5791888 2.9758806 3.423603 3.925554
        4.483523 5.0971847 5.763383 6.4754877 7.2228985 7.9907618
        8.759963 9.507482 10.207221 10.83138 11.35238 11.745167
        11.989624 12.154109 3.0021994 2.514356 2.137222 1.817991
        1.5477456 1.3189554 1.125259 1.0402876 1.2159088 1.4187388
        1.6522498 1.9202076 2.2266636 2.5758832 2.9721599 3.4194796
        3.9210303 4.478581 5.0917854 5.757473 6.469007 7.2157927
        7.9829884 8.751498 9.498322 10.197385 10.820912 11.341351
        11.733672 11.977784 12.141988 3.0051532 2.5168674 2.1393979
        1.8198851 1.549402 1.3204107 1.1265436 1.0390567 1.2144136
        1.4169296 1.6500796 1.9176416 2.2236874 2.5725036 2.9683964
        3.41535 3.9165347 4.4736953 5.08646 5.7516437 6.4626064
        7.2087603 7.9752793 8.743087 9.489207 10.187587 10.810478
        11.330351 11.722205 11.965971 12.129893 3.0081067 2.5193882
        2.1415904 1.821803 1.551089 1.321903 1.1278703 1.0377796
        1.2128541 1.415037 1.6478109 1.9149715 2.2206147 2.5690494
        2.964591 3.411215 3.912068 4.468864 5.081207 5.745893
        6.4562826 7.201798 7.967631 8.734728 9.480135 10.177825
        10.800075 11.31938 11.710765 11.954185 12.117826 3.01106
        2.5219202 2.1438017 1.8237475 1.5528103 1.3234364 1.1292439
        1.0364516 1.2112242 1.4130547 1.6454382 1.9121937 2.217445
        2.5655224 2.9607463 3.4070768 3.9076307 4.4640875 5.0760226
        5.7402177 6.450032 7.194902 7.9600396 8.726416 9.471102
        10.168097 10.7897005 11.308436 11.699351 11.942425 12.105786
        3.0140135 2.524465 2.146035 1.825723 1.5545713 1.3250171
        1.1306707 1.0350665 1.2095165 1.4109752 1.6429554 1.9093049
        2.214178 2.561925 2.956866 3.4029388 3.9032247 4.4593654
        5.0709057 5.7346144 6.4438515 7.1880684 7.9525013 8.718148
        9.462106 10.1584 10.779354 11.297518 11.687962 11.93069
        12.093774 3.0169685 2.5270262 2.1482952 1.8277358 1.5563791
        1.326653 1.1321589 1.0336163 1.2077222 1.40879 1.6403565
        1.9063028 2.2108157 2.558262 2.9529555 3.3988056 3.8988523
        4.454697 5.065855 5.7290797 6.4377365 7.181293 7.9450126
        8.709921 9.453143 10.148729 10.769032 11.286622 11.676596
        11.91898 12.081787 3.0199268 2.5296075 2.1505883 1.8297936
        1.5582432 1.3283547 1.1337193 1.0320911 1.2058303 1.4064896
        1.6376354 1.9031863 2.207361 2.5545394 2.9490213 3.3946817
        3.8945162 4.4500837 5.0608683 5.723611 6.4316826 7.1745715
        7.937569 8.70173 9.44421 10.139085 10.758732 11.275747
        11.665252 11.907294 12.069828 3.022891 2.5322154 2.152923
        1.8319075 1.5601764 1.3301361 1.1353657 1.030479 1.2038285
        1.4040635 1.634786 1.8999553 2.2038195 2.5507648 2.9450712
        3.3905735 3.8902194 4.445524 5.0559425 5.718204 6.4256864
        7.1678996 7.930166 8.693572 9.435303 10.129461 10.748451
        11.264892 11.653929 11.895633 12.057895 3.0258644 2.534858
        2.155311 1.8340921 1.5621958 1.332015 1.1371154 1.0287645
        1.201702 1.4015007 1.631804 1.8966122 2.2001987 2.5469482
        2.9411142 3.3864868 3.8859644 4.441019 5.051076 5.7128544
        6.4197416 7.1612716 7.922798 8.685441 9.426416 10.119856
        10.738187 11.254054 11.642625 11.883993 12.045988 3.0288527
        2.5375469 2.1577687 1.8363677 1.564324 1.3340154 1.1389904
        1.02693 1.1994346 1.3987905 1.6286864 1.8931619 2.1965084
        2.543101 2.9371598 3.382428 3.8817542 4.4365673 5.0462646
        5.7075577 6.413843 7.154681 7.9154596 8.677332 9.417547
        10.110264 10.727935 11.243229 11.631338 11.872375 12.034108
        3.0318632 2.5402987 2.1603186 1.8387622 1.5665926 1.3361686
        1.1410192 1.0249537 1.1970086 1.3959234 1.6254337 1.8896128
        2.1927612 2.5392358 2.9332182 3.3784034 3.8775904 4.4321675
        5.0415053 5.7023077 6.4079843 7.1481223 7.908144 8.66924
        9.4086895 10.100681 10.717692 11.232416 11.620066 11.860777
        12.022254 3.0349078 2.5431373 2.1629932 1.8413148 1.5690442
        1.338517 1.1432376 1.0228109 1.194406 1.3928921 1.6220499
        1.8859774 2.1889727 2.535367 2.9293 3.3744185 3.8734744
        4.427817 5.036792 5.697098 6.4021573 7.1415863 7.900843
        8.661156 9.399837 10.091101 10.707454 11.22161 11.608807
        11.849199 12.0104265 3.0380037 2.546098 2.1658406 1.8440827
        1.5717397 1.3411163 1.1456901 1.0204736 1.19161 1.3896945
        1.618545 1.8822724 2.1851609 2.5315094 2.925415 3.3704777
        3.8694057 4.423511 5.032118 5.691919 6.3963523 7.135063
        7.893548 8.653071 9.390979 10.081516 10.697212 11.210807
        11.597556 11.837638 11.998625 3.041178 2.5492353 2.1689334
        1.8471507 1.574765 1.3440424 1.1484317 1.0179125 1.1886079
        1.3863349 1.6149359 1.878519 2.1813455 2.5276778 2.921571
        3.3665833 3.8653815 4.4192443 5.0274734 5.6867604 6.3905573
        7.1285415 7.886246 8.644975 9.382108 10.0719185 10.686961
        11.2 11.586311 11.826093 11.986849 3.0444748 2.5526369
        2.1723871 1.8506482 1.5782447 1.3473955 1.1515267 1.0151006
        1.1853957 1.3828281 1.611247 1.8747431 2.177547 2.5238848
        2.9177742 3.3627343 3.8613958 4.415005 5.022846 5.681607
        6.3847566 7.1220045 7.878922 8.636852 9.373209 10.062296
        10.676691 11.189181 11.575066 11.814559 11.975098 3.0479696
        2.556451 2.176393 1.85478 1.5823607 1.3513052 1.1550448
        1.0120196 1.1819834 1.3792019 1.6075107 1.8709723 2.173784
        2.5201397 2.9140248 3.3589249 3.8574367 4.410779 5.018217
        5.676438 6.378929 7.1154304 7.871555 8.628683 9.3642645
        10.052631 10.666387 11.178341 11.563812 11.803035 11.963373
        3.0518036 2.5609498 2.181289 1.8598803 1.5873744 1.3559278
        1.159048 1.008671 1.1784015 1.3754975 1.6037647 1.867233
        2.1700706 2.5164452 2.910316 3.35514 3.8534842 4.4065404
        5.013558 5.671223 6.3730426 7.1087885 7.864113 8.620438
        9.355247 10.0429 10.656029 11.167462 11.552541 11.791513
        11.951674 3.0562825 2.5666873 2.187716 1.8665011 1.5936416
        1.361421 1.1635627 1.0050906 1.1747057 1.3717676 1.6000463
        1.8635441 2.1664088 2.5127895 2.9066257 3.3513498 3.8495016
        4.402248 5.008823 5.6659145 6.3670473 7.102027 7.8565474
        8.612068 9.34611 10.033064 10.645582 11.156518 11.541231
        11.779986 11.940001 3.062277 2.5749764 2.1969643 1.8755138
        1.6015599 1.3678638 1.1685315 1.001362 1.1709747 1.368066
        1.5963804 1.8599054 2.162778 2.5091372 2.9029064 3.3474967
        3.845423 4.3978286 5.003934 5.660429 6.360858 7.0950613
        7.848773 8.603495 9.336782 10.023054 10.634991 11.145465
        11.529854 11.768436 11.928352 3.0734046 2.5895844 2.211567
        1.8879529 1.611263 1.3750631 1.1737398 1.0023752 1.1673076
        1.3644447 1.5927806 1.8563012 2.159142 2.5054355 2.8990924
        3.3435044 3.8411624 4.3931885 4.99879 5.6546607 6.354366
        7.087781 7.840682 8.594612 9.327164 10.012785 10.62418
        11.134244 11.518369 11.756844 11.916729 3.1106699 2.6173532
        2.2318323 1.9022585 1.6212155 1.3819858 1.1785989 1.0058315
        1.1639202 1.3610609 1.5893698 1.8528376 2.1555996 2.5017834
        2.8952866 3.339482 3.8368373 4.388453 4.993525 5.648751
        6.347718 7.0803356 7.8324237 8.5855665 9.317391 10.002378
        10.6132555 11.122937 11.506831 11.745238 11.905131
      </DataArray>
      <DataArray type="Float32" Name="jacobian" format="ascii" RangeMin="0.0011365249520167708" RangeMax="0.043015334755182266">
        0.0011827822 0.001406267 0.0016487375 0.0019330804 0.0022661688 0.0026558624
        0.0031111056 0.0036420086 0.0042598923 0.0049772845 0.0058078375 0.0067661325
        0.007867326 0.009126569 0.010558161 0.012174359 0.013983852 0.015989952
        0.018188572 0.020566173 0.023097787 0.025745329 0.02845643 0.031164225
        0.033788495 0.036238648 0.038418636 0.040233705 0.041598283 0.042444132
        0.043015335 0.0011932921 0.0014170997 0.0016596408 0.00194377 0.0022764336
        0.002665548 0.0031200894 0.0036501756 0.004267113 0.0049833953 0.005812626
        0.006769322 0.00786857 0.00912547 0.010554305 0.012167386 0.013973531
        0.015976228 0.018171556 0.020546073 0.023074817 0.025719631 0.028428061
        0.031133186 0.033754803 0.036202393 0.038380023 0.040193062 0.04155606
        0.04240088 0.042971406 0.0011968401 0.0014226364 0.0016669059 0.0019522274
        0.0022855506 0.0026748534 0.003129195 0.0036587631 0.00427491 0.004990143
        0.0058180485 0.0067731077 0.007870357 0.0091248555 0.010550881 0.0121608
        0.0139635615 0.015962817 0.018154813 0.020526197 0.023052013 0.025694042
        0.02839975 0.03110217 0.033721115 0.03616613 0.038341407 0.04015243
        0.04151388 0.042357698 0.042927578 0.0011980992 0.0014253268 0.0016711111
        0.0019578517 0.0022923292 0.0026824109 0.0031371103 0.0036666198 0.0042823157
        0.0049967286 0.0058234506 0.006776947 0.0078722285 0.009124332 0.010547545
        0.012154298 0.013953664 0.015949465 0.018138096 0.020506302 0.023029136
        0.025668323 0.028371263 0.03107095 0.03368721 0.036129672 0.038302626
        0.04011169 0.041471645 0.04231454 0.04288385 0.0011983748 0.0014265701
        0.0016734792 0.001961454 0.0022971295 0.00268822 0.003143615 0.003673428
        0.0042890003 0.0050028544 0.0058285804 0.006780638 0.007874025 0.009123774
        0.010544197 0.012147798 0.013943778 0.01593612 0.018121367 0.020486357
        0.02300616 0.025642456 0.028342586 0.03103951 0.033653084 0.036093004
        0.03826367 0.040070824 0.041429356 0.0422714 0.042840224 0.0011981432
        0.0014269868 0.0016746994 0.0019636515 0.002300391 0.0026925053 0.0031487423
        0.0036790902 0.0042948006 0.0050083417 0.005833276 0.0067840475 0.007875647
        0.009123114 0.010540797 0.012141284 0.013933905 0.015922802 0.01810466
        0.02046641 0.022983138 0.025616495 0.02831377 0.031007906 0.03361878
        0.03605617 0.038224578 0.040029865 0.041387036 0.042228296 0.042796694
        0.0011976174 0.0014268907 0.0016751679 0.0019648636 0.0023024848 0.0026955318
        0.0031526291 0.003683629 0.0042996584 0.0050130906 0.005837427 0.0067870757
        0.0078770155 0.009122296 0.010537313 0.012134745 0.013924056 0.015909536
        0.018088015 0.020446507 0.022960126 0.025590502 0.028284881 0.030976197
        0.03358436 0.03601922 0.038185395 0.03998885 0.041344702 0.042185236
        0.04275326 0.0011969068 0.0014264573 0.0016751236 0.0019653703 0.0023036932
        0.002697541 0.0031554436 0.0036871263 0.0043035806 0.005017057 0.005840963
        0.0067896484 0.007878064 0.009121271 0.010533715 0.012128169 0.013914232
        0.015896343 0.018071461 0.020426692 0.022937175 0.025564525 0.028255971
        0.030944437 0.03354987 0.035982203 0.038146153 0.039947808 0.041302375
        0.042142224 0.042709924 0.0011960735 0.0014257918 0.0016747168 0.0019653612
        0.0023042257 0.0026987337 0.0031573484 0.0036896884 0.0043066125 0.005020235
        0.005843846 0.0067917113 0.007878739 0.009119992 0.010529969 0.01212154
        0.013904435 0.015883235 0.018055027 0.020406997 0.022914322 0.025538614
        0.028227085 0.030912666 0.033515353 0.03594515 0.03810689 0.03990676
        0.041260075 0.042099275 0.04266669 0.0011951553 0.0014249609 0.0016740466
        0.0019649665 0.0023042364 0.0026992708 0.0031584895 0.0036914262 0.0043088193
        0.005022645 0.0058460613 0.006793229 0.007878997 0.009118422 0.010526047
        0.012114841 0.01389466 0.015870223 0.01803873 0.020387448 0.0228916
        0.025512798 0.028198257 0.030880924 0.033480838 0.035908096 0.03806762
        0.039865725 0.041217815 0.042056393 0.04262355 0.0011941767 0.001424009
        0.00167318 0.0019642785 0.0023038392 0.0026992788 0.003158991 0.0036924449
        0.0043102745 0.0050243237 0.005847612 0.0067941817 0.007878807 0.009116526
        0.010521921 0.012108055 0.013884902 0.015857305 0.018022578 0.020368066
        0.02286903 0.025487106 0.028169518 0.030849237 0.03344636 0.035871062
        0.038028378 0.039824724 0.041175604 0.04201359 0.042580508 0.001193154
        0.0014229662 0.0016721641 0.0019633635 0.002303119 0.0026988569 0.0031589565
        0.0036928393 0.004311051 0.0050253156 0.0058485135 0.0067945616 0.007878147
        0.009114277 0.010517569 0.012101166 0.013875154 0.01584449 0.018006587
        0.020348866 0.022846637 0.025461564 0.028140893 0.030817632 0.03341194
        0.035834074 0.037989177 0.039783772 0.041133456 0.04197086 0.042537563
        0.0011920983 0.0014218542 0.0016710324 0.0019622701 0.0023021407 0.002698083
        0.0031584713 0.0036926924 0.0043112203 0.0050256695 0.00584879 0.006794371
        0.007877003 0.009111656 0.01051297 0.012094159 0.0138654085 0.015831774
        0.01799076 0.02032986 0.022824435 0.025436187 0.0281124 0.030786127
        0.03337759 0.035797145 0.037950035 0.03974288 0.041091375 0.041928213
        0.042494714 0.0011910177 0.0014206883 0.0016698098 0.0019610343 0.002300953
        0.0026970184 0.0031576052 0.0036920756 0.004310846 0.005025435 0.0058484706
        0.006793618 0.007875371 0.00910865 0.01050811 0.012087024 0.013855659
        0.01581916 0.017975105 0.020311056 0.022802435 0.025410993 0.028084058
        0.030754741 0.03334334 0.035760295 0.037910957 0.039702054 0.04104937
        0.04188565 0.042451963 0.0011899178 0.00141948 0.0016685146 0.0019596834
        0.002299594 0.0026957118 0.0031564152 0.00369105 0.004309985 0.0050246576
        0.0058475863 0.0067923176 0.007873248 0.009105249 0.010502977 0.012079751
        0.013845903 0.015806645 0.017959623 0.020292463 0.02278065 0.025385993
        0.02805588 0.03072349 0.033309195 0.035723533 0.03787196 0.039661307
        0.041007444 0.04184318 0.04240931 0.0011888031 0.0014182376 0.0016671605
        0.0019582382 0.0022980925 0.0026942014 0.0031549481 0.0036896667 0.004308689
        0.005023382 0.005846169 0.0067904866 0.007870642 0.009101451 0.010497567
        0.012072337 0.013836137 0.01579423 0.017944317 0.020274086 0.022759086
        0.025361197 0.02802788 0.030692382 0.03327517 0.035686877 0.037833057
        0.03962065 0.040965606 0.0418008 0.042366747 0.0011876766 0.0014169676
        0.0016657583 0.0019567152 0.002296472 0.0026925178 0.0031532412 0.0036879685
        0.004307001 0.005021648 0.0058442485 0.0067881453 0.007867561 0.0090972595
        0.01049188 0.012064779 0.013826361 0.015781919 0.017929193 0.02025593
        0.02273775 0.025336614 0.028000062 0.03066143 0.033241272 0.035650328
        0.03779425 0.03958008 0.04092386 0.04175851 0.042324286 0.0011865407
        0.0014156749 0.0016643159 0.0019551266 0.0022947504 0.0026906854 0.0031513255
        0.0036859908 0.0043049585 0.0050194906 0.005841855 0.006785314 0.007864017
        0.009092681 0.010485918 0.012057082 0.013816577 0.01576971 0.017914252
        0.020237999 0.02271665 0.02531225 0.02797244 0.030630644 0.033207517
        0.0356139 0.037755553 0.039539613 0.040882207 0.04171632 0.04228192
        0.001185397 0.0014143633 0.0016628397 0.0019534822 0.0022929416 0.0026887234
        0.0031492251 0.0036837626 0.004302593 0.0050169397 0.0058390144 0.006782015
        0.007860028 0.0090877265 0.0104796905 0.01204925 0.013806791 0.015757611
        0.017899496 0.020220296 0.022695787 0.025288114 0.027945017 0.03060003
        0.033173908 0.0355776 0.037716966 0.039499246 0.040840656 0.041674223
        0.042239644 0.001184247 0.0014130352 0.0016613342 0.0019517893 0.0022910563
        0.0026866468 0.00314696 0.0036813074 0.0042999308 0.0050140233 0.005835753
        0.006778269 0.007855612 0.009082412 0.010473211 0.012041296 0.01379701
        0.015745625 0.01788493 0.020202825 0.022675168 0.02526421 0.027917802
        0.030569596 0.033140454 0.03554143 0.0376785 0.03945899 0.040799204
        0.041632228 0.042197466 0.0011830912 0.0014116929 0.001659803 0.0019500535
        0.0022891033 0.0026844672 0.003144545 0.0036786438 0.0042969924 0.0050107623
        0.005832093 0.006774099 0.007850789 0.009076757 0.010466496 0.0120332325
        0.013787245 0.015733758 0.01787056 0.02018559 0.022654792 0.025240537
        0.027890801 0.03053935 0.033107165 0.035505407 0.037640158 0.03941885
        0.04075786 0.04159033 0.042155385 0.0011819304 0.0014103376 0.0016582486
        0.0019482789 0.0022870887 0.0026821932 0.0031419916 0.0036757856 0.0042937947
        0.0050071767 0.005828054 0.006769527 0.007845585 0.009070788 0.01045957
        0.012025079 0.013777508 0.015722021 0.017856387 0.02016859 0.022634666
        0.025217105 0.027864017 0.030509295 0.033074044 0.035469532 0.037601948
        0.039378826 0.040716622 0.04154853 0.042113397 0.0011807649 0.0014089701
        0.0016566725 0.001946468 0.0022850162 0.0026798304 0.003139307 0.0036727428
        0.0042903502 0.005003281 0.0058236565 0.0067645772 0.007840026 0.00906453
        0.010452459 0.012016857 0.013767817 0.015710423 0.01784242 0.020151831
        0.02261479 0.025193915 0.027837453 0.030479439 0.033041093 0.035433806
        0.037563875 0.039338928 0.0406755 0.041506838 0.042071503 0.0011795944
        0.0014075907 0.0016550755 0.0019446225 0.0022828882 0.0026773822 0.0031364963
        0.003669521 0.0042866664 0.004999087 0.0058189174 0.0067592743 0.007834142
        0.009058019 0.010445192 0.012008593 0.013758189 0.015698973 0.017828664
        0.020135317 0.022595169 0.02517097 0.02781112 0.030449785 0.033008326
        0.035398245 0.037525944 0.039299153 0.040634487 0.041465245 0.0420297
        0.0011784186 0.001406199 0.0016534575 0.0019427423 0.002280705 0.0026748492
        0.00313356 0.0036661234 0.0042827493 0.0049946066 0.0058138557 0.006753645
        0.00782797 0.009051293 0.010437809 0.012000316 0.013748644 0.015687685
        0.017815124 0.020119052 0.022575805 0.025148276 0.027785014 0.030420342
        0.032975744 0.035362847 0.037488163 0.039259512 0.040593594 0.041423757
        0.041987993 0.0011772368 0.0014047939 0.0016518174 0.0019408261 0.0022784648
        0.0026722297 0.0031304965 0.0036625478 0.0042786007 0.004989847 0.0058084903
        0.0067477208 0.00782155 0.009044396 0.010430349 0.011992059 0.013739206
        0.015676577 0.01780181 0.02010304 0.022556702 0.025125835 0.027759148
        0.030391114 0.032943357 0.03532762 0.037450533 0.039220005 0.04055282
        0.041382376 0.041946378 0.001176048 0.0014033741 0.001650153 0.0019388711
        0.0022761642 0.002669518 0.0031273 0.0036587901 0.0042742197 0.0049848184
        0.0058028433 0.006741538 0.007814927 0.009037376 0.010422857 0.011983856
        0.013729899 0.015665658 0.01778873 0.020087287 0.022537865 0.025103651
        0.027733522 0.030362107 0.032911167 0.035292577 0.037413064 0.03918064
        0.04051217 0.041341104 0.041904856 0.0011748502 0.0014019368 0.0016484609
        0.0019368727 0.0022737966 0.0026667065 0.003123961 0.0036548425 0.004269606
        0.0049795303 0.005796942 0.0067351395 0.007808156 0.009030291 0.010415382
        0.0119757475 0.013720751 0.01565495 0.017775897 0.020071797 0.022519296
        0.025081731 0.027708145 0.030333329 0.03287919 0.03525772 0.03737576
        0.039141424 0.04047165 0.04129994 0.041863427 0.0011736413 0.0014004783
        0.0016467359 0.0019348236 0.0022713523 0.0026637826 0.0031204661 0.0036506942
        0.0042647566 0.0049739974 0.0057908203 0.0067285784 0.007801299 0.009023202
        0.010407979 0.0119677745 0.013711791 0.015644468 0.017763318 0.020056581
        0.022501005 0.025060082 0.027683023 0.03030479 0.032847427 0.035223056
        0.03733863 0.039102357 0.04043126 0.041258886 0.041822087 0.001172418
        0.0013989931 0.0016449707 0.0019327133 0.0022688173 0.0026607295 0.0031167981
        0.0036463328 0.0042596734 0.0049682423 0.0057845237 0.006721917 0.0077944277
        0.009016177 0.010400704 0.011959981 0.013703048 0.015634237 0.017751012
        0.020041648 0.022483 0.025038712 0.02765817 0.030276498 0.032815892
        0.0351886 0.037301686 0.039063454 0.040391006 0.04121795 0.04178084
        0.0011711755 0.0013974737 0.0016431544 0.0019305275 0.0022661723 0.0026575245
        0.0031129355 0.0036417462 0.0042543635 0.0049622986 0.0057781124 0.006715234
        0.0077876234 0.009009291 0.0103936205 0.011952412 0.013694557 0.015624275
        0.01773899 0.02002701 0.022465292 0.025017634 0.027633596 0.03024847
        0.032784604 0.035154365 0.037264936 0.039024718 0.040350895 0.041177128
        0.041739687 0.001169907 0.0013959089 0.0016412718 0.0019282448 0.0022633912
        0.0026541387 0.0031088535 0.0036369266 0.004248847 0.004956218 0.0057716654
        0.006708621 0.0077809785 0.009002626 0.010386792 0.011945118 0.0136863515
        0.015614611 0.017727276 0.020012684 0.022447897 0.024996866 0.02760932
        0.030220723 0.03275357 0.035120368 0.037228398 0.038986165 0.040310934
        0.041136425 0.04169862 0.0011686027 0.0013942826 0.0016393003 0.0019258359
        0.002260438 0.0026505357 0.0031045284 0.0036318763 0.0042431634 0.004950078
        0.0057652863 0.00670219 0.007774596 0.008996267 0.010380286 0.011938149
        0.013678472 0.015605272 0.01771589 0.019998692 0.022430837 0.024976423
        0.027585361 0.030193277 0.03272282 0.035086624 0.037192084 0.038947806
        0.040271137 0.041095845 0.041657645 0.0011672478 0.00139257 0.0016372064
        0.0019232578 0.002257265 0.0026466749 0.0030999428 0.0036266202 0.0042373864
        0.004943993 0.005759106 0.0066960696 0.00776859 0.008990306 0.010374175
        0.011931562 0.013670959 0.015596295 0.017704865 0.019985063 0.022414139
        0.024956342 0.02756175 0.030166164 0.03269238 0.035053164 0.037156023
        0.038909663 0.040231507 0.0410554 0.04161676 0.0011658184 0.0013907332
        0.0016349395 0.0019204494 0.0022538106 0.0026425153 0.0030951025 0.0036212243
        0.0042316387 0.0049381186 0.005753289 0.006690409 0.007763083 0.008984843
        0.010368537 0.011925417 0.0136638675 0.015587725 0.017694244 0.019971836
        0.022397844 0.02493666 0.027538532 0.030139426 0.03266229 0.035020024
        0.03712024 0.038871754 0.04019207 0.041015092 0.041575965 0.0011642759
        0.0013887095 0.0016324198 0.0019173236 0.002250005 0.0026380366 0.003090063
        0.0036158254 0.004226114 0.0049326685 0.005748034 0.006685376 0.0077582095
        0.008979984 0.010363459 0.01191979 0.013657262 0.015579625 0.017684085
        0.019959074 0.022382015 0.02491744 0.027515767 0.030113125 0.03263261
        0.034987256 0.037084788 0.03883412 0.040152848 0.040974937 0.04153526
        0.0011625495 0.0013863913 0.0016295206 0.0019137638 0.002245789 0.002633282
        0.003084984 0.003610672 0.0042210985 0.004927917 0.005743575 0.0066811577
        0.0077541173 0.008975848 0.010359043 0.011914777 0.013651236 0.015572086
        0.017674483 0.019946868 0.022366747 0.024898782 0.027493553 0.030087354
        0.03260343 0.03495494 0.037049733 0.038796816 0.040113878 0.04093495
        0.04149464 0.0011604924 0.0013835795 0.0016260432 0.0019096468 0.0022411882
        0.0026284545 0.0030802106 0.0036061741 0.00421699 0.0049242023 0.005740182
        0.0066779675 0.0077509833 0.008972593 0.010355439 0.011910522 0.013645936
        0.015565258 0.017665591 0.019935379 0.022352202 0.024880849 0.027472053
        0.030062271 0.032574896 0.03492321 0.037015185 0.038759924 0.04007522
        0.040895168 0.04145411 0.0011577071 0.0013798858 0.0016217269 0.0019049741
        0.002236511 0.0026240987 0.003076387 0.0036029473 0.0042143045 0.004921932
        0.005738174 0.006676068 0.007749041 0.008970442 0.010352874 0.011907263
        0.01364161 0.015559401 0.01765768 0.019924887 0.022338666 0.024863925
        0.02745155 0.03003815 0.03254726 0.0348923 0.03698134 0.038723607
        0.04003698 0.04085564 0.04141367 0.0011526257 0.001374644 0.0016165216
        0.0019003309 0.0022327506 0.0026213152 0.0030744954 0.0036017618 0.004213608
        0.004921521 0.005737876 0.006675742 0.007748561 0.008969672 0.010351637
        0.011905305 0.013638582 0.0155548565 0.017651105 0.01991576 0.022326514
        0.024848392 0.027432417 0.03001535 0.032520864 0.0348625 0.036948454
        0.03868806 0.0399993 0.040816434 0.041373316 0.001136525 0.0013634695
        0.0016093502 0.0018962359 0.0022308682 0.0026209233 0.0030750365 0.0036028272
        0.0042149085 0.0049228547 0.005739103 0.0066767596 0.0077492804 0.008969991
        0.010351405 0.011904293 0.01363646 0.015551195 0.017645404 0.0199075
        0.022315232 0.02483372 0.027414128 0.029993357 0.032495223 0.034833383
        0.036916163 0.038652997 0.039961975 0.040777456 0.04133305
      </DataArray>
    </PointData>
    <CellData>
    </CellData>
    <Points>
      <DataArray type="Float32" Name="Points" NumberOfComponents="3" format="ascii" RangeMin="1.0972023368932626" RangeMax="1.261857823159327">
        0.83128875 0.039081268 0.7150417 0.8318142 0.039081335 0.7150429
        0.83243227 0.039081413 0.7150443 0.8331589 0.0390815 0.71504587
        0.8340127 0.0390816 0.7150477 0.8350152 0.039081715 0.7150498
        0.83619136 0.03908184 0.7150521 0.8375701 0.039081983 0.71505475
        0.8391844 0.03908214 0.7150576 0.8410722 0.03908231 0.7150608
        0.84327656 0.039082497 0.71506417 0.8458461 0.0390827 0.71506786
        0.84883523 0.03908292 0.7150718 0.8523043 0.039083157 0.71507627
        0.85631937 0.039083444 0.71508145 0.86095166 0.0390838 0.71508795
        0.86627674 0.03908426 0.71509635 0.8723726 0.03908484 0.715107
        0.8793174 0.039085567 0.71512026 0.8871863 0.039086465 0.7151367
        0.89604735 0.039087556 0.71515673 0.90595645 0.039088868 0.7151807
        0.91695166 0.039090414 0.715209 0.9290473 0.0390922 0.71524173
        0.94222784 0.039094232 0.7152788 0.9564429 0.039096482 0.71532
        0.97160393 0.039098922 0.7153647 0.9875829 0.0391015 0.71541184
        1.0042145 0.039104145 0.7154602 1.0213014 0.03910677 0.7155083
        1.0386229 0.039109293 0.7155544 0.8314914 0.040134557 0.7149838
        0.8320203 0.0401314 0.7149852 0.8326413 0.0401287 0.71498674
        0.83337045 0.04012645 0.71498847 0.83422625 0.040124618 0.71499044
        0.8352303 0.040123194 0.7149926 0.83640754 0.040122148 0.7149949
        0.8377868 0.040121473 0.71499753 0.8394012 0.040121153 0.71500045
        0.8412885 0.04012118 0.71500355 0.8434918 0.04012154 0.71500695
        0.84605956 0.040122215 0.7150106 0.8490462 0.04012319 0.71501446
        0.8525118 0.040124446 0.7150188 0.8565225 0.04012596 0.715024
        0.86114925 0.040127702 0.71503043 0.8664676 0.04012963 0.7150388
        0.87255543 0.04013169 0.7150494 0.8794911 0.04013382 0.71506256
        0.88734984 0.04013599 0.71507895 0.89619976 0.04013818 0.7150989
        0.9060969 0.0401404 0.7151228 0.9170794 0.040142678 0.7151511
        0.9291615 0.040145036 0.71518373 0.9423277 0.040147502 0.7152208
        0.95652765 0.04015008 0.7152619 0.97167283 0.040152747 0.7153065
        0.98763525 0.040155474 0.7153536 1.0042497 0.040158194 0.71540195
        1.0213192 0.04016083 0.7154499 1.0386229 0.040163312 0.71549606
        0.83169407 0.041187756 0.7149244 0.83222413 0.041182533 0.7149259
        0.8328467 0.041177746 0.71492755 0.8335776 0.041173503 0.7149294
        0.8344351 0.04116986 0.7149314 0.83544064 0.04116687 0.71493363
        0.83661914 0.04116455 0.7149361 0.8379993 0.041162908 0.71493876
        0.8396141 0.04116194 0.7149417 0.8415013 0.041161645 0.7149447
        0.84370387 0.041161995 0.7149481 0.84627026 0.041162975 0.7149517
        0.8492547 0.041164547 0.7149555 0.8527173 0.04116667 0.71495986
        0.8567238 0.04116927 0.7149649 0.86134523 0.04117227 0.71497136
        0.8666571 0.041175548 0.7149796 0.8727371 0.04117897 0.71499014
        0.8796638 0.04118241 0.71500325 0.8875125 0.041185763 0.7150196
        0.89635146 0.041188978 0.7150395 0.90623677 0.04119205 0.7150634
        0.91720665 0.041195013 0.7150915 0.92927533 0.041197903 0.7151242
        0.9424273 0.041200772 0.71516114 0.9566122 0.041203648 0.7152022
        0.9717415 0.04120653 0.71524674 0.9876874 0.04120939 0.71529377
        1.0042849 0.041212168 0.71534204 1.0213368 0.041214805 0.71539
        1.0386229 0.041217238 0.7154361 0.8318967 0.042240866 0.71486336
        0.83242714 0.04223416 0.714865 0.83305043 0.04222778 0.71486676
        0.83378226 0.042221908 0.7148687 0.8346409 0.042216685 0.7148708
        0.8356477 0.04221224 0.7148731 0.83682734 0.042208657 0.71487564
        0.8382084 0.042205993 0.71487826 0.8398238 0.04220428 0.71488124
        0.8417111 0.04220353 0.71488434 0.84391326 0.042203743 0.7148877
        0.8464785 0.04220489 0.71489125 0.84946096 0.04220692 0.71489507
        0.8529207 0.04220977 0.7148993 0.8569233 0.04221333 0.7149043
        0.86153966 0.042217456 0.7149107 0.86684513 0.042221975 0.7149189
        0.8729176 0.042226657 0.71492934 0.8798355 0.04223131 0.71494246
        0.88767433 0.042235766 0.71495867 0.8965025 0.042239934 0.7149785
        0.9063761 0.042243805 0.71500236 0.9173335 0.042247396 0.7150305
        0.92938876 0.042250786 0.71506304 0.9425266 0.04225403 0.7151
        0.9566965 0.04225718 0.715141 0.97181004 0.04226025 0.7151855
        0.9877395 0.042263225 0.71523243 1.0043199 0.04226606 0.71528065
        1.0213544 0.042268693 0.71532863 1.0386229 0.042271074 0.7153746
        0.8320994 0.04329389 0.71480083 0.83262986 0.043286048 0.7148025
        0.8332533 0.04327842 0.71480435 0.8339856 0.043271217 0.7148064
        0.83484495 0.04326465 0.7148085 0.83585256 0.043258905 0.7148109
        0.83703303 0.04325413 0.7148135 0.8384149 0.043250453 0.7148163
        0.8400308 0.043247953 0.7148192 0.84191835 0.04324668 0.71482235
        0.84412014 0.04324665 0.71482563 0.84668446 0.04324785 0.7148292
        0.8496652 0.043250225 0.71483296 0.85312223 0.043253683 0.71483713
        0.85712105 0.043258082 0.71484214 0.86173254 0.04326323 0.71484846
        0.8670318 0.043268874 0.7148566 0.8730969 0.043274716 0.714867
        0.8800062 0.04328049 0.71488005 0.8878353 0.04328597 0.71489626
        0.89665276 0.04329103 0.714916 0.9065149 0.04329563 0.7149398
        0.9174598 0.043299813 0.71496785 0.9295019 0.04330366 0.71500033
        0.9426255 0.043307252 0.7150373 0.95678055 0.043310657 0.71507823
        0.9718784 0.043313906 0.71512264 0.9877914 0.043316983 0.71516955
        1.0043548 0.043319866 0.7152177 1.0213721 0.043322492 0.71526563
        1.0386229 0.043324824 0.7153116 0.83230203 0.044346817 0.71473676
        0.8328323 0.04433808 0.7147385 0.83345574 0.04432945 0.7147404
        0.8341881 0.044321157 0.7147425 0.8350477 0.04431345 0.71474475
        0.8360558 0.044306558 0.71474713 0.8372369 0.044300698 0.71474975
        0.8386193 0.044296056 0.7147526 0.84023565 0.044292767 0.7147556
        0.8421233 0.04429093 0.7147587 0.8443249 0.044290595 0.71476203
        0.84688836 0.04429176 0.71476555 0.84986746 0.04429438 0.71476924
        0.85332197 0.044298343 0.7147734 0.8573172 0.044303477 0.71477836
        0.86192393 0.04430954 0.7147847 0.8672172 0.04431621 0.7147928
        0.873275 0.044323117 0.7148031 0.8801758 0.044329923 0.71481603
        0.8879954 0.044336345 0.71483225 0.89680237 0.04434223 0.7148519
        0.906653 0.044347513 0.71487564 0.9175857 0.04435225 0.71490365
        0.9296146 0.04435652 0.71493614 0.9427242 0.044360436 0.714973
        0.9568644 0.044364072 0.7150139 0.9719466 0.044367477 0.71505827
        0.9878433 0.04437066 0.7151051 1.0043898 0.04437358 0.7151533
        1.0213896 0.0443762 0.7152011 1.0386229 0.04437847 0.715247
        0.8325047 0.04539965 0.7146711 0.83303463 0.04539019 0.71467286
        0.83365786 0.045380745 0.71467483 0.8343901 0.045371544 0.714677
        0.8352498 0.045362867 0.7146793 0.836258 0.045354985 0.71468174
        0.83743936 0.04534815 0.7146845 0.8388221 0.04534261 0.7146873
        0.8404387 0.045338556 0.7146903 0.8423265 0.045336142 0.7146935
        0.8445278 0.04533546 0.7146968 0.84709036 0.045336533 0.7147003
        0.850068 0.045339316 0.71470404 0.85352004 0.045343705 0.71470815
        0.8575118 0.04534948 0.71471304 0.8621139 0.045356356 0.7147193
        0.86740124 0.045363948 0.71472734 0.87345195 0.045371834 0.71473765
        0.8803445 0.045379587 0.7147505 0.8881547 0.045386884 0.7147666
        0.89695126 0.045393523 0.7147863 0.9067906 0.04539944 0.71480995
        0.917711 0.04540468 0.71483797 0.9297269 0.045409348 0.71487033
        0.94282264 0.045413557 0.71490717 0.956948 0.045417417 0.714948
        0.9720146 0.045420967 0.71499234 0.98789495 0.045424234 0.71503913
        1.0044246 0.045427196 0.7150872 1.0214071 0.045429796 0.7151349
        1.0386229 0.04543203 0.7151808 0.83270735 0.046452392 0.7146039
        0.83323693 0.046442337 0.71460575 0.83385974 0.046432212 0.7146077
        0.83459175 0.046422265 0.7146099 0.83545125 0.04641276 0.71461225
        0.8364594 0.046404015 0.71461487 0.8376408 0.046396315 0.71461755
        0.83902365 0.04638996 0.7146205 0.8406404 0.04638519 0.7146235
        0.8425281 0.04638221 0.71462667 0.844729 0.04638115 0.71463
        0.84729075 0.046382084 0.71463346 0.8502668 0.046384968 0.71463716
        0.85371655 0.04638969 0.7146413 0.85770494 0.046396032 0.71464616
        0.8623024 0.04640364 0.71465236 0.86758405 0.046412073 0.7146604
        0.8736278 0.046420842 0.7146706 0.8805122 0.04642946 0.7146835
        0.8883131 0.046437558 0.71469945 0.89709944 0.046444893 0.7147191
        0.9069276 0.046451394 0.7147427 0.91783595 0.046457097 0.7147707
        0.92983884 0.046462126 0.714803 0.94292074 0.04646661 0.71483976
        0.95703137 0.046470672 0.7148806 0.9720824 0.04647436 0.7149248
        0.9879465 0.046477716 0.71497154 1.0044593 0.046480708 0.7150196
        1.0214245 0.0464833 0.71506727 1.0386229 0.04648549 0.7151131
        0.83291 0.047505025 0.7145352 0.8334391 0.047494482 0.714537
        0.83406156 0.047483798 0.71453905 0.83479315 0.047473215 0.71454126
        0.8356523 0.047463015 0.7145437 0.8366602 0.047453523 0.71454626
        0.83784145 0.047445063 0.71454906 0.8392242 0.04743797 0.714552
        0.8408409 0.04743253 0.714555 0.8427284 0.04742901 0.71455824
        0.8449288 0.04742758 0.71456164 0.84748966 0.04742834 0.71456504
        0.8504642 0.047431283 0.71456873 0.8539116 0.047436286 0.7145728
        0.85789657 0.047443103 0.7145776 0.86248964 0.047451355 0.7145838
        0.8677656 0.047460552 0.71459186 0.8738024 0.04747012 0.714602
        0.88067883 0.04747953 0.7146148 0.8884707 0.04748835 0.7146308
        0.8972469 0.047496323 0.71465033 0.907064 0.047503352 0.71467394
        0.9179604 0.047509488 0.7147018 0.9299504 0.047514852 0.7147341
        0.94301856 0.04751959 0.7147708 0.95711446 0.047523834 0.71481156
        0.97215 0.047527652 0.7148558 0.98799795 0.047531087 0.71490246
        1.0044938 0.04753411 0.71495044 1.0214419 0.047536697 0.7149981
        1.0386229 0.047538847 0.71504384 0.8331126 0.048557553 0.71446484
        0.83364135 0.048546612 0.71446675 0.8342633 0.048535455 0.71446884
        0.83499444 0.048524335 0.7144711 0.8358531 0.048513547 0.71447355
        0.83686066 0.048503414 0.71447617 0.83804154 0.048494287 0.71447897
        0.839424 0.048486535 0.71448195 0.8410404 0.04848049 0.71448505
        0.8429275 0.048476458 0.71448827 0.84512734 0.04847466 0.7144916
        0.8476872 0.048475236 0.71449506 0.8506602 0.048478194 0.7144987
        0.8541052 0.048483424 0.71450275 0.8580869 0.048490662 0.7145076
        0.86267555 0.048499495 0.7145138 0.8679459 0.04850936 0.7145217
        0.873976 0.048519656 0.71453184 0.8808445 0.048529774 0.7145446
        0.8886274 0.048539255 0.7145605 0.8973937 0.048547804 0.71458
        0.90719986 0.04855532 0.71460354 0.9180844 0.04856184 0.7146314
        0.93006164 0.04856751 0.7146636 0.943116 0.048572484 0.7147003
        0.95719737 0.048576895 0.714741 0.9722175 0.048580837 0.71478516
        0.9880492 0.048584342 0.71483177 1.0045284 0.0485874 0.7148797
        1.0214593 0.048589982 0.7149273 1.0386229 0.048592094 0.71497303
        0.83331525 0.049609993 0.71439296 0.8338435 0.049598705 0.7143949
        0.83446497 0.049587153 0.714397 0.8351956 0.049575582 0.71439934
        0.8360537 0.049564287 0.7144018 0.83706075 0.049553603 0.71440446
        0.83824116 0.049543902 0.7144073 0.8396232 0.049535565 0.7144103
        0.8412391 0.04952897 0.71441346 0.8431257 0.049524475 0.7144167
        0.84532475 0.049522333 0.71442 0.8478836 0.049522717 0.7144235
        0.8508549 0.049525663 0.7144271 0.85429746 0.04953108 0.7144311
        0.8582759 0.049538683 0.714436 0.86286014 0.049548015 0.7144421
        0.868125 0.04955848 0.71445 0.8741485 0.04956942 0.7144601
        0.8810092 0.04958018 0.71447283 0.88878334 0.049590252 0.7144887
        0.89753973 0.049599323 0.7145082 0.90733516 0.049607273 0.7145316
        0.91820794 0.04961415 0.71455944 0.93017244 0.0496201 0.7145916
        0.9432132 0.049625285 0.7146282 0.95728004 0.049629852 0.7146689
        0.9722848 0.049633905 0.71471304 0.9881004 0.049637485 0.7147596
        1.0045629 0.049640577 0.71480745 1.0214767 0.049643155 0.714855
        1.0386229 0.04964525 0.7149007 0.8335179 0.05066231 0.7143196
        0.83404565 0.050650742 0.71432155 0.8346666 0.05063886 0.71432364
        0.83539665 0.05062691 0.71432596 0.83625424 0.05061519 0.7143285
        0.83726066 0.050604038 0.7143312 0.8384405 0.050593838 0.7143341
        0.8398219 0.050584994 0.7143371 0.84143716 0.050577916 0.71434027
        0.84332305 0.05057299 0.71434355 0.8455213 0.05057052 0.7143469
        0.84807885 0.05057072 0.71435034 0.8510484 0.050573647 0.714354
        0.85448855 0.05057921 0.714358 0.8584636 0.05058712 0.71436274
        0.8630435 0.0505969 0.7143689 0.86830294 0.050607905 0.71437675
        0.87431985 0.050619412 0.71438676 0.88117296 0.050630737 0.71439946
        0.88893837 0.050641336 0.7144153 0.8976851 0.050650876 0.71443474
        0.9074698 0.05065921 0.71445817 0.91833097 0.050666407 0.71448594
        0.9302829 0.050672602 0.7145181 0.94331014 0.050677985 0.71455467
        0.9573625 0.0506827 0.71459526 0.9723519 0.050686855 0.7146393
        0.9881515 0.0506905 0.71468586 1.0045973 0.050693624 0.71473366
        1.021494 0.050696217 0.71478117 1.0386229 0.050698284 0.7148268
        0.83372056 0.051714525 0.7142446 0.8342478 0.051702715 0.7142466
        0.8348682 0.05169056 0.7142488 0.83559763 0.051678296 0.7142511
        0.8364546 0.05166621 0.71425366 0.83746034 0.051654667 0.7142564
        0.83863944 0.051644035 0.71425927 0.8400202 0.05163475 0.7142623
        0.8416347 0.051627252 0.7142655 0.84351975 0.05162195 0.7142688
        0.8457169 0.051619183 0.71427214 0.8482731 0.051619206 0.7142756
        0.8512408 0.05162211 0.7142792 0.85467845 0.051627796 0.7142832
        0.85865015 0.051635966 0.71428794 0.8632257 0.051646132 0.7142941
        0.8684797 0.0516576 0.71430194 0.87449014 0.05166961 0.71431196
        0.88133574 0.051681433 0.71432453 0.88909256 0.051692497 0.7143403
        0.8978298 0.051702444 0.71435976 0.9076039 0.05171112 0.7143831
        0.9184536 0.051718596 0.71441084 0.930393 0.051725022 0.71444297
        0.9434067 0.05173058 0.7144795 0.95744467 0.051735427 0.71452004
        0.97241884 0.051739685 0.714564 0.9882024 0.05174339 0.7146106
        1.0046316 0.051746562 0.71465826 1.0215112 0.051749155 0.71470577
        1.0386229 0.05175122 0.71475136 0.8339232 0.052766632 0.7141681
        0.83444995 0.052754622 0.7141701 0.8350698 0.052742235 0.71417224
        0.8357986 0.052729715 0.7141746 0.83665484 0.05271733 0.71417725
        0.83765984 0.052705444 0.71418 0.8388382 0.05269445 0.7141829
        0.8402181 0.0526848 0.714186 0.84183174 0.052676927 0.7141892
        0.8437158 0.052671295 0.71419245 0.8459118 0.052668277 0.7141958
        0.8484665 0.05266814 0.71419924 0.85143226 0.052671004 0.7142029
        0.8548672 0.052676793 0.7142068 0.8588355 0.052685197 0.7142116
        0.8634067 0.05269569 0.71421766 0.8686554 0.052707557 0.71422553
        0.8746594 0.05272 0.7142355 0.88149756 0.05273225 0.71424806
        0.889246 0.052743718 0.71426386 0.8979737 0.05275401 0.7142832
        0.90773743 0.052763 0.7143066 0.91857564 0.052770726 0.71433425
        0.93050265 0.052777354 0.7143663 0.943503 0.05278306 0.7144028
        0.9575266 0.052788034 0.7144433 0.9724856 0.05279238 0.71448725
        0.9882532 0.05279615 0.7145337 1.0046659 0.052799363 0.7145814
        1.0215285 0.052801978 0.71462876 1.0386229 0.052804038 0.71467435
        0.8341259 0.05381862 0.71409 0.8346521 0.053806454 0.714092
        0.83527136 0.05379388 0.7140942 0.8359995 0.05378114 0.7140966
        0.83685505 0.053768508 0.7140992 0.8378593 0.053756345 0.71410197
        0.83903676 0.053745054 0.714105 0.8404158 0.05373508 0.71410805
        0.84202844 0.053726908 0.71411127 0.84391135 0.05372099 0.71411455
        0.84610605 0.053717744 0.71411794 0.8486591 0.05371747 0.71412134
        0.85162276 0.05372031 0.7141249 0.855055 0.053726185 0.7141289
        0.85901976 0.05373478 0.7141337 0.8635866 0.05374556 0.7141397
        0.8688299 0.05375777 0.71414757 0.8748276 0.053770583 0.71415746
        0.88165843 0.053783193 0.71417004 0.8893986 0.053795 0.7141858
        0.89811695 0.053805593 0.71420515 0.9078704 0.05381484 0.7142284
        0.9186973 0.053822782 0.71425605 0.93061197 0.05382958 0.7142881
        0.94359905 0.053835433 0.71432453 0.95760834 0.053840518 0.714365
        0.9725522 0.053844947 0.71440893 0.98830384 0.05384879 0.7144553
        1.0047 0.053852033 0.71450293 1.0215456 0.053854674 0.71455026
        1.0386229 0.05385674 0.7145958 0.83432853 0.05487049 0.71401036
        0.83485425 0.0548582 0.7140124 0.83547294 0.054845475 0.7140146
        0.8362004 0.054832555 0.7140171 0.8370552 0.05481973 0.71401966
        0.83805865 0.054807343 0.7140225 0.83923525 0.0547958 0.71402544
        0.8406132 0.054785576 0.71402854 0.8422248 0.054777138 0.7140318
        0.84410644 0.054770995 0.7140351 0.84629965 0.05476757 0.71403843
        0.84885097 0.054767184 0.7140418 0.85181236 0.05477 0.71404546
        0.8552418 0.05477595 0.7140494 0.8592029 0.05478471 0.7140541
        0.86376536 0.054795727 0.71406025 0.86900336 0.05480822 0.714068
        0.8749948 0.054821327 0.7140779 0.8818184 0.054834247 0.71409047
        0.8895503 0.05484633 0.71410614 0.8982596 0.054857176 0.71412545
        0.9080028 0.05486663 0.71414876 0.9188185 0.05487475 0.7141763
        0.9307209 0.054881703 0.71420836 0.9436947 0.054887682 0.7142447
        0.9576899 0.054892868 0.71428514 0.9726186 0.05489738 0.714329
        0.9883544 0.054901283 0.7143753 1.004734 0.054904576 0.7144229
        1.0215628 0.054907244 0.7144702 1.0386229 0.054909322 0.7145157
        0.8345312 0.05592225 0.7139292 0.8350564 0.055909857 0.7139312
        0.83567446 0.05589701 0.71393347 0.8364013 0.055883955 0.7139359
        0.83725536 0.055870973 0.71393853 0.8382579 0.055858407 0.7139414
        0.83943355 0.055846676 0.7139444 0.8408104 0.05583624 0.71394753
        0.8424208 0.05582761 0.71395075 0.84430116 0.05582128 0.71395403
        0.84649277 0.055817712 0.71395737 0.8490421 0.055817243 0.71396077
        0.85200113 0.055820048 0.71396434 0.85542756 0.05582606 0.7139683
        0.8593851 0.05583497 0.71397305 0.86394304 0.055846177 0.7139791
        0.86917573 0.0558589 0.7139869 0.87516093 0.055872243 0.71399677
        0.88197744 0.055885393 0.7140093 0.88970125 0.055897698 0.71402496
        0.89840144 0.055908743 0.7140442 0.90813464 0.055918373 0.7140675
        0.9189392 0.055926643 0.71409506 0.9308295 0.055933718 0.71412706
        0.94379014 0.055939805 0.71416336 0.9577712 0.055945083 0.7142038
        0.97268486 0.055949677 0.7142475 0.9884048 0.055953637 0.71429384
        1.004768 0.05595698 0.71434134 1.0215799 0.055959687 0.7143886
        1.0386229 0.055961795 0.714434 0.83473384 0.056973886 0.71384645
        0.83525854 0.056961413 0.71384853 0.835876 0.056948487 0.7138508
        0.83660215 0.05693533 0.71385324 0.8374554 0.056922227 0.7138559
        0.8384571 0.056909524 0.7138587 0.83963174 0.056897644 0.7138617
        0.84100753 0.056887064 0.71386486 0.84261656 0.05687828 0.7138681
        0.8444955 0.05687182 0.71387136 0.84668535 0.05686815 0.71387476
        0.8492326 0.05686763 0.71387815 0.8521891 0.05687044 0.7138817
        0.85561246 0.056876514 0.71388566 0.8595662 0.05688554 0.7138904
        0.86411965 0.0568969 0.71389645 0.86934704 0.056909785 0.7139042
        0.8753261 0.056923315 0.71391404 0.88213557 0.056936644 0.71392655
        0.8898514 0.056949105 0.71394217 0.89854264 0.056960296 0.7139614
        0.9082659 0.056970056 0.7139847 0.91905946 0.05697845 0.7140122
        0.9309377 0.056985628 0.71404415 0.94388527 0.056991808 0.71408045
        0.9578522 0.056997165 0.7141208 0.9727509 0.057001825 0.7141645
        0.9884551 0.057005852 0.71421075 1.0048019 0.05700925 0.71425825
        1.0215969 0.057012003 0.7143054 1.0386229 0.05701414 0.7143508
        0.8349365 0.058025394 0.71376216 0.83546066 0.058012873 0.71376425
        0.8360776 0.057999887 0.7137665 0.836803 0.057986658 0.71376896
        0.8376555 0.057973478 0.71377164 0.83865625 0.057960693 0.7137745
        0.83982986 0.057948712 0.7137775 0.84120446 0.057938028 0.71378064
        0.8428121 0.057929136 0.71378386 0.8446894 0.057922594 0.7137872
        0.84687746 0.057918865 0.71379054 0.8494225 0.057918325 0.7137939
        0.8523763 0.057921153 0.71379745 0.85579646 0.057927288 0.7138014
        0.85974634 0.057936404 0.71380615 0.8642952 0.057947874 0.7138122
        0.86951727 0.057960894 0.7138199 0.87549025 0.057974536 0.71382976
        0.88229275 0.05798797 0.7138423 0.89000076 0.05800054 0.7138579
        0.8986832 0.058011826 0.7138771 0.90839654 0.058021683 0.7139003
        0.91917926 0.05803016 0.7139278 0.93104553 0.05803742 0.71395975
        0.9439801 0.058043674 0.713996 0.957933 0.058049105 0.7140363
        0.9728168 0.05805384 0.71408 0.9885053 0.05805793 0.71412617
        1.0048357 0.05806138 0.71417356 1.021614 0.058064178 0.7142207
        1.0386229 0.058066357 0.71426606 0.83513916 0.059076786 0.71367633
        0.83566284 0.05906423 0.7136784 0.8362791 0.059051212 0.7136807
        0.8370039 0.05903794 0.7136832 0.8378555 0.059024714 0.71368587
        0.8388553 0.059011877 0.71368873 0.84002787 0.058999844 0.7136917
        0.8414012 0.0589891 0.7136949 0.8430075 0.05898017 0.7136981
        0.8448831 0.058973588 0.7137014 0.8470691 0.058969844 0.7137047
        0.84961176 0.058969308 0.7137081 0.8525628 0.058972172 0.7137116
        0.8559795 0.058978375 0.71371555 0.85992545 0.058987554 0.7137203
        0.8644697 0.058999106 0.71372634 0.8696865 0.059012186 0.7137341
        0.87565345 0.059025887 0.7137439 0.8824491 0.05903938 0.7137564
        0.89014935 0.059051998 0.713772 0.8988231 0.059063338 0.7137912
        0.9085267 0.059073243 0.71381444 0.9192986 0.05908177 0.7138419
        0.931153 0.05908909 0.7138738 0.94407463 0.05909541 0.71391004
        0.9580136 0.059100896 0.7139502 0.9728825 0.059105698 0.7139939
        0.9885554 0.059109848 0.71404 1.0048695 0.05911337 0.71408737
        1.021631 0.059116222 0.71413445 1.0386229 0.059118457 0.7141797
        0.8353418 0.060128044 0.7135889 0.83586496 0.060115486 0.71359104
        0.8364806 0.06010245 0.7135933 0.8372047 0.060089175 0.71359587
        0.83805555 0.060075935 0.7135985 0.8390544 0.060063086 0.7136014
        0.8402258 0.06005104 0.7136044 0.84159786 0.060040288 0.7136075
        0.8432026 0.060031362 0.7136107 0.8450764 0.06002479 0.71361405
        0.8472603 0.060021073 0.7136173 0.84980047 0.06002058 0.7136207
        0.85274845 0.060023498 0.71362424 0.8561617 0.060029756 0.7136281
        0.8601036 0.060038995 0.7136329 0.8646432 0.06005058 0.7136389
        0.8698547 0.06006368 0.71364665 0.87581563 0.06007738 0.7136565
        0.8826045 0.060090866 0.71366894 0.8902971 0.06010348 0.71368456
        0.89896226 0.060114812 0.71370375 0.9086563 0.060124733 0.71372694
        0.9194175 0.060133286 0.7137544 0.93126017 0.06014064 0.71378624
        0.9441689 0.060147006 0.7138225 0.958094 0.06015255 0.7138626
        0.9729481 0.06015741 0.7139062 0.98860526 0.060161624 0.7139523
        1.0049031 0.060165208 0.71399957 1.0216479 0.060168125 0.71404666
        1.0386229 0.060170423 0.71409184 0.83554447 0.061179176 0.71349996
        0.8360671 0.06116663 0.7135021 0.8366822 0.061153613 0.71350443
        0.8374055 0.061140347 0.71350694 0.8382555 0.06112713 0.71350956
        0.8392534 0.061114304 0.7135124 0.8404237 0.06110229 0.71351546
        0.8417944 0.061091583 0.7135186 0.84339756 0.061082702 0.71352184
        0.84526944 0.061076198 0.71352506 0.8474511 0.061072547 0.71352834
        0.8499886 0.061072133 0.71353173 0.85293347 0.061075125 0.7135352
        0.8563431 0.061081443 0.7135391 0.86028075 0.061090704 0.7135439
        0.86481565 0.061102282 0.7135499 0.8700219 0.06111535 0.71355766
        0.8759769 0.061129 0.7135675 0.8827591 0.06114242 0.71357995
        0.89044416 0.06115497 0.71359557 0.8991008 0.061166257 0.71361476
        0.90878534 0.06117615 0.71363795 0.91953593 0.0611847 0.71366537
        0.93136686 0.06119207 0.7136972 0.94426286 0.06119846 0.7137333
        0.9581741 0.061204053 0.7137735 0.97301346 0.061208967 0.71381706
        0.9886551 0.06121325 0.713863 1.0049367 0.0612169 0.7139103
        1.0216649 0.061219893 0.7139573 1.0386229 0.061222263 0.71400243
        0.8357471 0.06223018 0.7134095 0.8362692 0.062217657 0.71341157
        0.8368837 0.062204678 0.7134139 0.8376064 0.06219146 0.7134164
        0.8384555 0.0621783 0.7134191 0.83945245 0.062165536 0.713422
        0.8406215 0.0621536 0.713425 0.84199077 0.062142976 0.71342814
        0.8435922 0.062134195 0.7134313 0.84546214 0.06212779 0.7134345
        0.8476414 0.06212426 0.7134378 0.8501761 0.062123954 0.71344113
        0.85311764 0.06212704 0.71344465 0.8565235 0.062133413 0.7134486
        0.86045694 0.062142685 0.7134533 0.86498713 0.062154222 0.7134593
        0.87018806 0.0621672 0.71346706 0.8761372 0.06218074 0.71347696
        0.88291276 0.06219403 0.7134894 0.8905904 0.06220647 0.71350497
        0.8992387 0.062217664 0.71352416 0.90891385 0.062227495 0.71354735
        0.91965395 0.062236007 0.71357477 0.93147326 0.062243365 0.7136066
        0.94435656 0.06224978 0.71364266 0.95825404 0.06225541 0.71368283
        0.97307867 0.06226038 0.7137263 0.98870474 0.062264714 0.7137723
        1.0049702 0.062268443 0.71381944 1.0216817 0.062271517 0.7138664
        1.0386229 0.06227397 0.71391153 0.8359497 0.063281044 0.71331745
        0.8364714 0.06326857 0.7133196 0.83708525 0.06325565 0.71332186
        0.8378072 0.0632425 0.71332437 0.8386555 0.06322943 0.71332705
        0.83965135 0.06321677 0.71333 0.84081924 0.06320495 0.7133329
        0.84218705 0.06319446 0.71333605 0.8437868 0.06318583 0.7133392
        0.84565455 0.06317959 0.7133424 0.8478313 0.063176215 0.7133457
        0.85036296 0.06317606 0.713349 0.8533011 0.06317925 0.71335244
        0.8567031 0.06318567 0.7133563 0.8606322 0.06319493 0.7133611
        0.8651576 0.06320638 0.71336716 0.8703532 0.06321923 0.7133749
        0.8762965 0.06323259 0.71338475 0.8830656 0.063245706 0.71339726
        0.8907359 0.06325797 0.7134129 0.899376 0.063269034 0.7134321
        0.9090418 0.06327876 0.71345526 0.9197715 0.063287206 0.7134826
        0.9315793 0.06329454 0.7135144 0.94444996 0.06330095 0.71355045
        0.95833373 0.063306615 0.71359056 0.9731437 0.06331162 0.713634
        0.9887543 0.06331603 0.7136799 1.0050037 0.06331983 0.71372706
        1.0216985 0.063323 0.71377397 1.0386229 0.06332554 0.713819
        0.8361524 0.06433177 0.7132239 0.8366735 0.06431937 0.71322596
        0.8372868 0.064306535 0.7132283 0.838008 0.0642935 0.7132308
        0.83885545 0.06428053 0.7132335 0.83985025 0.064268015 0.71323633
        0.8410169 0.06425636 0.7132393 0.84238315 0.06424605 0.7132424
        0.843981 0.06423763 0.7132456 0.8458466 0.064231604 0.7132487
        0.8480207 0.06422843 0.71325195 0.8505492 0.064228445 0.7132552
        0.8534838 0.06423175 0.7132587 0.85688174 0.06423822 0.7132626
        0.8608064 0.06424744 0.7132674 0.865327 0.06425877 0.7132734
        0.87051743 0.06427141 0.71328115 0.87645495 0.06428455 0.71329105
        0.88321763 0.06429743 0.71330357 0.89088076 0.06430948 0.7133192
        0.8995126 0.064320356 0.7133384 0.90916926 0.06432994 0.71336156
        0.9198887 0.064338304 0.7133889 0.93168503 0.06434558 0.7134207
        0.94454306 0.06435198 0.7134567 0.9584132 0.06435767 0.71349674
        0.97320855 0.06436271 0.7135402 0.98880374 0.06436719 0.71358603
        1.005037 0.06437107 0.7136331 1.0217153 0.06437433 0.7136799
        1.0386229 0.06437697 0.713725 0.83635503 0.06538236 0.7131287
        0.8368757 0.06537005 0.71313083 0.8374883 0.06535733 0.71313316
        0.8382088 0.065344416 0.71313566 0.83905536 0.06533161 0.7131383
        0.8400491 0.06531928 0.71314114 0.8412144 0.06530783 0.7131441
        0.8425791 0.06529776 0.71314716 0.84417504 0.065289594 0.7131503
        0.8460382 0.06528382 0.7131535 0.8482095 0.0652809 0.7131567
        0.85073483 0.065281115 0.7131599 0.85366565 0.06528456 0.7131633
        0.8570595 0.06529106 0.7131672 0.8609797 0.065300204 0.713172
        0.86549544 0.065311365 0.71317804 0.87068063 0.06532377 0.71318585
        0.8766124 0.06533661 0.71319574 0.8833688 0.0653492 0.7132083
        0.8910248 0.06536097 0.71322393 0.89964867 0.065371625 0.7132431
        0.90929615 0.06538104 0.71326625 0.9200054 0.065389276 0.7132937
        0.93179035 0.065396495 0.71332544 0.94463587 0.065402865 0.71336144
        0.95849246 0.06540855 0.71340144 0.9732733 0.06541365 0.7134448
        0.98885304 0.06541819 0.7134906 1.0050702 0.065422155 0.71353763
        1.0217321 0.065425515 0.71358436 1.0386229 0.06542826 0.7136293
        0.8365577 0.06643281 0.713032 0.8370778 0.066420615 0.71303415
        0.8376898 0.06640802 0.7130364 0.83840954 0.06639528 0.713039
        0.8392552 0.06638267 0.7130416 0.84024787 0.06637056 0.7130444
        0.8414118 0.06635938 0.7130474 0.8427749 0.066349596 0.7130504
        0.84436876 0.06634174 0.71305346 0.8462295 0.06633628 0.7130566
        0.8483978 0.06633365 0.7130598 0.85091966 0.0663341 0.713063
        0.85384667 0.066337675 0.7130664 0.8572362 0.06634419 0.7130703
        0.86115193 0.06635323 0.71307504 0.8656628 0.06636418 0.7130811
        0.8708428 0.06637628 0.713089 0.876769 0.06638878 0.7130989
        0.8835191 0.06640101 0.71311146 0.8911682 0.06641247 0.71312714
        0.8997841 0.06642285 0.7131463 0.9094226 0.06643206 0.71316946
        0.92012167 0.06644014 0.7131969 0.9318954 0.066447265 0.7132286
        0.94472843 0.066453606 0.7132646 0.9585715 0.06645929 0.7133046
        0.9733378 0.066464424 0.71334785 0.9889023 0.066469036 0.71339357
        1.0051035 0.06647308 0.71344054 1.0217488 0.066476546 0.71348727
        1.0386229 0.066479415 0.71353215 0.83676034 0.06748312 0.7129337
        0.8372799 0.06747106 0.71293586 0.83789134 0.06745863 0.7129382
        0.83861035 0.06744608 0.7129407 0.83945507 0.06743371 0.7129433
        0.8404466 0.06742187 0.7129461 0.8416092 0.067411005 0.71294904
        0.84297043 0.06740157 0.712952 0.8445622 0.067394085 0.71295506
        0.8464202 0.067389004 0.71295816 0.8485854 0.0673867 0.71296126
        0.8511037 0.067387395 0.7129644 0.85402673 0.06739111 0.7129678
        0.857412 0.06739763 0.71297175 0.8613231 0.06740653 0.7129765
        0.86582917 0.06741719 0.71298265 0.87100405 0.06742895 0.71299046
        0.8769247 0.06744104 0.7130004 0.88366866 0.06745287 0.71301305
        0.8913108 0.06746396 0.7130287 0.89991885 0.06747402 0.713048
        0.9095485 0.067482986 0.7130711 0.92023754 0.0674909 0.71309847
        0.93200004 0.06749791 0.71313024 0.9448207 0.06750419 0.7131662
        0.95865035 0.067509875 0.7132061 0.9734022 0.06751503 0.7132494
        0.9889513 0.06751971 0.71329504 1.0051365 0.06752385 0.713342
        1.0217655 0.06752743 0.7133886 1.0386229 0.067530416 0.71343344
        0.836963 0.06853327 0.71283394 0.83748204 0.06852138 0.7128361
        0.83809286 0.06850915 0.71283835 0.8388111 0.06849684 0.71284086
        0.83965486 0.068484746 0.7128434 0.8406452 0.068473235 0.7128462
        0.8418063 0.068462744 0.71284914 0.84316576 0.06845373 0.71285206
        0.8447552 0.068446666 0.7128551 0.8466105 0.068442 0.71285814
        0.8487724 0.06844007 0.7128612 0.85128695 0.06844104 0.7128643
        0.85420585 0.068444885 0.7128677 0.85758674 0.06845137 0.71287155
        0.86149323 0.06846008 0.7128764 0.8659945 0.06847043 0.7128826
        0.8711643 0.06848176 0.7128904 0.8770795 0.068493396 0.7129004
        0.88381743 0.06850477 0.7129131 0.8914527 0.068515435 0.7129288
        0.9000531 0.06852514 0.7129481 0.9096739 0.06853382 0.7129712
        0.920353 0.06854154 0.7129986 0.93210435 0.068548426 0.7130303
        0.94491273 0.06855463 0.7130662 0.95872897 0.068560295 0.71310616
        0.9734664 0.06856548 0.71314937 0.98900026 0.06857022 0.71319497
        1.0051695 0.06857446 0.7132418 1.021782 0.068578154 0.7132884
        1.0386229 0.068581276 0.7133332 0.83716565 0.06958329 0.7127326
        0.8376842 0.069571584 0.7127347 0.8382944 0.06955958 0.712737
        0.8390118 0.06954756 0.7127394 0.8398546 0.06953579 0.71274203
        0.84084374 0.06952467 0.7127448 0.8420032 0.06951462 0.71274763
        0.8433607 0.06950609 0.71275055 0.8449477 0.06949952 0.7127535
        0.8468 0.069495335 0.71275645 0.84895855 0.0694938 0.71275944
        0.8514692 0.069495045 0.71276253 0.85438395 0.06949901 0.7127659
        0.8577604 0.06950543 0.7127698 0.8616623 0.0695139 0.71277463
        0.86615884 0.06952388 0.71278083 0.87132365 0.069534734 0.71278876
        0.8772334 0.06954584 0.71279883 0.8839654 0.069556706 0.7128115
        0.891594 0.0695669 0.71282727 0.9001867 0.06957621 0.7128466
        0.90979886 0.06958458 0.71286976 0.92046803 0.069592066 0.7128971
        0.93220836 0.069598794 0.71292883 0.9450045 0.069604926 0.7129648
        0.95880735 0.069610566 0.7130046 0.9735304 0.069615774 0.7130478
        0.98904914 0.06962057 0.71309334 1.0052025 0.06962491 0.7131402
        1.0217987 0.06962872 0.7131867 1.0386229 0.069631994 0.71323144
        0.8373683 0.07063315 0.7126297 0.83788633 0.07062167 0.71263176
        0.83849585 0.07060995 0.7126341 0.8392125 0.070598245 0.7126365
        0.8400542 0.070586875 0.71263903 0.84104204 0.07057622 0.7126417
        0.8421999 0.07056668 0.7126445 0.8435553 0.0705587 0.7126474
        0.8451396 0.07055271 0.71265024 0.8469889 0.07054904 0.71265316
        0.8491438 0.07054793 0.71265614 0.8516505 0.07054945 0.7126592
        0.8545609 0.07055351 0.7126625 0.8579329 0.07055983 0.71266645
        0.8618303 0.07056801 0.71267134 0.8663221 0.07057754 0.71267754
        0.87148196 0.07058785 0.7126855 0.87738645 0.070598386 0.71269566
        0.88411254 0.070608675 0.7127084 0.8917346 0.070618354 0.7127242
        0.9003198 0.07062723 0.7127435 0.9099233 0.070635244 0.71276677
        0.9205827 0.07064247 0.7127941 0.932312 0.070649035 0.71282583
        0.94509596 0.07065507 0.7128617 0.95888555 0.07066067 0.71290153
        0.9735943 0.070665896 0.7129447 0.98909783 0.07067076 0.7129902
        1.0052354 0.07067519 0.71303695 1.0218153 0.070679136 0.7130834
        1.0386229 0.07068255 0.7131281 0.83757097 0.071682855 0.71252525
        0.83808845 0.07167164 0.71252733 0.8386973 0.07166025 0.71252954
        0.83941305 0.07164894 0.7125319 0.8402538 0.07163803 0.7125345
        0.84124017 0.07162791 0.7125371 0.8423962 0.07161896 0.71253985
        0.84374934 0.07161162 0.71254265 0.8453309 0.071606256 0.71254545
        0.84717685 0.071603164 0.7125483 0.849328 0.07160251 0.7125512
        0.8518306 0.0716043 0.7125542 0.85473675 0.07160841 0.71255755
        0.85810435 0.07161456 0.7125614 0.8619972 0.071622394 0.7125664
        0.86648434 0.07163141 0.7125727 0.8716394 0.071641125 0.71258074
        0.8775386 0.07165101 0.7125909 0.884259 0.071660675 0.7126037
        0.89187455 0.07166979 0.71261954 0.90045226 0.071678184 0.7126389
        0.9100473 0.07168583 0.71266216 0.920697 0.07169278 0.7126896
        0.93241537 0.07169915 0.7127212 0.9451872 0.071705066 0.7127571
        0.9589635 0.071710624 0.7127969 0.973658 0.07171586 0.71284
        0.9891465 0.07172078 0.7128855 1.0052682 0.07172531 0.71293217
        1.0218318 0.071729384 0.7129786 1.0386229 0.07173295 0.7130232
        0.8377736 0.07273242 0.7124193 0.8382906 0.07272152 0.7124213
        0.8388987 0.0727105 0.71242356 0.83961356 0.07269966 0.7124259
        0.8404531 0.0726893 0.71242833 0.841438 0.0726798 0.7124309
        0.8425921 0.07267155 0.7124336 0.84394276 0.07266493 0.71243626
        0.84552133 0.07266027 0.712439 0.84736377 0.07265779 0.7124418
        0.849511 0.07265757 0.7124446 0.8520095 0.07265961 0.7124476
        0.8549113 0.072663724 0.7124509 0.8582745 0.07266966 0.71245486
        0.8621629 0.07267706 0.71245986 0.8666455 0.0726855 0.7124662
        0.8717958 0.07269455 0.71247435 0.87768996 0.072703734 0.71248454
        0.8844047 0.07271272 0.7124974 0.89201385 0.07272122 0.7125133
        0.9005843 0.072729096 0.71253276 0.9101708 0.07273632 0.71255606
        0.9208109 0.07274297 0.7125834 0.93251836 0.07274913 0.71261513
        0.94527817 0.07275492 0.71265095 0.9590413 0.07276042 0.7126908
        0.9737216 0.07276566 0.7127338 0.9891949 0.07277063 0.7127792
        1.0053009 0.07277527 0.71282583 1.0218482 0.07277948 0.7128722
        1.0386229 0.07278321 0.71291673 0.8379763 0.07378181 0.71231174
        0.83849263 0.07377129 0.7123137 0.83910006 0.07376074 0.7123159
        0.83981395 0.073750444 0.7123182 0.8406522 0.073740736 0.71232057
        0.84163547 0.07373198 0.7123231 0.8427874 0.07372453 0.7123257
        0.84413534 0.073718734 0.71232826 0.8457107 0.07371483 0.71233094
        0.8475495 0.073712975 0.7123336 0.84969276 0.0737132 0.71233636
        0.85218704 0.07371543 0.71233934 0.8550846 0.07371949 0.7123427
        0.85844344 0.07372513 0.7123467 0.86232746 0.07373203 0.7123517
        0.8668057 0.07373983 0.7123581 0.8719513 0.07374812 0.7123663
        0.8778405 0.073756546 0.7123766 0.8845497 0.07376479 0.7123896
        0.89215255 0.07377264 0.71240556 0.9007157 0.07377996 0.71242505
        0.9102939 0.07378675 0.71244836 0.92092437 0.07379305 0.7124758
        0.93262106 0.073798984 0.7125074 0.9453689 0.07380463 0.7125433
        0.95911884 0.073810056 0.712583 0.973785 0.0738153 0.71262604
        0.9892433 0.07382032 0.71267146 1.0053335 0.073825054 0.71271795
        1.0218647 0.07382941 0.71276426 1.0386229 0.073833294 0.7128088
        0.83817893 0.074831046 0.7122026 0.8386947 0.07482099 0.7122046
        0.8393013 0.07481099 0.7122067 0.84001416 0.07480136 0.7122089
        0.840851 0.074792445 0.71221125 0.84183234 0.074784555 0.7122137
        0.8429818 0.074778035 0.71221614 0.84432685 0.07477314 0.71221864
        0.8458988 0.07477004 0.7122212 0.8477338 0.07476883 0.7122238
        0.849873 0.07476945 0.7122265 0.8523631 0.07477181 0.71222943
        0.85525644 0.07477574 0.7122328 0.8586111 0.07478099 0.7122368
        0.8624909 0.074787304 0.71224195 0.86696476 0.074794374 0.71224844
        0.8721059 0.07480186 0.7122567 0.8779902 0.07480946 0.7122671
        0.884694 0.07481692 0.71228015 0.8922906 0.07482406 0.7122962
        0.9008466 0.074830785 0.71231574 0.9104165 0.07483709 0.7123391
        0.9210375 0.07484304 0.7123665 0.93272346 0.07484871 0.71239823
        0.9454593 0.074854195 0.71243405 0.9591962 0.07485955 0.71247375
        0.9738483 0.074864775 0.7125167 0.98929155 0.07486985 0.7125621
        1.0053662 0.074874684 0.7126086 1.0218811 0.07487918 0.7126548
        1.0386229 0.07488323 0.71269923 0.8383816 0.07588013 0.712092
        0.8388967 0.075870626 0.71209395 0.83950245 0.07586132 0.712096
        0.8402141 0.07585251 0.71209806 0.84104925 0.075844534 0.7121003
        0.8420284 0.07583768 0.7121026 0.8431752 0.07583222 0.712105
        0.844517 0.075828314 0.71210736 0.8460853 0.07582606 0.7121098
        0.84791636 0.075825445 0.71211237 0.8500516 0.0758264 0.712115
        0.8525376 0.075828806 0.7121179 0.85542685 0.07583249 0.7121213
        0.8587774 0.07583727 0.71212536 0.86265314 0.07584291 0.71213055
        0.8671228 0.07584916 0.71213716 0.87225956 0.07585576 0.7121455
        0.87813914 0.075862475 0.71215606 0.88483757 0.0758691 0.7121692
        0.8924281 0.07587548 0.7121853 0.90097696 0.07588157 0.7122049
        0.9105387 0.07588737 0.7122283 0.92115027 0.075892925 0.7122558
        0.93282557 0.07589833 0.7122874 0.94554955 0.07590364 0.71232325
        0.9592734 0.0759089 0.712363 0.97391135 0.0759141 0.71240586
        0.9893397 0.07591922 0.71245116 1.0053986 0.07592414 0.7124976
        1.0218976 0.07592877 0.7125437 1.0386229 0.075933 0.71258813
        0.83858424 0.07692904 0.7119798 0.83909863 0.076920256 0.71198165
        0.8397033 0.076911815 0.7119836 0.8404135 0.07690404 0.71198565
        0.84124666 0.07689722 0.71198773 0.8422233 0.07689159 0.7119899
        0.84336704 0.0768873 0.71199214 0.84470534 0.07688445 0.71199435
        0.8462699 0.07688301 0.71199673 0.8480971 0.076882936 0.7119992
        0.8502283 0.07688413 0.7120018 0.85271037 0.07688647 0.7120047
        0.8555957 0.0768898 0.7120081 0.8589424 0.076893985 0.71201223
        0.8628142 0.07689885 0.71201754 0.8672799 0.07690421 0.7120243
        0.8724123 0.076909855 0.71203274 0.87828726 0.076915614 0.71204334
        0.8849805 0.07692134 0.7120566 0.892565 0.07692692 0.7120728
        0.9011069 0.07693233 0.71209246 0.91066045 0.07693759 0.7121159
        0.9212627 0.076942734 0.7121434 0.93292737 0.07694784 0.71217513
        0.9456395 0.07695295 0.712211 0.95935035 0.0769581 0.7122506
        0.9739743 0.076963276 0.7122935 0.98938775 0.07696842 0.7123387
        1.005431 0.07697344 0.71238506 1.0219139 0.07697821 0.7124312
        1.0386229 0.0769826 0.71247554 0.8387869 0.077977784 0.7118661
        0.8393004 0.07796994 0.7118678 0.8399038 0.077962644 0.71186966
        0.8406121 0.07795621 0.7118715 0.8414428 0.077950805 0.7118735
        0.84241647 0.077946596 0.7118755 0.8435568 0.07794359 0.7118775
        0.8448914 0.07794179 0.7118797 0.84645224 0.0779411 0.7118819
        0.8482756 0.07794145 0.7118843 0.8504031 0.07794274 0.71188694
        0.85288143 0.07794485 0.71188986 0.855763 0.0779477 0.7118933
        0.85910606 0.07795117 0.71189755 0.8629741 0.077955164 0.7119029
        0.8674359 0.07795953 0.7119097 0.87256426 0.07796414 0.71191835
        0.87843466 0.07796889 0.7119291 0.8851228 0.07797366 0.71194243
        0.8927013 0.0779784 0.71195877 0.9012363 0.077983096 0.7119785
        0.9107818 0.077987775 0.712002 0.9213748 0.07799248 0.7120295
        0.9330289 0.07799725 0.7120613 0.94572926 0.07800215 0.71209705
        0.9594271 0.07800718 0.71213675 0.9740371 0.07801231 0.71217954
        0.9894357 0.07801747 0.7122247 1.0054635 0.07802258 0.71227103
        1.0219301 0.07802747 0.7123171 1.0386229 0.07803204 0.71236134
        0.83898956 0.07902637 0.7117508 0.8395018 0.079019845 0.71175236
        0.8401034 0.07901415 0.711754 0.84080917 0.07900946 0.71175575
        0.8416369 0.0790058 0.7117574 0.8426071 0.07900316 0.71175927
        0.84374374 0.079001464 0.7117612 0.8450747 0.079000615 0.7117632
        0.8466319 0.079000525 0.71176535 0.84845173 0.079001114 0.71176773
        0.8505757 0.079002306 0.71177036 0.8530506 0.079004034 0.71177334
        0.8559288 0.07900625 0.71177685 0.8592683 0.07900888 0.71178114
        0.86313283 0.07901188 0.7117866 0.86759096 0.079015166 0.7117936
        0.87271535 0.079018675 0.71180236 0.87858135 0.07902233 0.7118132
        0.8852644 0.079026096 0.7118267 0.8928371 0.07902994 0.71184313
        0.9013652 0.07903388 0.7118629 0.9109028 0.07903794 0.7118865
        0.9214865 0.07904217 0.71191406 0.93313015 0.07904659 0.7119458
        0.9458187 0.079051256 0.71198165 0.9595037 0.07905614 0.71202123
        0.97409976 0.07906121 0.7120641 0.98948354 0.07906638 0.7121092
        1.0054958 0.07907155 0.71215546 1.0219464 0.07907658 0.7122014
        1.0386229 0.07908132 0.71224564 0.8391922 0.08007477 0.7116339
        0.83970237 0.08007039 0.7116353 0.840301 0.080067076 0.71163666
        0.84100336 0.080064654 0.7116381 0.8418274 0.08006299 0.71163964
        0.8427939 0.080061935 0.71164125 0.8439271 0.08006138 0.711643
        0.84525466 0.08006126 0.71164495 0.84680855 0.08006151 0.71164703
        0.8486252 0.08006209 0.7116494 0.85074604 0.08006297 0.71165204
        0.85321784 0.08006412 0.711655 0.8560929 0.08006553 0.7116587
        0.85942924 0.08006719 0.7116631 0.8632904 0.08006908 0.7116687
        0.86774504 0.08007119 0.7116759 0.8728656 0.0800735 0.71168476
        0.8787273 0.080076 0.71169573 0.8854054 0.08007869 0.7117093
        0.8929724 0.0800816 0.7117259 0.9014938 0.08008473 0.71174574
        0.9110234 0.08008814 0.7117694 0.9215979 0.08009185 0.71179706
        0.93323106 0.0800959 0.71182877 0.945908 0.08010029 0.71186465
        0.9595801 0.080105 0.7119042 0.9741623 0.08010999 0.711947
        0.9895312 0.08011516 0.7119921 1.005528 0.080120385 0.71203834
        1.0219626 0.08012552 0.71208423 1.0386229 0.080130406 0.71212834
        0.83939487 0.08112301 0.71151555 0.8398998 0.081123106 0.7115164
        0.8404937 0.08112322 0.7115174 0.8411919 0.081123345 0.7115185
        0.8420123 0.08112349 0.71151984 0.8429756 0.081123665 0.71152127
        0.84410584 0.08112385 0.71152294 0.8454306 0.08112407 0.7115248
        0.8469818 0.081124306 0.71152693 0.8487959 0.081124574 0.7115293
        0.85091406 0.08112488 0.711532 0.8533831 0.08112524 0.7115351
        0.8562554 0.08112566 0.71153885 0.8595888 0.08112618 0.71154344
        0.8634469 0.08112685 0.7115492 0.8678981 0.08112767 0.7115565
        0.87301505 0.0811287 0.7115655 0.8788726 0.081129976 0.71157664
        0.8855459 0.08113154 0.7115904 0.8931072 0.08113344 0.71160704
        0.9016218 0.08113572 0.71162707 0.91114354 0.081138425 0.7116508
        0.92170894 0.08114158 0.71167845 0.9333317 0.081145205 0.7117103
        0.945997 0.081149295 0.7117461 0.95965636 0.08115381 0.7117857
        0.9742246 0.08115868 0.7118284 0.9895788 0.081163816 0.7118735
        1.0055602 0.08116908 0.7119196 1.0219789 0.08117431 0.7119655
        1.0386229 0.081179336 0.71200955
        <InformationKey name="L2_NORM_RANGE" location="vtkDataArray" length="2">
          <Value index="0">
            1.0972023369
          </Value>
          <Value index="1">
            1.2618578232
          </Value>
        </InformationKey>
      </DataArray>
    </Points>
  </Piece>
  </StructuredGrid>
</VTKFile>
