<?xml version="1.0"?>
<VTKFile type="StructuredGrid" version="0.1" byte_order="LittleEndian" header_type="UInt32" compressor="vtkZLibDataCompressor">
  <StructuredGrid WholeExtent="0 30 0 40 0 0">
  <Piece Extent="0 30 0 40 0 0">
    <PointData>
      <DataArray type="Float32" Name="orthogonality" format="ascii" RangeMin="0" RangeMax="0.9956291913986206">
        0 0.00357387 0.0070874062 0.010503254 0.013788057 0.016909933
        0.019838147 0.022542996 0.024995664 0.027167903 0.02903155 0.030557655
        0.031714745 0.032464914 0.032754377 0.032491237 0.031496122 0.029401653
        0.025466101 0.0182608 0.0051938496 0.01815493 0.05888181 0.12757246
        0.23757815 0.3970106 0.58849597 0.76567376 0.8925927 0.9653284
        0.9956292 6.6804285e-05 0.0036435113 0.0071617346 0.010584465 0.0138786
        0.017012194 0.019954396 0.022675376 0.02514617 0.027338367 0.02922363
        0.030772815 0.031954214 0.03272957 0.033044457 0.03280562 0.03183079
        0.029746765 0.025801688 0.018554043 0.0054120934 0.017968323 0.058341723
        0.12524323 0.22973165 0.37777108 0.55651736 0.7314344 0.86834794
        0.95285237 0.9928791 0.00020988684 0.0037949795 0.007323626 0.010759372
        0.014069451 0.017221946 0.020185996 0.022931753 0.025430223 0.027652983
        0.029571671 0.031157132 0.032377627 0.03319479 0.033553846 0.03336056
        0.03243032 0.030384997 0.026464159 0.01921615 0.00605378 0.017286014
        0.057220414 0.12229431 0.22148699 0.35873076 0.5243939 0.6945368
        0.84050786 0.9390974 0.990508 0.00041948986 0.0040240907 0.0075746723
        0.011035665 0.014374829 0.017560484 0.020561991 0.023349736 0.025894977
        0.028169576 0.030145505 0.031793974 0.03308367 0.03397664 0.034418426
        0.034314737 0.03348002 0.03153368 0.027711198 0.020559076 0.0075096325
        0.0155944275 0.054804225 0.11769637 0.21141788 0.33835563 0.49156895
        0.655705 0.808792 0.9222274 0.9870524 0.0006842101 0.004321228
        0.007907137 0.011407611 0.014791154 0.01802658 0.021083746 0.023933575
        0.02654792 0.028899308 0.030960467 0.03270347 0.034097977 0.03510713
        0.0356776 0.03571617 0.035038088 0.033263206 0.029628133 0.022686917
        0.009907466 0.0127375405 0.050910898 0.11125796 0.1993326 0.3163696
        0.45767215 0.6147399 0.77273494 0.90134394 0.9817219 0.0009913399
        0.0046748165 0.00831064 0.0118660955 0.015310673 0.018613957 0.021746613
        0.024680447 0.027388291 0.029843777 0.032020874 0.03389309 0.035431705
        0.03660172 0.037351917 0.037591465 0.0371384 0.035616376 0.032269042
        0.025668362 0.013334809 0.008605788 0.045412704 0.102850266 0.18510392
        0.29255998 0.42235735 0.57135785 0.7317836 0.87528294 0.97337765
        0.0013264234 0.0050699534 0.008769812 0.012395236 0.015916927 0.01930552
        0.022532795 0.025571784 0.028396685 0.03098266 0.033305433 0.03534049
        0.037061416 0.03843585 0.03941569 0.039913848 0.039753288 0.03856507
        0.035606276 0.029477868 0.01777035 0.0032155933 0.03832727 0.0925073
        0.1687756 0.2668864 0.38541925 0.5253 0.68533134 0.8425964
        0.960397 0.001675476 0.005491145 0.009267559 0.012976188 0.016589139
        0.020078337 0.023416953 0.026579544 0.029542016 0.032281455 0.034775767
        0.037002936 0.038939428 0.040556252 0.04180931 0.042616587 0.042808034
        0.04202572 0.039546665 0.034012016 0.02309936 0.0033032736 0.029810429
        0.080429 0.1505859 0.23954464 0.34693426 0.4765752 0.6329811
        0.8016235 0.94063777 0.0020221916 0.0059175123 0.009778218 0.013578162
        0.017290961 0.020889984 0.024349956 0.027647149 0.030759383 0.033665907
        0.036347076 0.0387837 0.040955484 0.042837273 0.044389624 0.045536563
        0.046116762 0.04578659 0.04384914 0.038996495 0.029009374 0.010592507
        0.020279383 0.06710571 0.13108464 0.21106815 0.30735388 0.4255821
        0.57466453 0.750806 0.9113719 0.0023573718 0.0063342913 0.010281206
        0.014174384 0.017988948 0.021699738 0.025283074 0.028716987 0.03198126
        0.035057355 0.037928145 0.040577326 0.04298796 0.045138866 0.046995524
        0.048488557 0.049466573 0.049602848 0.048231747 0.04410551 0.035121236
        0.018204968 0.010271287 0.053188972 0.11104092 0.18230845 0.26760858
        0.37344143 0.51133806 0.6888044 0.86879116 0.0026721645 0.0067297607
        0.010761772 0.014746829 0.018661493 0.02248205 0.026186375 0.029754214
        0.033167273 0.036409166 0.03946523 0.04232198 0.04496576 0.04737932
        0.049533103 0.051364608 0.05273323 0.053331215 0.052528564 0.04914539
        0.041205663 0.025863167 0.00013029852 0.039108604 0.09097297 0.15385853
        0.22841443 0.32122362 0.44454843 0.6148549 0.80793434 0.0029515936
        0.0070848158 0.011196497 0.015267466 0.01927558 0.02319845 0.027015382
        0.0307077 0.034258857 0.037654452 0.040882062 0.04393078 0.04678999
        0.049446095 0.05187428 0.054018874 0.055750497 0.056781884 0.05652214
        0.053865474 0.046970714 0.033222005 0.009729672 0.025361288 0.07146214
        0.1263854 0.19059913 0.2701934 0.3765202 0.53067225 0.72536
        0.0031840655 0.00738336 0.011564603 0.01571056 0.01980016 0.02381214
        0.027727015 0.031527434 0.03519833 0.03872696 0.04210279 0.04531711
        0.048361864 0.051226642 0.053890884 0.05630538 0.05835198 0.059764706
        0.05999406 0.0580125 0.0521182 0.039923273 0.018870566 0.012484314
        0.053156745 0.10066776 0.15516736 0.22188303 0.31008634 0.44043103
        0.6211344 0.003358415 0.007612022 0.011850457 0.016058106 0.02021471
        0.0242999 0.02829514 0.032184124 0.03595294 0.03959014 0.043086685
        0.046435583 0.049630858 0.05266471 0.055520263 0.058154274 0.060459588
        0.06219191 0.06284458 0.0614709 0.05651027 0.04579712 0.02707889
        0.00074308104 0.036375046 0.07708881 0.12265302 0.17725874 0.24749237
        0.3494853 0.5004842 0.003465746 0.0077619175 0.012045214 0.016301317
        0.02051054 0.02465317 0.028711384 0.032669637 0.036514863 0.040236592
        0.043826878 0.047280032 0.050591663 0.053756073 0.05675953 0.059564255
        0.062073793 0.06406569 0.065076955 0.064243115 0.060144793 0.050830975
        0.034325793 0.009816818 0.02117165 0.05571237 0.093185335 0.13672112
        0.19009745 0.26270255 0.372935 0.0034985817 0.007827524 0.012145391
        0.01643886 0.020688606 0.024875397 0.028981905 0.032993134 0.036896624
        0.040682588 0.04434389 0.047875788 0.051275108 0.054537825 0.05765292
        0.060587697 0.06325615 0.06545772 0.0667736 0.06642218 0.06312411
        0.055134587 0.040728495 0.019327255 0.0073834206 0.036330737 0.066535085
        0.10013799 0.13830782 0.18327752 0.2489851 0.003450877 0.0078056646
        0.012150764 0.016473582 0.020755002 0.02497613 0.029120002 0.033171996
        0.037120096 0.040955 0.044670153 0.04826153 0.05172689 0.055063594
        0.05826303 0.061297312 0.06409072 0.06646462 0.06804468 0.06813222
        0.06558622 0.05885975 0.046455484 0.027984032 0.005233023 0.018632138
        0.042320967 0.06710629 0.09191632 0.11261632 0.13657524 0.0033176898
        0.0076943533 0.012062362 0.016409604 0.02071707 0.024966123 0.029140053
        0.033224534 0.03720786 0.041081097 0.044838127 0.048475478 0.05199166
        0.05538524 0.05864981 0.06176211 0.0646566 0.06717659 0.06899227
        0.069487646 0.06765784 0.062146064 0.051662877 0.03597073 0.016908735
        0.0023153306 0.020157548 0.037160028 0.050441045 0.05084479 0.039679702
        0.0030940867 0.007491272 0.011880504 0.016249897 0.020580493 0.024853863
        0.029053515 0.033165347 0.037177898 0.041082527 0.04487347 0.048547707
        0.0521044 0.055543173 0.058859706 0.062035263 0.06501439 0.06766229
        0.069693595 0.07057438 0.06943354 0.06509728 0.05646717 0.043426637
        0.027823685 0.012861421 0.0002768264 0.009879903 0.013344933 0.002591989
        0.04102062 0.0027762211 0.007194688 0.01160555 0.015996864 0.02034971
        0.024645852 0.028868992 0.03300523 0.037043322 0.04097488 0.04479444
        0.048499376 0.05208941 0.05556518 0.05892434 0.062152587 0.06520446
        0.0679669 0.07019864 0.071446806 0.0709713 0.06777447 0.060934305
        0.05042971 0.038081683 0.02704541 0.019191517 0.015033374 0.019826755
        0.048490252 0.10676811 0.0023540698 0.006796905 0.011232064 0.01564719
        0.020023428 0.024342759 0.028589098 0.03274875 0.0368107 0.04076679
        0.04461184 0.04834359 0.051962305 0.055469543 0.058864918 0.062138468
        0.06525463 0.0681219 0.07054264 0.07214392 0.07231397 0.070225276
        0.0651204 0.05705303 0.047786497 0.040386602 0.036797963 0.037878234
        0.04953445 0.087750345 0.15955812 0.0018301525 0.0063010743 0.010763764
        0.015205011 0.019606082 0.023949225 0.028218593 0.032400724 0.036484823
        0.040462967 0.044330247 0.04808474 0.051727198 0.055260073 0.058684826
        0.061995726 0.06516687 0.06812785 0.07072364 0.072659194 0.07344704
        0.07242263 0.06898126 0.06323374 0.056860592 0.052802797 0.053026386
        0.058633056 0.07590303 0.12098219 0.20148155 0.0011597725 0.005669048
        0.010168701 0.014643921 0.019076308 0.023448536 0.027745144 0.031953003
        0.036061637 0.04006343 0.043953795 0.047731183 0.051396877 0.054954212
        0.058406502 0.061752215 0.064975016 0.06802534 0.07079025 0.073051415
        0.07444336 0.07446037 0.07264333 0.069147505 0.06554771 0.06462022
        0.068291456 0.07781031 0.09960709 0.14923614 0.23440796 0.00040022447
        0.0049611125 0.009510283 0.014030843 0.018505009 0.022916114 0.02724928
        0.031491905 0.035634 0.039668422 0.043591056 0.047400888 0.051099874
        0.05469241 0.058183838 0.061577022 0.06486547 0.068020836 0.07097281
        0.0735806 0.075601906 0.07669104 0.07653421 0.07532557 0.07451666
        0.07668434 0.083667345 0.09679912 0.12250981 0.1752193 0.26154706
        0.0002773106 0.004333906 0.008931765 0.013497878 0.018015023 0.022467148
        0.026839944 0.031121349 0.035301883 0.039374933 0.043336928 0.047187477
        0.05092933 0.054568082 0.058111295 0.061566524 0.06493757 0.068218164
        0.07138214 0.074369 0.07706401 0.07928746 0.08087607 0.082061596
        0.08415769 0.089514375 0.09985694 0.11657695 0.14597934 0.20105217
        0.28625765 0.0008183169 0.003833367 0.008470846 0.013074915 0.017628735
        0.022116717 0.026525 0.030841954 0.03505855 0.03916863 0.04316915
        0.0470603 0.05084563 0.054531965 0.05812916 0.06164968 0.065108106
        0.06852129 0.07190945 0.075296484 0.078702144 0.08212214 0.08555232
        0.08926154 0.09440701 0.10307933 0.11686421 0.13718453 0.17008889
        0.22698908 0.31021214 0.001256469 0.0034283781 0.008098742 0.012734962
        0.017320491 0.02184011 0.026280332 0.030629901 0.034880184 0.03902545
        0.043063127 0.046994004 0.050822414 0.05455643 0.058208298 0.061795596
        0.06534425 0.06889549 0.07251854 0.07632677 0.08048312 0.08517113
        0.090558164 0.09695186 0.105331376 0.117484875 0.13481554 0.15872918
        0.1948879 0.2529572 0.3333904 0.0015910127 0.0031217425 0.00782016
        0.012484422 0.01709823 0.021646686 0.026116634 0.030497167 0.034780018
        0.038959876 0.043034647 0.04700571 0.050878193 0.054661468 0.058370274
        0.062027525 0.065671034 0.06936761 0.07323805 0.077490196 0.082438976
        0.088469036 0.095933534 0.10518305 0.1169973 0.13281511 0.15380606
        0.18129796 0.22043493 0.27906138 0.35592332 0.0018318394 0.0029048435
        0.0076276637 0.012316847 0.016956327 0.0215315 0.026029514 0.030439798
        0.034754444 0.038968552 0.0430805 0.047092266 0.051009804 0.05484382
        0.058611635 0.06234174 0.06608435 0.06993308 0.07406291 0.07878145
        0.0845652 0.092015 0.1016875 0.11398376 0.12946188 0.14915611
        0.17393678 0.20497617 0.24677615 0.30534133 0.3779649 0.0019862154
        0.002771683 0.007516448 0.012228502 0.01689201 0.021492649 0.02601787
        0.030457426 0.03480377 0.039052412 0.043202225 0.04725579 0.051219914
        0.055106673 0.05893607 0.06274238 0.06658875 0.07059679 0.074998245
        0.08020578 0.08686766 0.09581773 0.10783752 0.1233905 0.1427911
        0.16660488 0.19532064 0.22986172 0.27397633 0.33189175 0.39972606
        0.002062101 0.002715193 0.007480287 0.012213917 0.016900491 0.021525964
        0.026078086 0.030546937 0.034925338 0.03920922 0.043397956 0.04749475
        0.051507276 0.055449042 0.059342805 0.06322883 0.06718367 0.07135803
        0.07604296 0.0817615 0.089344285 0.09987698 0.1143918 0.13343236
        0.15704815 0.18526082 0.21807487 0.25605503 0.30210537 0.35881525
        0.42144305 0.002067156 0.0027283838 0.007512824 0.012267316 0.016976524
        0.021626683 0.026205845 0.030704426 0.035115622 0.03943579 0.04366482
        0.04780656 0.051869582 0.05586885 0.05982995 0.06379932 0.06786734
        0.07221481 0.077194415 0.083444834 0.09198999 0.10418813 0.12135318
        0.1441341 0.17229615 0.20522878 0.24232481 0.28366455 0.3312463
        0.3862371 0.44337386 0.0020088025 0.002804262 0.0076074684 0.012382472
        0.017114213 0.021789208 0.026395824 0.030924808 0.03536975 0.039727446
        0.043998312 0.04818686 0.05230257 0.056361906 0.060393345 0.06444963
        0.0686353 0.07316216 0.078446575 0.08524779 0.094794154 0.108739235
        0.12871565 0.15551244 0.18859501 0.2266171 0.26820245 0.31280556
        0.36149365 0.41429415 0.46577522 0.0018940679 0.0029360333 0.0077576344
        0.012552981 0.017307311 0.022007428 0.02664201 0.031202156 0.035681847
        0.040078342 0.04439259 0.04862978 0.052800316 0.056922186 0.061026804
        0.06517331 0.06948067 0.07419232 0.07979008 0.08715818 0.09774045
        0.11351034 0.136463 0.16757427 0.20600024 0.2495375 0.29584724
        0.3436014 0.3929528 0.44312605 0.48888022 0.0017295099 0.0031172002
        0.007956865 0.0127724055 0.017549373 0.02227486 0.026937861 0.031529836
        0.036045168 0.04048158 0.044840567 0.049128007 0.05335525 0.057541803
        0.06172204 0.06596156 0.07039386 0.07529445 0.08121186 0.089159094
        0.100806005 0.118472226 0.14456679 0.18031417 0.22456107 0.27410495
        0.3254066 0.37618273 0.4257346 0.47285908 0.5128684 0.0015211678
        0.0033416406 0.008198933 0.0130343875 0.017833883 0.0225848 0.027276458
        0.031900678 0.03645224 0.04092935 0.045334056 0.04967292 0.053958245
        0.058211062 0.062468693 0.066803165 0.071362525 0.07645447 0.08269492
        0.091228515 0.10396088 0.123585366 0.15298459 0.19371216 0.24431926
        0.30043837 0.35703722 0.4106859 0.45994586 0.50358415 0.53783256
        0.0012745522 0.0036036323 0.008477882 0.013332711 0.01815433 0.022930408
        0.027650582 0.032307032 0.03689495 0.041413005 0.045863803 0.050254595
        0.05459862 0.058918413 0.06325421 0.067684375 0.07237135 0.07765476
        0.08421794 0.093338855 0.10716734 0.12879878 0.16165806 0.20773137
        0.2653085 0.3286629 0.3909065 0.4472487 0.4956735 0.53532946
        0.56374305 0.0009946757 0.0038978301 0.008788009 0.01366128 0.018504187
        0.023304675 0.028052691 0.032740764 0.03736449 0.041922994 0.046419423
        0.050861705 0.05526399 0.05965028 0.06406363 0.068588585 0.07340162
        0.07887369 0.08575473 0.09545629 0.11037906 0.13404888 0.17051093
        0.22231592 0.28755477 0.35891414 0.42719516 0.48600233 0.532962
        0.56802905 0.59041446 0.00068612606 0.004219188 0.009123782 0.014014037
        0.018876819 0.023700327 0.028474802 0.033193108 0.037851214 0.04244868
        0.046989184 0.051481277 0.05593998 0.060390692 0.064879164 0.06949584
        0.074430704 0.08008496 0.08727344 0.09753992 0.113540165 0.13925803
        0.17944705 0.23738913 0.31107908 0.39134592 0.4660996 0.52705747
        0.5717829 0.6014892 0.61747664 0.00035318505 0.004562828 0.009479695
        0.014384801 0.019265303 0.024109632 0.028908286 0.033654425 0.03834437
        0.04297807 0.04755967 0.052098304 0.056609794 0.061120816 0.065679625
        0.07038221 0.07543127 0.08125674 0.088735685 0.09954076 0.11658413
        0.14433339 0.18834841 0.25285247 0.33590332 0.4261433 0.50783324
        0.5704817 0.6119973 0.6353551 0.6443514 0 0.004926044
        0.00985452 0.014773875 0.019671552 0.024536198 0.029358566 0.034132104
        0.03885346 0.043522976 0.04814525 0.05272998 0.057293747 0.06186448
        0.06649286 0.07128028 0.07644185 0.082435615 0.09019992 0.10153544
        0.119612895 0.1493988 0.19730689 0.26857054 0.3612346 0.46134564
        0.5492468 0.6126921 0.65049696 0.6673199 0.6691665
      </DataArray>
      <DataArray type="Float32" Name="aspect_ratio" format="ascii" RangeMin="1.2910517454147339" RangeMax="20.169710159301758">
        19.524046 19.412851 19.257845 19.012583 18.681528 18.270655
        17.78725 17.239628 16.636827 15.988315 15.303685 14.592394
        13.863526 13.125615 12.386514 11.653345 10.932531 10.229907
        9.550918 8.90077 8.284303 7.7048597 7.160705 6.636174
        6.085713 5.428958 4.6294947 3.831793 3.2744 3.1057322
        3.382442 19.526754 19.37678 19.183252 18.900312 18.532999
        18.08781 17.572493 16.995737 16.36688 15.695596 14.991597
        14.264374 13.52297 12.775804 12.030549 11.294083 10.572494
        9.871174 9.194951 8.548166 7.9344544 7.355578 6.8080525
        6.2757783 5.7198796 5.08461 4.362969 3.676207 3.2003813
        3.0498137 3.3144758 19.52947 19.343235 19.113787 18.795813
        18.394876 17.917967 17.373241 16.769735 16.117052 15.425039
        14.70351 13.961971 13.2094145 12.45414 11.703642 10.964556
        10.24265 9.542889 8.869507 8.226022 7.6149564 7.03669
        6.4864297 5.9483566 5.3901935 4.7756033 4.1164455 3.5132961
        3.0963511 2.9586437 3.200012 19.532202 19.315006 19.054794
        18.706707 18.27677 17.77239 17.202093 16.57522 15.90161
        15.191281 14.454142 13.699731 12.937005 12.174177 11.418596
        10.676694 9.953964 9.254989 8.583465 7.942162 7.332613
        6.7540536 6.2008433 5.6581173 5.0999627 4.504695 3.8944442
        3.3519917 2.9772332 2.849334 3.0402155 19.534954 19.292873
        19.007853 18.635393 18.181894 17.655106 17.063856 16.417747
        15.726818 15.001231 14.250987 13.485661 12.714194 11.944735
        11.184524 10.439828 9.715911 9.01702 8.346371 7.7060575
        7.0967345 6.516702 5.9598546 5.4127326 4.855287 4.276596
        3.7033248 3.2023494 2.8523395 2.7260695 2.8469226 19.53774
        19.277643 18.974594 18.58434 18.113556 17.570248 16.963474
        16.303028 15.599108 14.861994 14.10176 13.328018 12.549709
        11.7749405 11.010877 10.263662 9.538373 8.838972 8.168246
        7.527675 6.9171286 6.33414 5.772424 5.2201924 4.6626186
        4.0964947 3.5494368 3.0740383 2.7322226 2.595395 2.6367054
        19.540567 19.269669 18.955734 18.554642 18.07324 17.519695
        16.903217 16.233723 15.521518 14.776965 14.010197 13.230856
        12.44789 11.669392 10.902477 10.153209 9.4265175 8.726129
        8.054446 7.412385 6.7991004 6.211481 5.6432657 5.0844607
        4.524815 3.9665756 3.436278 2.9738653 2.6263103 2.4652414
        2.4256923 19.543444 19.269445 18.952269 18.547804 18.062958
        17.505964 16.886087 16.213305 15.49797 14.750487 13.981023
        13.199246 12.414121 11.633739 10.865205 10.114532 9.386552
        8.684792 8.011314 7.366506 6.7488484 6.154659 5.577818
        5.0101557 4.44542 3.889762 3.367709 2.9082823 2.5442243
        2.3447676 2.2301066 19.546377 19.275774 18.961803 18.56027
        18.07805 17.523354 16.90543 16.234253 15.520173 14.773608
        14.004737 13.223245 12.438116 11.657465 10.888401 10.136925
        9.4078 8.704392 8.028451 7.3798594 6.7564516 6.1540227
        5.5666776 4.98807 4.4155025 3.8580263 3.3378677 2.8748147
        2.4880347 2.2401774 2.0553982 19.549372 19.286762 18.980574
        18.586447 18.111162 17.562843 16.95068 16.284588 15.574893
        14.83199 14.066059 13.286799 12.50322 11.723461 10.954662
        10.202828 9.472681 8.767448 8.088587 7.435493 6.8053718
        6.1935363 5.5943847 5.0033994 4.4211264 3.858894 3.3366952
        2.8666987 2.4556234 2.15402 1.8953447 19.552425 19.303888
        19.011526 18.630722 18.168074 17.631542 17.030178 16.37379
        15.672622 14.937021 14.177147 13.402704 12.622728 11.845405
        11.07792 10.326315 9.595297 8.887985 8.205564 7.5469475
        6.908708 6.2856693 5.672532 5.066581 4.4714127 3.900378
        3.3716211 2.8912075 2.4550693 2.097348 1.7645323 19.555538
        19.327856 19.056067 18.695196 18.251556 17.732859 17.147932
        16.506413 15.818411 15.094188 14.343857 13.577122 12.803048
        12.0298815 11.264881 10.514151 9.78242 9.072727 8.386001
        7.720675 7.0726595 6.436251 5.8064246 5.1822386 4.570265
        3.9858947 3.445986 2.951852 2.490568 2.0788333 1.6771636
        19.558702 19.357683 19.112236 18.776941 18.357738 17.862011
        17.2983 16.676012 16.005077 15.295642 14.557755 13.801112
        13.034816 12.267183 11.50557 10.756175 10.023775 9.311355
        8.619604 7.9464707 7.2871785 6.63546 5.9865355 5.341232
        4.709106 4.1077385 3.5532787 3.043443 2.5584025 2.098581
        1.6344906 19.56191 19.392666 19.17862 18.873821 18.48377
        18.01545 17.47706 16.877726 16.227163 15.535377 14.812341
        14.067738 13.310715 12.549681 11.792109 11.044314 10.311156
        9.59559 8.898084 8.216096 7.5441456 6.875366 6.2051992
        5.536246 4.881105 4.2597604 3.6882079 3.1615357 2.6548162
        2.1551564 1.6386544 19.565153 19.431843 19.253267 18.982893
        18.625717 18.188269 17.678364 17.10481 16.477093 15.805052
        15.098585 14.367367 13.620601 12.866801 12.113583 11.36741
        10.6332445 9.914039 9.210058 8.518284 7.832516 7.1452723
        6.4522 5.7576814 5.077423 4.434022 3.8437963 3.2999983
        2.7741792 2.2439344 1.6875216 19.568424 19.474463 19.334652
        19.10183 18.780443 18.376534 17.897503 17.351818 16.748716
        16.097878 15.40912 14.692121 13.956155 13.209866 12.461031
        11.716287 10.980729 10.257332 9.546181 8.843793 8.14326
        7.4364715 6.719272 5.9978256 5.290992 4.6241646 4.014382
        3.4537027 2.9114833 2.3597374 1.7769071 19.571714 19.519857
        19.421412 19.228554 18.945154 18.57674 18.130278 17.613892
        17.036566 16.40782 15.7374115 15.035029 14.310042 13.57124
        12.826591 12.082926 11.345502 10.617341 9.898373 9.184675
        8.468649 7.741561 6.999438 6.2502084 5.5159035 4.824856
        4.19515 3.618168 3.0621512 2.4970267 1.9004472 19.57502
        19.56773 19.512918 19.362083 19.118494 18.78715 18.374577
        17.888554 17.337816 16.73174 16.08003 15.392412 14.678366
        13.946855 13.2060585 12.463032 11.723214 10.989702 10.262302
        9.536681 8.804567 8.056618 7.289021 6.511431 5.749044
        5.033248 4.383452 3.7907913 3.2232344 2.6513736 2.051721
        19.57834 19.617788 19.608572 19.50149 19.2992 19.006172
        18.628489 18.17359 17.649977 17.066896 16.43402 15.761131
        15.057845 14.333322 13.595976 12.853108 12.110367 11.370951
        10.634568 9.896506 9.147854 8.378662 7.585254 6.7789497
        5.988078 5.247175 4.577224 3.9694703 3.3922508 2.8187385
        2.2243953 19.581673 19.671309 19.710836 19.65034 19.491838
        19.239264 18.89825 18.47591 17.98052 17.421217 16.80766
        16.149721 15.457179 14.739421 14.00513 13.261882 12.515565
        11.769514 11.023374 10.272083 9.506113 8.714906 7.8948736
        7.0589366 6.2385454 5.471518 4.780697 4.157771 3.5718932
        2.9999375 2.4167428 19.585018 19.726692 19.81656 19.803997
        19.690392 19.479137 19.175442 18.786097 18.319178 17.78373
        17.18943 16.546259 15.864178 15.152825 14.421172 13.677092
        12.926733 12.173589 11.417268 10.652398 9.868856 9.055479
        8.208718 7.3429937 6.4928145 5.6993504 4.9875274 4.3497624
        3.756335 3.188346 2.620848 19.588375 19.792614 19.942596
        19.986904 19.926237 19.763403 19.503155 19.151964 18.717722
        18.209414 17.636776 17.009956 16.339172 15.634385 14.904929
        14.159052 13.403238 12.641205 11.87258 11.091703 10.287859
        9.4492235 8.57221 7.6727147 6.7884398 5.96428 5.227743
        4.572333 3.969564 3.404635 2.8541949 19.591747 19.855412
        20.062405 20.160582 20.149994 20.032913 19.813677 19.498457
        19.09498 18.612186 18.05988 17.44837 16.788122 16.089409
        15.36191 14.614234 13.853187 13.0827055 12.302448 11.506501
        10.683588 9.82124 8.915769 7.984373 7.067748 6.2144313
        5.454627 4.783143 4.17287 3.6129649 3.0830526 19.595139
        19.860703 20.069613 20.16971 20.161015 20.045767 19.828276
        19.514694 19.112726 18.631294 18.080194 17.469727 16.810354
        16.112343 15.385378 14.638059 13.877174 13.106613 12.325934
        11.529045 10.704404 9.839262 8.929879 7.994002 7.073569
        6.2185097 5.4599257 4.7933807 4.193722 3.6543603 3.1554635
        19.59856 19.80916 19.965528 20.016191 19.961744 19.804903
        19.550337 19.204445 18.775053 18.2711 17.702288 17.078745
        16.41068 15.708053 14.980198 14.235355 13.479955 12.717573
        11.94754 11.16366 10.354413 9.5071335 8.61807 7.7047486
        6.8085976 5.978669 5.2451324 4.6037908 4.0320525 3.5272322
        3.0659943 19.602015 19.752352 19.850967 19.847153 19.74216
        19.539251 19.243517 18.86164 18.401608 17.872393 17.283617
        16.645226 15.967164 15.259061 14.52988 13.787464 13.037867
        12.284334 11.525975 10.756521 9.964526 9.137429 8.271405
        7.383541 6.514447 5.7120323 5.005438 4.3908825 3.8484547
        3.3780885 2.953243 19.605492 19.70371 19.752045 19.7005
        19.550955 19.307188 18.97471 18.560503 18.072737 17.520452
        16.91324 16.26092 15.573225 14.859522 14.128461 13.387555
        12.642532 11.896366 11.147981 10.391058 9.614215 8.804941
        7.9592323 7.0936575 6.2480617 5.4694476 4.786262 4.195437
        3.6796334 3.2401633 2.8483636 19.608994 19.65729 19.657242
        19.559565 19.366762 19.08315 18.71467 18.268625 17.753391
        17.178112 16.552364 15.88587 15.188188 14.468438 13.734987
        12.99504 12.254023 11.514658 10.775715 10.030851 9.268765
        8.4769745 7.6512012 6.80734 5.984361 5.2284026 4.5673957
        3.9991844 3.508825 3.0979912 2.736043 19.612516 19.615122
        19.57058 19.43028 19.197325 18.876553 18.474327 17.99828
        17.45701 16.859772 16.216171 15.535855 14.828242 14.102246
        13.365985 12.62639 11.888627 11.1552 10.424757 9.69096
        8.942596 8.167176 7.360043 6.5362697 5.733899 4.998347
        4.3573046 3.809729 3.3428097 2.9576705 2.622121 19.616056
        19.576736 19.491192 19.311451 19.041182 18.685722 18.251854
        17.747534 17.181587 16.563402 15.902626 15.208864 14.491422
        13.759039 13.019616 12.27985 11.544674 10.816411 10.093623
        9.370005 8.634445 7.8744116 7.084757 6.279568 5.4958816
        4.7785354 4.1552835 3.6263714 3.180806 2.8184154 2.5057454
        19.619616 19.542253 19.41936 19.20355 18.899025 18.511591
        18.048428 17.517805 16.928778 16.29088 15.613811 14.90716
        14.180143 13.441359 12.6985235 11.95813 11.224919 10.501067
        9.785083 9.070727 8.347007 7.601311 6.8278813 6.0396323
        5.2725005 4.570918 3.9630466 3.4505968 3.024052 2.681361
        2.3881726 19.623192 19.511553 19.354893 19.106361 18.770645
        18.353989 17.863943 17.309078 16.698673 16.042406 15.350047
        14.631181 13.894961 13.149869 12.403468 11.662081 10.930286
        10.210154 9.500175 8.794213 8.081408 7.3490434 6.5906177
        5.8176575 5.064875 4.3764753 3.7814188 3.2830687 2.8730524
        2.5470364 2.2701874 19.626783 19.484497 19.297548 19.019575
        18.655706 18.212584 17.698101 17.121113 16.491108 15.817908
        15.111359 14.381057 13.63611 12.884909 12.134889 11.392232
        10.661392 9.944362 9.239659 8.541285 7.8385367 7.1185684
        6.3740015 5.6147203 4.874032 4.1960955 3.6111174 3.1243339
        2.7282276 2.415967 2.1527119 19.630392 19.460878 19.246954
        18.942688 18.553606 18.086708 17.550205 16.953205 16.3054
        15.616747 14.897169 14.156285 13.4031725 12.646147 11.892546
        11.148437 10.418177 9.70372 9.00365 8.312146 7.618698
        6.9103117 6.1785936 5.4314876 4.7006407 4.0303254 3.4525118
        2.9745958 2.5897052 2.2884793 2.036569 19.634014 19.44046
        19.202663 18.875078 18.463577 17.975489 17.419298 16.80435
        16.140522 15.437898 14.706479 13.955912 13.195251 12.432762
        11.675697 10.9300375 10.200073 9.487754 8.791767 8.10652
        7.421736 6.724272 6.0045805 5.268312 4.545093 3.8794293
        3.305658 2.8337345 2.4573398 2.1647136 1.9224592 19.637651
        19.422989 19.164192 18.816053 18.384754 17.877907 17.304247
        16.67333 15.995199 15.28006 14.537983 13.7786455 13.011095
        12.243551 11.483206 10.735972 10.006102 9.295573 8.603219
        7.923725 7.247104 6.560083 5.851827 5.1252804 4.407545
        3.7434058 3.1702883 2.7012837 2.3306901 2.0445924 1.8108817
        19.641302 19.408209 19.131052 18.764914 18.316246 17.79291
        17.203865 16.558851 15.868059 15.141803 14.390224 13.623028
        12.849257 12.077103 11.313707 10.5649395 9.835033 9.126029
        8.436948 7.762813 7.0939937 6.417129 5.7199817 5.0023108
        4.2879996 3.6220374 3.045819 2.5764205 2.2090118 1.9278063
        1.7020683 19.644966 19.395891 19.102798 18.721012 18.257227
        17.719515 17.11703 16.459677 15.757775 15.021739 14.26177
        13.487604 12.708285 11.931981 11.165801 10.415584 9.68557
        8.977894 8.291807 7.622733 6.9614835 6.2946835 5.608606
        4.8992767 4.186415 3.5149496 2.9313538 2.4579456 2.0912428
        1.8137945 1.5959142 19.64864 19.385855 19.079071 18.683828
        18.207022 17.65691 17.042812 16.374777 15.663238 14.918694
        14.151403 13.371131 12.586925 11.806938 11.038257 10.286705
        9.556555 8.85006 8.166753 7.5025206 6.8487215 6.1920786
        5.5173306 4.8161583 4.1028347 3.4216707 2.8256586 2.3442361
        1.9759797 1.7017262 1.4919147 19.652323 19.377985 19.059652
        18.653042 18.165215 17.604588 16.980625 16.303495 15.583731
        14.831904 14.058326 13.272787 12.484344 11.7011385 10.930246
        10.177493 9.447202 8.7417755 8.061069 7.401512 6.755127
        6.1088934 5.446037 4.7532177 4.037535 3.3416731 2.7270842
        2.2331533 1.8614293 1.5904802 1.3891155 19.656012 19.371191
        19.04238 18.625452 18.127626 17.557465 16.924555 16.23918
        15.511961 14.753539 13.974271 13.18397 12.391703 11.605605
        10.832743 10.078949 9.348608 8.644293 7.966213 7.3114085
        6.6726985 6.037579 5.3881183 4.7059846 3.9901032 3.2801697
        2.6460097 2.1373985 1.7591159 1.4880925 1.2910517
      </DataArray>
      <DataArray type="Float32" Name="jacobian" format="ascii" RangeMin="0.00018751765310298651" RangeMax="0.011511766351759434">
        0.011363071 0.011312522 0.0112309 0.011091095 0.010896114 0.010649993
        0.010357618 0.010024535 0.0096567385 0.009260472 0.008842029 0.008407571
        0.0079629775 0.007513714 0.0070647276 0.006620363 0.0061842822 0.005759386
        0.005347723 0.0049504046 0.0045675454 0.0041983207 0.0038412318 0.0034946217
        0.0031565265 0.0028190461 0.0024485963 0.0019738849 0.001354672 0.0006903757
        0.00018751765 0.011364647 0.0113366945 0.011277628 0.011159943 0.01098628
        0.010760336 0.0104867015 0.010170672 0.009818052 0.009434948 0.0090275705
        0.008602057 0.008164304 0.00771984 0.007273696 0.006830312 0.0063934205
        0.0059659216 0.005549727 0.005145588 0.0047529694 0.0043700715 0.0039941585
        0.0036222497 0.003251573 0.0028766403 0.0024771998 0.0020101315 0.0014455628
        0.0008279153 0.00026988768 0.011366228 0.011359494 0.011321713 0.011225013
        0.011071686 0.0108651025 0.010609565 0.010310125 0.009972386 0.009602313
        0.009206023 0.008789611 0.008358977 0.007919687 0.00747684 0.0070349476
        0.006597787 0.0061682262 0.0057479907 0.0053374087 0.00493521 0.0045385505
        0.004143493 0.0037460823 0.0033436585 0.002934294 0.0025100375 0.0020502857
        0.0015334948 0.0009601513 0.00034656966 0.0113678165 0.011379267 0.01135991
        0.011281564 0.011146217 0.010956951 0.010717806 0.010433598 0.010109741
        0.009752044 0.009366519 0.008959193 0.008535939 0.008102331 0.0076634986
        0.0072239833 0.0067875665 0.0063570337 0.005933867 0.005517894 0.0051070214
        0.0046972986 0.004283658 0.0038615754 0.0034294021 0.0029896237 0.0025447553
        0.0020903721 0.0016140976 0.0010919328 0.00044248335 0.011369417 0.011395532
        0.01139116 0.011327881 0.011207438 0.011032675 0.010807407 0.010536252
        0.01022445 0.009877671 0.009501816 0.009102839 0.00868657 0.008258566
        0.007823958 0.0073872865 0.0069523 0.0065216618 0.006096559 0.0056762653
        0.0052578095 0.0048361276 0.00440516 0.0039602495 0.0035015373 0.0030364187
        0.0025761484 0.0021272625 0.0016855365 0.0012187018 0.0005616925 0.011371035
        0.011407792 0.011414381 0.011362214 0.011252856 0.0110889785 0.010874229
        0.01061307 0.010310608 0.009972397 0.009604247 0.009212043 0.008801571
        0.008378357 0.007947516 0.0075135664 0.007080196 0.0066499165 0.006223597
        0.005799933 0.0053750826 0.004942939 0.004496675 0.0040319567 0.003551306
        0.0030671156 0.0025976568 0.0021562965 0.0017448015 0.0013341886 0.00070305384
        0.011372676 0.011415824 0.011429055 0.011383683 0.011281172 0.011124082
        0.0109159555 0.010661158 0.010364707 0.010032076 0.009669014 0.009281352
        0.008874838 0.008454971 0.00802684 0.007594928 0.0071628476 0.006732948
        0.006305778 0.005879481 0.0054494143 0.005008588 0.004549703 0.004069181
        0.0035722665 0.0030760115 0.0026039523 0.002173157 0.0017888967 0.0014317294
        0.00085880887 0.011374345 0.011419332 0.01143453 0.011391239 0.011290887
        0.011136001 0.010930082 0.010677461 0.010383117 0.010052495 0.009691309
        0.009305368 0.008900396 0.0084818695 0.008054853 0.007623789 0.00719221
        0.0067623076 0.0063343374 0.00590596 0.0054718726 0.0050244434 0.0045562508
        0.004064832 0.0035582157 0.0030573884 0.0025893904 0.0021727027 0.0018139101
        0.001504759 0.0010118606 0.011376045 0.011419027 0.011432237 0.011387022
        0.011284837 0.011128229 0.010920722 0.01066666 0.010371033 0.010039291
        0.009677151 0.009290418 0.008884806 0.008465784 0.008038389 0.0076070237
        0.007175145 0.006744801 0.006315996 0.0058859987 0.0054490124 0.004997019
        0.004522788 0.004025184 0.0035148305 0.003015719 0.0025568227 0.0021564725
        0.0018208664 0.0015519296 0.001148701 0.01137778 0.011416035 0.011424461
        0.011374495 0.01126766 0.01110657 0.010894807 0.010636766 0.010337479
        0.010002429 0.009637356 0.009248078 0.008840313 0.008419519 0.007990717
        0.0075582685 0.007125558 0.0066945087 0.006264918 0.0058337525 0.0053948713
        0.0049400833 0.0044625634 0.0039625666 0.003452961 0.0029598325 0.0025128608
        0.0021292681 0.0018135859 0.0015744227 0.0012611683 0.011379548 0.0114094885
        0.011409459 0.0113510415 0.011235888 0.011066733 0.010847268 0.010581985
        0.010276001 0.009934864 0.009564365 0.009170353 0.008758563 0.008334449
        0.007903011 0.007468573 0.0070344512 0.006602464 0.0061722524 0.005740586
        0.0053011556 0.004845823 0.0043683606 0.00387038 0.0033665097 0.0028839672
        0.002452075 0.0020863572 0.0017889814 0.0015705281 0.001334605 0.01138135
        0.011398985 0.011386448 0.011315529 0.011188076 0.011007 0.010776159
        0.010500196 0.010184352 0.009834277 0.009455836 0.009054928 0.008637309
        0.008208436 0.007773284 0.0073361313 0.0069002286 0.0064673047 0.0060368977
        0.005605686 0.00516736 0.004714042 0.0042402325 0.003748764 0.0032554616
        0.0027877518 0.0023737447 0.002026961 0.0017470855 0.0015430094 0.001362747
        0.011383184 0.0113851195 0.011356686 0.011269945 0.011126983 0.010930947
        0.010685907 0.010396687 0.010068688 0.00970768 0.009319618 0.008910455
        0.00848597 0.008051611 0.0076123197 0.0071723172 0.0067347814 0.006301361
        0.0058715274 0.005441945 0.0050064265 0.0045574796 0.004090361 0.0036089076
        0.0031296047 0.0026793766 0.0022845832 0.00195668 0.0016930777 0.0014990061
        0.0013527813 0.011385045 0.011368321 0.0113211125 0.011215796 0.011054751
        0.010841396 0.010580042 0.010275729 0.009934026 0.009560836 0.009162203
        0.00874413 0.008312405 0.007872451 0.007429157 0.006986669 0.0065480773
        0.00611495 0.0056867125 0.005260067 0.004829023 0.0043865303 0.003928558
        0.0034597025 0.0029966542 0.002565338 0.002190089 0.0018804016 0.0016318075
        0.0014454143 0.0013161575 0.011386928 0.0113491705 0.01128097 0.011155058
        0.010974139 0.010741926 0.010462991 0.010142594 0.0097864745 0.009400662
        0.008991278 0.008564351 0.00812566 0.0076805763 0.0072339107 0.006789709
        0.006350956 0.00591913 0.005493617 0.005071181 0.004646059 0.0042116465
        0.0037645332 0.003309837 0.0028641166 0.0024520154 0.0020957845 0.0018031651
        0.001568267 0.0013886013 0.0012657124 0.01138883 0.011328119 0.0112372385
        0.011089297 0.010887341 0.010635386 0.01033827 0.010001458 0.009630853
        0.009232585 0.008812826 0.008377606 0.007932658 0.007483277 0.0070341616
        0.006589232 0.0061513465 0.005721881 0.005300179 0.004883073 0.0044650305
        0.004039863 0.0036046717 0.0031648956 0.00273673 0.0023434164 0.0020051966
        0.0017283099 0.001505879 0.0013327476 0.0012109122 0.011390747 0.01130557
        0.011190783 0.011019886 0.010796263 0.010524231 0.010208869 0.009855837
        0.00947116 0.009061044 0.008631674 0.008189043 0.00773881 0.007286152
        0.0068356306 0.006391014 0.0059550134 0.005528889 0.0051119355 0.0047010505
        0.0042909207 0.0038757266 0.0034529767 0.003028271 0.002617302 0.0022418946
        0.0019204321 0.0016579032 0.0014468207 0.0012802887 0.0011575994 0.011392676
        0.011281709 0.011142033 0.010947527 0.010701909 0.010409769 0.010076403
        0.009707622 0.009309547 0.008888409 0.008450367 0.008001343 0.007546879
        0.0070920046 0.0066411146 0.0061978027 0.0057646157 0.0053426856 0.004931252
        0.0045272717 0.004125632 0.003720835 0.0033107055 0.0029008826 0.0025064752
        0.0021479384 0.0018419657 0.0015925224 0.0013918148 0.0012319413 0.0011082144
        0.011394616 0.011256716 0.011091388 0.01087287 0.01060518 0.010293148
        0.009942248 0.009558397 0.0091477595 0.0087165525 0.008270865 0.007816506
        0.0073588626 0.006902792 0.006452495 0.006011371 0.0055817906 0.00516475
        0.0047594276 0.0043628314 0.003970032 0.0035758112 0.0031782307 0.0027828803
        0.0024042486 0.0020614932 0.001769792 0.0015322771 0.0013410837 0.0011878175
        0.0010635674 0.011396566 0.011229879 0.011037526 0.010794067 0.010503788
        0.010171712 0.009803437 0.009404935 0.008982362 0.008541868 0.008089425
        0.00763068 0.007170835 0.006714533 0.0062657576 0.0058276933 0.0054025184
        0.004991084 0.004592502 0.0042038257 0.0038202947 0.0034369344 0.0030519844
        0.0026709135 0.0023075584 0.0019798416 0.0017015556 0.0014751406 0.0012928345
        0.0011460923 0.0010220185 0.011398525 0.011202133 0.010982291 0.010713826
        0.010401225 0.010049645 0.009664745 0.009252493 0.008818982 0.008370242
        0.007912084 0.0074499627 0.006988858 0.006533182 0.0060866843 0.005652324
        0.0052320827 0.0048266645 0.0044351155 0.004054529 0.0036802986 0.0033076624
        0.0029349874 0.002567575 0.002218619 0.0019048977 0.001638965 0.0014226962
        0.0012485575 0.00110808 0.0009848154 0.011400492 0.011168595 0.010916504
        0.010619237 0.010281405 0.0099082105 0.009505281 0.009078493 0.00863378
        0.008176968 0.007713626 0.0072489353 0.006787589 0.006333707 0.0058907513
        0.005461414 0.0050474457 0.004649379 0.004266178 0.0038949682 0.003531292
        0.003170585 0.0028113013 0.0024585123 0.002124705 0.0018254949 0.0015722172
        0.0013662254 0.001200315 0.0010663308 0.00094464124 0.011402465 0.011137029
        0.01085489 0.010531149 0.010170439 0.009777925 0.00935914 0.008919804
        0.008465657 0.008002292 0.0075350166 0.007068736 0.0066078613 0.0061562285
        0.005717029 0.0052927085 0.0048848065 0.004493703 0.0041182917 0.0037557334
        0.0034017041 0.003051807 0.0027045538 0.0023647842 0.0020443492 0.0017578517
        0.0015155815 0.0013184765 0.0011597 0.0010315384 0.0009116501 0.011404446
        0.0111378245 0.010854561 0.0105297575 0.01016806 0.009774639 0.009355036
        0.008914977 0.008460203 0.007996309 0.0075286 0.0070619793 0.0066008526
        0.006149053 0.005709768 0.005285443 0.004877627 0.004486723 0.004111671
        0.0037497068 0.003396601 0.0030480442 0.0027025905 0.0023650525 0.0020471702
        0.0017632974 0.0015234082 0.0013284126 0.0011718079 0.0010461061 0.00092711335
        0.011406438 0.011170616 0.010914785 0.010613974 0.010272833 0.009896595
        0.009490919 0.009061696 0.008614872 0.008156274 0.0076914695 0.0072256303
        0.0067634364 0.006308993 0.0058657494 0.0054364 0.0050227204 0.004625319
        0.004243309 0.0038740567 0.0035134132 0.0031571027 0.00280372 0.0024582453
        0.0021327918 0.0018421661 0.0015966954 0.0013976283 0.0012387636 0.0011125326
        0.0009937403 0.011408445 0.011206617 0.010981498 0.010707938 0.010390488
        0.010034368 0.009645286 0.00922925 0.008792382 0.0083407285 0.00788011
        0.0074159773 0.006953303 0.0064964863 0.0060492693 0.005614626 0.005194597
        0.0047900304 0.004400249 0.004022786 0.0036535992 0.0032884576 0.0029259918
        0.002571345 0.002237044 0.0019384522 0.0016863904 0.0014825426 0.001321027
        0.001194175 0.0010757691 0.0114104645 0.011238206 0.011040295 0.010791307
        0.010495615 0.010158325 0.009785107 0.009382001 0.008955213 0.008510934
        0.008055165 0.007593573 0.0071313656 0.0066731917 0.0062230476 0.005784159
        0.0053588124 0.0049480926 0.0045515434 0.0041668923 0.0037902428 0.0034174405
        0.003047144 0.0026845958 0.0023426379 0.002037128 0.001779373 0.0015715123
        0.001408 0.0012811326 0.0011635324 0.011412497 0.011268721 0.011097413
        0.0108728185 0.010599059 0.010281064 0.009924397 0.009535063 0.0091193
        0.008683385 0.00823346 0.007775365 0.0073145176 0.006855795 0.0064034318
        0.0059609 0.0055307345 0.005114269 0.0047112936 0.004319766 0.0039359806
        0.003555894 0.003178189 0.0028081543 0.002458885 0.0021467193 0.0018835077
        0.0016719089 0.001506733 0.0013802381 0.0012641011 0.011414542 0.01129697
        0.011150497 0.01094901 0.01069634 0.010397194 0.010056979 0.0096816085
        0.009277297 0.008850358 0.008407017 0.007953251 0.0074946396 0.007036255
        0.006582544 0.006137206 0.005703015 0.005281555 0.0048728827 0.0044752266
        0.0040851254 0.0036986917 0.003314634 0.002938216 0.0025826728 0.0022647548
        0.0019968709 0.0017822423 0.0016160544 0.0014905392 0.0013766174 0.011416599
        0.01132319 0.011199924 0.011020319 0.010787897 0.0105071105 0.010183177
        0.009821877 0.009429357 0.009011918 0.008575832 0.00812716 0.0076716165
        0.007214429 0.0067602308 0.0063129263 0.0058755176 0.005449846 0.0050362544
        0.004633287 0.0042377887 0.0038460891 0.003456933 0.0030754819 0.0027149708
        0.002392461 0.0021209137 0.0019041534 0.0017377547 0.0016139268 0.0015031633
        0.011418669 0.011347285 0.011245429 0.011086259 0.010872988 0.010609804
        0.010301706 0.009954319 0.009573686 0.00916606 0.008737717 0.008294771
        0.007843026 0.007387836 0.006933989 0.006485573 0.0060458058 0.0056167836
        0.0051991595 0.0047918432 0.004392061 0.0039964346 0.0036037723 0.0032190525
        0.0028553363 0.0025298374 0.0022560232 0.0020383385 0.0018727534 0.0017514565
        0.0016448731 0.01142075 0.011369292 0.011287021 0.011146752 0.010951399
        0.010704882 0.010411983 0.010078148 0.009709293 0.009311601 0.008891315
        0.008454572 0.008007232 0.007554744 0.0071020224 0.0066533154 0.006212041
        0.005780552 0.0053598364 0.004949223 0.0045464057 0.004148398 0.00375412
        0.0033682943 0.0030036003 0.0026771845 0.002402913 0.0021858348 0.0020223071
        0.001904488 0.001803105 0.011422842 0.011389273 0.011324755 0.0112017905
        0.011023011 0.010792085 0.01051357 0.010192732 0.00983535 0.009447511
        0.009035412 0.0086051775 0.0081627 0.007713494 0.007262574 0.006814326
        0.006372355 0.005939272 0.005516423 0.005103617 0.0046991184 0.0043004532
        0.0039067375 0.0035223817 0.0031594515 0.0028347287 0.0025622859 0.0023477052
        0.002187693 0.0020743394 0.0019789883 0.011424945 0.011407324 0.011358771
        0.0112515045 0.011087899 0.010871387 0.010606313 0.010297766 0.009951381
        0.00957314 0.009169175 0.008745585 0.008308266 0.00786278 0.007414216
        0.006967079 0.006525146 0.00609129 0.0056672427 0.005253359 0.0048485883
        0.0044511207 0.0040603955 0.0036804948 0.003322623 0.0030028075 0.002735018
        0.0025252104 0.002370352 0.0022623702 0.002173414 0.011427056 0.011423567
        0.011389264 0.011296119 0.011146274 0.010942946 0.010690284 0.010393205
        0.0100572035 0.009688153 0.009292113 0.008875138 0.00844312 0.008001642
        0.0075558526 0.007110357 0.0066690966 0.0062352084 0.005810838 0.00539696
        0.004993334 0.0045990003 0.004213905 0.003841848 0.0034929295 0.003181931
        0.0029222404 0.0027198885 0.0025719297 0.0024699331 0.0023868475 0.011429177
        0.011438136 0.011416468 0.011335925 0.01119845 0.011007062 0.010765734
        0.010479222 0.010152889 0.009792502 0.009404041 0.008993513 0.00856679
        0.008129465 0.0076867314 0.0072432808 0.0068032118 0.0063699284 0.0059460243
        0.0055331653 0.0051320647 0.0047428315 0.0043661734 0.0040057497 0.0036703495
        0.003372901 0.0031254913 0.0029337108 0.0027943747 0.002698348 0.0026191229
        0.011431306 0.011451167 0.011440625 0.011371246 0.0112447925 0.011064115
        0.010833025 0.010556137 0.010238689 0.009886346 0.009505011 0.00910064
        0.00867908 0.008245923 0.0078063942 0.007365265 0.0069267834 0.0064946297
        0.006071875 0.005660953 0.005263684 0.0048815003 0.0045162174 0.0041716257
        0.0038550857 0.0035769385 0.0033469128 0.0031692828 0.0030400513 0.0029488374
        0.0028691622 0.011433441 0.011462784 0.011461964 0.011402386 0.011285663
        0.011114494 0.01089255 0.010624319 0.010314926 0.009969941 0.009595198
        0.009196598 0.008779959 0.008350869 0.007914578 0.0074759265 0.007039312
        0.006608696 0.0061876588 0.0057794796 0.0053872443 0.005014004 0.0046631307
        0.0043390105 0.0040476145 0.003795847 0.0035895205 0.0034301302 0.0033118818
        0.0032224215 0.0031346213 0.011435582 0.011473086 0.011480668 0.011429598
        0.011321358 0.011158521 0.0109446375 0.010684081 0.010381879 0.010043519
        0.009674762 0.009281467 0.008869418 0.008444195 0.008011069 0.007574946
        0.007140368 0.006711588 0.0062927217 0.0058879685 0.0055018454 0.0051393555
        0.004806001 0.004507486 0.004248717 0.004032217 0.0038575933 0.003721105
        0.003613514 0.0035197425 0.0034114658 0.011437728 0.01148213 0.01149684
        0.0114530185 0.011352039 0.011196366 0.010989447 0.010735561 0.010439649
        0.010107125 0.009743691 0.00935516 0.008947288 0.008525644 0.00809552
        0.0076618795 0.007229411 0.006802662 0.0063863103 0.0059855436 0.005606475
        0.0052564284 0.004943759 0.0046765693 0.004459491 0.0042897225 0.0041572736
        0.004048992 0.00394951 0.0038407864 0.0036935208 0.011439876 0.0114905555
        0.011511766 0.011474569 0.01138024 0.011231147 0.011030643 0.01078292
        0.01049284 0.010165747 0.009807291 0.009423239 0.009019322 0.008601099
        0.008173876 0.0077426834 0.0073123523 0.006887738 0.0064741108 0.006077717
        0.005706438 0.0053703007 0.0050812666 0.004850932 0.004684261 0.0045714118
        0.0044880747 0.004406844 0.0043053655 0.004166671 0.0039619887
      </DataArray>
    </PointData>
    <CellData>
    </CellData>
    <Points>
      <DataArray type="Float32" Name="Points" NumberOfComponents="3" format="ascii" RangeMin="0.7190293851586009" RangeMax="0.8344426683093675">
        0.48763525 -0.013693919 0.52823067 0.49589145 -0.013710236 0.52886003
        0.5041165 -0.013726077 0.5294711 0.5122687 -0.013741373 0.5300611
        0.520308 -0.01375606 0.53062767 0.5281964 -0.013770087 0.53116876
        0.53589886 -0.01378341 0.53168267 0.5433839 -0.013795999 0.53216827
        0.55062395 -0.013807831 0.5326247 0.5575956 -0.013818897 0.53305155
        0.5642799 -0.013829196 0.5334488 0.57066214 -0.0138387345 0.53381675
        0.57673186 -0.01384753 0.534156 0.58248276 -0.013855606 0.5344676
        0.5879121 -0.013862993 0.5347525 0.59302074 -0.013869722 0.5350121
        0.59781235 -0.013875834 0.53524786 0.6022934 -0.013881366 0.53546125
        0.6064723 -0.0138863595 0.5356539 0.6103595 -0.013890857 0.53582734
        0.6139665 -0.013894899 0.53598326 0.6173062 -0.013898524 0.5361231
        0.6203919 -0.013901772 0.5362484 0.62323755 -0.013904679 0.5363605
        0.62585723 -0.013907277 0.5364607 0.628265 -0.013909599 0.5365503
        0.6304747 -0.013911672 0.5366303 0.6324998 -0.013913521 0.53670156
        0.6343535 -0.013915168 0.53676516 0.6360483 -0.013916639 0.53682184
        0.6375963 -0.013917952 0.5368725 0.48763525 -0.013375331 0.52823883
        0.49589258 -0.0133907525 0.5288683 0.50411874 -0.013405782 0.5294795
        0.5122721 -0.013420352 0.5300696 0.5203124 -0.0134344 0.53063625
        0.5282018 -0.0134478705 0.5311774 0.53590524 -0.01346072 0.5316914
        0.54339117 -0.013472913 0.53217703 0.55063206 -0.013484424 0.5326335
        0.55760443 -0.013495243 0.5330604 0.56428933 -0.013505365 0.53345764
        0.57067204 -0.013514793 0.53382564 0.5767422 -0.013523543 0.5341649
        0.5824933 -0.013531634 0.53447646 0.58792275 -0.013539094 0.53476137
        0.5930313 -0.013545956 0.53502095 0.5978226 -0.013552268 0.5352566
        0.60230297 -0.013558083 0.53547 0.60648066 -0.013563488 0.53566253
        0.61036545 -0.013568601 0.53583586 0.61396825 -0.0135736065 0.53599155
        0.6173005 -0.013578759 0.5361311 0.6203734 -0.013584403 0.5362558
        0.6231979 -0.013590941 0.536367 0.6257837 -0.013598855 0.5364658
        0.62813985 -0.013609243 0.5365534 0.6302778 -0.013626009 0.5366305
        0.63221866 -0.013658404 0.53669834 0.63400036 -0.013716063 0.53675824
        0.63567126 -0.013795335 0.5368125 0.6372606 -0.01387303 0.5368628
        0.48763525 -0.013056737 0.52824676 0.49589372 -0.013070625 0.5288764
        0.50412107 -0.013084195 0.5294877 0.5122755 -0.013097382 0.53007793
        0.52031696 -0.013110126 0.53064466 0.52820736 -0.013122369 0.53118587
        0.5359118 -0.013134066 0.5317 0.5433986 -0.013145181 0.5321857
        0.55064034 -0.013155689 0.53264225 0.5576135 -0.0131655745 0.5330692
        0.56429905 -0.013174831 0.5334665 0.5706823 -0.0131834615 0.53383446
        0.57675284 -0.013191477 0.53417385 0.5825042 -0.013198897 0.53448534
        0.58793384 -0.013205747 0.53477025 0.5930423 -0.013212064 0.5350298
        0.59783334 -0.0132179 0.5352655 0.60231304 -0.013223333 0.53547883
        0.6064894 -0.013228497 0.5356713 0.6103718 -0.0132336 0.5358445
        0.6139703 -0.013238987 0.536 0.61729485 -0.013245161 0.5361392
        0.62035465 -0.013252801 0.53626335 0.6231577 -0.013262706 0.5363737
        0.6257101 -0.013275803 0.5364712 0.6280177 -0.013294081 0.53655684
        0.63009095 -0.013324247 0.5366314 0.6319564 -0.013382059 0.53669614
        0.6336665 -0.013485933 0.5367527 0.63529587 -0.013636538 0.536804
        0.63690454 -0.013799895 0.5368531 0.48763525 -0.012738138 0.52825457
        0.49589488 -0.012749934 0.52888435 0.50412333 -0.012761467 0.5294957
        0.512279 -0.012772684 0.5300861 0.5203215 -0.01278352 0.53065294
        0.528213 -0.01279392 0.53119427 0.5359184 -0.012803838 0.5317085
        0.54340625 -0.0128132375 0.5321943 0.5506488 -0.012822092 0.5326509
        0.55762273 -0.012830386 0.53307796 0.564309 -0.012838112 0.5334753
        0.57069284 -0.012845271 0.53384334 0.57676387 -0.012851874 0.5341827
        0.5825156 -0.012857935 0.5344943 0.5879454 -0.012863483 0.5347792
        0.5930539 -0.012868558 0.53503877 0.59784466 -0.012873218 0.53527445
        0.6023237 -0.01287757 0.5354878 0.6064988 -0.012881798 0.5356802
        0.61037874 -0.012886219 0.5358533 0.61397284 -0.012891353 0.5360086
        0.6172895 -0.012897981 0.5361474 0.620336 -0.0129071595 0.53627104
        0.62311757 -0.012920104 0.53638047 0.62563753 -0.012938175 0.5364767
        0.6278996 -0.012964062 0.53656054 0.6299146 -0.013006376 0.5366329
        0.63171285 -0.013085135 0.5366949 0.63335353 -0.013225904 0.53674847
        0.6349275 -0.013438473 0.5367966 0.6365294 -0.013691235 0.53684354
        0.48763525 -0.012419537 0.52826214 0.49589604 -0.012428771 0.52889204
        0.50412565 -0.012437786 0.52950364 0.51228243 -0.012446528 0.5300941
        0.52032614 -0.01245494 0.53066105 0.52821875 -0.012462964 0.5312025
        0.5359252 -0.012470554 0.5317168 0.543414 -0.0124776745 0.5322028
        0.5506575 -0.012484297 0.5326595 0.55763227 -0.012490408 0.5330866
        0.5643193 -0.012495996 0.533484 0.5707038 -0.012501065 0.5338521
        0.5767753 -0.01250562 0.53419155 0.58252746 -0.0125096785 0.53450316
        0.5879575 -0.012513267 0.53478813 0.59306604 -0.012516428 0.5350477
        0.5978566 -0.012519234 0.53528345 0.60233504 -0.012521819 0.5354967
        0.6065089 -0.012524425 0.5356891 0.6103865 -0.012527484 0.53586215
        0.6139761 -0.012531718 0.53601724 0.6172849 -0.012538215 0.53615576
        0.62031806 -0.012548436 0.5362788 0.6230784 -0.012564043 0.5363874
        0.62556714 -0.012586792 0.53648233 0.6277869 -0.01261988 0.5365646
        0.6297497 -0.012673054 0.5366349 0.63148844 -0.012768748 0.53669465
        0.63306344 -0.012937604 0.5367455 0.634572 -0.013200319 0.53679055
        0.6361391 -0.013539133 0.53683454 0.48763525 -0.012100929 0.5282695
        0.49589723 -0.012107243 0.5288996 0.50412804 -0.012113361 0.52951133
        0.512286 -0.012119238 0.5301019 0.52033085 -0.012124814 0.53066903
        0.5282245 -0.012130034 0.53121066 0.5359321 -0.012134854 0.53172505
        0.5434219 -0.012139234 0.5322111 0.55066645 -0.012143149 0.53266793
        0.5576421 -0.012146584 0.5330951 0.5643299 -0.012149527 0.5334926
        0.5707151 -0.012151979 0.5338608 0.5767873 -0.012153947 0.5342003
        0.58253986 -0.012155445 0.534512 0.5879702 -0.012156503 0.534797
        0.5930789 -0.012157163 0.53505665 0.59786934 -0.012157513 0.5352924
        0.60234725 -0.012157714 0.53550565 0.60651994 -0.012158077 0.53569806
        0.6103952 -0.012159156 0.535871 0.6139805 -0.012161888 0.53602594
        0.61728144 -0.012167699 0.53616416 0.6203015 -0.012178481 0.53628665
        0.6230413 -0.012196347 0.5363944 0.6255004 -0.012223413 0.53648823
        0.62768126 -0.01226316 0.53656894 0.6295977 -0.01232582 0.53663754
        0.6312841 -0.012434755 0.53669524 0.63279855 -0.012623473 0.5367438
        0.63423616 -0.012922785 0.53678596 0.6357413 -0.01333622 0.5368264
        0.48763525 -0.011782318 0.52827674 0.49589843 -0.011785471 0.528907
        0.5041304 -0.011788441 0.52951884 0.5122896 -0.011791186 0.5301096
        0.5203356 -0.011793648 0.53067684 0.52823055 -0.011795772 0.5312185
        0.5359392 -0.011797511 0.5317331 0.5434301 -0.011798833 0.5322193
        0.55067563 -0.011799706 0.5326762 0.55765224 -0.011800114 0.5331035
        0.5643409 -0.011800048 0.53350115 0.5707269 -0.011799505 0.53386945
        0.5767997 -0.011798494 0.534209 0.58255285 -0.011797025 0.53452075
        0.5879836 -0.011795126 0.53480583 0.5930925 -0.011792848 0.53506553
        0.5978829 -0.011790286 0.53530127 0.6023605 -0.011787638 0.5355146
        0.6065321 -0.011785277 0.53570694 0.6104052 -0.011783894 0.53587985
        0.61398625 -0.011784653 0.53603464 0.6172797 -0.0117893275 0.5361725
        0.62028706 -0.011800264 0.5362945 0.62300736 -0.01182002 0.5364015
        0.62543887 -0.011851001 0.53649426 0.6275847 -0.011896758 0.53657365
        0.62946045 -0.011967441 0.5366407 0.6311013 -0.012086163 0.5366968
        0.63256127 -0.012287184 0.5367434 0.6339269 -0.012608753 0.5367829
        0.6353481 -0.013077924 0.5368197 0.48763525 -0.011463702 0.5282838
        0.49589965 -0.011463573 0.52891415 0.5041329 -0.011463266 0.5295262
        0.5122933 -0.0114627415 0.53011703 0.5203405 -0.0114619415 0.5306845
        0.5282366 -0.011460814 0.53122634 0.5359464 -0.011459311 0.53174096
        0.5434385 -0.011457395 0.5322273 0.55068505 -0.011455042 0.5326843
        0.55766267 -0.011452231 0.5331117 0.5643523 -0.011448951 0.53350943
        0.5707391 -0.011445201 0.5338778 0.5768127 -0.011440982 0.5342175
        0.58256644 -0.011436309 0.53452927 0.5879977 -0.011431209 0.5348144
        0.5931069 -0.011425733 0.5350742 0.59789747 -0.011419994 0.53531003
        0.60237473 -0.011414214 0.5355233 0.6065455 -0.011408841 0.5357157
        0.61041665 -0.011404698 0.53588855 0.6139938 -0.011403185 0.5360432
        0.6172802 -0.011406433 0.53618085 0.6202757 -0.011417238 0.5363024
        0.62297773 -0.011438583 0.53640866 0.6253842 -0.011473082 0.5365004
        0.6274989 -0.011524154 0.5365786 0.62933946 -0.01160139 0.53664434
        0.63094133 -0.011726767 0.53669906 0.6323537 -0.01193345 0.5367442
        0.6336509 -0.012263452 0.5367815 0.6349742 -0.012764113 0.5368147
        0.48763525 -0.011145081 0.52829057 0.4959009 -0.0111416895 0.5289211
        0.50413543 -0.011138121 0.52953327 0.51229703 -0.0111343395 0.5301243
        0.5203455 -0.011130291 0.53069186 0.5282428 -0.0111259185 0.53123385
        0.5359539 -0.011121179 0.53174865 0.5434471 -0.011116033 0.5322351
        0.55069476 -0.011110456 0.5326922 0.55767345 -0.011104425 0.53311974
        0.5643641 -0.011097929 0.53351754 0.5707518 -0.011090963 0.533886
        0.57682616 -0.011083531 0.5342257 0.5825806 -0.011075643 0.5345377
        0.58801246 -0.011067326 0.5348229 0.5931222 -0.011058637 0.53508264
        0.59791297 -0.011049697 0.5353185 0.60239017 -0.011040763 0.5355319
        0.6065603 -0.011032349 0.5357243 0.6104297 -0.011025413 0.535897
        0.61400336 -0.011021586 0.5360516 0.6172833 -0.011023347 0.53618896
        0.6202679 -0.011033923 0.5363101 0.62295353 -0.011056688 0.5364157
        0.62533766 -0.011094375 0.5365066 0.62742543 -0.01115008 0.5365838
        0.6292362 -0.01123248 0.53664845 0.63080555 -0.011361767 0.5367021
        0.63217765 -0.011568554 0.536746 0.63341343 -0.011894635 0.53678167
        0.63463616 -0.012402129 0.53681177 0.48763525 -0.010826457 0.5282972
        0.49590215 -0.010819898 0.5289279 0.50413793 -0.010813164 0.5295402
        0.5123009 -0.010806227 0.5301314 0.52035064 -0.010799029 0.5306991
        0.5282492 -0.010791516 0.5312412 0.5359615 -0.010783644 0.5317561
        0.5434559 -0.010775375 0.53224266 0.5507048 -0.01076668 0.5326999
        0.55768454 -0.010757538 0.53312755 0.5643762 -0.010747937 0.5335254
        0.5707649 -0.010737869 0.533894 0.57684016 -0.010727338 0.5342338
        0.5825954 -0.010716351 0.5345458 0.58802795 -0.010704937 0.53483105
        0.5931382 -0.010693154 0.5350909 0.59792936 -0.0106811365 0.5353268
        0.6024067 -0.01066917 0.53554016 0.6065763 -0.010657836 0.53573257
        0.61044437 -0.010648219 0.5359053 0.614015 -0.010642178 0.53605974
        0.6172891 -0.010642524 0.5361969 0.62026405 -0.01065289 0.53631765
        0.62293506 -0.010676986 0.53642267 0.62529975 -0.010717594 0.5365128
        0.62736464 -0.010777347 0.53658915 0.62915075 -0.010863747 0.5366529
        0.63069355 -0.010994812 0.53670573 0.6320329 -0.011197637 0.5367488
        0.6332168 -0.0115101915 0.5367833 0.63434464 -0.012000964 0.53681105
        0.48763525 -0.0105078295 0.5283036 0.49590346 -0.010498273 0.5289345
        0.50414056 -0.010488552 0.5295469 0.5123048 -0.010478639 0.53013825
        0.5203559 -0.01046848 0.53070605 0.52825576 -0.010458018 0.5312483
        0.5359693 -0.010447208 0.5317633 0.54346496 -0.010436015 0.53225
        0.55071497 -0.010424409 0.53270733 0.5576959 -0.010412369 0.53313506
        0.56438863 -0.010399881 0.53353304 0.57077837 -0.0103869345 0.5339017
        0.5768546 -0.010373534 0.53424156 0.5826108 -0.010359685 0.5345536
        0.58804405 -0.010345415 0.5348389 0.59315497 -0.010330786 0.53509885
        0.59794664 -0.010315944 0.53533477 0.60242414 -0.010301202 0.5355482
        0.6065936 -0.010287207 0.5357406 0.6104606 -0.010275165 0.5359133
        0.61402863 -0.010267143 0.53606766 0.6172977 -0.010266266 0.53620464
        0.6202642 -0.01027654 0.536325 0.6229225 -0.010301965 0.5364295
        0.6252706 -0.010345311 0.53651905 0.62731636 -0.01040864 0.5365946
        0.6290825 -0.010498129 0.53665775 0.63060445 -0.0106294155 0.53670996
        0.6319183 -0.010825617 0.53675246 0.6330613 -0.01111838 0.5367862
        0.6341068 -0.011572451 0.53681237 0.48763525 -0.010189198 0.5283099
        0.49590477 -0.010176942 0.52894086 0.50414324 -0.010164542 0.5295534
        0.5123088 -0.010151974 0.5301449 0.5203612 -0.010139178 0.5307128
        0.5282624 -0.0101261055 0.5312552 0.53597724 -0.010112708 0.53177035
        0.54347414 -0.010098952 0.5322571 0.5507254 -0.010084805 0.5327145
        0.5577075 -0.010070247 0.5331423 0.5644014 -0.010055263 0.53354037
        0.57079214 -0.010039843 0.53390914 0.57686937 -0.010023986 0.53424907
        0.5826265 -0.010007702 0.53456116 0.5880607 -0.009991014 0.53484654
        0.5931723 -0.009973991 0.5351065 0.5979646 -0.009956784 0.53534245
        0.6024425 -0.009939737 0.5355559 0.6066119 -0.009923552 0.5357483
        0.6104781 -0.00990955 0.535921 0.614044 -0.009899989 0.53607523
        0.6173089 -0.009898273 0.53621197 0.6202681 -0.00990874 0.5363321
        0.6229157 -0.009935627 0.5364362 0.62525 -0.009981634 0.53652513
        0.62728035 -0.010048209 0.5366002 0.62903094 -0.010140135 0.53666276
        0.6305372 -0.010270631 0.5367145 0.6318325 -0.010458753 0.5367567
        0.6329457 -0.010728703 0.53679013 0.63392735 -0.011134365 0.5368155
        0.48763525 -0.009870563 0.52831596 0.4959061 -0.009856002 0.52894706
        0.5041459 -0.009841333 0.52955973 0.5123128 -0.009826528 0.5301513
        0.5203666 -0.009811532 0.53071934 0.5282691 -0.009796293 0.5312618
        0.5359853 -0.009780766 0.5317771 0.54348344 -0.009764917 0.5322639
        0.55073595 -0.009748713 0.5327214 0.5577193 -0.009732132 0.5331493
        0.56441426 -0.009715159 0.53354746 0.57080615 -0.0096977865 0.53391623
        0.57688445 -0.0096800085 0.5342562 0.5826425 -0.009661834 0.53456837
        0.5880776 -0.009643288 0.5348538 0.5931901 -0.00962444 0.53511375
        0.597983 -0.009605452 0.5353498 0.6024614 -0.009586692 0.53556323
        0.6066309 -0.009568912 0.5357556 0.6104966 -0.009553534 0.53592825
        0.6140609 -0.009542987 0.5360824 0.61732227 -0.009540918 0.536219
        0.6202755 -0.009551944 0.53633887 0.6229142 -0.009580496 0.5364426
        0.62523735 -0.009629172 0.5365311 0.6272555 -0.009698788 0.53660566
        0.62899446 -0.009792751 0.5366679 0.6304896 -0.009921944 0.5367194
        0.63177246 -0.010101561 0.53676146 0.63286626 -0.010348325 0.53679484
        0.63380367 -0.010701374 0.5368201 0.48763525 -0.009551923 0.5283218
        0.49590746 -0.009535549 0.528953 0.50414866 -0.009519111 0.5295658
        0.51231694 -0.009502587 0.5301575 0.52037203 -0.009485916 0.53072566
        0.5282759 -0.009469053 0.53126824 0.5359934 -0.009451948 0.5317836
        0.54349285 -0.009434568 0.53227043 0.55074656 -0.009416881 0.5327281
        0.5577311 -0.0093988655 0.53315604 0.56442726 -0.009380503 0.5335542
        0.5708203 -0.009361786 0.53392303 0.5768996 -0.009342708 0.5342631
        0.58265865 -0.009323274 0.5345752 0.58809465 -0.009303512 0.53486073
        0.59320796 -0.009283491 0.5351207 0.59800166 -0.009263384 0.5353567
        0.6024806 -0.009243577 0.53557014 0.6066504 -0.0092248665 0.5357625
        0.6105158 -0.009208762 0.5359351 0.6140788 -0.009197835 0.5360892
        0.61733747 -0.009195946 0.5362257 0.62028575 -0.009207939 0.53634524
        0.62291735 -0.009238398 0.5364487 0.62523156 -0.009289801 0.5365369
        0.62724054 -0.009362354 0.5366111 0.6289711 -0.00945816 0.536673
        0.630459 -0.009585941 0.5367244 0.6317348 -0.009757389 0.53676647
        0.6328179 -0.009982427 0.5368001 0.6337292 -0.010284799 0.5368257
        0.48763525 -0.009233281 0.52832747 0.49590886 -0.009215654 0.5289588
        0.50415134 -0.009198023 0.5295717 0.51232105 -0.0091803605 0.53016347
        0.5203775 -0.009162609 0.5307317 0.5282827 -0.0091447225 0.5312743
        0.5360015 -0.009126652 0.5317898 0.5435023 -0.009108362 0.53227675
        0.5507572 -0.009089821 0.5327344 0.55774295 -0.009071005 0.53316236
        0.56444025 -0.009051896 0.53356063 0.5708344 -0.009032483 0.5339295
        0.5769147 -0.009012761 0.5342696 0.5826748 -0.008992731 0.5345818
        0.5881117 -0.00897242 0.5348672 0.5932259 -0.0089519 0.5351272
        0.5980203 -0.008931347 0.53536326 0.6024999 -0.008911165 0.5355767
        0.60667 -0.008892192 0.53576905 0.6105353 -0.008876005 0.5359416
        0.6140974 -0.008865299 0.53609556 0.6173539 -0.008864105 0.53623194
        0.6202984 -0.008877459 0.5363513 0.6229243 -0.008910062 0.5364545
        0.62523174 -0.008964268 0.5365424 0.62723386 -0.009039717 0.5366164
        0.6289588 -0.009137324 0.53667814 0.6304428 -0.009263852 0.53672945
        0.6317156 -0.0094279405 0.5367717 0.63279516 -0.009633712 0.5368057
        0.6336953 -0.009890968 0.536832 0.48763525 -0.008914635 0.52833295
        0.49591023 -0.008896379 0.52896434 0.50415415 -0.008878183 0.5295774
        0.51232517 -0.008860017 0.53016925 0.520383 -0.008841826 0.5307375
        0.52828956 -0.008823558 0.5312803 0.53600967 -0.008805169 0.53179574
        0.5435116 -0.008786619 0.53228277 0.55076784 -0.008767874 0.5327405
        0.55775476 -0.008748913 0.5331685 0.56445324 -0.008729711 0.5335668
        0.5708484 -0.00871026 0.53393567 0.57692975 -0.008690545 0.5342757
        0.58269083 -0.008670575 0.5345879 0.5881286 -0.00865037 0.53487337
        0.59324366 -0.00863 0.5351334 0.59803885 -0.008609652 0.5353694
        0.60251904 -0.008589739 0.53558284 0.60668963 -0.008571128 0.5357751
        0.61055493 -0.008555459 0.5359477 0.6141165 -0.0085455235 0.5361016
        0.6173714 -0.008545496 0.53623784 0.6203129 -0.008560564 0.53635705
        0.6229345 -0.008595518 0.53646004 0.6252368 -0.008652596 0.5365477
        0.6272342 -0.008730939 0.5366215 0.6289559 -0.008830388 0.53668314
        0.6304384 -0.008955985 0.5367345 0.6317116 -0.009113774 0.53677696
        0.63279295 -0.009303142 0.5368114 0.63369346 -0.009522464 0.5368386
        0.48763525 -0.008595986 0.5283382 0.4959116 -0.00857777 0.52896976
        0.50415695 -0.008559677 0.5295828 0.51232934 -0.008541678 0.53017473
        0.52038854 -0.008523713 0.5307431 0.52829635 -0.00850573 0.5312859
        0.5360178 -0.008487681 0.5318014 0.54352105 -0.008469528 0.5322885
        0.55077845 -0.008451234 0.53274626 0.5577665 -0.00843277 0.5331743
        0.56446606 -0.008414119 0.53357255 0.5708623 -0.008395261 0.5339415
        0.57694465 -0.008376186 0.53428155 0.58270663 -0.008356894 0.53459376
        0.5881454 -0.008337407 0.5348792 0.5932612 -0.008317796 0.53513926
        0.59805715 -0.008298245 0.5353752 0.602538 -0.008279183 0.5355886
        0.60670906 -0.008261499 0.5357809 0.61057454 -0.00824688 0.53595334
        0.61413574 -0.008238199 0.53610724 0.6173895 -0.008239741 0.5362434
        0.6203289 -0.008256821 0.53636247 0.62294734 -0.008294295 0.5364653
        0.62524605 -0.008354301 0.5365528 0.6272404 -0.0084355455 0.53662646
        0.6289606 -0.00853693 0.5366881 0.6304437 -0.0086619975 0.5367396
        0.6317199 -0.008814622 0.53678226 0.63280696 -0.008990483 0.53681725
        0.6337161 -0.0091792755 0.5368453 0.48763525 -0.008277333 0.52834326
        0.495913 -0.008259864 0.5289749 0.5041597 -0.008242575 0.52958804
        0.5123335 -0.008225432 0.53018004 0.520394 -0.008208372 0.5307485
        0.52830315 -0.008191343 0.53129125 0.5360258 -0.008174294 0.5318068
        0.5435303 -0.0081571825 0.5322939 0.55078894 -0.008139973 0.53275174
        0.5577781 -0.008122634 0.5331798 0.56447875 -0.008105142 0.53357816
        0.570876 -0.008087476 0.533947 0.5769594 -0.008069625 0.5342871
        0.58272225 -0.008051585 0.5345993 0.5881618 -0.008033375 0.53488475
        0.59327847 -0.008015066 0.53514475 0.59807515 -0.007996845 0.53538066
        0.60255665 -0.007979147 0.53559405 0.6067282 -0.007962882 0.5357863
        0.610594 -0.007949771 0.5359587 0.61415505 -0.007942754 0.5361125
        0.6174081 -0.007946203 0.53624856 0.620346 -0.007965533 0.53636754
        0.62296236 -0.008005655 0.53647023 0.62525874 -0.008068629 0.5365576
        0.6272515 -0.008152785 0.5366312 0.62897176 -0.008256218 0.53669286
        0.63045704 -0.0083811795 0.5367445 0.6317381 -0.008529759 0.5367875
        0.63283384 -0.00869483 0.53682303 0.63375723 -0.008859969 0.5368521
        0.48763525 -0.0079586785 0.5283482 0.49591443 -0.007942698 0.52897984
        0.5041625 -0.00792694 0.52959305 0.5123376 -0.007911359 0.5301851
        0.5203995 -0.007895894 0.5307536 0.52830994 -0.007880488 0.53129643
        0.53603387 -0.00786509 0.5318121 0.5435395 -0.007849654 0.53229916
        0.5507993 -0.007834142 0.532757 0.55778956 -0.00781852 0.53318506
        0.5644913 -0.007802763 0.53358334 0.57088953 -0.007786847 0.53395224
        0.5769738 -0.007770759 0.53429234 0.58273757 -0.0077544926 0.5346045
        0.588178 -0.0077380645 0.53488994 0.5932954 -0.0077215447 0.5351499
        0.59809285 -0.007705122 0.5353858 0.60257494 -0.0076892367 0.5355991
        0.60674703 -0.007674812 0.53579134 0.61061317 -0.0076636025 0.5359637
        0.6141743 -0.007658591 0.53611743 0.61742705 -0.007664225 0.53625345
        0.6203642 -0.007685997 0.53637236 0.6229792 -0.007728865 0.536475
        0.62527436 -0.0077948235 0.53656226 0.62726676 -0.007881901 0.5366359
        0.62898827 -0.007987504 0.53669757 0.6304771 -0.008112775 0.5367493
        0.63176453 -0.008258361 0.5367927 0.63287085 -0.008415107 0.5368288
        0.63381207 -0.008562667 0.5368588 0.48763525 -0.0076400205 0.5283529
        0.49591583 -0.0076263007 0.5289846 0.5041653 -0.0076128147 0.5295979
        0.5123418 -0.00759951 0.53019 0.52040493 -0.007586326 0.53075844
        0.5283167 -0.0075732027 0.5313014 0.5360418 -0.0075600874 0.531817
        0.5435487 -0.0075469334 0.5323041 0.55080956 -0.0075336997 0.53276193
        0.55780095 -0.0075203525 0.53319 0.5645036 -0.0075068637 0.53358835
        0.5709028 -0.007493209 0.5339572 0.57698804 -0.007479372 0.5342972
        0.58275265 -0.0074653463 0.5346094 0.5881939 -0.007451146 0.5348948
        0.593312 -0.0074368413 0.53515476 0.59811014 -0.0074226214 0.5353906
        0.6025929 -0.0074089323 0.53560394 0.60676557 -0.0073967082 0.5357961
        0.6106321 -0.0073877247 0.5359684 0.61419356 -0.007385003 0.53612214
        0.6174463 -0.0073930444 0.53625804 0.6203831 -0.0074174055 0.5363769
        0.6229977 -0.007463086 0.5364795 0.62529254 -0.007532036 0.53656673
        0.62728554 -0.0076220375 0.5366403 0.6290094 -0.0077299206 0.5367021
        0.63050276 -0.007855893 0.5367541 0.6317976 -0.007999438 0.53679776
        0.6329159 -0.00815002 0.5368344 0.633877 -0.008285175 0.53686535
        0.48763525 -0.0073213596 0.52835745 0.49591723 -0.0073107476 0.5289892
        0.5041681 -0.0073003364 0.52960247 0.5123459 -0.007290072 0.5301946
        0.52041036 -0.007279891 0.53076315 0.52832335 -0.007269736 0.5313061
        0.53604966 -0.0072595524 0.53182167 0.5435577 -0.0072492943 0.5323088
        0.5508197 -0.0072389217 0.53276664 0.5578121 -0.0072283996 0.5331947
        0.56451577 -0.007217699 0.533593 0.57091594 -0.0072067976 0.5339619
        0.577002 -0.0071956767 0.53430194 0.5827674 -0.007184331 0.534614
        0.5882094 -0.0071727745 0.5348994 0.5933283 -0.007161077 0.5351593
        0.59812707 -0.0071494295 0.53539515 0.60261047 -0.0071382816 0.5356084
        0.6067837 -0.007128577 0.5358005 0.6106507 -0.0071221064 0.53597283
        0.6142126 -0.00712192 0.5361265 0.6174656 -0.00713256 0.53626233
        0.62040263 -0.0071596326 0.5363812 0.62301743 -0.0072081783 0.5364837
        0.6253128 -0.0072801174 0.53657097 0.62730736 -0.0073730443 0.5366446
        0.62903434 -0.007483317 0.5367065 0.630533 -0.0076103653 0.53675866
        0.63183606 -0.0077527566 0.53680277 0.6329671 -0.007899114 0.53683996
        0.63394886 -0.008026327 0.53687173 0.48763525 -0.0070026955 0.52836174
        0.49591866 -0.0069960137 0.52899355 0.50417084 -0.006989446 0.5296069
        0.51235 -0.006982939 0.53019905 0.5204158 -0.0069764336 0.5307676
        0.52832997 -0.0069698733 0.53131056 0.53605753 -0.0069632083 0.5318262
        0.54356664 -0.006956395 0.53231335 0.5508297 -0.006949395 0.5327711
        0.5578231 -0.006942177 0.5331992 0.56452775 -0.0069347136 0.53359747
        0.57092875 -0.006926983 0.5339663 0.57701564 -0.00691897 0.53430635
        0.5827819 -0.0069106696 0.53461844 0.5882246 -0.0069020977 0.53490376
        0.5933442 -0.006893326 0.53516364 0.59814364 -0.0068845474 0.53539944
        0.60262764 -0.0068762153 0.53561264 0.60680145 -0.00686928 0.5358047
        0.6106691 -0.0068655442 0.535977 0.61423147 -0.0068680784 0.5361306
        0.6174851 -0.0068814554 0.53626645 0.6204227 -0.006911322 0.53638524
        0.6230383 -0.0069627543 0.53648776 0.625335 -0.0070376624 0.5365751
        0.6273318 -0.0071335007 0.53664875 0.62906265 -0.007246246 0.5367108
        0.6305672 -0.0073746834 0.5367632 0.631879 -0.0075166603 0.5368076
        0.6330233 -0.007660364 0.5368453 0.634026 -0.0077832 0.53687793
        0.48763525 -0.006684029 0.52836585 0.49592006 -0.006682449 0.5289977
        0.50417364 -0.0066808015 0.52961105 0.51235414 -0.006679041 0.5302032
        0.52042115 -0.006677119 0.53077185 0.5283365 -0.00667499 0.53131473
        0.5360652 -0.006672612 0.53183043 0.54357547 -0.00666995 0.5323175
        0.5508395 -0.0066669746 0.53277534 0.55783385 -0.0066636596 0.5332034
        0.5645394 -0.0066599846 0.53360164 0.57094127 -0.006655934 0.5339705
        0.577029 -0.006651497 0.53431046 0.582796 -0.0066466727 0.53462255
        0.5882394 -0.0066414834 0.5349078 0.5933596 -0.0066360026 0.53516763
        0.5981596 -0.006630428 0.53540343 0.60264426 -0.006625219 0.5356166
        0.6068186 -0.0066213296 0.5358086 0.6106869 -0.0066205733 0.5359808
        0.61424994 -0.006626034 0.5361344 0.61750436 -0.0066423067 0.53627026
        0.620443 -0.0066750697 0.53638905 0.62305987 -0.0067294315 0.5364916
        0.62535834 -0.006807308 0.5365789 0.627358 -0.0069060586 0.5366527
        0.6290933 -0.0070213825 0.5367149 0.6306041 -0.007151563 0.53676754
        0.6319248 -0.0072939163 0.5368123 0.6330824 -0.007436528 0.5368506
        0.63410515 -0.0075583817 0.5368839 0.48763525 -0.00636536 0.5283698
        0.49592146 -0.0063695926 0.52900165 0.50417644 -0.006373506 0.52961504
        0.5123582 -0.006377073 0.5302073 0.52042645 -0.0063802595 0.53077585
        0.5283431 -0.006383038 0.5313188 0.53607285 -0.0063853795 0.5318344
        0.54358417 -0.006387263 0.5323216 0.5508492 -0.0063886694 0.53277934
        0.5578445 -0.0063895835 0.5332074 0.56455094 -0.0063899937 0.53360564
        0.57095367 -0.0063898927 0.5339744 0.5770421 -0.006389278 0.5343144
        0.5828098 -0.0063881557 0.5346264 0.58825386 -0.006386553 0.5349117
        0.5933747 -0.006384551 0.53517145 0.5981754 -0.0063823513 0.5354072
        0.6026606 -0.0063804174 0.53562033 0.6068356 -0.0063797096 0.5358123
        0.6107045 -0.006382047 0.5359845 0.61426836 -0.0063905222 0.53613806
        0.61752385 -0.006409745 0.5362739 0.6204638 -0.0064454204 0.5363927
        0.6230824 -0.0065026875 0.53649527 0.6253833 -0.0065834764 0.53658265
        0.62738645 -0.006685091 0.5366565 0.62912655 -0.006803022 0.5367189
        0.6306441 -0.0069351387 0.5367718 0.6319741 -0.007078341 0.5368169
        0.6331449 -0.007220823 0.53685564 0.6341874 -0.007343845 0.5368896
        0.48763525 -0.0060466896 0.52837354 0.4959229 -0.006056086 0.52900547
        0.50417924 -0.0060649794 0.5296189 0.51236236 -0.00607335 0.5302111
        0.5204319 -0.0060811774 0.5307797 0.5283497 -0.0060884412 0.5313227
        0.53608066 -0.006095124 0.53183836 0.543593 -0.006101212 0.5323255
        0.5508591 -0.0061066933 0.53278327 0.5578554 -0.006111561 0.5332113
        0.56456274 -0.0061158095 0.5336095 0.5709663 -0.0061194366 0.5339783
        0.5770556 -0.006122445 0.53431827 0.58282405 -0.0061248466 0.53463024
        0.5882688 -0.006126672 0.5349155 0.59339035 -0.006128005 0.53517526
        0.5981917 -0.006129054 0.53541094 0.6026775 -0.0061302795 0.535624
        0.6068532 -0.0061326465 0.535816 0.6107229 -0.0061379727 0.53598815
        0.6142878 -0.0061493525 0.5361417 0.61754453 -0.006171402 0.53627753
        0.6204863 -0.006209843 0.5363964 0.6231073 -0.0062698475 0.53649896
        0.62541145 -0.0063533722 0.53658646 0.6274188 -0.006457686 0.53666055
        0.6291647 -0.0065780925 0.5367231 0.63068986 -0.006712058 0.53677624
        0.6320301 -0.0068560867 0.5368217 0.63321537 -0.006998646 0.536861
        0.63427854 -0.0071234046 0.5368957 0.48763525 -0.005728016 0.52837706
        0.49592435 -0.005741488 0.52900904 0.5041821 -0.005754368 0.52962255
        0.51236653 -0.005766635 0.53021485 0.52043736 -0.0057782717 0.5307835
        0.52835643 -0.0057892636 0.5313265 0.5360886 -0.0057995943 0.5318422
        0.5436021 -0.005809253 0.5323293 0.55086935 -0.0058182324 0.53278714
        0.5578667 -0.0058265254 0.53321517 0.56457496 -0.00583413 0.5336134
        0.5709795 -0.005841047 0.53398216 0.57706964 -0.005847279 0.5343221
        0.5828389 -0.0058528404 0.5346341 0.5882845 -0.005857763 0.5349193
        0.59340674 -0.005862132 0.5351791 0.5982088 -0.0058661527 0.5354147
        0.60269535 -0.0058702882 0.5356278 0.60687184 -0.005875496 0.5358197
        0.6107425 -0.0058835885 0.53599185 0.61430866 -0.0058976486 0.5361454
        0.6175671 -0.0059222872 0.5362813 0.62051123 -0.0059632347 0.53640014
        0.62313545 -0.006025694 0.5365029 0.6254437 -0.0061116605 0.5365905
        0.6274564 -0.0062183887 0.5366647 0.6292092 -0.006341006 0.53672755
        0.63074327 -0.0064765615 0.5367811 0.63209516 -0.0066211615 0.53682697
        0.6332965 -0.006763711 0.53686684 0.63438183 -0.006890125 0.53690225
        0.48763525 -0.0054093413 0.52838045 0.49592578 -0.005426063 0.5290125
        0.50418496 -0.0054421597 0.5296261 0.5123708 -0.0054576085 0.5302184
        0.52044296 -0.0054723937 0.5307871 0.52836335 -0.005486497 0.53133017
        0.53609675 -0.0054999054 0.5318459 0.54361147 -0.0055126073 0.5323331
        0.55087984 -0.0055245943 0.5327909 0.55787826 -0.0055358605 0.533219
        0.5645876 -0.0055464027 0.5336172 0.57099307 -0.0055562216 0.533986
        0.5770841 -0.0055653215 0.5343259 0.5828543 -0.0055737137 0.53463787
        0.5883007 -0.00558143 0.53492314 0.5934238 -0.0055885552 0.53518283
        0.59822667 -0.0055952924 0.53541845 0.60271406 -0.005602098 0.53563154
        0.60689145 -0.0056099216 0.53582346 0.61076325 -0.005620558 0.5359956
        0.6143309 -0.0056370706 0.53614914 0.6175915 -0.0056640496 0.53628504
        0.6205386 -0.0057072216 0.536404 0.6231668 -0.00577182 0.5365069
        0.62548023 -0.0058598923 0.53659475 0.6274995 -0.0059687025 0.53666914
        0.6292605 -0.006093223 0.53673226 0.63080466 -0.0062300856 0.53678614
        0.63216966 -0.006375032 0.5368325 0.6333885 -0.0065175355 0.53687304
        0.6344973 -0.006645768 0.5369092 0.48763525 -0.0050906637 0.5283836
        0.49592727 -0.0051097968 0.5290158 0.5041878 -0.005128318 0.5296294
        0.5123751 -0.0051462017 0.5302218 0.5204487 -0.00516343 0.5307906
        0.5283704 -0.005179983 0.53133374 0.53610504 -0.005195846 0.5318495
        0.543621 -0.0052110045 0.5323367 0.55089056 -0.0052254493 0.5327946
        0.5578901 -0.005239173 0.5332227 0.5646006 -0.005252171 0.53362095
        0.5710071 -0.005264441 0.5339897 0.57709914 -0.0052759857 0.53432965
        0.58287024 -0.005286815 0.5346417 0.58831763 -0.0052969586 0.5349269
        0.5934416 -0.0053064986 0.5351866 0.5982453 -0.005315631 0.5354222
        0.6027337 -0.005324806 0.5356353 0.60691214 -0.005334957 0.53582716
        0.6107852 -0.0053478545 0.53599936 0.61435467 -0.0053665265 0.53615296
        0.61761785 -0.005395524 0.5362889 0.6205687 -0.005440556 0.536408
        0.6232019 -0.0055068824 0.53651106 0.6255217 -0.005596617 0.5365991
        0.6275489 -0.0057070605 0.53667384 0.6293194 -0.0058330526 0.5367373
        0.63087535 -0.005970816 0.5367916 0.632255 -0.006115764 0.53683853
        0.6334932 -0.0062580556 0.53687966 0.6346267 -0.006387998 0.53691673
        0.48763525 -0.0047719846 0.5283866 0.49592873 -0.0047927634 0.5290189
        0.5041908 -0.0048129773 0.52963257 0.51237947 -0.004832595 0.5302251
        0.52045447 -0.0048515955 0.53079396 0.52837753 -0.0048699584 0.53133714
        0.53611356 -0.004887665 0.531853 0.54363084 -0.0049047004 0.5323403
        0.5509016 -0.004921051 0.5327982 0.55790234 -0.0049367086 0.5332263
        0.56461394 -0.0049516642 0.5336246 0.57102156 -0.004965915 0.5339934
        0.5771147 -0.004979459 0.5343334 0.5828869 -0.0049923053 0.5346454
        0.58833516 -0.0050044805 0.5349306 0.59346014 -0.00501606 0.5351903
        0.5982649 -0.005027235 0.53542596 0.60275424 -0.005038443 0.535639
        0.60693383 -0.0050505954 0.5358309 0.6108085 -0.005065428 0.5360031
        0.61438006 -0.0050859167 0.5361568 0.6176464 -0.005116556 0.5362928
        0.6206018 -0.0051630125 0.53641206 0.62324107 -0.0052305693 0.53651536
        0.6255687 -0.0053214193 0.5366037 0.62760526 -0.005432935 0.53667873
        0.629387 -0.005559848 0.5367426 0.63095635 -0.00569799 0.53679746
        0.6323526 -0.005842498 0.53684497 0.6336118 -0.005984305 0.5368869
        0.63477147 -0.006115707 0.5369248 0.48763525 -0.004453304 0.52838933
        0.49593025 -0.0044750194 0.52902174 0.5041937 -0.0044962345 0.5296356
        0.51238394 -0.004516916 0.5302282 0.5204603 -0.0045370418 0.5307971
        0.5283848 -0.004556587 0.5313404 0.5361222 -0.004575533 0.53185636
        0.5436408 -0.0045938613 0.5323437 0.5509129 -0.0046115564 0.5328017
        0.5579149 -0.004628607 0.5332298 0.5646277 -0.0046450035 0.53362817
        0.5710365 -0.004660738 0.533997 0.5771308 -0.004675808 0.534337
        0.58290404 -0.004690218 0.534649 0.58835346 -0.0047039897 0.5349342
        0.59347945 -0.004717196 0.535194 0.5982852 -0.0047300193 0.5354296
        0.60277575 -0.004742879 0.5356427 0.6069567 -0.004756661 0.53583467
        0.6108331 -0.004773053 0.53600687 0.6144072 -0.0047949604 0.5361606
        0.6176773 -0.004826794 0.5362968 0.620638 -0.004874157 0.53641623
        0.6232847 -0.004942338 0.53651977 0.6256217 -0.0050336313 0.53660846
        0.6276695 -0.005145511 0.536684 0.62946445 -0.00527264 0.53674835
        0.6310492 -0.005410486 0.5368037 0.63246405 -0.0055539706 0.5368519
        0.63374615 -0.0056948583 0.5368946 0.63493323 -0.0058271983 0.5369334
        0.48763525 -0.0041346215 0.52839196 0.49593174 -0.004156624 0.5290244
        0.50419676 -0.004178202 0.5296384 0.5123884 -0.0041993205 0.5302311
        0.52046627 -0.0042199553 0.53080016 0.5283922 -0.004240082 0.5313435
        0.536131 -0.004259679 0.5318595 0.54365104 -0.004278727 0.53234696
        0.5509245 -0.004297208 0.53280497 0.5579278 -0.00431511 0.5332332
        0.5646419 -0.004332419 0.5336316 0.57105196 -0.0043491274 0.5340005
        0.5771474 -0.0043652286 0.5343405 0.5829218 -0.004380725 0.5346526
        0.58837235 -0.0043956344 0.53493786 0.59349954 -0.004410023 0.53519756
        0.5983065 -0.004424064 0.5354333 0.6027983 -0.0044381586 0.5356464
        0.60698074 -0.004453156 0.53583837 0.61085916 -0.004470685 0.5360106
        0.61443615 -0.0044935583 0.5361644 0.6177106 -0.0045260713 0.5363008
        0.6206777 -0.004573732 0.53642046 0.6233332 -0.0046418207 0.5365243
        0.62568134 -0.00473274 0.53661346 0.6277425 -0.004844112 0.53668946
        0.62955284 -0.0049705715 0.5367544 0.6311554 -0.0051072664 0.53681046
        0.63259107 -0.00524897 0.5368594 0.6338982 -0.005388299 0.53690296
        0.63511413 -0.005520745 0.5369427 0.48763525 -0.003815938 0.52839434
        0.49593326 -0.0038376383 0.529027 0.5041998 -0.0038589926 0.5296411
        0.51239294 -0.0038799655 0.5302339 0.52047235 -0.0039005321 0.530803
        0.5283997 -0.0039206683 0.5313465 0.53614 -0.003940351 0.5318626
        0.5436614 -0.0039595617 0.5323501 0.5509363 -0.0039782813 0.5328082
        0.557941 -0.003996495 0.5332365 0.56465644 -0.0040141894 0.53363496
        0.57106775 -0.004031354 0.5340039 0.57716453 -0.0040479805 0.53434396
        0.58294016 -0.0040640687 0.53465605 0.58839196 -0.004079634 0.5349414
        0.59352034 -0.004094736 0.53520113 0.5983286 -0.0041095363 0.53543687
        0.60282177 -0.004124415 0.53564996 0.60700595 -0.0041401777 0.535842
        0.6108866 -0.004158377 0.5360143 0.6144669 -0.00418171 0.5361683
        0.6177464 -0.004214321 0.5363048 0.62072104 -0.0042615817 0.53642476
        0.623387 -0.0043287342 0.536529 0.62574834 -0.004418303 0.53661865
        0.6278253 -0.004528102 0.5366953 0.62965363 -0.0046527945 0.5367609
        0.63127655 -0.0047872667 0.53681767 0.6327357 -0.004926213 0.5368675
        0.6340701 -0.0050630798 0.53691196 0.63531625 -0.005194416 0.53695273
        0.48763525 -0.0034972522 0.52839655 0.49593478 -0.0035181206 0.5290293
        0.50420284 -0.0035387173 0.52964354 0.5123975 -0.0035590092 0.5302365
        0.5204784 -0.0035789714 0.53080577 0.5284074 -0.003598581 0.5313493
        0.53614914 -0.0036178157 0.5318655 0.543672 -0.003636656 0.5323531
        0.5509483 -0.0036550842 0.5328113 0.5579545 -0.0036730845 0.53323966
        0.5646713 -0.0036906435 0.5336382 0.571084 -0.0037077488 0.5340072
        0.5771821 -0.0037243923 0.5343473 0.5829591 -0.003740571 0.53465945
        0.5884122 -0.0037562982 0.5349448 0.593542 -0.0037716276 0.5352046
        0.5983516 -0.0037867078 0.5354403 0.60284626 -0.0038018932 0.5356535
        0.60703236 -0.003817939 0.5358456 0.61091554 -0.0038363058 0.536018
        0.6144996 -0.0038595463 0.53617203 0.617785 -0.0038916096 0.53630877
        0.6207683 -0.0039376803 0.5364291 0.6234464 -0.004002926 0.53653383
        0.62582344 -0.004089993 0.53662413 0.62791896 -0.0041969344 0.53670144
        0.6297684 -0.004318516 0.53676784 0.6314147 -0.004449434 0.5368255
        0.6329003 -0.0045843795 0.5368762 0.6342643 -0.004717551 0.53692174
        0.63554215 -0.0048461235 0.5369635 0.48763525 -0.0031785658 0.5283986
        0.4959363 -0.0031981273 0.52903146 0.50420594 -0.0032174857 0.5296458
        0.5124022 -0.003236609 0.53023887 0.5204846 -0.0032554746 0.5308082
        0.5284151 -0.0032740606 0.5313519 0.53615844 -0.0032923466 0.5318682
        0.5436828 -0.0033103144 0.5323559 0.55096066 -0.0033279464 0.5328142
        0.55796826 -0.003345228 0.53324264 0.56468654 -0.0033621457 0.5336412
        0.5711007 -0.0033786877 0.5340103 0.57720023 -0.003394845 0.53435045
        0.58297867 -0.0034106139 0.5346627 0.58843315 -0.0034260058 0.53494805
        0.59356433 -0.003441068 0.5352079 0.59837544 -0.0034559367 0.5354437
        0.60287184 -0.0034709352 0.5356569 0.6070599 -0.00348676 0.5358491
        0.61094594 -0.003504763 0.5360216 0.6145343 -0.0035273181 0.5361758
        0.6178262 -0.0035581326 0.5363128 0.62081957 -0.0036021392 0.5364335
        0.62351185 -0.0036643744 0.53653884 0.62590724 -0.0037475976 0.5366298
        0.62802464 -0.003850154 0.53670794 0.62989867 -0.003966992 0.53677523
        0.63157207 -0.0040927185 0.5368338 0.6330874 -0.004222087 0.5368856
        0.6344835 -0.0043499307 0.53693223 0.63579464 -0.0044736075 0.5369752
        0.48763525 -0.0028598781 0.52840036 0.49593785 -0.0028777118 0.5290334
        0.50420904 -0.002895401 0.5296479 0.5124068 -0.0029129162 0.5302411
        0.5204909 -0.0029302372 0.5308106 0.52842295 -0.0029473444 0.53135437
        0.5361678 -0.0029642195 0.5318707 0.5436938 -0.0029808457 0.5323585
        0.5509731 -0.0029972077 0.53281695 0.55798227 -0.0030132916 0.53324544
        0.5647021 -0.0030290855 0.53364414 0.57111776 -0.0030445778 0.5340133
        0.5772188 -0.00305976 0.5343535 0.5829987 -0.003074629 0.5346658
        0.58845466 -0.0030891937 0.5349512 0.59358734 -0.0031034965 0.53521115
        0.59840006 -0.0031176577 0.535447 0.6028983 -0.003131969 0.53566027
        0.6070886 -0.0031470563 0.5358525 0.61097777 -0.0031641438 0.5360251
        0.61457086 -0.0031853928 0.5361795 0.6178703 -0.0032142103 0.5363168
        0.62087506 -0.0032551999 0.5364379 0.62358373 -0.0033131924 0.53654385
        0.6260006 -0.0033910295 0.53663564 0.6281436 -0.0034873963 0.5367148
        0.6300464 -0.003597526 0.53678316 0.6317511 -0.0037160576 0.5368429
        0.6332999 -0.0038378735 0.5368958 0.63473105 -0.0039582863 0.5369436
        0.6360768 -0.0040744357 0.5369877 0.48763525 -0.0025411893 0.52840203
        0.4959394 -0.0025569242 0.5290352 0.50421214 -0.0025725607 0.5296498
        0.51241153 -0.0025880744 0.5302431 0.5204972 -0.0026034473 0.53081274
        0.5284308 -0.0026186625 0.5313566 0.53617734 -0.002633704 0.5318731
        0.5437049 -0.0026485573 0.53236103 0.5509858 -0.0026632089 0.53281945
        0.5579966 -0.0026776479 0.5332481 0.56471795 -0.0026918622 0.5336469
        0.57113516 -0.0027058434 0.5340161 0.5772378 -0.002719584 0.5343564
        0.5830192 -0.00273308 0.53466874 0.5884768 -0.0027463401 0.53495425
        0.59361106 -0.0027594003 0.5352142 0.5984255 -0.0027723657 0.5354501
        0.60292566 -0.0027854901 0.5356634 0.6071184 -0.0027993217 0.53585577
        0.611011 -0.0028149341 0.5360285 0.61460936 -0.0028342386 0.5361831
        0.61791706 -0.0028602772 0.5363207 0.62093484 -0.002897231 0.53644234
        0.6236623 -0.0029496225 0.53654903 0.62610406 -0.003020318 0.5366418
        0.62827724 -0.003108381 0.536722 0.63021386 -0.0032094538 0.5367916
        0.6319547 -0.0033183475 0.53685266 0.6335412 -0.0034301507 0.53690684
        0.6350105 -0.0035404924 0.53695595 0.6363922 -0.0036460082 0.5370012
        0.48763525 -0.0022224996 0.52840346 0.49594098 -0.002235809 0.52903676
        0.5042153 -0.0022490558 0.5296515 0.5124163 -0.0022622182 0.53024495
        0.5205036 -0.0022752825 0.53081465 0.52843887 -0.0022882337 0.53135866
        0.53618693 -0.002301059 0.5318753 0.54371613 -0.0023137464 0.5323633
        0.5509987 -0.0023262848 0.53282183 0.55801105 -0.0023386648 0.5332506
        0.5647341 -0.0023508777 0.53364944 0.5711529 -0.0023629162 0.53401875
        0.5772571 -0.0023747743 0.5343591 0.5830402 -0.002386449 0.53467155
        0.5884994 -0.002397948 0.53495705 0.59363544 -0.0024093015 0.5352171
        0.5984517 -0.002420597 0.5354531 0.6029539 -0.0024320474 0.53566647
        0.6071493 -0.0024441108 0.53585887 0.6110456 -0.002457692 0.5360318
        0.6146497 -0.0024744088 0.5361866 0.61796665 -0.002496866 0.53632456
        0.62099886 -0.0025287124 0.5364468 0.62374777 -0.0025740261 0.5365543
        0.62621844 -0.0026356014 0.5366481 0.62842697 -0.0027128973 0.53672963
        0.6304033 -0.0028021038 0.5368007 0.63218623 -0.00289839 0.53686315
        0.6338154 -0.0029971383 0.5369188 0.63532585 -0.003094182 0.53696924
        0.6367446 -0.0031855612 0.5370157 0.48763525 -0.0019038091 0.5284047
        0.49594253 -0.0019144086 0.52903813 0.50421846 -0.001924969 0.529653
        0.5124211 -0.001935473 0.53024656 0.52050996 -0.0019459088 0.53081644
        0.5284469 -0.001956265 0.53136057 0.53619665 -0.0019665316 0.5318773
        0.5437275 -0.0019766989 0.5323654 0.55101174 -0.0019867588 0.53282404
        0.5580258 -0.001996704 0.53325284 0.56475043 -0.002006528 0.53365177
        0.571171 -0.0020162251 0.53402114 0.5772768 -0.0020257921 0.5343616
        0.58306164 -0.002035227 0.5346741 0.58852255 -0.0020445355 0.53495973
        0.59366035 -0.0020537428 0.53521985 0.5984785 -0.002062917 0.5354559
        0.60298294 -0.0020722249 0.5356693 0.60718113 -0.0020820263 0.53586185
        0.6110814 -0.0020930327 0.5360349 0.61469173 -0.0021065264 0.53619
        0.6180188 -0.002124596 0.53632826 0.62106717 -0.002150226 0.53645116
        0.6238404 -0.002186877 0.5365596 0.62634444 -0.0022371134 0.53665465
        0.6285944 -0.0023007744 0.5367377 0.63061756 -0.0023747548 0.5368104
        0.63244957 -0.0024548112 0.53687453 0.63412714 -0.0025367695 0.5369318
        0.6356822 -0.0026166714 0.5369837 0.6371385 -0.002690176 0.5370313
        0.48763525 -0.001585118 0.5284058 0.4959441 -0.0015927616 0.5290393
        0.5042216 -0.0016003781 0.5296543 0.5124259 -0.0016079546 0.530248
        0.5205164 -0.0016154821 0.530818 0.528455 -0.0016229519 0.53136224
        0.5362064 -0.0016303564 0.53187907 0.543739 -0.0016376891 0.5323673
        0.5510249 -0.0016449436 0.532826 0.5580407 -0.0016521156 0.5332549
        0.56476706 -0.0016592004 0.533654 0.5711893 -0.0016661951 0.5340234
        0.57729685 -0.0016730974 0.534364 0.5830834 -0.0016799072 0.5346765
        0.5885461 -0.0016866293 0.53496224 0.59368575 -0.0016932813 0.53522235
        0.598506 -0.001699912 0.53545845 0.6030127 -0.0017066371 0.53567207
        0.60721385 -0.0017137076 0.53586465 0.6111184 -0.00172162 0.5360378
        0.6147354 -0.0017312759 0.53619313 0.61807346 -0.0017441609 0.5363319
        0.6211397 -0.0017624467 0.53645545 0.62394017 -0.0017887488 0.5365649
        0.6264828 -0.0018251713 0.5366614 0.6287815 -0.0018718505 0.5367462
        0.6308601 -0.0019265554 0.5368208 0.6327497 -0.001985941 0.5368869
        0.63448226 -0.0020465478 0.53694594 0.6360852 -0.0021048707 0.5369993
        0.6375785 -0.0021567978 0.537048 0.48763525 -0.0012664262 0.5284066
        0.4959457 -0.0012709039 0.52904034 0.50422484 -0.001275356 0.5296554
        0.5124307 -0.0012797741 0.53024924 0.5205229 -0.0012841512 0.53081936
        0.5284632 -0.0012884816 0.5313637 0.5362163 -0.0012927599 0.5318806
        0.5437506 -0.0012969818 0.53236896 0.5510382 -0.001301144 0.5328278
        0.5580557 -0.0013052436 0.5332568 0.5647838 -0.0013092785 0.53365594
        0.5712078 -0.0013132478 0.53402543 0.5773172 -0.001317151 0.5343661
        0.5831055 -0.0013209888 0.5346787 0.58857006 -0.0013247648 0.53496444
        0.5937117 -0.0013284896 0.5352247 0.5985339 -0.0013321895 0.5354608
        0.6030431 -0.0013359259 0.5356745 0.60724735 -0.0013398303 0.5358672
        0.6111564 -0.0013441633 0.53604054 0.6147806 -0.0013493992 0.5361961
        0.61813045 -0.0013563302 0.53633535 0.6212162 -0.0013661415 0.5364596
        0.6240473 -0.0013803202 0.5365702 0.62663406 -0.0014001664 0.5366683
        0.62899023 -0.0014259288 0.53675514 0.63113517 -0.0014564203 0.53683203
        0.6330928 -0.0014896347 0.53690034 0.63488793 -0.0015233456 0.5369613
        0.63654166 -0.0015551572 0.5370163 0.63806987 -0.0015822558 0.53706586
        0.48763525 -0.00094773393 0.5284073 0.49594727 -0.0009488708 0.5290411
        0.504228 -0.00094997423 0.52965635 0.51243556 -0.0009510395 0.53025025
        0.5205294 -0.0009520622 0.5308205 0.5284714 -0.00095303875 0.531365
        0.5362262 -0.0009539661 0.531882 0.54376227 -0.0009548421 0.5323704
        0.5510516 -0.00095566525 0.53282934 0.55807084 -0.0009564349 0.53325844
        0.56480074 -0.0009571508 0.5336576 0.57122654 -0.00095781375 0.5340273
        0.5773377 -0.0009584248 0.5343679 0.58312786 -0.00095898565 0.53468066
        0.5885944 -0.0009594983 0.53496647 0.5937379 -0.00095996517 0.53522676
        0.5985623 -0.0009603889 0.53546304 0.603074 -0.0009607722 0.5356768
        0.6072815 -0.0009611181 0.53586954 0.61119527 -0.00096142926 0.5360431
        0.614827 -0.0009617088 0.5361989 0.61818945 -0.00096195936 0.5363386
        0.62129635 -0.00096218364 0.5364637 0.6241615 -0.0009623843 0.5365755
        0.62679905 -0.00096256344 0.53667545 0.6292233 -0.00096272345 0.5367647
        0.6314481 -0.0009628662 0.5368442 0.63348705 -0.0009629933 0.53691506
        0.63535345 -0.0009631066 0.53697824 0.63705987 -0.0009632076 0.5370346
        0.6386184 -0.00096329785 0.5370849
        <InformationKey name="L2_NORM_RANGE" location="vtkDataArray" length="2">
          <Value index="0">
            0.71902938516
          </Value>
          <Value index="1">
            0.83444266831
          </Value>
        </InformationKey>
      </DataArray>
    </Points>
  </Piece>
  </StructuredGrid>
</VTKFile>
