<?xml version="1.0"?>
<VTKFile type="StructuredGrid" version="0.1" byte_order="LittleEndian" header_type="UInt32" compressor="vtkZLibDataCompressor">
  <StructuredGrid WholeExtent="0 30 0 40 0 0">
  <Piece Extent="0 30 0 40 0 0">
    <PointData>
      <DataArray type="Float32" Name="orthogonality" format="ascii" RangeMin="0" RangeMax="0.9999765753746033">
        0.99877536 0.9994441 0.9991782 0.997257 0.99294996 0.98503435
        0.97072685 0.94463867 0.89832383 0.82151085 0.7043283 0.5434243
        0.36164132 0.2111054 0.120599724 0.07787674 0.06087639 0.05463098
        0.05183439 0.049644914 0.04717628 0.0442203 0.040757883 0.036814634
        0.03242864 0.027646076 0.022521682 0.017119236 0.011511115 0.0057768617
        2.366e-13 0.99785495 0.999172 0.9982828 0.9954238 0.9898287
        0.979742 0.96166855 0.92989475 0.87697875 0.795092 0.6770794
        0.5215285 0.3495389 0.20691746 0.119902045 0.07820337 0.061397865
        0.055119555 0.052241098 0.04997212 0.047438662 0.044433076 0.04093384
        0.03696369 0.032557987 0.027760448 0.022623613 0.01720934 0.011588394
        0.0058389353 4.3014377e-05 0.9968974 0.99901175 0.9976072 0.99389195
        0.9864832 0.97270095 0.9483692 0.908524 0.84845227 0.76318717
        0.6469919 0.49885646 0.33745986 0.20289046 0.11942602 0.07878877
        0.062181536 0.05585562 0.05287545 0.050507586 0.047891963 0.044821616
        0.041272365 0.037263818 0.03282842 0.02800724 0.022850484 0.017417992
        0.011778823 0.0060096756 0.00019066715 0.99707705 0.99879235 0.99679583
        0.9918442 0.98167914 0.9628173 0.9313174 0.88427943 0.8195479
        0.73331916 0.6201302 0.47914055 0.32713538 0.19970363 0.11949069
        0.07984772 0.06340073 0.056985218 0.05386128 0.05135631 0.04862521
        0.04546148 0.041837778 0.037770115 0.033287577 0.028428255 0.02323973
        0.017779555 0.012114842 0.0063205836 0.00047388536 0.998687 0.9985729
        0.9958506 0.98909163 0.97516227 0.95037395 0.9121862 0.8600004
        0.79284334 0.70689094 0.5967327 0.46178648 0.3175148 0.19612268
        0.11886379 0.080258876 0.06408064 0.057677492 0.05449569 0.051924974
        0.049137786 0.04593043 0.042274434 0.038183942 0.03368625 0.028817844
        0.02362493 0.018163942 0.012501156 0.006710957 0.0008674465 0.9999766
        0.9982713 0.99409556 0.9836278 0.9631579 0.9304622 0.88588274
        0.830473 0.76303536 0.6792381 0.5737611 0.44620255 0.31050518
        0.19547515 0.121108346 0.083266 0.06701096 0.06028427 0.056749564
        0.053865075 0.05081714 0.04739876 0.04357447 0.039351694 0.034752112
        0.029807856 0.024562063 0.019069526 0.01339663 0.0076201116 0.0018002063
        0.9999393 0.99774593 0.9912476 0.9761787 0.9496184 0.9111326
        0.86247945 0.8050974 0.7377707 0.65631664 0.5557721 0.43576467
        0.308524 0.19950844 0.12752084 0.0898249 0.07287299 0.065264106
        0.06089967 0.057302795 0.053661972 0.049754236 0.045525726 0.04096725
        0.036086254 0.030902684 0.02544917 0.01977125 0.0139269205 0.0079848645
        0.001997099 0.99995154 0.99657375 0.98656297 0.9664924 0.93445915
        0.89083636 0.8375886 0.77639043 0.70681167 0.6257145 0.5289801
        0.41637677 0.29840142 0.19688371 0.12877561 0.092350915 0.075481065
        0.06755357 0.06279514 0.0588374 0.05489273 0.050735053 0.046301343
        0.04157314 0.03654973 0.031244025 0.025682567 0.019905578 0.01396633
        0.007929093 0.0018434369 0.9998934 0.99343294 0.979206 0.9535685
        0.91496426 0.8641282 0.8037286 0.7366827 0.6638719 0.58310825
        0.49083182 0.3867303 0.27948576 0.18719696 0.124580406 0.090639964
        0.074705504 0.06708456 0.06241956 0.058496624 0.054575164 0.050439976
        0.04602911 0.04132315 0.03632021 0.031032111 0.025484473 0.019716717
        0.013781448 0.007742286 0.0016501705 0.99875575 0.9882355 0.96917
        0.93701977 0.8904839 0.8311471 0.7632105 0.6911057 0.61649406
        0.5374607 0.4506154 0.3554345 0.2589745 0.17606115 0.11927487
        0.0881375 0.07335144 0.066172384 0.06169458 0.057877555 0.05403586
        0.04996897 0.045618325 0.040965322 0.0360083 0.0307592 0.02524369
        0.019501239 0.013584497 0.0075570764 0.0014717594 0.9963744 0.9812346
        0.9563641 0.9165327 0.8610062 0.7929247 0.71846545 0.6431286
        0.5685276 0.4924977 0.41164348 0.32524073 0.23901054 0.16505149
        0.11399838 0.08569481 0.07208098 0.06534467 0.061044674 0.05732213
        0.05354953 0.049541593 0.04524312 0.040636145 0.0357191 0.030503916
        0.0250162 0.019295374 0.013394041 0.007375733 0.0012949917 0.9923967
        0.9717972 0.9399389 0.89096266 0.8253182 0.74855816 0.6689181
        0.5921956 0.5192327 0.44732112 0.3729976 0.29537228 0.21905571
        0.15382364 0.10850767 0.083121814 0.07074076 0.0644773 0.06036965
        0.05674978 0.053051684 0.049106546 0.044863034 0.04030412 0.035428584
        0.03024851 0.024789624 0.01909142 0.013206558 0.007198589 0.0011238524
        0.98653525 0.9593932 0.9189649 0.8591427 0.78257674 0.6979461
        0.61502975 0.53890467 0.46909797 0.4022602 0.33488682 0.26598787
        0.1992685 0.1425225 0.1029087 0.08048967 0.06938071 0.06360783
        0.059699 0.05618403 0.052561134 0.04867882 0.04448992 0.039978534
        0.03514388 0.029998315 0.024567762 0.018891847 0.013023338 0.0070258486
        0.00095752056 0.9782532 0.94308454 0.8919867 0.81946486 0.7317217
        0.64082205 0.5569568 0.48344016 0.41818815 0.35726446 0.2972036
        0.2369953 0.17961581 0.13115378 0.09720847 0.07779635 0.067994006
        0.06272871 0.059026036 0.055619385 0.052073468 0.048254915 0.044121064
        0.039657302 0.034863446 0.02975226 0.024349941 0.018696342 0.012844395
        0.0068578348 0.0007966135 0.9666796 0.9214194 0.85691476 0.76995474
        0.6717483 0.57711834 0.49499887 0.42608753 0.3666661 0.31238618
        0.2599403 0.20838575 0.16012271 0.119761184 0.09144071 0.07505993
        0.06658951 0.061844856 0.05835408 0.05505838 0.051590737 0.04783653
        0.043757867 0.039341602 0.03458829 0.029511193 0.024136895 0.018505542
        0.012670289 0.0066950475 0.00064157794 0.9502517 0.8919859 0.81066245
        0.70819366 0.6017288 0.50691193 0.42950138 0.36712438 0.31467867
        0.26766917 0.22308888 0.1801523 0.14081264 0.1083849 0.08563659
        0.07229699 0.06517503 0.060960405 0.05768589 0.054503184 0.051114764
        0.047425233 0.043401696 0.039032646 0.034319494 0.02927611 0.023929548
        0.01832032 0.012501864 0.0065383106 0.0004932249 0.92606 0.8506758
        0.748747 0.6314597 0.52105194 0.43056917 0.36095926 0.30690742
        0.26242825 0.2232058 0.18668523 0.15232316 0.12173235 0.09707952
        0.079837486 0.06953197 0.06376465 0.060084604 0.05702842 0.053959414
        0.05065021 0.047024935 0.043055873 0.038733266 0.034059487 0.029049113
        0.023729734 0.018142294 0.012340549 0.0063889045 0.0003527013 0.8883754
        0.7903004 0.66493225 0.5371798 0.42977217 0.34889236 0.29008892
        0.24591757 0.21020323 0.1791571 0.15082203 0.12497065 0.10295882
        0.085919544 0.07409907 0.06680048 0.06238144 0.05923402 0.056394644
        0.053437658 0.050205857 0.046642978 0.042726547 0.03844864 0.03381265
        0.02883391 0.023540609 0.017974146 0.012188636 0.006248774 0.00022163503
        0.8250895 0.6982123 0.55158395 0.42403045 0.3291468 0.26333335
        0.21794772 0.1848462 0.15844291 0.13580164 0.1156853 0.09823855
        0.08462019 0.075015344 0.068503544 0.06415889 0.061065212 0.058438897
        0.05580877 0.05295777 0.04979812 0.046292976 0.04242504 0.038188186
        0.033586826 0.028637035 0.023367586 0.017820345 0.012049764 0.006120824
        0.000102245045 0.70854557 0.5535785 0.4024932 0.29392475 0.2223097
        0.17626433 0.14610769 0.12472639 0.107838586 0.09361281 0.08161346
        0.07238776 0.066931784 0.06454197 0.063183054 0.061703578 0.059888415
        0.057756256 0.055317003 0.052557644 0.04945822 0.046000678 0.04217259
        0.037969403 0.033396382 0.028470216 0.023220157 0.017688436 0.011929767
        0.006009337 2.6486778e-06 0.47583094 0.3316033 0.22034435 0.15414855
        0.11463556 0.091078565 0.07672711 0.06698832 0.05937233 0.05328564
        0.049117755 0.0478152 0.050216336 0.05476131 0.058342177 0.059591956
        0.058974415 0.057285175 0.055000085 0.052303452 0.04924046 0.045810618
        0.04200563 0.037821993 0.033265382 0.028352741 0.02311351 0.017590031
        0.011837059 0.005919795 9.0359834e-05 0.052893557 0.033746287 0.021124113
        0.01412881 0.010687966 0.009985125 0.010926578 0.0122185135 0.01335017
        0.0149797145 0.018294662 0.024607781 0.03457557 0.04578438 0.05408363
        0.0579096 0.05839229 0.05708142 0.054903194 0.05223184 0.0491745
        0.045746703 0.04194331 0.037761126 0.03320564 0.028293569 0.023054125
        0.01752942 0.011773944 0.0058526397 0.00016224671 0.39766547 0.271608
        0.17886978 0.12537917 0.092635535 0.07061767 0.05452727 0.04229581
        0.03245013 0.023095028 0.0122624785 0.0017018139 0.019238686 0.037060473
        0.049999855 0.05633852 0.057884984 0.056933846 0.05485184 0.05219825
        0.049140416 0.045709357 0.04190291 0.037718102 0.033160187 0.028245622
        0.02300336 0.017475251 0.011715495 0.005788747 0.00023195623 0.6619803
        0.50728023 0.36424422 0.2650983 0.19958335 0.15517129 0.12348975
        0.09973478 0.08060539 0.06299866 0.044165548 0.02212155 0.0033174553
        0.027948154 0.04561117 0.054502293 0.057147622 0.056591943 0.054639045
        0.052031267 0.048996087 0.04558065 0.041786544 0.037611708 0.03306177
        0.028153412 0.022915758 0.017390758 0.011632618 0.0057059624 0.0003150942
        0.7947104 0.6633922 0.5184676 0.3966836 0.30666423 0.24231558
        0.19549765 0.16002572 0.13121286 0.10488424 0.07755349 0.046945777
        0.013206873 0.018470407 0.040952113 0.052431956 0.05620496 0.05607511
        0.054280005 0.051742766 0.04875069 0.045367558 0.041599367 0.037445594
        0.032912754 0.028018221 0.022791656 0.017275421 0.011524002 0.005602213
        0.00041448235 0.8663977 0.7633064 0.6368408 0.5121358 0.40830627
        0.32860422 0.26838636 0.2217558 0.18331854 0.14808226 0.111927554
        0.072369784 0.029996945 0.008902976 0.036236335 0.050290987 0.05518503
        0.055486195 0.053858493 0.051401336 0.048460435 0.045116097 0.04137896
        0.037250318 0.032737833 0.027859762 0.0226465 0.01714097 0.011398059
        0.0054828646 0.00052765873 0.9091159 0.8289526 0.7247849 0.60886765
        0.5010383 0.41149622 0.34049654 0.28385448 0.23622301 0.19212025
        0.14694339 0.098113455 0.04681234 0.0005605989 0.03160607 0.048181973
        0.05416509 0.05488622 0.053424038 0.051047612 0.048158776 0.044853833
        0.041148033 0.03704456 0.0325523 0.0276905 0.022490341 0.016995372
        0.011260916 0.0053523765 0.0006517381 0.93678457 0.8740019 0.7899182
        0.68785036 0.5833432 0.48940048 0.4107121 0.34562543 0.2895123
        0.2367512 0.18243328 0.1240304 0.0635119 0.009802772 0.027143408
        0.04615935 0.053183496 0.05430452 0.05300023 0.05070098 0.047861774
        0.044594105 0.04091768 0.03683756 0.032363873 0.027516868 0.022328535
        0.016843056 0.011116202 0.0052136714 0.000784457 0.9559159 0.90628403
        0.8386759 0.75151753 0.65497357 0.56139153 0.4782757 0.40661037
        0.3429569 0.28187832 0.21834895 0.15006252 0.08001658 0.018751549
        0.022895388 0.044250246 0.052256975 0.053752974 0.05259641 0.05036912
        0.047575857 0.04434235 0.040692527 0.03663327 0.03217596 0.027341815
        0.022163657 0.016686294 0.010965934 0.0050685536 0.00092420186 0.96977913
        0.9302858 0.8757401 0.8025324 0.71634877 0.6269225 0.5425941
        0.46643934 0.3963962 0.32746705 0.25469467 0.17618887 0.09627078
        0.027352119 0.01889505 0.042470727 0.051393565 0.05323645 0.05221615
        0.05005495 0.047303487 0.044100672 0.040474396 0.036433302 0.03198997
        0.02716662 0.021996874 0.016526168 0.010811137 0.004918007 0.001070019
        0.9801039 0.94867337 0.9044334 0.8433988 0.7683359 0.6858172
        0.60329276 0.52490646 0.44982198 0.37362558 0.29159668 0.20247813
        0.11227765 0.03559004 0.015145634 0.040814444 0.050584015 0.052746106
        0.051851973 0.0497524 0.047039837 0.043865286 0.040260363 0.036235437
        0.031804305 0.0269902 0.021827558 0.016362458 0.010651969 0.0047625476
        0.0012210462 0.9877496 0.9629494 0.9269089 0.8760207 0.8116316
        0.73764956 0.65956336 0.58132994 0.5028029 0.4201165 0.32890928
        0.22878802 0.12788334 0.043341935 0.011726247 0.03933152 0.049863238
        0.05230836 0.051524676 0.04947807 0.046798173 0.043646745 0.040058758
        0.036046173 0.03162394 0.026816243 0.021658305 0.016196806 0.010489217
        0.0046021775 0.0013780257 0.99344057 0.9743535 0.9450718 0.90256566
        0.8479178 0.7833481 0.7120166 0.6364533 0.5562961 0.46797174
        0.36755702 0.2557941 0.14350793 0.050880123 0.008432628 0.03785893
        0.04909976 0.051817086 0.051148746 0.049163233 0.046523474 0.04340125
        0.039835013 0.03583859 0.03142833 0.026629595 0.02147859 0.016022753
        0.010320085 0.0044374946 0.0015371302 0.9967701 0.98258865 0.95912427
        0.9232578 0.8762957 0.82017905 0.75644827 0.6855693 0.6058452
        0.5133195 0.40434185 0.28096423 0.15725556 0.05685759 0.006229541
        0.037123255 0.048863642 0.051728487 0.05109165 0.049103986 0.04645369
        0.043319084 0.03974015 0.035731137 0.031308696 0.026498437 0.021336772
        0.015871258 0.010159868 0.004269274 0.0017114257 0.99697423 0.9859505
        0.9686991 0.93872845 0.896962 0.8459157 0.78709894 0.7197838
        0.6407848 0.54518694 0.42913717 0.29579082 0.162525 0.056313105
        0.008935102 0.040173605 0.051647745 0.05410282 0.053063236 0.05072111
        0.04776923 0.044379897 0.0405853 0.03639265 0.031812612 0.026865771
        0.021584231 0.016011752 0.010202798 0.004220624 0.0018476947 0.99311703
        0.9862133 0.9752377 0.95242304 0.91696566 0.87021506 0.8136933
        0.7467557 0.6660346 0.5662665 0.44329485 0.30103132 0.15989533
        0.0497236 0.01620677 0.04678713 0.057315726 0.058867287 0.05704116
        0.05403444 0.050526127 0.046671223 0.04248591 0.037963737 0.033103928
        0.027917443 0.022428185 0.016672721 0.010698977 0.004563879 0.0016521892
        0.9811616 0.98547363 0.97971624 0.96431166 0.9373712 0.89742404
        0.8445573 0.77841747 0.6961477 0.5924539 0.4627752 0.3115303
        0.16218153 0.04755342 0.01966916 0.050228637 0.06039877 0.0615544
        0.059368018 0.056050725 0.05227973 0.048204426 0.0438353 0.039161123
        0.034177426 0.028892519 0.023328612 0.017521573 0.011519703 0.0053816014
        0.000823139 0.9713398 0.9842208 0.9811988 0.9701704 0.9496987
        0.91697544 0.86990815 0.8069773 0.725232 0.61929315 0.4841486
        0.32461283 0.16729654 0.0481957 0.020531362 0.05138351 0.061521925
        0.06257932 0.06028842 0.056874327 0.05301707 0.048865866 0.044430424
        0.039698817 0.034666095 0.029340303 0.023743568 0.017911816 0.0118935
        0.005747398 0.0004588678 0.96890116 0.98332816 0.9822426 0.97437775
        0.95930827 0.93404347 0.894644 0.8372354 0.7575608 0.6497681
        0.5083433 0.33875763 0.17191443 0.047825154 0.022311632 0.05326129
        0.06321431 0.064061 0.06157819 0.05799557 0.053991463 0.04971248
        0.04516589 0.04033772 0.035221394 0.029823657 0.024165595 0.018282251
        0.012221261 0.006040548 0.00019442604 0.97380686 0.9831128 0.9829893
        0.9771783 0.96603024 0.9471841 0.91607314 0.86653584 0.7915852
        0.6835835 0.5359874 0.3550739 0.17732784 0.0477612 0.023791559
        0.05479976 0.06457073 0.06523414 0.0625921 0.058871023 0.054745603
        0.05035996 0.04571953 0.04080895 0.03562055 0.03016025 0.024448466
        0.018519662 0.012420907 0.006209459 5.0483486e-05 0.98037505 0.9845289
        0.9850749 0.98050433 0.97156394 0.9565643 0.9311495 0.88839126
        0.81935304 0.7137836 0.5624962 0.3713795 0.18283774 0.04783376
        0.025051313 0.05608176 0.06567429 0.06617373 0.063394785 0.05955604
        0.055327434 0.0508506 0.04612943 0.04114746 0.035896216 0.030381013
        0.024621828 0.018652746 0.012520448 0.0062817126 0
      </DataArray>
      <DataArray type="Float32" Name="aspect_ratio" format="ascii" RangeMin="1.0002046823501587" RangeMax="42.37075424194336">
        1.5395787 2.0287695 2.0802805 1.8832695 1.7411641 1.7281349
        1.8683069 2.2037175 2.802887 3.7497053 5.113134 6.8617945
        8.744551 10.468561 12.056039 13.67044 15.400768 17.273075
        19.288128 21.434109 23.688732 26.018984 28.38071 30.71878
        32.968227 35.056705 36.9083 38.448532 39.610172 40.339092
        40.85459 1.5820278 2.0583448 2.0030344 1.8402402 1.7652736
        1.8143207 2.0110452 2.4030213 3.06218 4.071316 5.493448
        7.296253 9.25262 11.087514 12.794633 14.51314 16.330118
        18.275581 20.35214 22.546848 24.834303 27.177452 29.527908
        31.82666 34.005703 35.990948 37.70645 39.079716 40.047607
        40.562107 40.850235 1.735765 2.1122684 1.9549296 1.8070186
        1.7795405 1.8877298 2.1561182 2.6321516 3.3808131 4.4745693
        5.9679346 7.8313084 9.866569 11.820116 13.658262 15.493552
        17.409246 19.438663 21.585903 23.836418 26.161118 28.518272
        30.854666 33.1069 35.20358 37.068745 38.626537 39.806858
        40.55136 40.819077 40.84588 2.0921955 2.121866 1.8964567
        1.7842855 1.8105423 1.9812304 2.321801 2.8766248 3.7041886
        4.870535 6.424968 8.341905 10.450028 12.5160885 14.481984
        16.433489 18.448612 20.56352 22.783829 25.093466 27.459648
        29.835882 32.16393 34.37571 36.396034 38.146576 39.55101
        40.541046 41.062588 41.08126 40.841507 3.0226483 2.0607657
        1.8530461 1.8102489 1.9205065 2.1890879 2.6430478 3.3270261
        4.300989 5.6325245 7.3700366 9.48856 11.825729 14.147742
        16.369398 18.555586 20.782507 23.089651 25.482235 27.938753
        30.41728 32.860004 35.19638 37.346027 39.222492 40.73828
        41.8111 42.370754 42.365883 41.76945 40.837124 3.9145393
        1.941623 1.7620987 1.7464249 1.8701402 2.1353195 2.5626197
        3.1900833 4.0718293 5.26831 6.823999 8.728207 10.865825
        13.048886 15.181561 17.297762 19.461504 21.713415 24.063374
        26.494684 28.96982 31.434864 33.822475 36.05448 38.045258
        39.70641 40.9528 41.709377 41.918068 41.543655 40.832817
        2.6815517 1.8010032 1.6437563 1.6034646 1.6459932 1.776742
        2.0166113 2.3968449 2.9580352 3.7462633 4.80156 6.1364985
        7.7026515 9.386346 11.10279 12.855632 14.689316 16.642672
        18.734035 20.960783 23.302671 25.724691 28.178633 30.604198
        32.930763 35.080353 36.972076 38.52781 39.67862 40.371166
        40.82833 1.8436608 1.6530426 1.5546929 1.5144378 1.5311351
        1.6176693 1.7933625 2.0839796 2.522625 3.1480012 3.9975352
        5.094886 6.4243646 7.90906 9.467656 11.084821 12.793751
        14.63315 16.626265 18.77713 21.072863 23.486048 25.97583
        28.488453 30.958292 33.31011 35.462788 37.334545 38.849136
        39.94247 40.823685 1.6312317 1.5661104 1.4974723 1.4687248
        1.4968274 1.5959834 1.78319 2.080081 2.5143113 3.1195114
        3.9316585 4.9812584 6.270234 7.7381816 9.299215 10.922079
        12.632387 14.46951 16.459333 18.60784 20.903248 23.318777
        25.813997 28.335443 30.817652 33.18539 35.357372 37.25144
        38.790787 39.910595 40.819023 1.6024221 1.513246 1.4441844
        1.4263523 1.4709238 1.5902376 1.7991618 2.115707 2.5626209
        3.1690834 3.9698706 5.00105 6.2780313 7.7525415 9.334432
        10.97876 12.704381 14.551225 16.547363 18.700085 20.997967
        23.414097 25.907757 28.425198 30.900751 33.259113 35.419083
        37.298782 38.82187 39.924137 40.814373 1.5174044 1.4439183
        1.3845786 1.3791752 1.43938 1.5766003 1.8037297 2.1354678
        2.5905514 3.1947947 3.9822853 4.9938884 6.2562294 7.731601
        9.327423 10.987386 12.72401 14.577405 16.577549 18.732985
        21.032732 23.449902 25.943636 28.46003 30.93329 33.288048
        35.443134 37.316784 38.832874 39.92751 40.809727 1.4394889
        1.3720863 1.321433 1.3293153 1.4062687 1.5624535 1.8085072
        2.1559143 2.620098 3.224382 4.002621 4.999877 6.2519755
        7.7298975 9.339426 11.0147085 12.762531 14.622986 16.62768
        18.78622 21.087963 23.505962 25.999174 28.513487 30.982962
        33.332165 35.47996 37.344757 38.850723 39.93436 40.805088
        1.3509328 1.2933465 1.2534164 1.2758018 1.3705102 1.5462034
        1.8109605 2.1733456 2.646237 3.2512217 4.022258 5.0080633
        6.2520294 7.732316 9.3537445 11.042604 12.800578 14.667581
        16.67658 18.838099 21.141766 23.560566 26.05326 28.56555
        31.031343 33.375137 35.515842 37.372013 38.8681 39.940987
        40.800457 1.2559928 1.2087367 1.1809957 1.2195768 1.333685
        1.5298394 1.8133415 2.190338 2.6719458 3.2786634 4.0448093
        5.0222964 6.26069 7.74395 9.376309 11.07764 12.845191
        14.718606 16.731966 18.89654 21.20215 23.621672 26.113657
        28.623596 31.08524 33.423016 35.55587 37.40253 38.887733
        39.948772 40.79583 1.1532989 1.1181084 1.1047263 1.1618186
        1.2972195 1.5146152 1.8166453 2.2077603 2.6980653 3.3074899
        4.0708904 5.042945 6.2782044 7.765187 9.407738 11.12058
        12.897216 14.776965 16.794788 18.962534 21.270134 23.690311
        26.181383 28.688612 31.14558 33.476635 35.600773 37.436886
        38.910027 39.95793 40.791214 1.043318 1.0222211 1.0260706
        1.1045809 1.2631959 1.5023063 1.8224252 2.2271588 2.7262616
        3.339501 4.102378 5.071941 6.3066864 7.79855 9.451032
        11.1748 12.9602995 14.846519 16.86908 19.04024 21.349941
        23.770699 26.260563 28.764536 31.216011 33.539253 35.653297
        37.47724 38.936478 39.969223 40.78661 1.0791885 1.0840604
        1.055533 1.0505868 1.2339842 1.494781 1.8322994 2.2501643
        2.7583187 3.3766615 4.1413884 5.11155 6.3486643 7.84702
        9.509682 11.244213 13.038677 14.931762 16.959536 19.134495
        21.446484 23.867743 26.355997 28.855951 31.300785 33.614662
        35.716667 37.52612 38.968822 39.983543 40.78201 1.2428991
        1.2175037 1.1464897 1.0032791 1.2122713 1.4941221 1.8481495
        2.2787526 2.7964482 3.4214625 4.190691 5.1648397 6.4076185
        7.9146557 9.588376 11.334043 13.137994 15.038671 17.0724
        19.25173 21.566286 23.98795 26.474045 28.968927 31.405518
        33.70786 35.79511 37.586845 39.009354 40.002052 40.777424
        1.4714291 1.382755 1.2413838 1.0344571 1.2008786 1.5024786
        1.8719829 2.3150914 2.843115 3.4767156 4.253458 5.23538
        6.4876213 8.006166 9.692498 11.450259 13.264691 15.174063
        17.214777 19.39925 21.716753 24.138687 26.621897 29.110306
        31.536528 33.82447 35.893368 37.663136 39.06062 40.026062
        40.772846 1.796001 1.5745691 1.3267653 1.0584419 1.2019805
        1.5212059 1.9049345 2.360366 2.8996575 3.5439394 4.331384
        5.3250375 6.590738 8.123879 9.824667 11.5957365 13.421838
        15.341149 17.38998 19.580423 21.901245 24.323263 26.80273
        29.283073 31.696535 33.966877 36.013428 37.756508 39.123657
        40.05608 40.76828 2.2237382 1.7594208 1.3838279 1.0655152
        1.2136241 1.546719 1.9422953 2.4088676 2.9593337 3.6152487
        4.415251 5.4229646 6.704142 8.252768 9.967726 11.751458
        13.588857 15.518049 17.575056 19.7715 22.095556 24.517412
        26.99272 29.464384 31.864288 34.116043 36.1391 37.854202
        39.18962 40.08757 40.76372 2.5296617 1.8551635 1.4038101
        1.0643045 1.2225815 1.5619321 1.9632312 2.4357731 2.9929652
        3.6566298 4.4655104 5.483024 6.7738056 8.33006 10.050412
        11.838765 13.680931 15.614876 17.676079 19.875652 22.20134
        24.62295 27.095797 29.562508 31.954775 34.19614 36.206142
        37.905766 39.223705 40.102737 40.759163 2.3086636 1.7888696
        1.3906561 1.0655354 1.2159914 1.5509576 1.9486257 2.4183958
        2.9739108 3.6370375 4.446094 5.463211 6.750699 8.2990465
        10.008632 11.787154 13.622225 15.551407 17.609352 19.806738
        22.13125 24.55282 27.026941 29.496403 31.893032 34.14043
        36.158115 37.866962 39.19545 40.086033 40.75461 1.8813334
        1.6168759 1.3412037 1.0610064 1.2037108 1.5259938 1.913147
        2.3740847 2.9224508 3.580006 4.3842554 5.395201 6.6717963
        8.20261 9.891076 11.650383 13.470651 15.3889065 17.438757
        19.630466 21.951881 24.373365 26.850918 29.32779 31.736137
        33.99972 36.037987 37.771465 39.128033 40.049294 40.750053
        1.5426172 1.4275755 1.2613089 1.0402758 1.2006264 1.5061171
        1.8800254 2.3305285 2.8711705 3.5235856 4.3243 5.3306823
        6.597489 8.110688 9.7769785 11.515855 13.320438 15.227224
        17.268618 19.454351 21.772394 24.193539 26.674295 29.15839
        31.57833 33.85804 35.916912 37.675137 39.059986 40.012203
        40.745502 1.3036653 1.2610716 1.1694 1.0052594 1.2099129
        1.4964383 1.8558408 2.2957242 2.829603 3.4790502 4.2795157
        5.28528 6.546039 8.044327 9.690106 11.409807 13.199956
        15.096524 17.130558 19.311108 21.626123 24.046722 26.529837
        29.019585 31.448774 33.74149 35.817066 37.595444 39.0034
        39.980965 40.740963 1.1328768 1.1253111 1.079958 1.0389484
        1.2294751 1.495746 1.8396665 2.2687936 2.7968686 3.445546
        4.249106 5.258204 6.5164876 8.002239 9.628877 11.330483
        13.107365 14.994924 17.02268 19.19884 21.511213 23.931131
        26.415857 28.909826 31.346098 33.64888 35.73749 37.531666
        38.957794 39.955345 40.736435 1.0066626 1.0167843 1.0002047
        1.0895553 1.2562627 1.5016615 1.8292557 2.2473412 2.7703285
        3.4201884 4.2299376 5.2459545 6.5046897 7.979409 9.58746
        11.271437 13.035743 14.915123 16.937384 19.109743 21.419758
        23.838898 26.324682 28.82181 31.263546 33.574215 35.67312
        37.479836 38.92044 39.933956 40.731915 1.0984856 1.0754937
        1.0743928 1.1429052 1.2872194 1.5116689 1.8222389 2.228872
        2.7472668 3.4000452 4.2188697 5.2450566 6.506518 7.9708138
        9.560015 11.226217 12.97817 14.849813 16.867048 19.035965
        21.343794 23.762077 26.248545 28.748123 31.194262 33.51138
        35.618774 37.435894 38.888546 39.915363 40.7274 1.1995289
        1.1643411 1.146752 1.196457 1.3199639 1.5238396 1.816939
        2.2117362 2.7259874 3.3834226 4.214269 5.253839 6.5199347
        7.9737973 9.543359 11.19129 12.93086 14.79499 16.807486
        18.973185 21.27892 23.696262 26.183123 28.684631 31.134396
        33.456932 35.571533 37.397533 38.86051 39.898754 40.722897
        1.293639 1.2489265 1.2160363 1.2479494 1.3516427 1.5351555
        1.810176 2.192448 2.702652 3.3661811 4.2117314 5.267463
        6.539225 7.9814887 9.529628 11.158065 12.884638 14.740993
        16.748634 18.911058 21.214655 23.631016 26.11823 28.62163
        31.074982 33.402893 35.524654 37.359478 38.832706 39.88228
        40.718403 1.3966529 1.333824 1.2841021 1.2984477 1.3833413
        1.5474697 1.8049083 2.1751215 2.6826327 3.3552117 4.2199693
        5.2965436 6.5765767 8.007325 9.533494 11.142431 12.856476
        14.705684 16.70905 18.868593 21.170185 23.585371 26.072367
        28.57666 31.032162 33.36356 35.49016 37.3311 38.811546
        39.869183 40.713917 1.4532094 1.4044174 1.3467909 1.3435051
        1.4074411 1.5490767 1.7849405 2.1388397 2.6402402 3.320028
        4.2034492 5.2998157 6.584075 7.996617 9.494355 11.078824
        12.776578 14.615698 16.612537 18.767687 21.066624 23.481007
        25.969341 28.4774 30.939314 33.279877 35.41833 37.2736
        38.770443 39.845978 40.709435 1.6769356 1.5121099 1.42042
        1.399703 1.4485474 1.5767889 1.8030267 2.1552017 2.6679518
        3.375824 4.302178 5.4438024 6.7546496 8.166729 9.651456
        11.225882 12.920594 14.761195 16.760841 18.918041 21.21715
        23.629204 26.112295 28.611923 31.06207 33.38754 35.50777
        37.34206 38.81575 39.86668 40.704967 2.4585145 1.6976604
        1.5610666 1.5490093 1.6305819 1.8097094 2.1066008 2.553952
        3.192694 4.0627637 5.185708 6.539026 8.040293 9.6013
        11.208392 12.897729 14.704715 16.650772 18.742292 20.970629
        23.31291 25.732939 28.181856 30.599014 32.91369 35.04812
        36.921986 38.45807 39.58865 40.261772 40.700485 3.5560093
        1.8990139 1.776047 1.820554 2.0078099 2.3363392 2.8271325
        3.5203466 4.467657 5.717936 7.288481 9.120638 11.065427
        12.997877 14.926604 16.915974 19.008083 21.217478 23.538374
        25.947496 28.405735 30.859747 33.243576 35.48074 37.487446
        39.177197 40.466694 41.282635 41.568527 41.290634 40.695877
        2.8156803 2.036081 1.89504 1.9143709 2.0909977 2.4306777
        2.9559805 3.708433 4.7448063 6.121098 7.853586 9.855446
        11.926811 13.930115 15.906688 17.943552 20.08504 22.340473
        24.698359 27.130674 29.594355 32.032665 34.376823 36.548336
        38.462494 40.033287 41.179543 41.83177 41.9389 41.473892
        40.69116 1.9963422 2.048004 1.8888314 1.8352612 1.923402
        2.1652546 2.5839162 3.2192972 4.1271615 5.365517 6.9523253
        8.790408 10.6614485 12.439854 14.197945 16.035255 17.995018
        20.08449 22.293732 24.600155 26.968958 29.353348 31.695236
        33.926716 35.972675 37.754734 39.196415 40.22917 40.79862
        40.870087 40.686466 1.6656381 2.0150666 1.9214689 1.8330295
        1.8636614 2.039767 2.3889332 2.9555576 3.8007853 4.989613
        6.5428166 8.343263 10.1346035 11.795773 13.436223 15.172093
        17.045837 19.06123 21.207207 23.462738 25.79635 28.165447
        30.516346 32.785248 34.900364 36.7854 38.36429 39.566895
        40.335068 40.62828 40.681755 1.5098081 1.9430336 1.942232
        1.8399465 1.8201122 1.9321171 2.2080977 2.6973853 3.469532
        4.6000805 6.114954 7.8753476 9.582561 11.122977 12.645689
        14.28153 16.070972 18.014284 20.099508 22.307295 24.609499
        26.96762 29.33219 31.64323 33.83193 35.823643 37.54226
        38.915577 39.88127 40.39264 40.677036 1.4549673 1.8932648
        1.9824811 1.848503 1.7651364 1.8183362 2.0414968 2.4796386
        3.2012792 4.287308 5.769987 7.4937463 9.121266 10.54921
        11.965275 13.512306 15.227678 17.107912 19.139961 21.305803
        23.58014 25.928034 28.303713 30.650587 32.902493 34.986313
        36.82596 38.347507 39.48504 40.186478 40.672306
      </DataArray>
      <DataArray type="Float32" Name="jacobian" format="ascii" RangeMin="-1.3641194527735934e-05" RangeMax="0.009461292997002602">
        1.32420455e-05 9.502014e-06 1.5388392e-05 4.234381e-05 9.992294e-05 0.00019911962
        0.0003484623 0.0005467443 0.0007778216 0.0010167739 0.0012466242 0.0014694139
        0.0017052392 0.0019782535 0.0022971218 0.0026605874 0.0030677868 0.0035184976
        0.0040113935 0.004543096 0.005107647 0.005696148 0.0062965695 0.0068937936
        0.007469986 0.008005343 0.008479223 0.00887159 0.0091646565 0.009344491
        0.009461293 1.4543089e-05 1.2096255e-05 2.7235563e-05 6.665002e-05 0.00013447752
        0.00023364637 0.00036556748 0.0005287139 0.0007165596 0.00091797684 0.0011240623
        0.001336349 0.0015686423 0.0018373766 0.002147665 0.002498417 0.0028901708
        0.003324326 0.0038010485 0.00431828 0.004871298 0.0054524266 0.0060508396
        0.006652544 0.0072406386 0.007795942 0.008298002 0.008726456 0.009062624
        0.009291133 0.009460285 1.51911945e-05 1.4852257e-05 3.9972594e-05 9.0916605e-05
        0.00016555082 0.0002610202 0.00037555772 0.00050906086 0.0006614107 0.00083034247
        0.001013334 0.0012126956 0.0014377824 0.0016987432 0.0019977326 0.002333745
        0.0027083878 0.003124388 0.0035832294 0.004084112 0.004623573 0.005195245
        0.0057896525 0.00639412 0.0069929217 0.007567773 0.0080987 0.008565282
        0.008948168 0.00923069 0.009459275 1.44595415e-05 2.0396428e-05 5.7682475e-05
        0.00011751721 0.00019214752 0.00027716075 0.00037269044 0.00048248618 0.00061039696
        0.0007576392 0.00092421833 0.001112932 0.0013307668 0.0015838452 0.0018721496
        0.0021945843 0.0025534688 0.0029525238 0.003394282 0.0038789937 0.0044042994
        0.0049650404 0.0055530528 0.0061570276 0.006762566 0.0073525435 0.007907847
        0.008408474 0.008834945 0.009169852 0.0094582625 9.976138e-06 2.9915995e-05
        7.860575e-05 0.0001391051 0.00020278804 0.00026844518 0.00034042547 0.00042509858
        0.00052726764 0.0006490936 0.0007918424 0.0009587494 0.0011553867 0.0013852067
        0.0016467813 0.0019390407 0.002264843 0.0026287548 0.0030344324 0.0034835523
        0.003975547 0.0045074755 0.0050738384 0.0056664 0.0062741525 0.006883534
        0.0074789724 0.008043788 0.008561419 0.009016885 0.009457245 2.1541239e-06
        4.7788377e-05 0.000106158 0.0001681918 0.00022988918 0.00029410946 0.0003673907
        0.00045616328 0.0005645358 0.0006944638 0.00084764685 0.0010279118 0.0012407178
        0.0014881467 0.001767184 0.0020758125 0.0024166848 0.0027944688 0.0032127623
        0.0036728678 0.0041735764 0.004711136 0.005279151 0.005868478 0.0064672674
        0.007061259 0.007634412 0.008169874 0.00865125 0.009064081 0.009456236
        -9.38112e-06 7.4673e-05 0.00013959379 0.0002083521 0.0002829444 0.00037038708
        0.00047803676 0.0006110245 0.0007714456 0.0009594312 0.0011758666 0.001425147
        0.0017132853 0.002040354 0.0023991142 0.0027842417 0.0031975051 0.003643521
        0.0041249855 0.004640991 0.0051870295 0.0057552923 0.006334865 0.0069118976
        0.007469945 0.007990609 0.008454515 0.008842589 0.009137533 0.009325291
        0.009455193 -1.36411945e-05 0.000102119426 0.00017485894 0.0002483066 0.000330595
        0.0004308229 0.0005564303 0.0007120513 0.0008994853 0.0011190488 0.0013723163
        0.0016646477 0.0020019573 0.0023809331 0.0027887947 0.0032164652 0.003665242
        0.0041406155 0.0046456065 0.005178642 0.0057338644 0.006301829 0.0068699922
        0.007423101 0.007943727 0.008413079 0.00881213 0.009122998 0.009330428
        0.009423201 0.00945412 2.0912197e-05 0.0001385633 0.00021188875 0.00028421223
        0.00036504923 0.00046244764 0.00058253104 0.0007298479 0.00090775726 0.0011191729
        0.001368213 0.0016620039 0.0020069012 0.002397459 0.0028168266 0.0032529668
        0.003706778 0.004184748 0.0046908734 0.00522409 0.005778699 0.0063452614
        0.0069111963 0.007461229 0.007977938 0.008442585 0.008836239 0.009141155
        0.009342259 0.00942854 0.009453044 6.944556e-05 0.00018050421 0.00024898464
        0.00031721787 0.0003935568 0.00048454173 0.0005954584 0.00073108415 0.000896035
        0.0010951534 0.0013345852 0.0016231118 0.0019679053 0.0023623768 0.002786648
        0.003226117 0.0036811167 0.004158882 0.0046642856 0.0051968223 0.005751083
        0.0063177785 0.0068844226 0.007435798 0.007954512 0.008421814 0.008818718
        0.009127382 0.009332593 0.009423166 0.0094519695 0.00011618324 0.00022033675
        0.0002835957 0.0003468936 0.00041801162 0.0005027641 0.00060612865 0.00073304726
        0.0008887692 0.0010792327 0.0013119726 0.0015971578 0.0019428272 0.0023416276
        0.0027711287 0.0032143733 0.0036710864 0.0041491366 0.0046541803 0.0051862015
        0.005740029 0.0063064843 0.0068731443 0.0074248323 0.007944181 0.008412442
        0.008810616 0.009120817 0.0093277665 0.009420198 0.009450896 0.00016295524
        0.00025878364 0.0003152459 0.00037244684 0.00043767435 0.0005162174 0.00061275373
        0.00073218544 0.0008800737 0.0010630686 0.0012897371 0.0015714088 0.0019169818
        0.0023186912 0.002752095 0.0031981836 0.003656056 0.004134085 0.004638609
        0.0051700575 0.005723485 0.0062898286 0.0068567344 0.007409073 0.007929503
        0.008399278 0.008799369 0.009111836 0.009321309 0.009416414 0.009449823
        0.00020841035 0.00029449086 0.0003431455 0.00039376377 0.0004532424 0.0005262955
        0.0006171297 0.000730445 0.00087195396 0.001048802 0.0012703397 0.0015488571
        0.0018940391 0.002297917 0.0027344492 0.003182855 0.003641628 0.0041195434
        0.00462353 0.005154409 0.005707438 0.0062736627 0.0068407953 0.0073937518
        0.007915217 0.008386449 0.008788393 0.009103052 0.0093149785 0.009412692
        0.009448752 0.00025169045 0.00032666879 0.00036680733 0.00041083555 0.00046510235
        0.0005334713 0.00061952067 0.0007277154 0.0008638725 0.0010355011 0.0012525463
        0.0015280754 0.0018724623 0.0022776772 0.0027164493 0.0031665184 0.0036258213
        0.004103445 0.004606816 0.005137098 0.005689735 0.006255874 0.0068232953
        0.007376964 0.007899592 0.008372439 0.008776425 0.009093498 0.00930812
        0.009408701 0.009447683 0.0002920507 0.0003545609 0.00038597718 0.00042392453
        0.000473796 0.0005382916 0.000620329 0.00072420127 0.0008558263 0.001022983
        0.001236062 0.0015087444 0.0018519796 0.0022577655 0.002697921 0.0031489972
        0.0036084433 0.0040855804 0.004588245 0.0051178928 0.005670135 0.0062362184
        0.0068039936 0.007358476 0.007882407 0.008357051 0.008763299 0.009083038
        0.009300641 0.009404396 0.009446614 0.00032875597 0.0003775958 0.00040059426
        0.00043333287 0.0004796876 0.0005409947 0.00061961886 0.0007197831 0.0008475055
        0.0010107587 0.0012202554 0.0014901432 0.0018318284 0.0022373907 0.0026780278
        0.0031293945 0.0035885372 0.004064943 0.004566772 0.0050957245 0.005647561
        0.0062136305 0.006781856 0.007337309 0.007862764 0.00833949 0.008748347
        0.009071156 0.009292187 0.009399597 0.009445548 0.00036112918 0.00039537018
        0.00041071503 0.00043932174 0.00048297152 0.00054162653 0.00061729725 0.00071422977
        0.0008385311 0.0009983013 0.0012044712 0.001471521 0.0018111939 0.002215686
        0.0026558402 0.0031067082 0.0035650323 0.0040404047 0.004541224 0.005069389
        0.005620798 0.0061869016 0.006755707 0.007312347 0.007839635 0.008318844
        0.008730803 0.009057254 0.009282349 0.009394096 0.0094444845 0.00038845165
        0.0004075855 0.00041639383 0.0004420088 0.00048362743 0.0005400274 0.00061309454
        0.0007071586 0.0008283916 0.0009849619 0.0011879272 0.001451977 0.0017890744
        0.0021915562 0.0026301667 0.0030796502 0.0035365517 0.0040105125 0.0045100884
        0.0050373324 0.0055882726 0.0061544687 0.0067240223 0.0072821416 0.0078116837
        0.008293929 0.008709666 0.0090405485 0.009270592 0.009387622 0.009443423
        0.00040981796 0.0004139368 0.00041763333 0.00044138017 0.00048148123 0.00053591223
        0.0006066459 0.00069811643 0.00081652566 0.0009700558 0.0011698108 0.0014305743
        0.0017644175 0.0021638407 0.0025997409 0.0030468502 0.0035016297 0.003973717
        0.004471747 0.0049978886 0.0055482923 0.0061146426 0.0066851517 0.0072451173
        0.0077774515 0.0082634445 0.008683839 0.009020182 0.009256323 0.009379873
        0.009442363 0.00042389112 0.00041417708 0.00041465324 0.0004375651 0.0004765005
        0.0005291905 0.0005978371 0.0006869561 0.00080273737 0.0009533293 0.0011498113
        0.001406958 0.0017368456 0.002132159 0.0025641806 0.0030079142 0.0034598478
        0.003929569 0.0044257203 0.0049505485 0.0055003283 0.0060668816 0.006638552
        0.007200744 0.007736437 0.008226935 0.008652927 0.0089958375 0.009239322
        0.009370735 0.009441305 0.00042934009 0.00040947305 0.0004091857 0.00043200233
        0.00047004176 0.0005213229 0.0005882829 0.0006754639 0.00078901125 0.00093701197
        0.0011304758 0.0013840953 0.0017098662 0.0021006386 0.0025282183 0.0029680838
        0.0034168463 0.0038840156 0.004378182 0.004901632 0.005450752 0.0060174996
        0.006590353 0.007154828 0.007693977 0.008189119 0.0086208945 0.008970601
        0.009221695 0.009361273 0.009440249 0.00042897917 0.00040600315 0.00040652056
        0.00042949937 0.000467158 0.00051783526 0.0005840634 0.0006703718 0.0007828774
        0.00092963193 0.0011215943 0.0013733786 0.0016968426 0.0020848373 0.002509535
        0.0029468674 0.0033936203 0.003859242 0.0043522352 0.0048748692 0.0054235705
        0.005990367 0.0065638106 0.0071294806 0.007670468 0.008168103 0.008602998
        0.008956387 0.009211616 0.009355637 0.009439194 0.00043010755 0.00041034736
        0.00041076235 0.00043395642 0.00047216783 0.00052352564 0.00059048185 0.000677566
        0.00079093035 0.0009386632 0.0011317441 0.0013847718 0.0017094219 0.0020982537
        0.0025234104 0.002961085 0.0034082595 0.0038743683 0.004367806 0.0048907404
        0.005439522 0.006006124 0.006579052 0.0071438504 0.007683589 0.008179592
        0.008612488 0.0089635495 0.009216188 0.009357438 0.009438138 0.00042719347
        0.00041740853 0.00041885837 0.0004425217 0.00048193097 0.00053491996 0.00060371205
        0.00069280737 0.0008084158 0.0009586948 0.0011546738 0.0014109478 0.0017389437
        0.0021307338 0.0025582437 0.0029978976 0.0034469245 0.003914758 0.004409643
        0.0049335724 0.005482742 0.006048986 0.0066206916 0.007183305 0.007719835
        0.008211593 0.008639252 0.00898419 0.0092299925 0.009363923 0.009437083
        0.00041606085 0.00041995704 0.0004250085 0.00044990907 0.00049087836 0.000545948
        0.00061710016 0.0007087454 0.0008271136 0.0009804005 0.0011796423 0.0014393613
        0.0017706496 0.0021650752 0.0025944891 0.0030357526 0.0034864303 0.003955915
        0.0044522323 0.0049771583 0.0055267126 0.0060925824 0.006663031 0.007223408
        0.0077566626 0.008244092 0.008666418 0.00900513 0.009243992 0.009370502
        0.00943603 0.00039773746 0.0004161236 0.0004268201 0.00045411603 0.0004971045
        0.00055458944 0.0006284486 0.0007229709 0.0008443495 0.0010007579 0.0012031642
        0.001465919 0.0017996945 0.0021956144 0.0026257182 0.0030675835 0.003519199
        0.0039898553 0.004487282 0.005013002 0.0055628573 0.0061284043 0.006697801
        0.0072563174 0.0077868523 0.008270696 0.00868861 0.009022182 0.009255321
        0.009375723 0.009434978 0.00037365948 0.00040604576 0.00042377916 0.00045476938
        0.0005004634 0.00056080084 0.0006377675 0.0007355428 0.00086022896 0.0010199039
        0.0012253817 0.0014907388 0.001826154 0.0022223932 0.0026519662 0.003093441
        0.0035453043 0.004016674 0.0045149075 0.0050412384 0.0055913283 0.0061566173
        0.0067251767 0.0072822124 0.007810584 0.008291575 0.008705983 0.009035471
        0.00926407 0.009379635 0.009433928 0.00034478828 0.00039007526 0.0004157205
        0.00045169774 0.0005010193 0.000564839 0.00064545945 0.00074700004 0.0008754235
        0.0010386301 0.001247186 0.001514796 0.0018510908 0.002246586 0.0026745428
        0.0031147725 0.0035663135 0.0040380377 0.0045368504 0.0050636604 0.005613946
        0.0061790375 0.006746934 0.0073027858 0.007829422 0.008308124 0.008719713
        0.009045919 0.009270874 0.00938256 0.00943288 0.0003118344 0.00036860944
        0.0004025014 0.000444596 0.0004986624 0.0005668497 0.0006518923 0.0007579097
        0.0008906802 0.0010578333 0.0012695875 0.0015391886 0.0018756897 0.0022694904
        0.002694888 0.0031331624 0.0035839353 0.004055752 0.0045549916 0.0050822
        0.0056326613 0.0061976034 0.006764957 0.007319828 0.007845018 0.008321803
        0.008731032 0.0090544885 0.00927639 0.009384833 0.009431834 0.00027517995
        0.0003421328 0.00038401218 0.00043293307 0.00049288385 0.00056656776 0.0006570738
        0.000768528 0.0009064601 0.001078116 0.0012932596 0.001564605 0.0019006378
        0.0022918188 0.0027137778 0.0031494687 0.0035991033 0.0040708114 0.00457037
        0.005097926 0.0056485594 0.006213395 0.006780302 0.0073343446 0.0078583
        0.00833344 0.0087406365 0.009061724 0.009280994 0.009386644 0.00943079
        0.00023553448 0.00031133764 0.00036045074 0.00041634735 0.0004831895 0.00056378293
        0.0006612513 0.000779565 0.0009238638 0.0011008643 0.0013197751 0.0015927434
        0.0019277502 0.0023155385 0.0027333645 0.0031660276 0.003614308 0.0040858253
        0.004585679 0.0051135793 0.0056643873 0.0062291184 0.00679558 0.0073487936
        0.007871512 0.008345008 0.008750175 0.009068899 0.00928555 0.009388428
        0.009429747 0.00019250809 0.0002771085 0.0003321636 0.00039415408 0.00046802565
        0.00055655505 0.0006624772 0.000789196 0.00094111956 0.0011241823 0.0013469134
        0.0016208907 0.0019537366 0.0023368148 0.0027493841 0.0031782591 0.003624732
        0.004095796 0.0045957994 0.0051239845 0.0056749894 0.0062397285 0.0068059536
        0.00735865 0.007880552 0.008352925 0.008756679 0.009073734 0.009288522
        0.009389419 0.009428706 0.00014785865 0.00023966654 0.0003000483 0.00036734383
        0.0004484095 0.0005466702 0.000664227 0.0008030797 0.00096601096 0.001157657
        0.0013858157 0.0016616979 0.0019928517 0.0023715515 0.002779269 0.0032048852
        0.0036501216 0.004121246 0.0046217786 0.005150438 0.005701592 0.006266014
        0.0068313694 0.0073825875 0.0079023745 0.008372003 0.008772431 0.009085669
        0.009296278 0.009392795 0.009427667 0.00010256138 0.00020343719 0.00026541547
        0.00033407754 0.00041820452 0.0005225133 0.00064886286 0.0007975107 0.00096885
        0.0011655848 0.0013944944 0.0016663847 0.0019890969 0.0023567313 0.0027538622
        0.0031717084 0.003612246 0.004080826 0.0045800996 0.0051083397 0.0056597837
        0.0062252134 0.0067923395 0.0073461286 0.007869289 0.0083430605 0.008748317
        0.009066944 0.009283334 0.009385828 0.009426629 6.265087e-05 0.00016399781
        0.0002243531 0.00028548337 0.0003570406 0.0004452 0.00055292086 0.00068102096
        0.00082979375 0.0010010388 0.0011998811 0.0014352011 0.0017145778 0.0020356427
        0.0023885178 0.002767854 0.0031759592 0.003617444 0.0040947776 0.0046069347
        0.005149449 0.005714657 0.0062918253 0.006867281 0.0074247224 0.007945833
        0.008411242 0.008801797 0.00910003 0.009291651 0.009425589 3.66756e-05
        0.00011792092 0.00017899864 0.00023043851 0.0002816079 0.0003403908 0.00041202205
        0.00049958995 0.00060508016 0.00073051715 0.00087938755 0.0010577639 0.0012718063
        0.0015218642 0.0018033036 0.0021142073 0.0024576136 0.0028381865 0.0032593014
        0.003722007 0.0042248596 0.00476387 0.0053323763 0.005920919 0.006517271
        0.007106725 0.0076727085 0.008197741 0.008664672 0.009058099 0.009424524
        3.9415416e-05 8.695608e-05 0.00014739149 0.0002038196 0.00025791596 0.00031640165
        0.00038555716 0.00046944982 0.00057026034 0.00068950123 0.00082983845 0.0009968767
        0.0011972782 0.0014324681 0.0016990151 0.0019959167 0.0023264457 0.0026951788
        0.003105533 0.0035588704 0.00405429 0.0045884917 0.005155578 0.005746866
        0.0063508525 0.0069534294 0.0075384295 0.008088514 0.008586369 0.009016103
        0.009423441 4.7872425e-05 7.140192e-05 0.00012665187 0.00019377952 0.0002660322
        0.00034482495 0.00043490497 0.00054023357 0.0006624135 0.00080179033 0.00096034945
        0.0011447337 0.0013641957 0.0016215699 0.0019131335 0.0022375695 0.0025978205
        0.0029977867 0.003439873 0.003924133 0.004448034 0.0050062835 0.0055906223
        0.0061896793 0.0067890277 0.007371551 0.007918168 0.008408932 0.0088244155
        0.00914725 0.009422357 5.1074112e-05 6.153972e-05 0.000103792874 0.00016923153
        0.0002508906 0.0003462756 0.00045652257 0.0005829989 0.000724756 0.00087956147
        0.0010482055 0.0012389041 0.0014646202 0.0017303681 0.002032456 0.002369365
        0.002743637 0.003158435 0.0036152895 0.0041133426 0.004649097 0.0052162083
        0.0058052787 0.006403758 0.006996081 0.007564141 0.008088136 0.008547789
        0.008923831 0.009199598 0.009421268 5.3599066e-05 5.6696594e-05 8.53661e-05
        0.00014239631 0.00022624363 0.00033580227 0.00047040594 0.00062708836 0.0007983572
        0.0009754862 0.0011567533 0.0013535167 0.0015848756 0.001859012 0.0021721201
        0.0025222693 0.0029113907 0.0033416855 0.0038136141 0.00432526 0.0048720567
        0.005446549 0.006038192 0.0066333166 0.007215356 0.0077654375 0.00826335
        0.008688868 0.009023306 0.009251136 0.009420174 5.533622e-05 5.304062e-05
        6.79596e-05 0.00011350786 0.00019513653 0.00031722826 0.00047982717 0.000673814
        0.00088075886 0.0010825703 0.0012752127 0.0014749347 0.0017085848 0.001988232
        0.00231008 0.0026716732 0.0030740956 0.003518373 0.0040037776 0.0045273034
        0.005083353 0.0056634457 0.006256021 0.0068464573 0.0074173883 0.0079494
        0.008422099 0.008815522 0.009111733 0.009296434 0.009419079
      </DataArray>
    </PointData>
    <CellData>
    </CellData>
    <Points>
      <DataArray type="Float32" Name="Points" NumberOfComponents="3" format="ascii" RangeMin="0.9547091563236363" RangeMax="1.0735018885193464">
        0.78510594 0.027624259 0.5425082 0.7855072 0.02762496 0.54252195
        0.7859763 0.027625773 0.5425379 0.78652436 0.027626721 0.5425565
        0.7871644 0.027627822 0.54257816 0.7879112 0.0276291 0.54260325
        0.7887819 0.02763058 0.54263234 0.789796 0.02763229 0.54266596
        0.7909758 0.027634265 0.5427047 0.7923466 0.02763654 0.54274935
        0.79393685 0.02763915 0.54280066 0.79577833 0.027642142 0.5428594
        0.79790634 0.02764556 0.5429265 0.80035955 0.02764945 0.5430029
        0.8031799 0.027653854 0.5430894 0.806412 0.027658818 0.5431869
        0.8101025 0.027664378 0.5432961 0.81429905 0.02767057 0.5434177
        0.81904835 0.027677415 0.5435521 0.82439464 0.02768492 0.5436995
        0.83037686 0.027693078 0.5438597 0.8370256 0.02770186 0.5440322
        0.8443601 0.027711214 0.5442159 0.8523845 0.027721062 0.5444093
        0.8610848 0.027731301 0.5446104 0.870426 0.027741803 0.5448166
        0.8803504 0.027752424 0.5450252 0.8907774 0.027763013 0.54523313
        0.9016046 0.027773416 0.54543746 0.91271144 0.027783498 0.54563546
        0.9239636 0.027793156 0.5458251 0.78527564 0.027632894 0.54251355
        0.7856691 0.027631523 0.54252714 0.78617096 0.0276376 0.54254395
        0.7867735 0.027651891 0.54256374 0.78746736 0.027673116 0.5425861
        0.78825146 0.02769975 0.54261106 0.78913206 0.027729444 0.54263896
        0.7901252 0.027758727 0.54267037 0.79125935 0.027783647 0.5427064
        0.79257166 0.027801478 0.5427483 0.7941019 0.027812203 0.54279715
        0.7958891 0.027818188 0.54285395 0.79797375 0.027822727 0.5429196
        0.80039775 0.027828196 0.542995 0.8032018 0.027834896 0.54308087
        0.8064263 0.027842373 0.54317796 0.81011385 0.027850421 0.5432869
        0.81430936 0.027859006 0.54340833 0.81905824 0.027868139 0.5435426
        0.82440424 0.027877813 0.5436899 0.83038604 0.027888019 0.54385
        0.83703434 0.027898716 0.5440223 0.8443682 0.027909849 0.54420596
        0.8523919 0.027921334 0.54439926 0.8610914 0.027933065 0.5446002
        0.8704316 0.027944911 0.54480636 0.880355 0.02795673 0.54501486
        0.8907809 0.027968371 0.5452227 0.90160704 0.02797968 0.54542696
        0.91271263 0.027990531 0.5456249 0.9239636 0.028000811 0.5458145
        0.7854272 0.027640479 0.54251844 0.7858331 0.027639937 0.5425323
        0.7863887 0.027657593 0.5425504 0.787049 0.027691578 0.54257107
        0.7877832 0.027737217 0.5425935 0.78858095 0.027789617 0.5426175
        0.78944814 0.027843196 0.5426436 0.79040754 0.027892038 0.5426729
        0.79149675 0.02793115 0.54270655 0.7927603 0.02795805 0.5427463
        0.7942424 0.02797373 0.54279333 0.7959855 0.027982017 0.5428486
        0.7980339 0.02798797 0.54291296 0.80043244 0.027995316 0.54298747
        0.803222 0.02800449 0.54307276 0.8064397 0.028014675 0.5431695
        0.8101245 0.028025467 0.5432783 0.8143191 0.028036779 0.5433995
        0.8190676 0.028048605 0.5435336 0.82441336 0.028060932 0.5436807
        0.8303948 0.028073737 0.5438407 0.8370426 0.028086977 0.5440129
        0.84437597 0.028100591 0.54419637 0.85239905 0.028114488 0.5443895
        0.8610977 0.028128551 0.5445903 0.8704371 0.028142652 0.5447963
        0.88035953 0.02815664 0.54500467 0.8907844 0.02817036 0.5452124
        0.90160936 0.028183654 0.5454165 0.9127138 0.028196393 0.54561436
        0.9239636 0.028208463 0.5458038 0.7855615 0.027647093 0.54252267
        0.78600985 0.027652757 0.5425377 0.78663504 0.027689591 0.5425571
        0.7873452 0.027748555 0.5425781 0.7880977 0.027819583 0.5425998
        0.7888854 0.027894082 0.5426223 0.78972363 0.02796458 0.5426465
        0.7906455 0.028025186 0.5426738 0.7916949 0.028072085 0.5427058
        0.7929188 0.028104054 0.5427439 0.7943623 0.02812295 0.54278946
        0.79606956 0.028133309 0.5428434 0.79808736 0.028141003 0.54290676
        0.80046403 0.028150477 0.5429804 0.8032406 0.028162241 0.54306513
        0.80645216 0.028175252 0.5431616 0.81013453 0.028188964 0.5432701
        0.81432825 0.028203245 0.54339117 0.8190765 0.028218081 0.5435251
        0.82442194 0.028233455 0.543672 0.83040315 0.028249342 0.5438318
        0.83705056 0.028265692 0.54400384 0.8443834 0.028282445 0.54418707
        0.85240585 0.028299505 0.54438007 0.86110383 0.028316753 0.54458064
        0.8704424 0.028334063 0.5447865 0.88036394 0.028351272 0.54499465
        0.8907878 0.028368225 0.5452022 0.9016117 0.028384773 0.5454061
        0.912715 0.028400773 0.54560375 0.9239636 0.028416112 0.54579306
        0.7856851 0.027653093 0.5425266 0.7862114 0.027673569 0.54254353
        0.78691214 0.027737563 0.5425641 0.78765196 0.027824065 0.5425846
        0.7883982 0.027917853 0.5426048 0.789159 0.028008597 0.54262555
        0.78996253 0.028089518 0.54264796 0.7908493 0.0281566 0.5426737
        0.7918652 0.028207757 0.5427043 0.79305667 0.028242823 0.5427412
        0.7944683 0.02826414 0.5427855 0.796145 0.02827651 0.5428384
        0.79813635 0.028286153 0.54290074 0.80049336 0.028297884 0.54297364
        0.80325824 0.028312262 0.5430579 0.8064641 0.02832811 0.54315394
        0.8101442 0.028344788 0.54326224 0.8143371 0.028362134 0.5433831
        0.819085 0.02838012 0.5435169 0.8244303 0.028398734 0.5436637
        0.8304112 0.028417945 0.54382324 0.83705825 0.028437719 0.5439951
        0.84439063 0.028457988 0.5441781 0.8524125 0.028478662 0.5443709
        0.8611098 0.028499633 0.5445713 0.8704476 0.028520767 0.54477686
        0.88036823 0.028541915 0.5449848 0.8907911 0.028562928 0.54519206
        0.901614 0.028583653 0.54539573 0.9127162 0.028603967 0.54559314
        0.9239636 0.028623756 0.54578215 0.7857792 0.027657613 0.5425296
        0.7864542 0.027707286 0.5425501 0.7872102 0.027803263 0.54257077
        0.7879433 0.027913045 0.54258984 0.7886559 0.028020084 0.54260814
        0.78937674 0.028116554 0.54262716 0.79014426 0.028199255 0.5426483
        0.7910011 0.028266784 0.542673 0.79199123 0.028318372 0.5427026
        0.7931589 0.028354308 0.5427387 0.7945475 0.028376976 0.5427822
        0.7962023 0.028391061 0.5428342 0.7981741 0.028402707 0.54289585
        0.8005163 0.02841676 0.54296815 0.8032722 0.02843378 0.54305196
        0.8064736 0.028452523 0.54314774 0.81015193 0.028472312 0.5432558
        0.8143443 0.028492967 0.5433765 0.819092 0.028514473 0.5435101
        0.82443714 0.028536838 0.5436566 0.83041793 0.028560061 0.543816
        0.83706474 0.028584132 0.5439876 0.84439677 0.028609022 0.5441704
        0.85241824 0.028634684 0.54436284 0.86111504 0.02866106 0.54456294
        0.8704522 0.02868808 0.54476815 0.88037217 0.028715681 0.54497576
        0.8907943 0.028743802 0.54518265 0.9016162 0.028772423 0.54538584
        0.91271734 0.028801579 0.5455828 0.9239636 0.028831394 0.54577124
        0.7859282 0.027664917 0.5425343 0.78676 0.02776219 0.54255766
        0.7875328 0.027893329 0.542577 0.78824604 0.028027426 0.5425941
        0.7889302 0.028150903 0.5426105 0.7896227 0.028258504 0.54262793
        0.79036367 0.028348798 0.5426477 0.79119474 0.028421523 0.54267126
        0.79215854 0.02847672 0.5426998 0.7932981 0.028515333 0.54273474
        0.7946573 0.028540174 0.5427772 0.7962826 0.028556133 0.5428281
        0.7982276 0.028569505 0.54288876 0.8005494 0.028585337 0.5429603
        0.80329263 0.02860434 0.5430436 0.8064877 0.02862523 0.5431391
        0.81016344 0.028647237 0.5432469 0.8143547 0.028670155 0.5433675
        0.819102 0.028693948 0.5435009 0.82444674 0.028718617 0.5436473
        0.83042705 0.028744157 0.5438065 0.8370733 0.028770562 0.543978
        0.8444048 0.028797798 0.5441606 0.8524255 0.028825816 0.5443529
        0.86112154 0.02885456 0.54455286 0.8704578 0.028883955 0.54475796
        0.88037676 0.028913926 0.5449654 0.8907978 0.028944418 0.5451721
        0.9016186 0.028975401 0.54537517 0.9127186 0.029006906 0.5455719
        0.9239636 0.029039029 0.5457603 0.7862614 0.02769725 0.542544
        0.7871146 0.027846988 0.5425653 0.7878665 0.028012643 0.5425821
        0.78855544 0.02817231 0.54259694 0.78921884 0.028316455 0.54261154
        0.78989404 0.028441777 0.54262733 0.79061836 0.02854714 0.5426457
        0.79143006 0.02863182 0.54266787 0.79236925 0.0286956 0.54269516
        0.79347825 0.02873974 0.5427287 0.79480195 0.028767709 0.54276973
        0.7963899 0.028785015 0.54281944 0.7983002 0.028798409 0.542879
        0.800595 0.02881352 0.5429497 0.8033213 0.028831612 0.54303247
        0.8065077 0.02885159 0.5431277 0.81017953 0.028872686 0.5432355
        0.8143691 0.028894657 0.543356 0.8191153 0.028917454 0.5434894
        0.8244592 0.028941074 0.54363585 0.8304386 0.028965522 0.54379505
        0.837084 0.028990783 0.54396653 0.8444145 0.029016823 0.54414916
        0.85243416 0.029043602 0.5443415 0.86112905 0.029071052 0.54454154
        0.87046415 0.029099107 0.54474664 0.8803819 0.029127691 0.5449541
        0.89080167 0.02915674 0.54516083 0.90162116 0.029186228 0.54536396
        0.91271985 0.029216168 0.5455608 0.9239636 0.02924666 0.5457492
        0.78666466 0.027773026 0.54255384 0.787474 0.027964966 0.54257137
        0.7881931 0.02816159 0.5425854 0.78885496 0.028344559 0.54259795
        0.78949624 0.028507443 0.54261076 0.7901526 0.02864824 0.54262507
        0.79085886 0.028765934 0.54264206 0.79165095 0.028859751 0.54266304
        0.79256696 0.028929755 0.54268914 0.7936482 0.028977765 0.5427215
        0.7949399 0.02900782 0.5427614 0.79649365 0.029025782 0.5428099
        0.7983717 0.02903861 0.5428684 0.80064076 0.029052338 0.54293835
        0.8033507 0.029068774 0.5430207 0.8065285 0.029087078 0.5431158
        0.8101964 0.029106503 0.5432235 0.81438404 0.029126784 0.543344
        0.8191291 0.029147865 0.5434775 0.82447207 0.029169744 0.543624
        0.83045053 0.02919242 0.54378325 0.83709496 0.029215882 0.5439548
        0.84442437 0.029240096 0.5441375 0.852443 0.029265024 0.5443299
        0.8611367 0.0292906 0.5445299 0.8704706 0.029316751 0.54473513
        0.88038707 0.029343406 0.5449426 0.89080554 0.029370494 0.54514945
        0.9016238 0.029397985 0.5453527 0.91272116 0.029425887 0.5455495
        0.9239636 0.029454287 0.545738 0.7870444 0.027883029 0.5425611
        0.7878206 0.028115492 0.54257524 0.78850543 0.028338946 0.54258657
        0.7891371 0.028540887 0.54259706 0.7897528 0.028717726 0.54260814
        0.79038674 0.028868625 0.5426211 0.79107255 0.028993187 0.542637
        0.7918445 0.029091373 0.54265696 0.7927392 0.029164057 0.5426822
        0.7937964 0.029213708 0.54271364 0.7950612 0.02924468 0.54275256
        0.7965862 0.029262865 0.54280007 0.7984366 0.029275125 0.5428577
        0.8006832 0.029287651 0.542927 0.80337846 0.029302655 0.543009
        0.80654854 0.029319502 0.5431039 0.8102128 0.029337477 0.5432116
        0.8143987 0.029356286 0.5433321 0.8191427 0.02937587 0.5434656
        0.8244847 0.029396221 0.5436121 0.83046234 0.029417342 0.54377145
        0.83710575 0.029439216 0.543943 0.84443414 0.029461822 0.5441258
        0.8524517 0.029485108 0.5443182 0.86114424 0.029509015 0.5445183
        0.87047696 0.029533468 0.5447236 0.88039225 0.029558387 0.5449311
        0.8908094 0.02958371 0.545138 0.90162635 0.029609384 0.54534125
        0.91272247 0.02963543 0.54553825 0.9239636 0.02966191 0.5457268
        0.787422 0.028032893 0.5425661 0.78815514 0.028298868 0.54257697
        0.78880155 0.028543929 0.54258573 0.78940034 0.028759947 0.54259425
        0.78998804 0.028945783 0.54260385 0.7905982 0.029101903 0.5426156
        0.7912633 0.029229008 0.54263055 0.7920162 0.029328164 0.5426498
        0.7928917 0.029401163 0.5426743 0.7939282 0.029450973 0.5427051
        0.79516983 0.02948206 0.5427432 0.79667014 0.029500091 0.5427899
        0.79849637 0.029511658 0.5428468 0.80072314 0.02952296 0.5429155
        0.8034051 0.029536504 0.5429971 0.806568 0.029551871 0.5430919
        0.81022894 0.029568363 0.54319954 0.81441325 0.029585686 0.54332006
        0.81915617 0.029603755 0.5434536 0.82449734 0.029622572 0.54360014
        0.830474 0.029642131 0.5437595 0.8371165 0.029662423 0.5439312
        0.8444439 0.029683419 0.54411393 0.8524603 0.029705074 0.54430646
        0.8611518 0.02972732 0.5445066 0.87048334 0.029750086 0.5447119
        0.8803974 0.029773291 0.5449195 0.8908133 0.029796857 0.5451265
        0.901629 0.029820744 0.5453298 0.9127237 0.029844947 0.5455268
        0.9239636 0.029869528 0.54571545 0.7877861 0.028220523 0.5425686
        0.7884727 0.028513923 0.5425763 0.78907776 0.028774584 0.54258275
        0.7896415 0.028998863 0.5425895 0.79020005 0.029188162 0.54259783
        0.7907862 0.029344626 0.5426087 0.79143137 0.02947039 0.54262304
        0.7921667 0.029567717 0.54264176 0.79302543 0.029639179 0.5426657
        0.7940441 0.02968804 0.5426959 0.79526615 0.029718636 0.5427334
        0.7967453 0.029736267 0.54277945 0.79855084 0.029747099 0.54283565
        0.8007602 0.029757211 0.5429039 0.8034305 0.029769352 0.5429852
        0.806587 0.029783286 0.5430798 0.81024486 0.029798348 0.54318744
        0.8144276 0.029814227 0.54330796 0.8191696 0.029830841 0.5434416
        0.82450986 0.029848179 0.54358816 0.83048564 0.029866239 0.5437476
        0.8371272 0.02988501 0.5439192 0.8444536 0.029904466 0.54410213
        0.85246897 0.029924557 0.54429466 0.8611593 0.029945213 0.5444948
        0.87048966 0.029966364 0.5447002 0.8804025 0.02998792 0.54490787
        0.89081717 0.030009806 0.5451149 0.90163153 0.030031966 0.54531825
        0.91272503 0.030054398 0.54551536 0.9239636 0.030077143 0.545704
        0.7881346 0.028446374 0.54256856 0.7887701 0.028759416 0.5425733
        0.78933144 0.0290287 0.5425776 0.78985894 0.02925492 0.5425829
        0.7903883 0.029442228 0.5425903 0.79095143 0.029594693 0.5426006
        0.7915782 0.029715937 0.54261446 0.792298 0.029809274 0.54263276
        0.7931421 0.029877821 0.54265636 0.7941456 0.029924905 0.54268616
        0.7953511 0.029954568 0.5427231 0.79681236 0.029971605 0.5427686
        0.7986002 0.029981665 0.5428243 0.8007946 0.029990623 0.5428921
        0.8034546 0.030001396 0.54297316 0.8066054 0.030013932 0.54306763
        0.8102605 0.030027596 0.5431753 0.8144418 0.030042073 0.54329586
        0.8191828 0.030057268 0.54342943 0.8245222 0.030073173 0.5435761
        0.83049715 0.03008978 0.54373556 0.8371378 0.030107085 0.5439073
        0.8444632 0.03012505 0.54409015 0.85247755 0.030143632 0.5442828
        0.8611668 0.03016276 0.544483 0.870496 0.030182349 0.5446884
        0.8804076 0.030202316 0.5448961 0.890821 0.030222576 0.5451032
        0.9016341 0.030243073 0.5453066 0.9127263 0.030263787 0.5455038
        0.9239636 0.030284751 0.54569256 0.7884623 0.028709335 0.54256564
        0.7890436 0.029033335 0.5425678 0.7895599 0.029303534 0.5425704
        0.79005134 0.029525159 0.5425747 0.79055274 0.029705338 0.5425814
        0.7910946 0.029850058 0.5425912 0.79170495 0.029964222 0.5426049
        0.79241127 0.030051906 0.5426231 0.7932429 0.030116504 0.54264647
        0.7942337 0.030161193 0.5426759 0.7954253 0.030189602 0.54271245
        0.79687166 0.030205913 0.54275745 0.7986446 0.030215193 0.5428127
        0.80082625 0.030223034 0.5428802 0.80347735 0.030232495 0.54296106
        0.8066232 0.030243672 0.5430555 0.8102758 0.030255988 0.54316306
        0.8144558 0.030269114 0.54328364 0.8191959 0.030282944 0.54341733
        0.82453454 0.03029747 0.54356396 0.8305086 0.030312683 0.54372346
        0.8371483 0.030328576 0.54389524 0.84447277 0.030345114 0.5440782
        0.8524861 0.030362247 0.5442708 0.8611742 0.030379906 0.5444711
        0.8705023 0.030398004 0.54467654 0.88041264 0.030416451 0.5448843
        0.89082485 0.030435156 0.54509145 0.90163666 0.030454049 0.54529494
        0.9127276 0.03047311 0.5454922 0.9239636 0.030492356 0.545681
        0.78876495 0.029008102 0.54255986 0.7892901 0.029333198 0.54255986
        0.7897614 0.029596087 0.54256123 0.7902181 0.029806746 0.5425648
        0.7906937 0.029975211 0.5425712 0.7912167 0.030109081 0.54258096
        0.7918129 0.030214151 0.5425946 0.7925077 0.030294918 0.5426127
        0.79332894 0.030354789 0.542636 0.79430914 0.030396644 0.5426652
        0.7954894 0.030423569 0.5427014 0.7969234 0.030439071 0.54274607
        0.7986841 0.030447567 0.542801 0.8008551 0.030454343 0.54286814
        0.8034988 0.030462546 0.54294884 0.8066404 0.03047243 0.54304314
        0.8102908 0.03048345 0.5431508 0.81446964 0.030495273 0.5432714
        0.8192089 0.030507797 0.54340506 0.8245467 0.030521004 0.5435518
        0.83052 0.03053489 0.54371136 0.8371588 0.030549439 0.54388314
        0.84448224 0.030564616 0.54406613 0.85249454 0.030580373 0.5442588
        0.8611816 0.030596634 0.5444591 0.8705085 0.03061331 0.5446646
        0.8804177 0.030630304 0.54487246 0.89082867 0.03064752 0.5450796
        0.9016392 0.030664884 0.54528314 0.91272885 0.030682359 0.54548043
        0.9239636 0.030699959 0.5456693 0.78903794 0.029340595 0.5425511
        0.78950655 0.029655965 0.54254955 0.7899345 0.029903177 0.54255015
        0.7903591 0.030096952 0.5425534 0.7908117 0.03024979 0.5425598
        0.7913186 0.03037031 0.5425697 0.7919029 0.03046473 0.5425835
        0.7925883 0.030537633 0.5426017 0.793401 0.030592216 0.54262495
        0.79437274 0.030630922 0.54265404 0.79554373 0.030656207 0.54269004
        0.796968 0.030670853 0.54273444 0.7987188 0.030678596 0.54278904
        0.80088127 0.030684372 0.54285604 0.8035189 0.030691387 0.54293656
        0.80665696 0.03070004 0.54303086 0.81030554 0.030709831 0.54313844
        0.8144833 0.030720426 0.5432591 0.81922174 0.030731713 0.54339284
        0.8245588 0.030743675 0.5435396 0.8305312 0.0307563 0.5436992
        0.8371692 0.030769583 0.543871 0.8444917 0.030783482 0.54405403
        0.852503 0.03079794 0.54424673 0.86118895 0.030812884 0.54444706
        0.87051475 0.030828217 0.5446526 0.8804228 0.030843839 0.5448605
        0.8908325 0.030859647 0.5450677 0.9016418 0.03087556 0.54527134
        0.91273016 0.03089153 0.5454687 0.9239636 0.030907555 0.54565763
        0.7892767 0.029704016 0.54253924 0.7896906 0.02999814 0.5425368
        0.79007834 0.030221539 0.5425372 0.79047436 0.0303932 0.5425407
        0.79090756 0.03052719 0.5425474 0.7914011 0.030632406 0.54255766
        0.7919759 0.030715015 0.5425718 0.7926538 0.030779373 0.5425902
        0.7934599 0.03082828 0.5426135 0.79442495 0.03086363 0.54264253
        0.7955889 0.03088719 0.5426784 0.7970056 0.030900976 0.5427226
        0.79874885 0.030908013 0.542777 0.8009047 0.030912869 0.54284376
        0.80353755 0.03091878 0.5429242 0.8066729 0.030926287 0.54301846
        0.8103199 0.030934934 0.54312605 0.81449676 0.030944385 0.5432468
        0.81923443 0.030954521 0.5433805 0.8245707 0.030965324 0.5435273
        0.8305423 0.030976785 0.5436869 0.8371795 0.030988893 0.5438588
        0.8445011 0.0310016 0.5440419 0.85251135 0.031014854 0.5442346
        0.8611963 0.031028574 0.544435 0.87052095 0.031042658 0.5446406
        0.8804278 0.031057004 0.5448485 0.8908363 0.031071497 0.54505575
        0.90164435 0.03108605 0.5452594 0.9127314 0.031100605 0.5454568
        0.9239636 0.031115146 0.54564583 0.789477 0.030094745 0.5425244
        0.7898402 0.030355772 0.5425219 0.7901923 0.030547818 0.5425227
        0.79056436 0.030692974 0.5425268 0.7909819 0.030805582 0.5425342
        0.7914651 0.030894045 0.54254496 0.7920327 0.03096402 0.5425595
        0.792705 0.031019382 0.54257816 0.7935061 0.03106238 0.54260164
        0.7944663 0.031094264 0.54263073 0.79562515 0.031116078 0.5426665
        0.7970364 0.031129036 0.5427105 0.7987743 0.031135447 0.5427648
        0.8009255 0.031139482 0.5428315 0.8035549 0.031144403 0.5429119
        0.8066881 0.031150872 0.5430061 0.81033397 0.03115848 0.5431137
        0.81451 0.03116689 0.54323447 0.81924695 0.031175988 0.5433682
        0.8245825 0.031185744 0.5435151 0.83055335 0.03119615 0.5436747
        0.8371897 0.031207189 0.5438466 0.8445104 0.031218821 0.54402965
        0.8525197 0.031230982 0.5442225 0.86120355 0.031243593 0.54442286
        0.8705271 0.03125654 0.5446285 0.8804328 0.03126972 0.5448364
        0.89084005 0.031283017 0.5450437 0.90164685 0.03129632 0.54524744
        0.91273266 0.031309567 0.5454449 0.9239636 0.031322733 0.545634
        0.7896348 0.030508308 0.5425065 0.7899538 0.03072444 0.54250485
        0.7902764 0.030878522 0.54250675 0.7906296 0.030993726 0.5425119
        0.79103553 0.031083101 0.54252005 0.7915115 0.031153822 0.5425316
        0.7920741 0.03121067 0.5425467 0.79274255 0.031256795 0.54256576
        0.79354036 0.031293783 0.5425895 0.79449743 0.031322192 0.5426186
        0.7956529 0.031342298 0.54265434 0.7970607 0.03135451 0.5426983
        0.7987953 0.031360403 0.5427525 0.8009436 0.031363748 0.54281914
        0.80357087 0.03136782 0.5428995 0.8067027 0.031373393 0.5429937
        0.8103476 0.031380095 0.5431014 0.8145229 0.031387605 0.5432221
        0.8192593 0.031395797 0.54335594 0.82459414 0.031404644 0.54350275
        0.83056426 0.031414133 0.5436624 0.83719975 0.031424247 0.5438343
        0.84451956 0.03143494 0.54401743 0.8525279 0.031446148 0.54421026
        0.86121076 0.031457786 0.5444107 0.8705332 0.03146974 0.54461634
        0.88043773 0.031481896 0.5448243 0.8908438 0.031494122 0.5450316
        0.9016494 0.031506315 0.5452354 0.912734 0.031518392 0.54543287
        0.9239636 0.031530313 0.545622 0.7897468 0.030939415 0.54248583
        0.79003054 0.03109918 0.5424861 0.790331 0.031209989 0.5424896
        0.79067117 0.031292815 0.542496 0.7910696 0.031357788 0.5425054
        0.79154104 0.031410243 0.5425178 0.7921008 0.031453766 0.5425335
        0.79276717 0.03149062 0.542553 0.79356325 0.03152164 0.542577
        0.7945187 0.03154665 0.5426063 0.7956726 0.031565156 0.54264206
        0.79707885 0.03157675 0.542686 0.79881203 0.031582274 0.54274017
        0.80095917 0.0315851 0.54280674 0.80358547 0.0315885 0.54288715
        0.8067165 0.03159334 0.5429814 0.8103609 0.03159932 0.54308903
        0.8145357 0.031606097 0.5432098 0.8192714 0.031613555 0.54334366
        0.82460564 0.03162166 0.5434905 0.83057505 0.031630408 0.5436502
        0.8372097 0.031639762 0.5438221 0.8445287 0.031649694 0.5440052
        0.8525361 0.031660125 0.54419804 0.8612179 0.03167096 0.5443985
        0.8705393 0.031682096 0.5446041 0.8804427 0.031693395 0.54481214
        0.89084756 0.031704728 0.5450195 0.9016519 0.031715978 0.5452233
        0.9127352 0.03172705 0.54542077 0.9239636 0.031737894 0.54560995
        0.7898106 0.031382076 0.5424625 0.7900704 0.03147471 0.54246575
        0.79035753 0.031538673 0.54247147 0.7906907 0.03158779 0.5424796
        0.7910857 0.031627864 0.54249024 0.79155535 0.03166196 0.54250365
        0.79211414 0.03169224 0.5425201 0.7927799 0.03171997 0.5425401
        0.79357564 0.031745184 0.54256433 0.79453087 0.031766955 0.5425938
        0.79568475 0.031784017 0.54262966 0.7970911 0.03179516 0.54267365
        0.7988247 0.0318005 0.5427278 0.8009722 0.031803012 0.5427944
        0.80359876 0.031805947 0.5428749 0.80672973 0.031810276 0.5429691
        0.8103738 0.031815726 0.54307675 0.81454813 0.031821974 0.5431976
        0.8192833 0.0318289 0.5433314 0.8246169 0.03183647 0.54347825
        0.83058566 0.03184467 0.54363793 0.8372196 0.03185348 0.5438099
        0.8445377 0.031862848 0.543993 0.8525442 0.031872697 0.5441858
        0.86122507 0.03188294 0.54438627 0.8705453 0.03189345 0.5445919
        0.88044757 0.031904094 0.5448 0.8908513 0.031914737 0.54500735
        0.9016544 0.03192524 0.54521114 0.9127365 0.031935506 0.5454086
        0.9239636 0.031945467 0.54559785 0.78982466 0.031829797 0.54243684
        0.79007596 0.031847417 0.54244417 0.7903595 0.031862933 0.5424526
        0.7906915 0.03187795 0.54246265 0.79108626 0.031893138 0.54247475
        0.7915563 0.031909067 0.5424892 0.7921156 0.031926345 0.5425064
        0.79278207 0.031945173 0.54252696 0.7935785 0.03196476 0.5425516
        0.79453474 0.031983465 0.5425812 0.79569 0.031999238 0.5426172
        0.79709816 0.03201009 0.54266125 0.7988337 0.032015413 0.54271543
        0.8009832 0.032017794 0.5427821 0.803611 0.032020453 0.5428626
        0.8067424 0.032024454 0.5429569 0.8103864 0.03202956 0.5430646
        0.8145604 0.032035466 0.54318535 0.8192951 0.032042045 0.54331917
        0.8246281 0.03204926 0.5434661 0.83059615 0.032057103 0.5436258
        0.8372294 0.032065548 0.5437977 0.8445466 0.032074533 0.5439808
        0.85255224 0.032083996 0.5441736 0.8612321 0.032093823 0.54437405
        0.87055135 0.032103896 0.5445797 0.8804525 0.03211407 0.5447877
        0.890855 0.0321242 0.54499507 0.9016569 0.032134138 0.54519886
        0.9127377 0.03214378 0.54539645 0.9239636 0.032153036 0.54558563
        0.7897887 0.032275837 0.5424093 0.7900508 0.03221898 0.5424214
        0.7903403 0.032186415 0.54243284 0.79067594 0.0321675 0.542445
        0.79107326 0.032157913 0.54245865 0.7915453 0.032155734 0.54247427
        0.79210633 0.03216004 0.54249233 0.79277444 0.032169964 0.54251343
        0.7935727 0.032183927 0.5425384 0.79453105 0.032199543 0.5425683
        0.7956889 0.03221402 0.54260445 0.7971003 0.032224566 0.5426486
        0.7988395 0.032229885 0.5427029 0.80099225 0.032232154 0.54276973
        0.8036223 0.03223457 0.5428503 0.80675477 0.032238264 0.5429446
        0.81039894 0.03224305 0.5430523 0.81457263 0.032248635 0.5431731
        0.8193069 0.032254882 0.54330695 0.8246393 0.032261774 0.5434538
        0.8306067 0.03226928 0.5436135 0.83723915 0.03227738 0.5437854
        0.8445556 0.032286014 0.5439685 0.8525603 0.032295104 0.54416126
        0.86123914 0.032304548 0.54436177 0.87055737 0.032314207 0.5445674
        0.8804574 0.032323938 0.5447754 0.89085877 0.03233358 0.5449828
        0.9016594 0.03234298 0.5451866 0.912739 0.032352023 0.54538417
        0.9239636 0.032360602 0.54557335 0.78970367 0.032713525 0.5423803
        0.789992 0.032591555 0.54239714 0.790297 0.032513335 0.5424119
        0.7906418 0.032461282 0.5424264 0.7910449 0.03242708 0.54244167
        0.79152095 0.032406703 0.54245853 0.79208523 0.03239784 0.5424775
        0.79275626 0.03239863 0.54249924 0.7935575 0.03240673 0.5425247
        0.7945193 0.032419037 0.54255486 0.79568124 0.032432 0.5425912
        0.7970975 0.032442056 0.54263556 0.798842 0.03244719 0.5426901
        0.8009996 0.032449182 0.54275703 0.80363286 0.03245119 0.54283774
        0.8067669 0.03245442 0.5429321 0.8104115 0.032458726 0.54303986
        0.81458503 0.032463823 0.5431606 0.8193188 0.032469586 0.5432945
        0.8246506 0.032475986 0.54344136 0.8306173 0.032483 0.54360104
        0.837249 0.032490596 0.54377294 0.84456456 0.03249872 0.54395604
        0.8525683 0.03250729 0.54414886 0.8612463 0.03251619 0.5443493
        0.8705634 0.032525282 0.54455495 0.8804623 0.03253441 0.54476297
        0.89086246 0.03254341 0.5449704 0.90166193 0.032552123 0.5451742
        0.91274023 0.03256041 0.5453718 0.9239636 0.03256816 0.545561
        0.7895716 0.03313654 0.54235023 0.78989655 0.03296181 0.54237163
        0.7902256 0.032842357 0.54238975 0.7905856 0.03275896 0.5424067
        0.79099834 0.03270087 0.5424237 0.79148114 0.032662492 0.5424419
        0.7920506 0.0326404 0.5424618 0.79272616 0.03263189 0.5424843
        0.7935319 0.0326339 0.5425102 0.7944986 0.032642666 0.5425408
        0.79566634 0.03265389 0.54257745 0.79708934 0.032663222 0.542622
        0.798841 0.032667957 0.5426768 0.80100495 0.03266947 0.542744
        0.80364263 0.032670867 0.5428248 0.80677885 0.032673433 0.54291934
        0.8104241 0.03267706 0.5430271 0.8145974 0.032681476 0.5431479
        0.81933075 0.032686558 0.5432818 0.82466197 0.03269227 0.5434287
        0.830628 0.032698598 0.5435884 0.8372589 0.0327055 0.5437603
        0.8445736 0.03271292 0.54394346 0.8525765 0.03272078 0.5441363
        0.8612534 0.032728944 0.54433674 0.87056947 0.03273728 0.5445424
        0.8804672 0.032745622 0.54475045 0.8908662 0.032753795 0.5449578
        0.90166444 0.03276163 0.54516166 0.9127415 0.03276898 0.5453593
        0.9239636 0.032775715 0.5455486 0.7893954 0.03353919 0.54231966
        0.78976446 0.033324305 0.5423451 0.7901245 0.033169787 0.5423665
        0.7905052 0.033058 0.5423859 0.7909318 0.032977495 0.5424048
        0.7914243 0.032921787 0.5424243 0.7920011 0.032886717 0.5424453
        0.792683 0.03286892 0.54246855 0.7934949 0.032864753 0.5424951
        0.7944683 0.032869812 0.5425261 0.7956437 0.03287911 0.54256314
        0.7970754 0.032887537 0.542608 0.7988363 0.03289168 0.54266316
        0.80100834 0.032892525 0.5427306 0.8036515 0.03289315 0.5428117
        0.8067905 0.032894883 0.5429063 0.81043655 0.032897666 0.54301417
        0.8146099 0.032901227 0.543135 0.8193428 0.03290546 0.5432689
        0.82467335 0.03291032 0.54341584 0.8306387 0.032915797 0.5435755
        0.83726877 0.032921843 0.5437475 0.84458274 0.0329284 0.54393065
        0.8525846 0.032935373 0.5441235 0.86126053 0.032942645 0.544324
        0.8705755 0.032950062 0.5445297 0.8804721 0.032957457 0.54473776
        0.8908699 0.032964647 0.5449452 0.90166694 0.032971445 0.5451491
        0.91274273 0.032977697 0.54534674 0.9239636 0.032983266 0.5455361
        0.7891789 0.03391659 0.54228896 0.7895971 0.03367386 0.542318
        0.7899932 0.033491675 0.54234236 0.79039955 0.033355568 0.5423642
        0.79084396 0.03325488 0.542385 0.79134905 0.03318303 0.54240596
        0.7919357 0.033135567 0.542428 0.7926259 0.033108734 0.5424521
        0.7934458 0.033098433 0.5424793 0.7944278 0.033099726 0.54251087
        0.795613 0.033106968 0.5425483 0.7970556 0.033114333 0.5425936
        0.79882777 0.033117734 0.54264915 0.80100965 0.03311778 0.542717
        0.8036595 0.03311749 0.5427983 0.8068018 0.033118263 0.54289305
        0.810449 0.033120062 0.543001 0.8146224 0.033122644 0.54312193
        0.81935483 0.033125892 0.54325587 0.82468486 0.033129774 0.5434028
        0.83064944 0.033134263 0.5435626 0.8372787 0.033139322 0.54373455
        0.8445918 0.033144884 0.5439177 0.85259277 0.03315085 0.5441106
        0.8612677 0.0331571 0.54431117 0.87058157 0.03316347 0.54451686
        0.8804771 0.033169787 0.54472494 0.8908737 0.033175863 0.5449324
        0.90166944 0.033181507 0.5451364 0.912744 0.033186536 0.5453341
        0.9239636 0.033190813 0.54552346 0.7889264 0.03426474 0.5422587
        0.7893964 0.034005884 0.5422906 0.7898322 0.033804208 0.5423177
        0.790268 0.03364887 0.5423417 0.7907338 0.033531014 0.54236436
        0.7912546 0.033444766 0.5423868 0.79185337 0.03338586 0.54241
        0.792554 0.033350468 0.542435 0.793384 0.03333423 0.5424628
        0.79437673 0.033331778 0.542495 0.7955739 0.033336893 0.542533
        0.7970298 0.03334308 0.54257876 0.7988154 0.033345614 0.5426348
        0.80100894 0.03334475 0.54270303 0.8036666 0.03334345 0.54278463
        0.80681276 0.03334315 0.54287964 0.81046134 0.03334387 0.54298764
        0.8146348 0.033345368 0.54310864 0.8193669 0.033347532 0.54324263
        0.8246963 0.03335033 0.5433896 0.83066016 0.033353727 0.5435494
        0.83728874 0.0333577 0.54372144 0.8446009 0.03336216 0.54390466
        0.85260093 0.033367023 0.5440976 0.86127484 0.033372145 0.5442981
        0.87058765 0.03337737 0.5445039 0.88048196 0.033382513 0.54471207
        0.89087737 0.033387374 0.5449196 0.90167195 0.033391755 0.5451236
        0.91274524 0.03339547 0.54532135 0.9239636 0.033398353 0.5455108
        0.7886425 0.034580514 0.5422291 0.789165 0.03431632 0.5422633
        0.78964216 0.034103703 0.5422926 0.79011023 0.03393508 0.54231864
        0.7906005 0.033803895 0.542343 0.7911397 0.033705592 0.54236686
        0.7917531 0.033636615 0.54239124 0.79246646 0.033593412 0.5424171
        0.79330873 0.033571586 0.5424458 0.7943145 0.033565503 0.54247856
        0.7955261 0.033568468 0.5425172 0.7969978 0.03357339 0.54256356
        0.7987993 0.033574957 0.5426201 0.80100626 0.033573084 0.5426889
        0.8036728 0.03357069 0.5427708 0.8068235 0.033569254 0.542866
        0.8104736 0.033568807 0.5429742 0.8146473 0.03356914 0.54309523
        0.819379 0.03357014 0.5432293 0.8247078 0.033571772 0.5433763
        0.830671 0.033574007 0.5435361 0.83729875 0.033576805 0.5437082
        0.84461004 0.033580087 0.5438915 0.8526091 0.033583757 0.5440844
        0.861282 0.03358767 0.54428506 0.8705937 0.033591665 0.5444909
        0.8804869 0.033595555 0.5446991 0.8908811 0.03359912 0.5449067
        0.90167445 0.03360216 0.5451107 0.9127465 0.033604473 0.54530853
        0.9239636 0.03360589 0.5454981 0.7883317 0.03486177 0.54220074
        0.788906 0.034601748 0.54223657 0.78942466 0.034386575 0.54226756
        0.7899263 0.03421127 0.5422952 0.79044306 0.034071423 0.54232115
        0.7910033 0.03396411 0.5423463 0.7916338 0.033886924 0.54237175
        0.79236215 0.03383697 0.54239863 0.7932191 0.033810105 0.5424281
        0.7942405 0.033800602 0.54246163 0.7954693 0.033801433 0.5425009
        0.7969595 0.033805024 0.542548 0.79877937 0.03380553 0.54260516
        0.8010016 0.033802576 0.5426745 0.8036782 0.033799026 0.5427568
        0.80683386 0.033796385 0.5428522 0.8104858 0.033794712 0.5429605
        0.8146597 0.033793814 0.54308164 0.8193911 0.03379358 0.54321575
        0.8247193 0.03379398 0.54336286 0.8306818 0.033794977 0.5435227
        0.83730876 0.033796534 0.54369485 0.84461915 0.033798568 0.5438782
        0.8526173 0.03380098 0.54407114 0.86128914 0.033803616 0.5442718
        0.8705998 0.03380631 0.5444777 0.88049185 0.03380887 0.54468596
        0.8908849 0.033811066 0.5448936 0.90167695 0.033812698 0.5450977
        0.91274774 0.03381354 0.54529566 0.9239636 0.03381342 0.54548526
        0.7879991 0.03510664 0.5421738 0.7886231 0.034859195 0.54221064
        0.78918195 0.034649294 0.5422427 0.7897168 0.034474187 0.5422717
        0.7902611 0.034331076 0.54229873 0.7908441 0.03421859 0.542325
        0.7914939 0.034135684 0.54235154 0.7922397 0.03408046 0.5423794
        0.79311407 0.03404934 0.5424097 0.79415387 0.034036756 0.54244405
        0.795403 0.034035537 0.54248416 0.7969149 0.03403775 0.542532
        0.7987557 0.034037124 0.54258996 0.8009952 0.034033027 0.5426599
        0.8036828 0.03402827 0.5427426 0.806844 0.03402437 0.5428383
        0.81049794 0.034021422 0.5429467 0.8146722 0.03401924 0.54306793
        0.8194032 0.034017723 0.5432021 0.8247308 0.03401683 0.54334927
        0.8306926 0.03401654 0.5435092 0.8373188 0.034016795 0.5436814
        0.84462833 0.034017522 0.5438647 0.8526255 0.03401861 0.5440578
        0.8612963 0.03401991 0.54425853 0.8706059 0.034021247 0.54446447
        0.88049674 0.034022417 0.5446728 0.8908886 0.034023188 0.5448805
        0.90167946 0.034023345 0.54508466 0.912749 0.034022667 0.54528266
        0.9239636 0.034020945 0.5454723 0.78764725 0.035315312 0.5421484
        0.7883196 0.035086796 0.54218584 0.78891665 0.034888897 0.54221857
        0.7894829 0.034720734 0.5422482 0.7900542 0.034580372 0.5422761
        0.7906607 0.03446741 0.54230326 0.7913315 0.03438205 0.5423307
        0.7920974 0.034323588 0.5423594 0.792992 0.034289308 0.54239064
        0.79405373 0.034274127 0.5424259 0.7953267 0.034270983 0.5424669
        0.79686356 0.03427177 0.54251564 0.7987283 0.034269925 0.54257447
        0.8009869 0.03426461 0.54264504 0.80368674 0.03425858 0.54272825
        0.8068539 0.03425337 0.5428242 0.81051 0.034249086 0.54293275
        0.8146846 0.034245558 0.54305404 0.81941533 0.034242682 0.5431883
        0.8247424 0.03424044 0.5433355 0.83070344 0.03423878 0.54349554
        0.8373288 0.034237675 0.54366773 0.8446375 0.034237027 0.5438512
        0.8526337 0.03423672 0.5440443 0.8613035 0.034236614 0.54424506
        0.87061197 0.034236524 0.5444511 0.8805017 0.03423623 0.5446595
        0.8908923 0.03423551 0.5448673 0.9016819 0.03423413 0.5450715
        0.91275024 0.03423185 0.54526955 0.9239636 0.034228466 0.5454594
        0.7872871 0.035484184 0.5421252 0.7880009 0.03528242 0.5421624
        0.78863305 0.035102256 0.5421953 0.7892279 0.034946892 0.5422252
        0.78982395 0.034815192 0.54225343 0.79045326 0.03470702 0.54228115
        0.79114604 0.034623254 0.5423093 0.79193395 0.034564268 0.5423388
        0.792852 0.034528404 0.5423709 0.79393935 0.034511376 0.54240716
        0.7952401 0.034506578 0.5424492 0.79680574 0.034505975 0.542499
        0.7986973 0.034502886 0.5425587 0.800977 0.034496356 0.5426301
        0.80369 0.034489073 0.54271376 0.80686355 0.034482554 0.54280996
        0.810522 0.034476936 0.5429187 0.8146971 0.034472063 0.5430401
        0.81942743 0.034467835 0.5431744 0.82475394 0.034464236 0.54332167
        0.83071434 0.034461215 0.54348177 0.83733886 0.03445873 0.543654
        0.8446467 0.03445669 0.54383755 0.85264194 0.034454983 0.5440307
        0.86131066 0.034453448 0.5442316 0.87061805 0.034451906 0.54443765
        0.88050663 0.034450136 0.5446461 0.890896 0.034447894 0.544854
        0.9016844 0.03444495 0.54505825 0.9127515 0.034441054 0.54525644
        0.9239636 0.03443598 0.54544634 0.78689873 0.035622265 0.542103
        0.78766555 0.03544712 0.5421404 0.7883325 0.035288624 0.54217315
        0.7889526 0.03515132 0.5422028 0.7895691 0.035034537 0.54223084
        0.79021794 0.034937605 0.54225856 0.7909317 0.03486104 0.542287
        0.7917433 0.034805514 0.54231715 0.79268855 0.03477036 0.5423502
        0.7938066 0.034752496 0.5423875 0.79514056 0.03474626 0.5424307
        0.7967399 0.034744147 0.5424817 0.7986621 0.034739595 0.5425425
        0.80096525 0.034731608 0.5426147 0.80369264 0.03472284 0.5426989
        0.8068731 0.034714784 0.5427954 0.81053406 0.03470761 0.5429043
        0.8147096 0.03470116 0.54302585 0.8194397 0.03469537 0.54316026
        0.8247656 0.034690186 0.5433076 0.83072525 0.034685582 0.54346776
        0.837349 0.03468151 0.54364014 0.84465593 0.034677874 0.5438237
        0.85265017 0.03467455 0.54401696 0.8613179 0.034671396 0.54421794
        0.8706241 0.034668207 0.54442406 0.8805115 0.03466476 0.54463255
        0.8908998 0.034660816 0.5448405 0.9016869 0.034656122 0.54504496
        0.91275275 0.034650426 0.5452432 0.9239636 0.034643494 0.54543316
        0.7865722 0.035706364 0.5420864 0.7873332 0.03557702 0.5421207
        0.7880259 0.035444167 0.54215276 0.7886691 0.035326876 0.5421819
        0.7893039 0.03522743 0.5422095 0.7899698 0.035145022 0.542237
        0.79070294 0.03507926 0.5422654 0.7915387 0.035030365 0.542296
        0.79251343 0.03499821 0.54232985 0.7936653 0.03498093 0.54236823
        0.79503566 0.03497414 0.5424127 0.7966713 0.03497114 0.5424649
        0.7986258 0.034965713 0.54252684 0.80095315 0.03495695 0.54259986
        0.803695 0.034947418 0.5426846 0.8068824 0.034938548 0.54278135
        0.81054586 0.03493051 0.54289037 0.81472194 0.034923173 0.54301196
        0.81945175 0.03491646 0.54314643 0.82477707 0.03491034 0.54329383
        0.83073604 0.034904774 0.54345405 0.837359 0.034899708 0.5436264
        0.84466505 0.034895055 0.54381007 0.8526584 0.03489069 0.54400337
        0.861325 0.034886446 0.54420435 0.8706302 0.034882132 0.5444105
        0.88051647 0.03487752 0.5446191 0.8909035 0.03487236 0.5448271
        0.9016894 0.034866393 0.54503155 0.912754 0.03485935 0.5452299
        0.9239636 0.034851 0.54542 0.7864212 0.035737537 0.5420792
        0.787052 0.035668485 0.5421052 0.787741 0.035564184 0.5421353
        0.7884084 0.035462845 0.5421643 0.78907007 0.035373732 0.5421922
        0.78976095 0.03529837 0.5422201 0.790518 0.03523724 0.5422491
        0.79137796 0.03519119 0.5422803 0.7923782 0.035160735 0.54231495
        0.7935573 0.03514465 0.54235417 0.7949561 0.03513894 0.54239947
        0.79661983 0.03513717 0.5424526 0.7985993 0.035133287 0.5425152
        0.80094516 0.035126407 0.54258865 0.8036982 0.035118926 0.54267365
        0.80689085 0.035112157 0.54277045 0.81055623 0.035106227 0.54287934
        0.8147327 0.035101026 0.5430008 0.8194623 0.035096474 0.5431351
        0.8247872 0.03509254 0.5432824 0.8307456 0.035089187 0.54344237
        0.83736795 0.03508636 0.5436147 0.84467334 0.035083972 0.5437981
        0.8526659 0.035081897 0.54399127 0.8613317 0.035079967 0.544192
        0.8706359 0.03507799 0.54439807 0.8805212 0.035075717 0.54460645
        0.8909071 0.035072904 0.5448143 0.90169185 0.035069276 0.5450186
        0.91275525 0.035064563 0.54521674 0.9239636 0.035058502 0.54540664
        0.7863228 0.035757594 0.54207456 0.78683066 0.035730686 0.5420936
        0.7874868 0.035655387 0.54212075 0.78817195 0.035568267 0.5421495
        0.7888656 0.035485074 0.54217815 0.78958744 0.03541183 0.54220694
        0.790371 0.035351396 0.5422368 0.7912542 0.03530574 0.5422688
        0.79227614 0.035275895 0.54230416 0.7934767 0.03526082 0.54234403
        0.7948972 0.03525652 0.54239 0.7965821 0.035256512 0.54244363
        0.7985803 0.03525476 0.5425067 0.80094 0.035250373 0.5425805
        0.80370116 0.035245623 0.5426655 0.80689776 0.035241753 0.5427622
        0.81056464 0.035238877 0.542871 0.8147414 0.03523689 0.5429923
        0.8194709 0.035235744 0.54312634 0.8247955 0.035235427 0.5432733
        0.83075356 0.035235934 0.5434331 0.83737546 0.03523723 0.5436051
        0.8446803 0.035239257 0.54378825 0.85267234 0.035241924 0.543981
        0.86133754 0.035245113 0.5441815 0.87064105 0.03524867 0.5443871
        0.88052547 0.035252426 0.5445951 0.8909105 0.035256203 0.54480255
        0.90169424 0.035259813 0.54500633 0.9127565 0.03526312 0.545204
        0.9239636 0.035266 0.5453933 0.78619486 0.035783526 0.5420685
        0.786636 0.035778303 0.54208386 0.78723407 0.035733398 0.54210705
        0.7879055 0.035670023 0.54213387 0.78861415 0.035602942 0.542162
        0.7893628 0.03554002 0.5421911 0.79017574 0.035486095 0.54222155
        0.79108816 0.035444587 0.5422543 0.79213923 0.035417497 0.54229045
        0.7933695 0.035404366 0.5423312 0.7948198 0.035401598 0.54237807
        0.79653317 0.03540311 0.54243255 0.7985558 0.035403322 0.54249626
        0.8009331 0.03540138 0.5425704 0.8037047 0.03539931 0.54265565
        0.80690604 0.035398178 0.54275227 0.81057465 0.03539808 0.5428609
        0.81475174 0.035398938 0.54298204 0.819481 0.035400715 0.5431159
        0.8248052 0.0354034 0.5432627 0.83076274 0.035407003 0.5434222
        0.8373841 0.03541148 0.543594 0.84468836 0.03541679 0.5437769
        0.85267967 0.035422835 0.54396945 0.86134404 0.035429504 0.54416966
        0.87064666 0.035436645 0.54437506 0.8805301 0.03544409 0.5445828
        0.8909141 0.035451658 0.5447899 0.9016967 0.03545918 0.54499346
        0.91275775 0.035466492 0.5451908 0.9239636 0.03547349 0.5453798
        0.7860557 0.03581159 0.54206187 0.7864595 0.035815995 0.54207534
        0.7870007 0.03579472 0.5420951 0.78763807 0.035756525 0.5421192
        0.78834224 0.035710916 0.54214585 0.7891081 0.035664424 0.54217446
        0.7899496 0.035622124 0.54220515 0.7908951 0.035588384 0.5422386
        0.79198116 0.03556618 0.54227555 0.79324704 0.035555914 0.54231733
        0.79473275 0.035554726 0.54236525 0.7964791 0.03555747 0.54242074
        0.7985292 0.035559442 0.54248524 0.80092585 0.035559934 0.5425598
        0.80370843 0.03556055 0.54264516 0.806915 0.03556211 0.54274184
        0.8105853 0.0355647 0.5428504 0.8147627 0.035568252 0.54297125
        0.8194917 0.035572767 0.54310495 0.82481545 0.035578232 0.5432516
        0.83077246 0.03558465 0.5434109 0.83739316 0.035591986 0.54358244
        0.84469676 0.03560019 0.5437651 0.85268724 0.035609167 0.5439575
        0.8613508 0.035618793 0.54415745 0.8706525 0.03562893 0.5443626
        0.8805349 0.03563939 0.54457015 0.8909178 0.035649993 0.54477704
        0.90169924 0.03566056 0.5449804 0.912759 0.03567093 0.5451775
        0.9239636 0.035680972 0.5453663 0.78589875 0.035843033 0.5420544
        0.78629136 0.03584834 0.54206747 0.7867868 0.035842374 0.54208475
        0.78737867 0.035826713 0.5421058 0.7880575 0.035805296 0.54213005
        0.7888229 0.03578128 0.54215723 0.7896851 0.035757724 0.54218745
        0.7906649 0.035737947 0.5422211 0.7917925 0.03572482 0.542259
        0.7931027 0.035719365 0.54230195 0.79463196 0.03572003 0.5423511
        0.79641783 0.03572354 0.5424079 0.7984997 0.03572693 0.5424733
        0.800918 0.035729755 0.5425484 0.80371267 0.035732973 0.542634
        0.80692464 0.03573707 0.5427306 0.8105969 0.035742108 0.54283905
        0.8147745 0.03574807 0.5429598 0.8195032 0.035754956 0.5430933
        0.8248264 0.035762772 0.5432397 0.8307827 0.03577151 0.5433989
        0.83740276 0.035781145 0.5435703 0.8447055 0.035791613 0.5437528
        0.8526952 0.035802808 0.54394495 0.8613578 0.035814617 0.54414475
        0.87065846 0.03582687 0.54434973 0.88053983 0.035839394 0.54455715
        0.89092153 0.035851996 0.54476386 0.90170175 0.035864476 0.54496706
        0.9127603 0.035876673 0.545164 0.9239636 0.035888456 0.54535264
        0.7857232 0.035877977 0.5420461 0.7861227 0.035878878 0.5420597
        0.7865897 0.035879925 0.5420755 0.78713536 0.035881143 0.542094
        0.78777254 0.035882562 0.5421154 0.78851604 0.035884205 0.5421402
        0.7893829 0.03588611 0.542169 0.7903925 0.03588831 0.54220223
        0.79156715 0.035890855 0.5422406 0.7929319 0.035893783 0.5422849
        0.7945151 0.035897147 0.5423357 0.7963484 0.035901003 0.542394
        0.798467 0.035905406 0.5424605 0.80090934 0.03591042 0.54253626
        0.8037172 0.035916097 0.542622 0.806935 0.035922498 0.5427187
        0.81060916 0.035929665 0.542827 0.8147871 0.03593765 0.54294765
        0.81951535 0.035946477 0.54308105 0.8248379 0.03595616 0.5432273
        0.83079356 0.035966683 0.5433863 0.8374128 0.035978016 0.5435575
        0.8447147 0.03599009 0.5437399 0.85270345 0.0360028 0.54393196
        0.861365 0.036016017 0.54413164 0.87066466 0.036029577 0.5443365
        0.88054484 0.036043297 0.54454374 0.89092535 0.036056973 0.5447504
        0.9017044 0.036070418 0.54495347 0.9127616 0.03608345 0.5451504
        0.9239636 0.036095932 0.545339
        <InformationKey name="L2_NORM_RANGE" location="vtkDataArray" length="2">
          <Value index="0">
            0.95470915632
          </Value>
          <Value index="1">
            1.0735018885
          </Value>
        </InformationKey>
      </DataArray>
    </Points>
  </Piece>
  </StructuredGrid>
</VTKFile>
