<?xml version="1.0"?>
<VTKFile type="StructuredGrid" version="0.1" byte_order="LittleEndian" header_type="UInt32" compressor="vtkZLibDataCompressor">
  <StructuredGrid WholeExtent="0 68 0 40 0 0">
  <Piece Extent="0 68 0 40 0 0">
    <PointData>
      <DataArray type="Float32" Name="orthogonality" format="ascii" RangeMin="5.080593382444931e-06" RangeMax="0.13246411085128784">
        0.0011642918 0.0065661734 0.011601516 0.015685009 0.018877132 0.021239636
        0.022838624 0.023746332 0.024041612 0.023808178 0.02312931 0.022076393
        0.02069972 0.019034429 0.017113343 0.014989212 0.01274955 0.0105087245
        0.008383888 0.006465914 0.004790335 0.0033556004 0.0021548744 0.0011636823
        0.0003857791 0.00017179451 0.000537848 0.00062118436 0.00046770467 0.0006701303
        0.00074692385 0.0006685295 0.000563973 0.00043610655 0.00032201994 0.00023578326
        0.00019363083 0.0002082486 0.00028883747 0.00043985515 0.00066082703 0.00094471726
        0.0012797931 0.0016518193 0.002045477 0.0024454803 0.0028373708 0.003208012
        0.003545819 0.0038406886 0.00408404 0.004269151 0.0043905703 0.004444578
        0.0044299946 0.004348056 0.0042021894 0.0039977184 0.0037414792 0.0034413803
        0.0031059328 0.0027437997 0.002363398 0.0019725617 0.0015783538 0.001186765
        0.00080320524 0.0004305857 0.00017019227 0.03128727 0.028420616 0.025991363
        0.025644178 0.025925482 0.026236359 0.026315957 0.026054708 0.025420405
        0.024424007 0.023099475 0.021487564 0.019630939 0.017581105 0.015401034
        0.013173903 0.01100415 0.008998648 0.007240476 0.0057635647 0.0045340452
        0.0034953286 0.0026149072 0.0018632825 0.001253248 0.0007784327 0.00039025096
        0.00019540105 0.0011076502 0.000252947 0.0005701142 0.00073255884 0.00085976656
        0.00094876526 0.0010331991 0.0011249289 0.0012383919 0.0013838239 0.001566508
        0.0017876107 0.002046621 0.0023390595 0.002657046 0.002990998 0.003330801
        0.0036667553 0.0039902437 0.00429415 0.004573107 0.0048236162 0.0050446205
        0.0052379835 0.0054063033 0.005552008 0.0056786137 0.0057911905 0.005896503
        0.006003016 0.00612081 0.0062614405 0.006437765 0.0066637294 0.0069540776
        0.007323911 0.0077881226 0.008360417 0.009052876 0.00987303 0.01068163
        0.053377237 0.045815483 0.039271746 0.03542664 0.033047587 0.031356875
        0.029908318 0.028455708 0.026871288 0.02509884 0.023125146 0.0209609
        0.018638767 0.016221073 0.013794617 0.011467762 0.009358952 0.0075679296
        0.006146872 0.0050782408 0.004265816 0.0036021047 0.003028523 0.0025085052
        0.0020600525 0.0016651871 0.0012594176 0.0009624478 0.0017096143 0.00014167644
        0.00040168263 0.00079176744 0.0011385006 0.0014330827 0.0017056314 0.0019657107
        0.0022258498 0.0024938462 0.0027714993 0.0030572705 0.0033508285 0.0036502648
        0.0039516045 0.0042500286 0.0045407848 0.0048199557 0.0050849877 0.005335025
        0.0055711567 0.0057966313 0.006017578 0.006243202 0.0064825104 0.006742633
        0.0070302156 0.0073521324 0.0077157263 0.008128777 0.008599229 0.00913468
        0.0097416565 0.010424689 0.011185273 0.012020851 0.012924088 0.0138824
        0.014878808 0.01589097 0.016838884 0.069671504 0.059836436 0.050918326
        0.044516545 0.039889786 0.03636084 0.033441897 0.030814366 0.028282942
        0.025736611 0.023120547 0.020417562 0.017649326 0.014885068 0.012230412
        0.009814371 0.0077665607 0.006179345 0.00507625 0.0043927454 0.0039761853
        0.0036719814 0.003395644 0.0031020225 0.0028115017 0.0024958167 0.0020773504
        0.001686809 0.002278219 0.0005180633 0.00023835264 0.000844095 0.0013992747
        0.0018891905 0.0023402828 0.0027597053 0.0031579696 0.0035404593 0.003905855
        0.004250401 0.004574175 0.004877912 0.005161637 0.0054254243 0.0056700394
        0.0058975047 0.006111466 0.006317418 0.006522883 0.0067375964 0.0069741206
        0.007247601 0.007571693 0.007956351 0.008409182 0.008936194 0.009541995
        0.010229644 0.011000247 0.011852364 0.012781403 0.013779106 0.01483336
        0.015928429 0.017045753 0.018164994 0.019266086 0.020328782 0.021301609
        0.082323104 0.07128904 0.06093484 0.0527039 0.04625741 0.041110747
        0.03682712 0.033073742 0.02961934 0.026314376 0.023070633 0.01984675
        0.016653618 0.0135646835 0.010700363 0.008206413 0.006221067 0.0048289797
        0.004027003 0.003707644 0.0036670964 0.0037072657 0.003718306 0.0036453563
        0.0035090337 0.0032718254 0.0028451246 0.002369022 0.002813992 0.0008759088
        8.0604004e-05 0.00089008705 0.001642656 0.002317652 0.0029377204 0.0035075115
        0.0040354435 0.0045245383 0.004970683 0.0053683217 0.005718147 0.006023613
        0.006288813 0.0065188073 0.0067199734 0.006900344 0.0070697875 0.007240065
        0.007424876 0.007639885 0.007903078 0.0082340455 0.008649288 0.009159619
        0.009771442 0.010487518 0.0113072265 0.012226548 0.013237937 0.014330236
        0.015488801 0.016695933 0.017931694 0.019174984 0.020404859 0.021601604
        0.022748357 0.023829814 0.024807913 0.09246068 0.0807396 0.06947268
        0.059928622 0.05203773 0.045505766 0.03998941 0.035182692 0.030846555
        0.0268099 0.022960627 0.019237975 0.015643215 0.012252351 0.009197407
        0.0066375663 0.0047174105 0.0035135325 0.0029978512 0.0030235564 0.003340393
        0.0037101572 0.0039984835 0.004140037 0.004154057 0.0039946153 0.003563753
        0.0030096225 0.0033173782 0.0012149565 7.111466e-05 0.00093026535 0.0018691935
        0.0027190207 0.0034985088 0.004209735 0.0048589776 0.005446968 0.0059670927
        0.00641235 0.006784233 0.007088975 0.007334788 0.0075317635 0.007691923
        0.007829302 0.007959897 0.008101511 0.008273579 0.008496953 0.008793918
        0.009187041 0.009693995 0.010324719 0.0110826995 0.011965893 0.012967265
        0.014075213 0.0152740395 0.016544614 0.017865276 0.01921298 0.020564545
        0.021897873 0.023193032 0.024432845 0.02560392 0.026694708 0.027673747
        0.100738294 0.08858918 0.0767108 0.066208996 0.05717833 0.04947929
        0.042871196 0.03709803 0.031934347 0.027202722 0.022776762 0.018581556
        0.014610591 0.0109415585 0.007715629 0.0051026265 0.0032515035 0.002230442
        0.0019879933 0.002341328 0.0029979986 0.0036829086 0.004238235 0.0045877267
        0.0047480785 0.0046656257 0.004234311 0.0036092545 0.0037888677 0.0015350948
        0.00021648855 0.000965025 0.0020793139 0.0030937323 0.0040231002 0.004866875
        0.0056291716 0.0063085184 0.006896063 0.007383662 0.007773765 0.0080754375
        0.008301025 0.008465655 0.008586964 0.0086849015 0.008781407 0.008899978
        0.009065229 0.009302365 0.009636849 0.010092883 0.010687918 0.011429704
        0.01231773 0.013344476 0.014496427 0.0157551 0.017098201 0.018500932
        0.019937426 0.021382157 0.02281121 0.024203248 0.025540195 0.026807357
        0.02799404 0.029091261 0.030070877 0.107568465 0.095127486 0.082815535
        0.07159884 0.061666176 0.052992348 0.045430895 0.038785014 0.03285675
        0.027474588 0.022506524 0.017868739 0.013549127 0.00962677 0.0062501365
        0.0035973794 0.00182011 0.000977794 0.0009970316 0.0016619832 0.0026418779
        0.0036277815 0.0044396496 0.004990158 0.0052926512 0.005286298 0.0048578996
        0.004168623 0.004228973 0.0018363134 0.00035530145 0.0009946667 0.0022733521
        0.0034421354 0.004511864 0.005479348 0.006346542 0.0071098665 0.0077584665
        0.0082833115 0.008687946 0.008984293 0.009188823 0.009321654 0.009405956
        0.009467434 0.009533699 0.009633522 0.009796071 0.010050061 0.010423102
        0.010939906 0.011616641 0.012458024 0.013459074 0.0146068195 0.015881881
        0.01726012 0.018714357 0.020216124 0.021737304 0.023251545 0.024735315
        0.026168542 0.02753495 0.028821837 0.030020485 0.031123636 0.03210474
        0.11322925 0.10056871 0.08792989 0.07616449 0.06551187 0.056026485
        0.047640722 0.04021701 0.033592287 0.027609698 0.022138841 0.017091779
        0.012453099 0.0083033675 0.004796971 0.0021184932 0.00042074718 0.0002457649
        2.4910047e-05 0.0009866816 0.002274 0.0035470058 0.0046048006 0.005349076
        0.005789323 0.005858034 0.005435599 0.0046884483 0.0046381964 0.0021186613
        0.00048739905 0.0010194313 0.0024515851 0.0037645223 0.004965114 0.0060475185
        0.00701155 0.007851626 0.0085550975 0.009112268 0.00952788 0.009816728
        0.009999358 0.010100798 0.010149607 0.010177036 0.010216035 0.010300176
        0.010462546 0.010734573 0.011145121 0.011718543 0.012469008 0.013397789
        0.014495425 0.015743949 0.017119031 0.01859216 0.020132748 0.021710092
        0.023295032 0.024861205 0.026385857 0.02785018 0.029239383 0.030542275
        0.031751547 0.03286111 0.033845063 0.11791787 0.10507477 0.09217318
        0.07997331 0.06873892 0.058577616 0.04948404 0.041374713 0.034123905
        0.027594851 0.021664232 0.016244043 0.01131772 0.006967626 0.0033530479
        0.0006634476 0.00094838184 0.0014410814 0.0009281243 0.00031669627 0.0018963247
        0.0034427578 0.004735713 0.0056662 0.0062396 0.00638217 0.005968445
        0.0051694326 0.005017014 0.0023822167 0.0006126645 0.001039521 0.0026142513
        0.0040611485 0.005383129 0.006571715 0.0076246196 0.0085343635 0.009286694
        0.00987143 0.010294597 0.010573842 0.010733713 0.010804021 0.010818531
        0.010813766 0.010827655 0.010898079 0.011061426 0.0113511365 0.011796609
        0.012421215 0.013236724 0.014240887 0.015420054 0.016751925 0.018208185
        0.019757066 0.02136568 0.023002034 0.024636595 0.02624334 0.027800336
        0.029289853 0.030698258 0.032015465 0.03323516 0.034352053 0.035340346
        0.12177965 0.10877047 0.0956439 0.08308841 0.07137694 0.060651127
        0.05095284 0.042245172 0.034438718 0.027419474 0.0210749 0.015320092
        0.010139179 0.005616716 0.0019161282 0.00076950743 0.0022884307 0.0026085288
        0.0018615419 0.00034659394 0.0015107965 0.0033171505 0.0048343474 0.005943202
        0.006644931 0.006859966 0.0064574103 0.005612244 0.0053658653 0.0026270705
        0.00073100335 0.0010551132 0.002761563 0.004332243 0.005766163 0.007052242
        0.008186146 0.0091586085 0.009953946 0.010561644 0.010989065 0.01125667
        0.011392903 0.0114321895 0.011413276 0.011377658 0.011367846 0.011425548
        0.011589895 0.011895741 0.0123724835 0.013042119 0.013913871 0.014982117
        0.016229479 0.017630035 0.01915235 0.020762281 0.022425422 0.024109067
        0.02578364 0.027423553 0.029007593 0.030518884 0.03194465 0.033275604
        0.034506124 0.035631455 0.036625598 0.12492477 0.11175355 0.09842309
        0.08556655 0.07345748 0.062258296 0.052045543 0.042820726 0.034527667
        0.027075578 0.020364808 0.014315755 0.008914691 0.004248713 0.00048480206
        0.0021813824 0.0035999399 0.0037480297 0.0027745422 0.0010017056 0.0011193493
        0.0031722335 0.0049025933 0.006181687 0.0070066894 0.0072925934 0.0069033965
        0.006017501 0.005685145 0.0028533135 0.0008423339 0.0010663685 0.002893714
        0.004578016 0.006114448 0.0074893795 0.008696496 0.009724859 0.010557502
        0.011183704 0.011612197 0.0118661905 0.011977885 0.011986123 0.011934368
        0.011868759 0.011835993 0.011881142 0.012045585 0.012365127 0.012868782
        0.013576979 0.014496434 0.015618445 0.016922425 0.018379504 0.019955838
        0.02161557 0.023323292 0.025045907 0.02675393 0.028422175 0.030030001
        0.031561162 0.033003505 0.03434828 0.035590354 0.036725312 0.037726782
        0.12743858 0.11410161 0.10057746 0.0874576 0.075011626 0.06341374
        0.052765157 0.043098006 0.034385066 0.026557643 0.019529682 0.013228176
        0.007642527 0.0028626102 0.00094152003 0.003572468 0.0048828595 0.004859074
        0.0036660612 0.0016470486 0.00072391046 0.0030099936 0.004942263 0.006383189
        0.0073261657 0.0076811323 0.007307226 0.006385768 0.0059752027 0.003061028
        0.0009465802 0.001073436 0.0030108828 0.004798662 0.0064282003 0.00788339
        0.009156015 0.010233579 0.01109797 0.011738361 0.012164859 0.012403333
        0.012489575 0.01246661 0.01238233 0.01228717 0.012231616 0.012263685
        0.012426592 0.012756737 0.013282526 0.01402278 0.0149818715 0.016148392
        0.017499056 0.019002628 0.020623427 0.022324348 0.024069294 0.025824953
        0.02756194 0.029255385 0.03088506 0.032435153 0.033893924 0.03525299
        0.03650753 0.037653327 0.03866356 0.1293882 0.11587677 0.10216199
        0.088804804 0.07606871 0.064133674 0.053117886 0.043077067 0.0340082
        0.025862463 0.018566996 0.012055848 0.0063220444 0.001458327 0.0023626138
        0.004942353 0.0061365673 0.0059407298 0.004534777 0.0022809238 0.00032640732
        0.002832359 0.0049550897 0.0065491605 0.007604563 0.008026567 0.0076696407
        0.006717548 0.0062363404 0.0032502832 0.0010436681 0.0010764562 0.0031132363
        0.0049943584 0.0067076185 0.008234516 0.009565025 0.010685205 0.011575921
        0.012226319 0.012647868 0.012868984 0.012928853 0.012874425 0.012757704
        0.012633062 0.012554399 0.012572294 0.0127314655 0.013068665 0.013611593
        0.014377532 0.0153687615 0.016571555 0.017960414 0.01950222 0.02115988
        0.022895362 0.024672072 0.026456533 0.02821943 0.029936088 0.031586543
        0.033155248 0.034630716 0.036004774 0.03727279 0.038430642 0.039451025
        0.13082701 0.11712913 0.10322199 0.0896453 0.0766556 0.06443477
        0.053112045 0.042760625 0.0333969 0.024988977 0.017475938 0.0107986145
        0.0049537085 3.672068e-05 0.0037774474 0.0062899375 0.0073598837 0.006991658
        0.005379112 0.0029015206 7.122868e-05 0.0026412008 0.0049427273 0.006680968
        0.007842992 0.008329785 0.007991296 0.0070132804 0.0064688125 0.003421131
        0.0011335214 0.0010755641 0.003200931 0.005165272 0.006952885 0.00854298
        0.009923821 0.011080138 0.011991886 0.012648241 0.013061999 0.013263989
        0.013296573 0.013210339 0.013061064 0.012906704 0.012804204 0.012806378
        0.012959186 0.013299589 0.013854581 0.014640058 0.015656507 0.016888268
        0.018308049 0.01988125 0.021569675 0.023334572 0.025138952 0.026949175
        0.028735919 0.03047459 0.032145336 0.033732746 0.035225436 0.036615334
        0.0378979 0.039069016 0.0401009 0.13179767 0.117899194 0.10379479
        0.09001071 0.07679651 0.06433344 0.052757267 0.04215347 0.032553174
        0.023938099 0.01625735 0.009457673 0.0035390959 0.0014004143 0.005184187
        0.007613446 0.008551087 0.008010121 0.006197242 0.0035069152 0.00046705725
        0.0024383368 0.0049067475 0.0067798905 0.008042467 0.008591576 0.008272763
        0.007273339 0.006672824 0.0035736032 0.0012160599 0.0010708906 0.0032741139
        0.0053115557 0.0071641677 0.008808985 0.010232674 0.01141875 0.012346357
        0.013004745 0.013407987 0.013589162 0.01359357 0.013475127 0.013293038
        0.013108474 0.012981086 0.012965639 0.013109144 0.013448707 0.014010694
        0.014809827 0.015845113 0.01709933 0.018543757 0.02014262 0.021856857
        0.023647126 0.025476074 0.027309865 0.029119082 0.030879095 0.03257004
        0.034176514 0.03568713 0.03709381 0.038392022 0.039577596 0.04062229
        0.1323343 0.118219644 0.10391102 0.08992782 0.07651295 0.06384538
        0.05206397 0.041262 0.03148093 0.02271256 0.014913658 0.008035556
        0.0020808997 0.0028503458 0.0065802066 0.008910442 0.009707928 0.008993992
        0.0069870967 0.004095071 0.0008591268 0.002225533 0.0048486413 0.0068471124
        0.008203902 0.008812626 0.008514523 0.0074980287 0.0068485304 0.0037077088
        0.0012911968 0.0010625634 0.0033329234 0.005433349 0.007341616 0.009032714
        0.010491828 0.011701376 0.012639786 0.013296408 0.013686518 0.013845281
        0.013820661 0.013669579 0.013454307 0.013238869 0.013085297 0.013050066
        0.013181108 0.013515676 0.0140796425 0.014886808 0.015935015 0.017205825
        0.018669402 0.020289049 0.022024993 0.02383738 0.0256885 0.027544256
        0.029375048 0.031156097 0.032867417 0.034493484 0.036022834 0.0374473
        0.038762275 0.039963488 0.041022275 0.13246411 0.11811672 0.10359566
        0.0894191 0.07582381 0.062985376 0.051042993 0.040093876 0.030185709
        0.021316761 0.0134488195 0.0065361112 0.0005829192 0.0043094107 0.0079620965
        0.010177838 0.010827638 0.009940768 0.0077463654 0.004663838 0.001245473
        0.0020045035 0.0047698165 0.0068837246 0.008328111 0.00899352 0.008716966
        0.007687584 0.0069960393 0.0038234333 0.0013588377 0.0010507087 0.00337749
        0.0055307797 0.0074853627 0.009214327 0.010701499 0.011928318 0.012872582
        0.013523758 0.013898243 0.01403309 0.013978653 0.013794507 0.01354562
        0.013298511 0.013117289 0.01305993 0.013175202 0.013500563 0.014061567
        0.014871365 0.015926959 0.017209003 0.018686818 0.020322986 0.02207714
        0.023908954 0.025780331 0.027656855 0.029508641 0.031310655 0.033042688
        0.03468901 0.036237974 0.037681248 0.039014112 0.04023213 0.041306276
        0.13220842 0.11761119 0.10286881 0.08850322 0.07474557 0.061767202
        0.049705356 0.038657777 0.028674494 0.019756662 0.011868258 0.0049644765
        0.000949949 0.0057730237 0.009325676 0.011411912 0.011906949 0.010847575
        0.008472505 0.005210956 0.0016241185 0.0017769118 0.004671596 0.0068907174
        0.0084158005 0.009134741 0.008880392 0.007842171 0.00711541 0.003920737
        0.0014188796 0.0010354511 0.0034079354 0.0056039607 0.007595523 0.009353958
        0.010861872 0.01209984 0.013045113 0.013687281 0.014043765 0.014153303
        0.014068336 0.013850742 0.013567797 0.013288153 0.013077714 0.012995768
        0.013091882 0.013403801 0.013956975 0.014764187 0.01582191 0.01711019
        0.018597743 0.02024659 0.022015862 0.023864776 0.025754813 0.027651161
        0.029523555 0.031346615 0.033099804 0.0347671 0.03633659 0.037799723
        0.039151605 0.04038759 0.041478332 0.13158362 0.11671912 0.101746365
        0.08719551 0.07329248 0.060203623 0.048062168 0.036963258 0.026955597
        0.018039696 0.010178816 0.0033270519 0.0025117286 0.0072356914 0.010666008
        0.012608321 0.012942101 0.011711184 0.009162744 0.005734058 0.0019930748
        0.0015443682 0.004555215 0.006868981 0.008467571 0.009236662 0.009005009
        0.007961882 0.007206653 0.003999556 0.0014712099 0.0010169145 0.0034243742
        0.005652994 0.0076721935 0.009451722 0.010973101 0.012216166 0.013157698
        0.013787413 0.014123645 0.014206599 0.014090497 0.013839141 0.013521728
        0.013208686 0.0129674245 0.01285839 0.012931918 0.0132261645 0.013766698
        0.014566225 0.015621 0.016910741 0.018403778 0.020061715 0.021843247
        0.02370714 0.025614409 0.02752977 0.029422497 0.031266756 0.033041593
        0.034730602 0.036321554 0.037805602 0.039177623 0.04043273 0.04154131
        0.1306017 0.11545241 0.10024047 0.0855083 0.0714768 0.0583065
        0.046124604 0.035020668 0.025038565 0.016174696 0.008388707 0.001631473
        0.0040953825 0.00869103 0.011977413 0.013762118 0.013928855 0.012528015
        0.009814089 0.0062306714 0.0023503439 0.0013084281 0.0044218195 0.0068192994
        0.008483914 0.009299551 0.00909093 0.00804674 0.00726973 0.0040597976
        0.001515706 0.000995222 0.003426912 0.0056779645 0.007715451 0.0095077045
        0.011035308 0.012277482 0.013210614 0.013824539 0.014138394 0.014193623
        0.014045904 0.013760584 0.013408381 0.013061131 0.012787474 0.01264886
        0.012696386 0.012968746 0.013491864 0.01427867 0.0153255025 0.016612023
        0.018106384 0.019769913 0.02156093 0.023437748 0.02536087 0.027294472
        0.029207269 0.03107289 0.03286987 0.03458135 0.03619469 0.037700698
        0.03909398 0.04036935 0.041496992 0.12927069 0.113819204 0.09835992
        0.08345126 0.06930903 0.056086894 0.04390394 0.032841157 0.022934154
        0.014171868 0.0065074908 0.00011341489 0.005692834 0.010131781 0.013253489
        0.014867761 0.01486251 0.013294152 0.010423336 0.0066982266 0.0026939234
        0.0010705875 0.0042724614 0.00674235 0.008465204 0.009323566 0.0091381725
        0.008096692 0.0073045567 0.0041013462 0.0015522343 0.0009704967 0.003415647
        0.005678945 0.0077253524 0.009521966 0.0110485805 0.012283931 0.013204085
        0.013798993 0.014088476 0.014114982 0.013935317 0.013615977 0.013228794
        0.012846645 0.012539115 0.012368502 0.012386661 0.012632953 0.0131338965
        0.013902942 0.014936819 0.016215406 0.017706893 0.019372461 0.021170123
        0.023057746 0.02499528 0.026946288 0.028878843 0.030765945 0.03258553
        0.034320194 0.03595683 0.03748583 0.03890148 0.040198267 0.0413462
        0.12759487 0.111824185 0.09611043 0.08103167 0.06679816 0.053555265
        0.04141167 0.030436713 0.020654341 0.012042773 0.0045460416 0.0018975835
        0.007294994 0.01154984 0.014487129 0.015919136 0.015737914 0.014005348
        0.010987073 0.007134062 0.0030218116 0.0008322791 0.0041080937 0.0066386955
        0.008411704 0.009308753 0.009146656 0.008111616 0.0073110014 0.0041240584
        0.0015806513 0.00094286073 0.0033906682 0.0056559937 0.0077019334 0.0094945375
        0.0110129705 0.012235607 0.013138283 0.013711053 0.0139743 0.013971242
        0.013759472 0.01340624 0.0129840765 0.012566515 0.012223795 0.0120188985
        0.012004417 0.012220507 0.012694511 0.013440696 0.014456495 0.015722286
        0.017206516 0.018870374 0.020671645 0.022567762 0.024518095 0.026485523
        0.028437398 0.030345993 0.03218856 0.033947073 0.03560787 0.037160873
        0.038599994 0.03991933 0.041088782 0.12557502 0.109468706 0.09349487
        0.07825466 0.06395184 0.05072168 0.038659673 0.027820272 0.018212363
        0.009800334 0.0025165405 0.0037098462 0.0088917855 0.012936275 0.015670542
        0.016909566 0.016549472 0.014657037 0.01150169 0.0075354297 0.0033320137
        0.0005948655 0.0039295675 0.0065087825 0.008323551 0.009255039 0.009116202
        0.00809131 0.007288888 0.0041277646 0.0016008022 0.000912436 0.0033520563
        0.005609151 0.007645209 0.009425423 0.010928491 0.012132564 0.013013326
        0.013560935 0.013796218 0.01376292 0.013519087 0.013132313 0.012675404
        0.012222158 0.01184316 0.011601891 0.011551641 0.01173346 0.012175739
        0.012893853 0.013886255 0.0151341185 0.016606392 0.018264454 0.020065956
        0.021967936 0.02392916 0.025911773 0.027882317 0.029812256 0.03167806
        0.033460986 0.03514675 0.03672473 0.038188398 0.039531432 0.040723637
        0.12320823 0.106750846 0.09051334 0.0751234 0.06077677 0.04759606
        0.035660416 0.02500586 0.015622803 0.007458865 0.00043246232 0.005537883
        0.010472174 0.014281358 0.016795274 0.01783184 0.017291164 0.015244346
        0.01196339 0.007899507 0.00362255 0.00035963205 0.0037376226 0.0063529373
        0.008200764 0.009162236 0.0090465285 0.008035504 0.007237996 0.0041122707
        0.0016125217 0.00087934366 0.0032998826 0.005538444 0.0075551695 0.009314597
        0.010795118 0.011974801 0.012829274 0.013348794 0.01355452 0.013490484
        0.013214844 0.012795137 0.012304006 0.011815112 0.01139905 0.011119587
        0.011030638 0.01117422 0.011579966 0.012264646 0.013228053 0.014452476
        0.015907645 0.017555332 0.019353194 0.021257935 0.023227723 0.025223918
        0.027212186 0.029163076 0.031052185 0.032859966 0.034571417 0.03617529
        0.03766456 0.039032422 0.040248625 0.12048793 0.10366538 0.08716328
        0.071639314 0.057278845 0.044188503 0.03242723 0.022008779 0.012901689
        0.005034103 0.0016914284 0.0073682694 0.012024203 0.015574592 0.017852237
        0.018678213 0.017956553 0.0157621 0.012368191 0.008223402 0.0038914667
        0.0001277783 0.0035328837 0.0061713583 0.00804323 0.009030034 0.008937251
        0.007943849 0.007158061 0.004077357 0.0016156341 0.00084370404 0.0032342095
        0.0054438813 0.007431784 0.009162 0.010612786 0.011762273 0.012586126
        0.013074718 0.013249427 0.013154342 0.012847394 0.012395652 0.011871166
        0.011347031 0.010893499 0.010574364 0.010444052 0.010545578 0.010909979
        0.01155568 0.012484148 0.013679127 0.015111447 0.016743528 0.018533219
        0.020436991 0.022412442 0.02442012 0.026424745 0.028395867 0.030308103
        0.032140993 0.033878718 0.03550933 0.037025224 0.03841905 0.0396605
        0.11740345 0.1002036 0.08343946 0.067802265 0.053463556 0.040509626
        0.028974615 0.018845841 0.010066628 0.002543262 0.0038390819 0.0091865035
        0.013535028 0.016804747 0.018831726 0.019440433 0.0185388 0.016204832
        0.012711943 0.008504168 0.004136845 9.9592435e-05 0.0033158504 0.005964112
        0.007850704 0.008857994 0.008787876 0.00781592 0.007048779 0.004022779
        0.0016099529 0.0008056363 0.003155089 0.005325456 0.0072749974 0.008967544
        0.010381388 0.011494875 0.012283818 0.012738725 0.012881089 0.012754833
        0.012417332 0.011934785 0.011378199 0.010819674 0.010328722 0.009968874
        0.009794892 0.009850756 0.0101690255 0.010770019 0.011657202 0.012816142
        0.014219128 0.015829546 0.01760568 0.019503923 0.021481372 0.023497771
        0.025516832 0.02750702 0.02944186 0.031299863 0.033064287 0.034722377
        0.03626586 0.037686773 0.03895473 0.11393962 0.09635303 0.07933394
        0.06361075 0.049336348 0.03657101 0.025318624 0.015535626 0.007136949
        5.0805934e-06 0.0059931716 0.010977044 0.014990957 0.01795989 0.019723443
        0.020109756 0.019030664 0.016566794 0.012990334 0.008738812 0.004356816
        0.00032148475 0.0030868887 0.005731126 0.0076228045 0.00864555 0.008597803
        0.0076512164 0.006909807 0.003948269 0.0015952814 0.0007652584 0.0030625632
        0.005183144 0.0070847305 0.008731107 0.010100775 0.011172453 0.011922219
        0.012340752 0.012449575 0.012292224 0.0119252 0.011413433 0.010826447
        0.0102348905 0.009707121 0.009306054 0.009086547 0.009093452 0.009360896
        0.00991129 0.010750407 0.0118660275 0.0132323075 0.0148139885 0.016570099
        0.018457187 0.020431982 0.022453457 0.02448429 0.02649177 0.028448224
        0.030331004 0.032122318 0.033808473 0.035380445 0.036829535 0.03812527
        0.11007596 0.09209697 0.07483593 0.059062164 0.044903103 0.032385718
        0.021477308 0.012098781 0.004133858 0.0025601275 0.008135107 0.012723353
        0.016377501 0.019027429 0.02051653 0.020676954 0.019424526 0.016841957
        0.013198896 0.008924309 0.004549574 0.00053702475 0.0028462207 0.0054721823
        0.007359008 0.008391997 0.008366315 0.007449157 0.006740766 0.0038535339
        0.0015714122 0.0007226871 0.0029566651 0.005016904 0.0068608797 0.008452536
        0.009770755 0.010794793 0.011501129 0.01188066 0.011954865 0.0117666945
        0.011371465 0.010832449 0.010217253 0.009594607 0.009031262 0.008589117
        0.008322815 0.008277891 0.008490013 0.00898381 0.009767648 0.010831911
        0.012153083 0.013697716 0.015426 0.017294955 0.019261153 0.021282898
        0.023321839 0.025344027 0.027320467 0.029227214 0.031045275 0.032759886
        0.034361124 0.035839457 0.03716424 0.10578558 0.08741383 0.069931686
        0.05415313 0.040170725 0.027968932 0.017471215 0.008558346 0.001080595
        0.0051304335 0.010245063 0.014407946 0.017679423 0.019994145 0.021199586
        0.021132335 0.019712375 0.017024023 0.013333022 0.009057617 0.004713395
        0.00074547564 0.0025939136 0.0051869103 0.007058639 0.008096489 0.008092574
        0.007209082 0.006541243 0.003738257 0.001538127 0.00067803834 0.0028374172
        0.0048266775 0.0066033183 0.008131643 0.009391093 0.010361627 0.011020274
        0.011358224 0.0113968495 0.011178331 0.01075651 0.010192631 0.009551946
        0.008900803 0.008303866 0.00782156 0.0075079226 0.0074088867 0.0075615263
        0.007992738 0.008713695 0.009717772 0.01098427 0.012482091 0.014173101
        0.016015232 0.017965224 0.0199809 0.02202295 0.024056144 0.026050057
        0.0279793 0.029823499 0.031566653 0.033197775 0.034706358 0.03606145
        0.10103358 0.082276225 0.064604275 0.048879948 0.03514796 0.023338739
        0.013323972 0.0049400954 0.0019974143 0.0076822713 0.012302021 0.016012458
        0.018880798 0.020846246 0.021760698 0.021465749 0.019885838 0.017106432
        0.013387968 0.009135693 0.004846656 0.0009462561 0.002329865 0.004874778
        0.006720868 0.00775803 0.00777562 0.006930247 0.006310794 0.0036020968
        0.0014951956 0.0006314276 0.0027048332 0.004612391 0.0063118963 0.007768212
        0.008961508 0.009872625 0.010479308 0.010773127 0.0107753165 0.010527115
        0.010080618 0.009494689 0.008831813 0.008155486 0.007527781 0.0070071453
        0.006646535 0.0064918883 0.0065814285 0.0069442405 0.007594444 0.008528733
        0.009729729 0.011169292 0.0128115965 0.01461607 0.01654009 0.018541321
        0.020579658 0.022618616 0.024626257 0.026575578 0.028444638 0.030215977
        0.03187735 0.033417094 0.03480374 0.09577464 0.076649666 0.058833428
        0.04323935 0.029846432 0.018517071 0.00906294 0.0012728819 0.005072435
        0.010190442 0.014283829 0.017517725 0.019965082 0.021569407 0.022187464
        0.021666605 0.019936157 0.01708236 0.013358872 0.009155514 0.004947858
        0.0011389612 0.0020537884 0.004535082 0.006344699 0.007375467 0.0074143605
        0.0066118203 0.0060489504 0.0034446844 0.001442374 0.0005829719 0.0025589198
        0.0043739546 0.005986442 0.007361995 0.00848168 0.009327403 0.009877807
        0.010124964 0.010089949 0.009812912 0.009343957 0.008739239 0.008058078
        0.0073606586 0.0067059565 0.0061498857 0.0057437653 0.005533032 0.0055566574
        0.0058456915 0.006417195 0.0072714267 0.0083948 0.009762777 0.011342589
        0.013095907 0.014981402 0.0169571 0.01898241 0.02101973 0.023035578
        0.025001192 0.026892839 0.028691348 0.030382965 0.03195462 0.033374008
        0.089949355 0.07049077 0.05259542 0.037229575 0.024282068 0.013530856
        0.0047199167 0.0024110258 0.008114333 0.012628155 0.016167305 0.018903874
        0.020915197 0.022148822 0.02246702 0.021723874 0.019854216 0.016944729
        0.013240767 0.0091141 0.005015655 0.001323388 0.0017651952 0.004166935
        0.0059289616 0.006947475 0.00700756 0.006252877 0.005755218 0.0032656211
        0.0013794015 0.0005327921 0.0023996788 0.00411127 0.0056267665 0.0069127185
        0.007951252 0.00872552 0.009215276 0.009413233 0.009340318 0.009035466
        0.008546565 0.007926769 0.007231863 0.006518287 0.0058414014 0.005254008
        0.0048051635 0.004539175 0.004495207 0.004705867 0.0051909764 0.005954448
        0.0069868616 0.0082679195 0.009768731 0.011454129 0.013284976 0.015220413
        0.017219935 0.019245137 0.021261081 0.023237156 0.025147608 0.02697125
        0.028692495 0.030296547 0.031749755 0.08347859 0.063744724 0.045863286
        0.030852137 0.018476997 0.008413377 0.00033186877 0.006075662 0.011090551
        0.0149671165 0.017928354 0.020150453 0.02171361 0.022569261 0.022586074
        0.021626102 0.019630523 0.01668621 0.013028589 0.009008541 0.005048889
        0.0014995657 0.0014633711 0.0037692543 0.005472298 0.006472544 0.006553829
        0.0058523896 0.005429084 0.0030644713 0.0013059957 0.00048101792 0.002227113
        0.0038242307 0.0052326676 0.0064200875 0.00736983 0.008066483 0.00849114
        0.008637338 0.008525883 0.008194392 0.007688342 0.0070576267 0.00635417
        0.0056302557 0.0049371365 0.0043239086 0.0038366835 0.0035179043 0.0034062082
        0.003535148 0.0039268937 0.0045888815 0.005516052 0.0066928766 0.008095179
        0.009691997 0.01144753 0.013323127 0.0152792735 0.017277407 0.019281464
        0.021259023 0.023182122 0.025027223 0.026776485 0.02841296 0.029900856
        0.07625438 0.0563418 0.038607597 0.024114566 0.0124620795 0.0032058335
        0.0040583448 0.009681165 0.013966157 0.017177684 0.019542139 0.021236567
        0.022342447 0.022815142 0.022530925 0.021361422 0.019255232 0.016299235
        0.012717212 0.008836038 0.005046632 0.0016677941 0.0011473489 0.0033407405
        0.004973144 0.0059489603 0.006051607 0.0054092165 0.0050700163 0.002840753
        0.0012218435 0.0004277957 0.002041233 0.003512733 0.0048039397 0.0058837957
        0.0067369966 0.0073497575 0.007704765 0.0077965953 0.0076459893 0.007289167
        0.006769035 0.0061319987 0.00542584 0.004698327 0.003996141 0.0033640906
        0.0028446314 0.0024775194 0.0022999877 0.002345699 0.0026384932 0.003188905
        0.003996146 0.0050497544 0.0063309683 0.0078141065 0.009468041 0.011257792
        0.0131462235 0.015095755 0.017069984 0.019035036 0.020960722 0.022820842
        0.024594795 0.02626289 0.027785923 0.06812461 0.048192397 0.030798731
        0.01703475 0.006280183 0.0020409545 0.008401363 0.013183723 0.016704025
        0.019229097 0.020983297 0.022141058 0.022783615 0.022870595 0.022287507
        0.02091756 0.018718129 0.015776008 0.0123014655 0.008593947 0.0050082407
        0.001828691 0.0008158725 0.0028798552 0.004429708 0.005374778 0.0054991376
        0.00492208 0.0046774643 0.0025939215 0.0011265887 0.00037330095 0.0018420715
        0.0031766878 0.004340387 0.0053035384 0.0060523264 0.0065747784 0.00685546
        0.0068902406 0.006699882 0.0063191457 0.0057882373 0.005149898 0.004447535
        0.0037240968 0.0030212877 0.0023790873 0.0018355858 0.0014269747 0.0011880713
        0.0011515969 0.001342093 0.001772421 0.0024455849 0.003356093 0.0044909613
        0.005830662 0.007350105 0.009019726 0.010806707 0.012676325 0.014593391
        0.016523635 0.018435108 0.020298848 0.022090988 0.023788314 0.025346054
        0.05886637 0.03918037 0.02241202 0.009647659 9.713422e-06 0.007264847
        0.012640931 0.01653572 0.019265126 0.021089783 0.022226213 0.022842709
        0.02301894 0.02271955 0.02184144 0.02028187 0.018008666 0.015108527
        0.011776186 0.008279843 0.004933426 0.0019832542 0.00046734986 0.0023847888
        0.0038399368 0.0047477833 0.004894439 0.0043895384 0.0042508557 0.0023233448
        0.0010198107 0.00031775804 0.0016297027 0.0028160436 0.0038418444 0.0046790363
        0.0053154062 0.0057409746 0.0059425007 0.005917451 0.005686718 0.005283565
        0.0047453973 0.004111161 0.0034197164 0.0027089594 0.0020152854 0.001373372
        0.00081628613 0.00037577 8.312194e-05 3.1121985e-05 5.7034227e-05 0.00036164522
        0.0008885703 0.0016366433 0.0025984296 0.0037608757 0.0051059164 0.006611094
        0.008250228 0.009994165 0.011811683 0.013670502 0.015538578 0.01738495
        0.019182332 0.020903112 0.022493139 0.04813763 0.029154217 0.013439058
        0.0020154836 0.006327747 0.012390971 0.016713887 0.019686142 0.021609008
        0.02272777 0.023245338 0.023320496 0.023030344 0.022345852 0.021178076
        0.019441344 0.017115973 0.014288618 0.011136264 0.007891599 0.004822344
        0.0021329352 9.979556e-05 0.0018534192 0.0032014775 0.004065448 0.0042352607
        0.0038099482 0.0037895895 0.0020282697 0.00090099795 0.00026146724 0.0014042704
        0.002430812 0.003308209 0.0040100673 0.0045258696 0.0048478004 0.004965162
        0.0048773745 0.004605597 0.0041815722 0.0036398387 0.0030154597 0.0023426437
        0.0016540785 0.0009806154 0.0003512613 0.00020650236 0.0006662078 0.0010012094
        0.0011845405 0.0011942283 0.0010164743 0.00064394454 7.4742355e-05 0.00068820646
        0.0016376743 0.002762595 0.0040484685 0.005477679 0.0070297113 0.008681322
        0.010406713 0.012178014 0.013965568 0.015740424 0.017470535 0.019085124
        0.03538574 0.017916854 0.003911495 0.00575776 0.012568293 0.017331006
        0.020550663 0.022581264 0.023694362 0.024111133 0.02401554 0.023553832
        0.022799997 0.021733336 0.020282542 0.01838264 0.016028864 0.013307959
        0.010376698 0.0074274675 0.004675679 0.0022797137 0.00028922298 0.0012832801
        0.0025116415 0.0033248845 0.0035190478 0.0031814252 0.00329304 0.0017077858
        0.0007695211 0.00020483136 0.0011660161 0.0020211001 0.0027394688 0.0032964963
        0.0036834301 0.0038947717 0.0039227516 0.0037691637 0.003455596 0.0030122611
        0.0024707871 0.0018623208 0.0012163759 0.00056036696 8.052564e-05 0.0006831978
        0.0012261636 0.0016889174 0.002050545 0.0022891106 0.002386293 0.0023301882
        0.0021136685 0.0017335463 0.0011900966 0.0004865866 0.00037122922 0.0013756293
        0.00251738 0.0037860076 0.0051697926 0.0066553704 0.008227165 0.009866112
        0.01155042 0.013249848 0.014862733 0.019667849 0.0052175443 0.006049482
        0.013507147 0.018596249 0.021983577 0.024076246 0.025165409 0.02547953
        0.025208304 0.024512285 0.023522658 0.022310333 0.020865783 0.019139655
        0.017091965 0.014735736 0.012157988 0.009492544 0.006886069 0.004494656
        0.0024260897 0.0007025598 0.00067160546 0.0017674422 0.0025228683 0.0027429652
        0.002501862 0.0027606222 0.0013608376 0.0006246555 0.00014833582 0.00091526285
        0.0015870949 0.002135694 0.0025382703 0.0027878755 0.0028814576 0.0028146012
        0.0025919671 0.0022357593 0.001774652 0.0012373512 0.0006510932 4.0723957e-05
        0.000571591 0.0011663465 0.0017264142 0.0022365076 0.0026825375 0.0030502395
        0.003324181 0.0034913898 0.0035434938 0.0034752674 0.0032841524 0.0029700445
        0.0025349937 0.0019827534 0.0013181579 0.00054634287 0.00032813466 0.0013022108
        0.0023750963 0.003548998 0.0048288913 0.0062238816 0.0077407076 0.009223783
        0.00071453274 0.009327186 0.016253404 0.021127447 0.024393065 0.026381468
        0.027351627 0.027514057 0.02704618 0.026101917 0.024815725 0.023302086
        0.021629585 0.019803524 0.017801482 0.015613342 0.0132733695 0.010869449
        0.008509791 0.0062895147 0.0042974283 0.0025857955 0.0011495095 1.3138208e-05
        0.0009665173 0.0016590399 0.0019082447 0.0017730569 0.0021927252 0.0009890875
        0.00046792047 9.124973e-05 0.0006521955 0.0011298775 0.0014987141 0.0017377428
        0.0018417839 0.0018102904 0.0016426311 0.0013468968 0.000946135 0.00046752067
        6.31061e-05 0.0006223194 0.0011898119 0.0017485234 0.0022844863 0.0027864377
        0.0032452422 0.0036533347 0.0040037 0.0042888355 0.0045028143 0.00464217
        0.004704866 0.0046904245 0.0046001403 0.004437168 0.00420647 0.0039146114
        0.003569435 0.0031796612 0.002754434 0.0023029356 0.0018338729 0.001355681
        0.0008744969 0.00040062767 0.00016316486
      </DataArray>
      <DataArray type="Float32" Name="aspect_ratio" format="ascii" RangeMin="1.0000879764556885" RangeMax="11.33700942993164">
        1.8203945 2.0711524 2.3198035 2.5811384 2.8585422 3.1535182
        3.466476 3.7969506 4.1435785 4.50394 4.8743086 5.249285
        5.621874 5.985174 6.334753 6.670236 6.995777 7.3187966
        7.6475415 7.9885826 8.343482 8.706813 9.069059 9.419553
        9.747145 10.0433035 10.289875 10.478647 10.90182 11.241614
        11.174271 11.006052 10.751848 10.41811 10.018469 9.565291
        9.071865 8.550817 8.014218 7.4732537 6.937561 6.4148035
        5.910772 5.4296093 4.9740663 4.545753 4.145379 3.7729633
        3.4280124 3.109666 2.8168044 2.5480995 2.3020837 2.0772617
        1.8721745 1.6854122 1.5156223 1.3615135 1.2218579 1.0954919
        1.0190386 1.1385627 1.2731183 1.4246414 1.5953209 1.7876266
        2.0043638 2.2486098 2.5403457 1.8397679 2.075968 2.3192122
        2.578776 2.8558364 3.1510665 3.4645262 3.7955809 4.1427727
        4.503628 4.874391 5.2496586 5.6224494 5.985878 6.3355055
        6.6709323 6.9962792 7.318962 7.647264 7.987817 8.342223
        8.705101 9.066943 9.417059 9.744342 10.040096 10.286244
        10.474619 10.897823 11.237644 11.170209 11.002044 10.748014
        10.41453 10.015198 9.562362 9.069292 8.548605 8.012361
        7.4717264 6.9363294 6.4138284 5.9100127 5.429028 4.9736266
        4.545423 4.145131 3.7727747 3.4278648 3.109546 2.816703
        2.5480125 2.3020086 2.0771985 1.872125 1.6853819 1.5156198
        1.3615505 1.221949 1.0956547 1.018774 1.1380839 1.2722942
        1.4232758 1.5931274 1.784195 1.999127 2.2407854 2.528787
        1.8601528 2.0845098 2.3220565 2.5790555 2.855106 3.150105
        3.4637215 3.795109 4.142686 4.503904 4.874965 5.2504435
        5.6233544 5.9868107 6.33636 6.671582 6.9965844 7.318798
        7.6465654 7.9865966 8.340538 8.703031 9.064555 9.414386
        9.741449 10.03692 10.282769 10.470847 10.894177 11.234094
        11.166598 10.998504 10.74465 10.41141 10.012367 9.559848
        9.067107 8.546746 8.0108185 7.470475 6.935336 6.4130583
        5.9094296 5.4285984 4.9733195 4.5452127 4.1449957 3.7726972
        3.4278328 3.1095521 2.8167453 2.5480924 2.3021288 2.0773623
        1.872337 1.6856482 1.5159491 1.3619535 1.2224382 1.0962437
        1.018045 1.1370094 1.2707267 1.4210156 1.5899094 1.7796758
        1.9928743 2.2322495 2.5171793 1.880869 2.098082 2.330179
        2.583739 2.8578346 3.151829 3.4650128 3.7962923 4.143927
        4.5052643 4.8764396 5.2519794 5.624861 5.9881663 6.3374214
        6.672193 6.996603 7.3181367 7.6452303 7.9846992 8.338238
        8.70047 9.061829 9.411526 9.738512 10.03389 10.279632
        10.467567 10.891156 11.231259 11.163748 10.995741 10.7420635
        10.409056 10.010282 9.558048 9.065597 8.545516 8.009848
        7.469733 6.934792 6.4126806 5.909189 5.428468 4.973279
        4.5452447 4.145089 3.7728455 3.4280345 3.1098118 2.8170729
        2.5485008 2.3026295 2.0779634 1.8730457 1.6864712 1.5168924
        1.3630226 1.2236369 1.0975738 1.0165348 1.1349679 1.2679992
        1.4174184 1.5852317 1.7736828 1.9853175 2.222859 2.505563
        1.9017489 2.1143682 2.3420246 2.5921116 2.8638105 3.156285
        3.4685736 3.7993672 4.146763 4.507992 4.879105 5.254561
        5.627271 5.990262 6.339026 6.6731257 6.9967203 7.3173847
        7.6436806 7.982552 8.335744 8.697832 9.059167 9.408878
        9.735927 10.031388 10.277197 10.46513 10.8891 11.229471
        11.161965 10.994043 10.74052 10.407706 10.009153 9.557151
        9.064926 8.545055 8.009567 7.469603 6.934782 6.412765
        5.9093475 5.4286847 4.973542 4.5455494 4.1454363 3.7732403
        3.4284883 3.11034 2.817697 2.549243 2.303507 2.0789874
        1.8742226 1.6878036 1.5183793 1.3646587 1.2254127 1.0994748
        1.0144653 1.1322844 1.2645655 1.4130841 1.5798341 1.7670481
        1.9772655 2.2131875 2.4939358 1.922765 2.1322882 2.3564804
        2.6034176 2.8726156 3.1632771 3.4743328 3.8043258 4.1512146
        4.512117 4.8829923 5.2582154 5.63061 5.993126 6.3412127
        6.674433 6.9970064 7.3166256 7.642008 7.980247 8.33314
        8.695191 9.056634 9.406495 9.73374 10.029447 10.275483
        10.463543 10.888005 11.228716 11.161235 10.993388 10.73999
        10.4073305 10.008946 9.557116 9.065052 8.545318 8.009933
        7.4700384 6.9352612 6.41327 5.9098654 5.4292097 4.974075
        4.546097 4.1460104 3.7738593 3.429174 3.111119 2.8185992
        2.5502973 2.3047338 2.0803971 1.875818 1.6895801 1.5203255
        1.3667572 1.2276402 1.1018027 1.0120054 1.1291779 1.2606939
        1.4083195 1.5740397 1.760077 1.9689634 2.2033744 2.482293
        1.9439335 2.1512992 2.3728125 2.617025 2.8838098 3.1725316
        3.4821284 3.8110707 4.1572175 4.517587 4.888051 5.2628894
        5.6348214 5.9967036 6.3439336 6.6760798 6.9974394 7.3158507
        7.640211 7.9777822 8.330418 8.692524 9.054196 9.404335
        9.731903 10.028007 10.27442 10.462728 10.887783 11.228897
        11.161457 10.993678 10.740378 10.407832 10.009568 9.557852
        9.0658865 8.546221 8.010866 7.470967 6.9361634 6.414134
        5.9106874 5.429994 4.974834 4.546849 4.146779 3.7746735
        3.430066 3.1121247 2.8197553 2.5516357 2.3062756 2.0821502
        1.8777783 1.6917342 1.5226514 1.3692259 1.2302169 1.1044493
        1.0092715 1.1257862 1.2565378 1.4032843 1.5680021 1.7529029
        1.96051 2.1934714 2.47063 1.9652846 2.171112 2.3905442
        2.6324468 2.8969975 3.183764 3.4917665 3.819468 4.1646714
        4.5243196 4.894202 5.2685037 5.6398253 6.000918 6.3471193
        6.6780076 6.9979744 7.3150263 7.6382637 7.9751325 8.327544
        8.689791 9.051803 9.402338 9.7303505 10.02699 10.27392
        10.462592 10.8883295 11.229902 11.162524 10.994803 10.741578
        10.409109 10.01092 9.559265 9.067341 8.54768 8.012288
        7.4723167 6.9374228 6.4152975 5.911761 5.4309916 4.9757786
        4.5477695 4.1477118 3.7756565 3.431141 3.1133337 2.8211398
        2.5532296 2.308098 2.0842037 1.8800519 1.6942052 1.5252881
        1.3719895 1.2330648 1.1073371 1.0063415 1.1221957 1.252188
        1.3980678 1.5618029 1.7455935 1.9519536 2.1835034 2.458943
        1.9868529 2.1915658 2.4093647 2.6493206 2.9118457 3.1967075
        3.5030477 3.8293705 4.1734624 4.532218 4.9013586 5.2749734
        5.645539 6.005689 6.3506975 6.6801558 6.998564 7.3141165
        7.6361375 7.9722714 8.324489 8.686951 9.049404 9.400447
        9.729019 10.026325 10.273901 10.463045 10.889546 11.231629
        11.164331 10.996666 10.743492 10.411067 10.012911 9.561271
        9.069333 8.54962 8.014129 7.4740243 6.938982 6.4167104
        5.9130406 5.432163 4.976874 4.54883 4.148782 3.776785
        3.4323761 3.1147234 2.8227282 2.5550501 2.3101664 2.0865169
        1.8825914 1.69694 1.5281781 1.3749889 1.2361255 1.1104115
        1.0032682 1.1184624 1.2477002 1.392723 1.5554891 1.738187
        1.9433208 2.1734824 2.4472291 2.0086746 2.212569 2.4290683
        2.667378 2.9280818 3.2111237 3.5157795 3.8406265 4.1834693
        4.54118 4.909428 5.2822113 5.651879 6.0109396 6.354599
        6.682467 6.9991627 7.313088 7.6338077 7.9691763 8.321224
        8.68397 9.046959 9.398613 9.727853 10.025948 10.27429
        10.46401 10.891347 11.233985 11.166787 10.999172 10.746033
        10.41362 10.01546 9.563791 9.071793 8.551973 8.016328
        7.4760337 6.9407916 6.4183273 5.914487 5.4334726 4.9780903
        4.5500035 4.1499667 3.7780375 3.4337513 3.1162727 2.8244963
        2.5570693 2.3124483 2.0890524 1.885355 1.6998935 1.5312749
        1.3781782 1.2393557 1.1136336 1.000088 1.1146233 1.2431107
        1.3872831 1.5490894 1.730706 1.9346269 2.1634154 2.4354854
        2.030786 2.2340705 2.449517 2.686421 2.9454868 3.2268045
        3.5297816 3.853087 4.1945686 4.551101 4.9183164 5.2901306
        5.6587634 6.016595 6.358759 6.684887 6.9997296 7.311911
        7.6312523 7.9658284 8.31773 8.680823 9.044434 9.396795
        9.726805 10.025802 10.275024 10.465416 10.893655 11.236887
        11.169809 11.002245 10.749122 10.416697 10.018497 9.56676
        9.074656 8.554682 8.018831 7.4782977 6.9428086 6.420111
        5.9160676 5.4348927 4.979403 4.551268 4.1512465 3.779395
        3.435247 3.1179602 2.826421 2.5592608 2.3149135 2.0917768
        1.8883065 1.7030281 1.5345412 1.3815219 1.2427231 1.1169752
        1.0031841 1.1107036 1.2384435 1.3817703 1.5426227 1.7231653
        1.9258819 2.1533067 2.4237094 2.0532231 2.2560434 2.4706173
        2.706302 2.9638839 3.24357 3.5448887 3.8666077 4.2066374
        4.561874 4.9279284 5.298645 5.666113 6.0225825 6.3631153
        6.687366 7.0002284 7.3105617 7.6284556 7.962215 8.3139925
        8.67749 9.041801 9.394961 9.725835 10.025838 10.276047
        10.467201 10.8963995 11.240262 11.173326 11.00581 10.752689
        10.420227 10.021958 9.570117 9.077867 8.557695 8.021592
        7.480774 6.944996 6.422029 5.917753 5.4363976 4.980789
        4.5526032 4.1526017 3.7808394 3.4368443 3.1197662 2.8284798
        2.561599 2.3175342 2.09466 1.8914148 1.7063128 1.5379473
        1.3849925 1.2462035 1.1204158 1.0065418 1.1067212 1.2337154
        1.3761992 1.5361016 1.7155745 1.9170917 2.1431587 2.4118993
        2.0760217 2.278476 2.492305 2.7269099 2.9831312 3.261266
        3.5609505 3.8810515 4.219554 4.5733905 4.938169 5.3076673
        5.67385 6.0288343 6.367609 6.6898575 7.0006247 7.3090167
        7.625404 7.9583263 8.309999 8.673955 9.039042 9.393082
        9.724909 10.026017 10.277309 10.469313 10.899522 11.244042
        11.177267 11.009803 10.756673 10.424151 10.025786 9.573809
        9.081375 8.5609665 8.0245695 7.483425 6.94732 6.4240513
        5.9195185 5.4379654 4.9822288 4.553992 4.154016 3.7823539
        3.438526 3.1216712 2.8306515 2.5640612 2.3202856 2.0976758
        1.8946534 1.7097218 1.541469 1.3885684 1.2497785 1.1239401
        1.0099733 1.1026888 1.2289383 1.3705807 1.5295348 1.7079402
        1.9082607 2.1329722 2.400053 2.0992165 2.3013663 2.5145361
        2.7481601 3.003112 3.2797594 3.5778303 3.8962884 4.233198
        4.5855446 4.9489417 5.3171115 5.681897 6.0352826 6.3721843
        6.6923184 7.000888 7.3072577 7.622086 7.9541564 8.305746
        8.670209 9.036139 9.391136 9.723999 10.026303 10.2787695
        10.4717 10.902965 11.24817 11.181576 11.014164 10.761014
        10.428416 10.029929 9.577785 9.085136 8.564453 8.027725
        7.4862175 6.9497514 6.4261527 5.9213405 5.439575 4.9837046
        4.555416 4.1554728 3.783922 3.4402742 3.1236567 2.8329158
        2.566625 2.3231442 2.1008008 1.8979995 1.7132337 1.5450869
        1.3922328 1.2534337 1.1275365 1.0134692 1.0986162 1.2241211
        1.3649223 1.5229287 1.7002673 1.8993917 2.1227484 2.3881688
        2.122843 2.3247192 2.5372803 2.7699864 3.023731 3.2989345
        3.5954044 3.9121952 4.2474556 4.59823 4.9601502 5.326892
        5.6901784 6.041862 6.3767877 6.6947074 7.0009904 7.3052673
        7.618495 7.9497023 8.3012295 8.666245 9.033081 9.389107
        9.723082 10.026663 10.280387 10.4743185 10.906676 11.252586
        11.186193 11.018839 10.76566 10.432969 10.034339 9.582002
        9.089108 8.568119 8.031026 7.4891205 6.952264 6.428309
        5.923199 5.4412093 4.985199 4.556861 4.156957 3.7855275
        3.4420726 3.1257048 2.8352535 2.5692708 2.3260899 2.1040146
        1.9014335 1.7168304 1.5487849 1.3959719 1.2571577 1.1311961
        1.0170227 1.0945107 1.2192702 1.3592297 1.5162878 1.6925589
        1.8904864 2.112487 2.3762453 2.146936 2.348544 2.5605166
        2.7923365 3.0449073 3.3186893 3.6135592 3.9286559 4.262213
        4.6113415 4.9717007 5.3369236 5.69862 6.0485096 6.3813677
        6.6969857 7.0009055 7.303032 7.6146245 7.944963 8.296449
        8.662061 9.02986 9.386979 9.722135 10.02707 10.282128
        10.477128 10.910612 11.257241 11.19107 11.023775 10.770561
        10.437762 10.038969 9.586416 9.093251 8.571927 8.034438
        7.492107 6.9548326 6.4305 5.925075 5.442851 4.986697
        4.5583115 4.1584535 3.7871552 3.4439046 3.1277976 2.8376462
        2.5719795 2.3291037 2.107299 1.9049385 1.7204964 1.5525496
        1.3997743 1.2609415 1.1349117 1.0206286 1.0903778 1.2143909
        1.3535074 1.5096157 1.6848177 1.8815461 2.1021886 2.3642805
        2.1715307 2.3728526 2.5842307 2.8151677 3.066571 3.3389332
        3.63219 3.9455597 4.277362 4.6247764 4.9834976 5.347122
        5.707147 6.055163 6.3858747 6.6991177 7.0006104 7.300539
        7.6104712 7.93994 8.291406 8.657655 9.02647 9.384741
        9.72114 10.027498 10.28396 10.480091 10.914725 11.262086
        11.196154 11.028925 10.775669 10.442752 10.043778 9.590989
        9.09753 8.575845 8.037934 7.4951506 6.9574347 6.432705
        5.9269514 5.444484 4.9881845 4.5597534 4.1599474 3.7887902
        3.4457543 3.129919 2.8400767 2.5747335 2.332168 2.110638
        1.9084992 1.7242186 1.5563698 1.4036307 1.2647773 1.1386772
        1.0242823 1.0862222 1.2094871 1.3477587 1.502915 1.6770452
        1.8725721 2.091853 2.3522735 2.1966622 2.3976598 2.6084125
        2.8384433 3.0886607 3.3595827 3.6511984 3.9628015 4.292795
        4.6384335 4.9954476 5.357404 5.7156887 6.0617623 6.3902617
        6.701068 7.000083 7.297778 7.606034 7.9346366 8.286106
        8.65303 9.02291 9.382385 9.720084 10.0279255 10.285855
        10.483172 10.918977 11.267075 11.2014 11.034242 10.780942
        10.447894 10.048726 9.595684 9.10191 8.579841 8.041485
        7.4982266 6.9600496 6.4349065 5.928812 5.446095 4.989647
        4.561173 4.1614256 3.7904174 3.447606 3.1320522 2.842528
        2.577516 2.3352675 2.1140158 1.9121025 1.7279851 1.5602354
        1.4075329 1.2686589 1.142488 1.0279803 1.0820475 1.2045621
        1.3419863 1.4961879 1.6692432 1.8635646 2.0814793 2.3402228
        2.2223663 2.422981 2.6330543 2.862131 3.1111195 3.3805602
        3.6704915 3.9802794 4.3084097 4.652212 5.007459 5.3676877
        5.724174 6.068249 6.394483 6.702805 6.9993043 7.294742
        7.601313 7.9290586 8.280556 8.648191 9.019178 9.379906
        9.718954 10.028333 10.287785 10.486339 10.923327 11.272163
        11.206763 11.039682 10.786334 10.453149 10.053774 9.600464
        9.106358 8.583887 8.045066 7.5013137 6.962658 6.437087
        5.930641 5.4476686 4.991071 4.5625567 4.1628737 3.792023
        3.4494452 3.1341817 2.8449845 2.5803115 2.3383865 2.1174192
        1.9157356 1.7317853 1.5641373 1.4114736 1.2725805 1.1463398
        1.0317197 1.077857 1.1996188 1.3361928 1.4894363 1.6614128
        1.8545243 2.0710676 2.3281271 2.248679 2.4488323 2.6581497
        2.8862011 3.133894 3.4017913 3.6899793 3.9978943 4.3241043
        4.6660147 5.0194407 5.3778915 5.7325335 6.074567 6.3984957
        6.704299 6.9982567 7.291424 7.596311 7.9232135 8.274764
        8.643146 9.015279 9.377298 9.717737 10.028701 10.289723
        10.48956 10.927739 11.277311 11.212202 11.045203 10.791806
        10.458476 10.058886 9.605294 9.110843 8.5879545 8.048653
        7.50439 6.965241 6.4392304 5.932426 5.449193 4.992445
        4.563893 4.164279 3.7935922 3.4512563 3.136292 2.8474305
        2.5831046 2.3415108 2.1208346 1.919387 1.735609 1.5680674
        1.4154463 1.276537 1.1502285 1.0354974 1.0736537 1.1946598
        1.3303801 1.4826616 1.6535549 1.8454515 2.0606174 2.3159852
        2.2756367 2.47523 2.683693 2.9106233 3.1569312 3.4232035
        3.709574 4.0155487 4.339779 4.679744 5.031303 5.387937
        5.7407002 6.080662 6.4022584 6.705522 6.9969254 7.28782
        7.591032 7.9171104 8.268741 8.637899 9.011214 9.37456
        9.716427 10.029014 10.291649 10.4928055 10.932176 11.282478
        11.217674 11.050765 10.797318 10.46384 10.064025 9.610144
        9.1153345 8.592016 8.052219 7.507434 6.967781 6.441322
        5.934152 5.4506555 4.993757 4.5651684 4.165628 3.795112
        3.453025 3.1383681 2.8498507 2.5858808 2.3446264 2.1242497
        1.9230454 1.7394468 1.5720177 1.4194443 1.2805232 1.1541505
        1.039311 1.0694401 1.1896873 1.3245503 1.4758655 1.6456704
        1.8363464 2.0501287 2.303796 2.3032765 2.5021899 2.7096765
        2.9353669 3.180178 3.4447234 3.7291875 4.033147 4.3553343
        4.693305 5.042959 5.3977475 5.7486095 6.0864816 6.405732
        6.706448 6.9952974 7.2839284 7.5854826 7.9107604 8.262499
        8.632464 9.00699 9.371693 9.7150135 10.029255 10.293538
        10.496048 10.9366045 11.287624 11.22314 11.056327 10.802832
        10.469201 10.069158 9.614979 9.119804 8.596047 8.055745
        7.510427 6.9702616 6.4433475 5.9358068 5.4520445 4.994994
        4.5663724 4.166909 3.7965684 3.4547372 3.1403954 2.8522303
        2.5886252 2.3477197 2.1276517 1.9266999 1.7432889 1.5759802
        1.4234614 1.2845343 1.1581022 1.0431579 1.0652189 1.1847035
        1.318705 1.4690491 1.6377603 1.8272095 2.0396006 2.2915585
        2.3316364 2.5297277 2.7360911 2.9603984 3.2035782 3.4662764
        3.7487311 4.0505924 4.3706737 4.706604 5.0543227 5.407247
        5.7561984 6.091976 6.408881 6.7070546 6.9933624 7.279749
        7.579671 7.9041767 8.256052 8.626853 9.002615 9.368694
        9.713492 10.029413 10.295369 10.499258 10.940991 11.292712
        11.22856 11.061851 10.808308 10.474525 10.074249 9.619769
        9.124224 8.600021 8.059208 7.5133505 6.9726663 6.4452925
        5.937379 5.4533486 4.996147 4.5674925 4.1681094 3.7979488
        3.456379 3.1423588 2.8545542 2.5913234 2.350777 2.1310277
        1.930339 1.7471259 1.5799469 1.4274912 1.2885654 1.1620796
        1.0470353 1.0609926 1.1797107 1.3128462 1.462214 1.6298255
        1.818041 2.029033 2.2792714 2.3607547 2.5578566 2.7629251
        2.9856808 3.2270722 3.4877841 3.7681143 4.0677876 4.3856993
        4.719549 5.065311 5.4163637 5.7634068 6.097099 6.4116716
        6.7073216 6.9911118 7.2752843 7.573608 7.8973746 8.249417
        8.621077 8.9980955 9.365568 9.711857 10.029473 10.297123
        10.502411 10.945303 11.297705 11.233897 11.067297 10.81371
        10.479775 10.079267 9.624483 9.128565 8.603913 8.062586
        7.5161858 6.97498 6.4471445 5.938856 5.4545574 4.9972053
        4.5685186 4.169218 3.79924 3.457936 3.144244 2.856808
        2.5939605 2.3537836 2.134365 1.933951 1.7509474 1.5839092
        1.4315265 1.2926106 1.1660787 1.0509402 1.056764 1.1747116
        1.306976 1.4553617 1.621867 1.8088412 2.0184257 2.2669337
        2.3906703 2.5865886 2.790162 3.0111713 3.2505944 3.5091639
        3.7872431 4.084635 4.400315 4.732049 5.075842 5.4250283
        5.770178 6.1018057 6.414073 6.70723 6.9885397 7.2705393
        7.5673056 7.890371 8.242611 8.615153 8.993443 9.362318
        9.710104 10.029424 10.298778 10.50548 10.949507 11.302565
        11.239112 11.072629 10.819002 10.484918 10.084177 9.629091
        9.132799 8.607699 8.065857 7.5189147 6.9771876 6.4488907
        5.940228 5.4556613 4.9981585 4.5694413 4.170223 3.8004305
        3.4593956 3.1460366 2.8589761 2.5965216 2.3567252 2.1376498
        1.9375236 1.7547427 1.5878577 1.4355599 1.2966642 1.1700948
        1.0548692 1.0525362 1.1697086 1.3010966 1.4484941 1.6138859
        1.799611 2.0077784 2.2545445 2.4214225 2.6159322 2.8177793
        3.0368197 3.274072 3.5303266 3.8060193 4.101033 4.4144225
        4.744015 5.085838 5.4331737 5.7764573 6.1060553 6.416056
        6.706765 6.9856434 7.2655215 7.560779 7.883185 8.235654
        8.6090975 8.9886675 9.358948 9.70823 10.029253 10.300316
        10.508438 10.953572 11.307256 11.244167 11.077808 10.824146
        10.489916 10.088947 9.633561 9.1369 8.611356 8.069002
        7.5215197 6.9792747 6.4505186 5.941484 5.456651 4.9989977
        4.5702496 4.171115 3.801508 3.4607441 3.1477222 2.8610437
        2.598991 2.3595867 2.1408675 1.9410434 1.7584997 1.5917825
        1.4395825 1.3007191 1.1741225 1.0588182 1.0483128 1.1647048
        1.2952107 1.4416132 1.6058838 1.7903508 1.9970912 2.2421026
        2.4530509 2.6458924 2.845748 3.062567 3.2974226 3.5511754
        3.82434 4.116881 4.427927 4.7553606 5.0952234 5.440737
        5.7821946 6.10981 6.4175963 6.705915 6.9824224 7.26024
        7.554046 7.8758383 8.228566 8.602928 8.983783 9.355463
        9.706232 10.02895 10.301717 10.511261 10.957466 11.311742
        11.249026 11.082799 10.829107 10.494736 10.093544 9.637865
        9.140841 8.614858 8.071999 7.5239835 6.9812264 6.452017
        5.942614 5.457517 4.9997153 4.5709357 4.1718836 3.802461
        3.461969 3.1492865 2.8629954 2.6013525 2.3623514 2.144002
        1.9444954 1.7622051 1.5956714 1.4435847 1.3047673 1.1781554
        1.0627825 1.0440975 1.1597041 1.2893214 1.4347217 1.5978626
        1.781062 1.9863642 2.2296073 2.4855957 2.6764688 2.8740287
        3.088342 3.3205533 3.5716052 3.8420973 4.132074 4.440733
        4.7660017 5.103926 5.4476585 5.787343 6.1130347 6.418672
        6.704669 6.978879 7.2547083 7.5471263 7.8683543 8.221373
        8.596664 8.978803 9.35187 9.704107 10.028503 10.302961
        10.513921 10.961157 11.315987 11.253652 11.087562 10.833847
        10.499343 10.097936 9.641972 9.144592 8.61818 8.074827
        7.5262885 6.9830284 6.4533734 5.9436088 5.458252 5.0003023
        4.5714912 4.172519 3.8032794 3.4630575 3.1507154 2.8648152
        2.6035898 2.3650026 2.1470366 1.9478635 1.7658439 1.5995113
        1.4475547 1.308799 1.1821859 1.0667561 1.0398955 1.1547108
        1.2834327 1.4278226 1.5898247 1.7717459 1.9755979 2.217058
        2.5190966 2.7076542 2.90257 3.1140592 3.3433573 3.5915005
        3.8591762 4.146506 4.452746 4.775857 5.111879 5.4538836
        5.7918587 6.115699 6.4192634 6.7030206 6.975017 7.24894
        7.540042 7.8607583 8.214098 8.590328 8.97374 9.348174
        9.701856 10.027903 10.304031 10.516393 10.964612 11.319953
        11.258003 11.092059 10.838329 10.5037 10.102088 9.645849
        9.148128 8.6213 8.077465 7.528417 6.9846663 6.454577
        5.944459 5.458847 5.000752 4.571908 4.173014 3.8039532
        3.463998 3.151995 2.8664877 2.605685 2.3675213 2.1499522
        1.951129 1.7693983 1.6032863 1.4514788 1.3128028 1.1862043
        1.0707318 1.0357128 1.1497304 1.2775495 1.4209201 1.581773
        1.7624044 1.964793 2.2044537 2.5535932 2.7394319 2.9313052
        3.139616 3.3657122 3.6107342 3.8754568 4.160069 4.463873
        4.7848496 5.1190176 5.4593616 5.7957034 6.1177735 6.419354
        6.700966 6.9708457 7.2429543 7.532818 7.853079 8.206768
        8.583941 8.968611 9.344384 9.699475 10.027138 10.304905
        10.518648 10.967798 11.323604 11.262045 11.096253 10.842517
        10.507773 10.105967 9.6494665 9.151418 8.62419 8.079891
        7.5303507 6.9861255 6.455615 5.945154 5.459295 5.001057
        4.5721807 4.1733603 3.8044732 3.4647799 3.153112 2.8679967
        2.60762 2.3698878 2.152728 1.9542711 1.7728486 1.6069776
        1.4553404 1.316764 1.1901989 1.0746998 1.0315571 1.1447701
        1.2716779 1.4140195 1.5737119 1.7530406 1.9539505 2.191794
        2.5891235 2.7717717 2.960146 3.164887 3.3874772 3.6291678
        3.8908136 4.1726556 4.4740252 4.7929068 5.1252856 5.464046
        5.7988415 6.1192355 6.418932 6.6985035 6.9663744 7.2367706
        7.525482 7.845347 8.199413 8.577526 8.963431 9.340507
        9.696964 10.0261965 10.305563 10.52066 10.970681 11.3269005
        11.265736 11.100104 10.84637 10.511524 10.109537 9.652792
        9.154433 8.626826 8.082083 7.5320706 6.987391 6.4564767
        5.9456863 5.459588 5.001212 4.572302 4.1735516 3.8048315
        3.4653926 3.1540532 2.869326 2.6093764 2.3720813 2.1553416
        1.9572662 1.7761712 1.610563 1.4591191 1.3206651 1.1941547
        1.0786482 1.0274379 1.139839 1.2658261 1.4071275 1.5656466
        1.7436578 1.9430724 2.179078 2.6257248 2.8046262 2.9889774
        3.1897192 3.4084904 3.64665 3.9051156 4.184159 4.483118
        4.799962 5.1306295 5.467897 5.801243 6.120064 6.417986
        6.6956353 6.961617 7.2304134 7.5180655 7.837595 8.192064
        8.57111 8.958217 9.33655 9.694322 10.025068 10.305983
        10.522398 10.973226 11.329805 11.269035 11.103572 10.84985
        10.5149145 10.112763 9.655791 9.157145 8.62918 8.084017
        7.5335574 6.988446 6.4571486 5.9460454 5.459719 5.001211
        4.5722675 4.1735826 3.8050215 3.465827 3.154807 2.8704612
        2.610935 2.3740792 2.1577678 1.9600878 1.779339 1.6140162
        1.46279 1.3244838 1.1980524 1.0825609 1.0233681 1.1349491
        1.2600051 1.4002539 1.5575848 1.7342615 1.9321616 2.1663063
        2.6634312 2.837923 3.0176482 3.2139266 3.428567 3.6630177
        3.91823 4.194475 4.491072 4.8059564 5.1350055 5.4708796
        5.8028817 6.1202416 6.4165106 6.692366 6.9565897 7.2239094
        7.5106015 7.82986 8.184752 8.564715 8.952986 9.3325205
        9.691545 10.02374 10.306143 10.523832 10.975396 11.332276
        11.271903 11.106613 10.852915 10.517906 10.115609 9.65843
        9.159517 8.631223 8.085669 7.53479 6.9892745 6.457618
        5.946221 5.4596815 5.001048 4.572073 4.1734486 3.8050375
        3.4660757 3.1553624 2.8713868 2.6122768 2.3758583 2.1599793
        1.9627057 1.7823201 1.617305 1.4663223 1.3281914 1.2018667
        1.0864167 1.0193646 1.1301166 1.25423 1.3934115 1.549537
        1.7248594 1.9212216 2.1534784 2.7022746 2.8715525 3.045958
        3.2372818 3.447496 3.6780972 3.9300232 4.203506 4.4978175
        4.8108387 5.1383753 5.472966 5.803737 6.1197557 6.4145017
        6.6887035 6.951313 7.2172894 7.503128 7.822181 8.177516
        8.5583725 8.947755 9.328426 9.688634 10.0222 10.306018
        10.52493 10.977155 11.334273 11.274296 11.109187 10.855524
        10.520457 10.118033 9.660672 9.16152 8.632924 8.087011
        7.5357466 6.989858 6.4578705 5.9462028 5.4594665 5.000718
        4.5717134 4.1731462 3.8048754 3.4661324 3.1557105 2.8720896
        2.6133838 2.3773952 2.1619477 1.9650868 1.7850783 1.6203912
        1.4696779 1.3317518 1.2055651 1.0901872 1.0154508 1.1253644
        1.2485218 1.386619 1.5415183 1.7154621 1.9102589 2.140595
        2.742282 2.9053495 3.0736406 3.2595096 3.4650426 3.691709
        3.940367 4.211164 4.5032954 4.8145695 5.140712 5.474136
        5.803795 6.1185985 6.41196 6.68466 6.9458113 7.210589
        7.495689 7.8146024 8.170392 8.552111 8.942545 9.324279
        9.685588 10.020434 10.305586 10.525659 10.978462 11.335753
        11.27617 11.111248 10.857634 10.522527 10.119998 9.662479
        9.163117 8.634253 8.0880165 7.536403 6.990177 6.4578905
        5.945979 5.459066 5.000215 4.571186 4.1726723 3.8045323
        3.4659932 3.1558435 2.8725584 2.6142387 2.3786662 2.163643
        1.9671948 1.7875719 1.6232297 1.47281 1.3351187 1.2091035
        1.093833 1.0116593 1.120725 1.2429115 1.3799039 1.5335516
        1.7060864 1.8992826 2.1276567 2.7834766 2.9390628 3.1003397
        3.2802782 3.4809504 3.7036734 3.949144 4.217376 4.5074615
        4.817124 5.141999 5.4743786 5.8030477 6.1167684 6.408893
        6.680255 6.940117 7.2038517 7.4883337 7.807176 8.163427
        8.545965 8.937378 9.320088 9.68241 10.018436 10.304824
        10.525987 10.979283 11.336677 11.277482 11.112753 10.8592
        10.524072 10.121462 9.663813 9.164272 8.635175 8.0886545
        7.536734 6.990211 6.4576616 5.9455376 5.4584713 4.9995337
        4.570487 4.172026 3.8040073 3.4656558 3.1557577 2.8727841
        2.614827 2.3796494 2.1650345 1.9689913 1.7897549 1.6257678
        1.4756614 1.3382328 1.2124239 1.0972996 1.0080364 1.1162463
        1.2374456 1.3733089 1.5256724 1.6967586 1.8883075 2.1146653
        2.8258781 2.9722989 3.1255796 3.2992005 3.494952 3.7138236
        3.9562585 4.2220936 4.5102963 4.8184953 5.142239 5.473699
        5.801502 6.1142755 6.405319 6.6755176 6.934273 7.197134
        7.4811277 7.7999663 8.156678 8.539982 8.932288 9.315878
        9.679113 10.016202 10.303717 10.5258875 10.979586 11.337009
        11.278196 11.113665 10.860185 10.525055 10.122388 9.664637
        9.16495 8.635658 8.088899 7.536715 6.9899387 6.457167
        5.9448647 5.4576735 4.9986687 4.569615 4.171207 3.8033013
        3.465121 3.1554515 2.872762 2.615137 2.3803263 2.166095
        1.9704379 1.7915777 1.627946 1.4781637 1.3410196 1.215449
        1.1005112 1.0046506 1.1120023 1.2321991 1.3669045 1.5179415
        1.6875241 1.8773594 2.1016235 2.8695083 3.004421 3.1487298
        3.3158422 3.5067914 3.7220259 3.9616537 4.225304 4.511812
        4.818711 5.1414623 5.4721265 5.799188 6.111153 6.40128
        6.670502 6.9283485 7.1905174 7.47416 7.7930636 8.150227
        8.534228 8.927329 9.311689 9.67573 10.013753 10.302269
        10.525355 10.97936 11.336736 11.278294 11.113961 10.860564
        10.525451 10.122749 9.664924 9.165126 8.635678 8.088723
        7.5363245 6.9893427 6.456393 5.9439507 5.456665 4.9976153
        4.5685673 4.1702166 3.8024175 3.464393 3.1549277 2.8724914
        2.6151638 2.3806827 2.1667998 1.9714984 1.7929912 1.6297003
        1.4802389 1.3433888 1.2180784 1.103362 1.0016031 1.1081092
        1.2272975 1.3608156 1.5104713 1.67847 1.8664882 2.088535
        2.9144084 3.0343578 3.1689856 3.329763 3.5162666 3.7282145
        3.9653387 4.227059 4.5120816 4.8178506 5.1397505 5.469742
        5.7961845 6.107483 6.396865 6.665313 6.9224634 7.1841373
        7.4675756 7.786612 8.144207 8.528824 8.922608 9.307617
        9.672346 10.011157 10.300534 10.524428 10.978641 11.335887
        11.277799 11.11366 10.860353 10.525268 10.12255 9.664676
        9.164796 8.635229 8.088122 7.535557 6.9884167 6.455333
        5.9427915 5.455445 4.996375 4.567349 4.16906 3.8013637
        3.46348 3.1541946 2.8719778 2.6149073 2.3807116 2.167132
        1.972143 1.7939497 1.6309677 1.4818044 1.3452364 1.220188
        1.10571 1.0009589 1.1047542 1.2229624 1.355285 1.503501
        1.669797 1.855815 2.0754063 2.9606922 3.0602202 3.1854117
        3.340614 3.5233073 3.7324533 3.9674447 4.227523 4.5112867
        4.8161044 5.1372943 5.466733 5.792679 6.103457 6.3922777
        6.660169 6.9168577 7.178251 7.461643 7.780882 8.138879
        8.524016 8.918357 9.303884 9.669177 10.008613 10.298693
        10.5232725 10.977591 11.334624 11.276857 11.112897 10.859673
        10.524616 10.121889 9.663978 9.164033 8.634374 8.08715
        7.534458 6.9872017 6.4540253 5.9414196 5.454042 4.9949756
        4.565985 4.1677647 3.8001654 3.462408 3.153277 2.8712437
        2.6143847 2.3804224 2.1670907 1.9723581 1.7944237 1.6316988
        1.4827867 1.3464609 1.2216439 1.1073854 1.0028423 1.102221
        1.2195803 1.3508075 1.4976114 1.662097 1.8457843 2.062246
        3.0086987 3.0838697 3.199963 3.3500557 3.5292819 3.7358763
        3.9689257 4.227511 4.510133 4.814091 5.134642 5.4635863
        5.789092 6.0994167 6.3877597 6.655197 6.9115343 7.172749
        7.4561715 7.7756453 8.1340275 8.519639 8.914479 9.300467
        9.666279 10.006273 10.296994 10.522214 10.976612 11.333407
        11.275948 11.112152 10.858995 10.523951 10.121197 9.663229
        9.163205 8.633444 8.0861 7.533284 6.9859166 6.4526534
        5.9399915 5.4525895 4.9935308 4.5645785 4.1664243 3.7989173
        3.4612763 3.1522846 2.870415 2.6137424 2.379985 2.166871
        1.9723631 1.7946564 1.6321582 1.483468 1.3473576 1.222748
        1.1086895 1.0043409 1.1001701 1.2167797 1.3470005 1.4924414
        1.655076 1.8362211 2.0490458
      </DataArray>
      <DataArray type="Float32" Name="jacobian" format="ascii" RangeMin="0.0014171299990266562" RangeMax="0.05033668503165245">
        0.0065534157 0.006951417 0.0074270237 0.0079810405 0.008604567 0.009294926
        0.010051755 0.010875398 0.011766089 0.012723338 0.0137452595 0.014827502
        0.015962534 0.017141113 0.018354421 0.019594764 0.020855121 0.022127114
        0.023398394 0.024651213 0.025859967 0.026991962 0.02801443 0.028900791
        0.02963013 0.030192135 0.03057102 0.030788844 0.03173402 0.032489445
        0.032166794 0.031660408 0.031003635 0.030197492 0.029259214 0.02820094
        0.027038455 0.025788276 0.024468808 0.023099821 0.02170155 0.020293511
        0.018893884 0.017518977 0.016182814 0.014896891 0.01367013 0.012508964
        0.011417559 0.010398095 0.009451063 0.008575487 0.0077691954 0.007029222
        0.006352109 0.0057340953 0.005171267 0.004659676 0.0041954378 0.0037747906
        0.0033941448 0.0030501082 0.0027395 0.0024593554 0.0022069223 0.0019796572
        0.0017751973 0.0015914353 0.00141713 0.006619922 0.0070760315 0.0075744917
        0.008140283 0.008772066 0.009469766 0.010233963 0.011065319 0.011964071
        0.01292949 0.013959188 0.015047947 0.016186984 0.017365798 0.018574823
        0.019806536 0.021055272 0.022315104 0.023576751 0.024825487 0.026037551
        0.027180068 0.028219014 0.029126216 0.029879505 0.03046819 0.03087334
        0.031113941 0.032087848 0.032865796 0.03254648 0.03203565 0.031367734
        0.030544646 0.029584883 0.028501801 0.027312396 0.026034284 0.024686892
        0.023290984 0.021867612 0.02043683 0.019017098 0.017624812 0.016273925
        0.014975761 0.013738995 0.012569783 0.011471999 0.010447537 0.009496622
        0.008618009 0.0078092637 0.007067195 0.00638818 0.0057683405 0.0052036843
        0.0046902206 0.0042240378 0.0038013684 0.0034186235 0.0030724183 0.0027595824
        0.002477164 0.002222425 0.0019928422 0.0017860711 0.0016000429 0.0014235263
        0.0066870037 0.007191357 0.0077145225 0.008294896 0.00893708 0.009643612
        0.010416222 0.011256042 0.012163403 0.013137396 0.014175162 0.015270637
        0.016413815 0.017592961 0.018797781 0.02002093 0.021258103 0.02250581
        0.023757828 0.025002427 0.026217692 0.027370617 0.028425967 0.029354012
        0.030131338 0.030746784 0.03117831 0.03144183 0.032444723 0.03324542
        0.032929454 0.03241409 0.03173485 0.030894551 0.029912977 0.028804727
        0.027588036 0.026281646 0.024906022 0.023482932 0.022034243 0.020580545
        0.019140579 0.01773081 0.01636512 0.015054652 0.013807827 0.012630518
        0.011526298 0.010496777 0.009541905 0.0086601665 0.007848866 0.007104593
        0.0064235595 0.005801773 0.0052351686 0.0047197104 0.004251469 0.003826674
        0.0034417459 0.0030933174 0.0027782414 0.002493593 0.002236663 0.0020049587
        0.0017961619 0.0016082416 0.0014299696 0.006754675 0.0072915647 0.007839935
        0.008438533 0.009094532 0.009812518 0.010595469 0.011445166 0.012362178
        0.013345509 0.014391896 0.015494495 0.016642146 0.017821938 0.019022884
        0.020237824 0.02146378 0.02269965 0.023942208 0.025182659 0.026400924
        0.027563976 0.02863547 0.029584175 0.030385474 0.031027555 0.031485382
        0.031771824 0.032803833 0.033627428 0.03331481 0.032794826 0.03210407
        0.031246291 0.030242575 0.0291088 0.027864471 0.026529478 0.02512536
        0.023674881 0.022200724 0.020724004 0.019263728 0.017836433 0.01645591
        0.015133107 0.01387619 0.012690735 0.011580015 0.01054534 0.009586385
        0.008701366 0.007887331 0.0071406565 0.0064573996 0.005833461 0.0052647083
        0.0047470736 0.004276618 0.00384958 0.003462405 0.0031117569 0.0027945265
        0.0025078265 0.0022489831 0.002015534 0.0018051787 0.0016159087 0.0014364767
        0.0068230573 0.0073840437 0.007955088 0.008572775 0.009244515 0.009975901
        0.010770833 0.011631704 0.012559364 0.013552783 0.014608347 0.015718473
        0.016870908 0.018051622 0.019248962 0.02045597 0.021670982 0.022895243
        0.024128467 0.025364751 0.026585842 0.027758773 0.028846182 0.029815398
        0.030640628 0.03130928 0.031793393 0.032102834 0.03316411 0.03401077
        0.03370157 0.033176944 0.03247455 0.03159909 0.030572971 0.029413385
        0.02814113 0.02677728 0.025344461 0.023866443 0.022366717 0.020866914
        0.0193863 0.01794147 0.016546112 0.015210972 0.01394395 0.012750317
        0.011633039 0.01059313 0.0096299825 0.008741548 0.007924628 0.007175396
        0.0064897626 0.0058635315 0.0052925157 0.0047726235 0.0042999177 0.0038706565
        0.0034813131 0.0031285859 0.0028093976 0.0025208886 0.0022604035 0.0020254902
        0.001813844 0.0016234599 0.0014430571 0.0068923025 0.0074724047 0.00806333
        0.008699616 0.009387916 0.010133984 0.010942199 0.011815388 0.012754636
        0.013758888 0.014824196 0.015942277 0.017099824 0.018281726 0.019475708
        0.020675026 0.021879328 0.023092175 0.024316184 0.0255483 0.026772082
        0.027954694 0.029057832 0.030047443 0.030896582 0.031591788 0.03210222
        0.03243477 0.033525493 0.0343954 0.03408971 0.033560432 0.032846306
        0.03195297 0.030904204 0.029718528 0.028418072 0.027025117 0.025563395
        0.024057692 0.022532295 0.021009346 0.019508364 0.018045982 0.016635781
        0.015288295 0.014011144 0.012809294 0.011685398 0.010640169 0.009672723
        0.008780753 0.0079608215 0.00720891 0.006520794 0.0058921897 0.0053188647
        0.0047967113 0.0043217987 0.003890404 0.0034990257 0.0031443874 0.0028234315
        0.0025333117 0.0022713768 0.0020351727 0.0018223831 0.0016310024 0.0014497165
        0.0069625606 0.007558595 0.008167009 0.008820876 0.009525838 0.01028732
        0.0111097805 0.011996251 0.012947946 0.013963748 0.015039376 0.016165854
        0.01732885 0.018512214 0.01970307 0.020894917 0.022088716 0.023290327
        0.024505233 0.025733195 0.026959578 0.028151719 0.029270444 0.030280367
        0.031153413 0.031875193 0.032412022 0.03276782 0.03388818 0.03478153
        0.034479454 0.033945527 0.03321956 0.03230816 0.031236492 0.030024443
        0.0286955 0.027273182 0.025782349 0.024248796 0.022697613 0.021151442
        0.019630045 0.01815008 0.016725015 0.015365156 0.014077839 0.01286772
        0.011737136 0.0106865 0.009714656 0.0088190455 0.007996001 0.0072413236
        0.0065506613 0.005919653 0.0053440244 0.004819655 0.0043426184 0.0039092056
        0.0035159315 0.003159534 0.0028369643 0.002545379 0.0022821235 0.0020447378
        0.0018308917 0.0016385805 0.0014564593 0.0070339725 0.0076437676 0.008267747
        0.008938048 0.009659373 0.010436587 0.011273948 0.012174473 0.013139374
        0.0141674 0.015253911 0.016389238 0.017558033 0.018743128 0.01993108
        0.021115648 0.02229912 0.023489654 0.024695572 0.025919411 0.027148334
        0.028349897 0.029484108 0.030514289 0.031411268 0.032159675 0.032723013
        0.033102233 0.034252442 0.035169438 0.03487108 0.034332503 0.033594586
        0.032664925 0.031570088 0.03033137 0.028973643 0.027521688 0.026001511
        0.02443993 0.022862827 0.021293342 0.019751461 0.01825387 0.016813902
        0.015441629 0.014144097 0.012925648 0.011788301 0.010732173 0.009755841
        0.008856502 0.00803027 0.007272772 0.006579536 0.0059461277 0.0053682346
        0.0048417198 0.0043626563 0.003927341 0.0035322967 0.0031742651 0.0028501991
        0.0025572523 0.0022927644 0.0020542676 0.0018394191 0.0016462173 0.001463289
        0.0071066706 0.007728667 0.00836669 0.009052324 0.009789507 0.010582486
        0.011435149 0.012350322 0.013329074 0.014369942 0.015467877 0.016612496
        0.017787438 0.018974528 0.02015978 0.021337241 0.022510542 0.023690134
        0.024887167 0.026106931 0.02733837 0.028549282 0.029698912 0.030749332
        0.03167029 0.03244542 0.033035412 0.033438247 0.034618534 0.035559386
        0.035264865 0.03472163 0.03397165 0.03302351 0.031905234 0.030639533
        0.029252708 0.02777083 0.026221061 0.024631254 0.023028078 0.021435166
        0.019872723 0.018357443 0.016902514 0.015517776 0.014209973 0.012983126
        0.011838941 0.010777241 0.009796342 0.008893206 0.0080637345 0.0073033874
        0.0066075777 0.0059718 0.0053916993 0.0048631197 0.004382126 0.0039450135
        0.0035483039 0.0031887374 0.0028632637 0.0025690305 0.002303371 0.0020638106
        0.0018479949 0.0016539273 0.0014702088 0.007180779 0.007813813 0.008464669
        0.009164646 0.0099171 0.010725697 0.011593867 0.012524115 0.013517254
        0.014571512 0.015681375 0.016835716 0.018017143 0.019206481 0.020389218
        0.021559715 0.022722974 0.023891743 0.02507999 0.02629573 0.027529687
        0.028749913 0.02991493 0.030985601 0.031930614 0.032732584 0.033349406
        0.03377608 0.034986697 0.03595163 0.035661053 0.035113163 0.03435099
        0.033384155 0.032242145 0.03094914 0.02953289 0.02802078 0.026441157
        0.024822902 0.023193484 0.021577017 0.019993914 0.018460868 0.016990917
        0.015593649 0.014275508 0.013040194 0.011889098 0.010821754 0.009836225
        0.0089292405 0.008096498 0.007333295 0.006634932 0.005996829 0.0054145865
        0.004884023 0.004401189 0.00396237 0.0035640814 0.003203058 0.0028762429
        0.0025807782 0.00231399 0.002073398 0.0018566381 0.0016617203 0.0014772215
        0.0072564166 0.007899593 0.008562308 0.009275765 0.010042892 0.010866847
        0.011750584 0.012696203 0.0137041565 0.014772282 0.015894536 0.017059
        0.018247236 0.019439057 0.02061944 0.021783095 0.02293641 0.024094453
        0.025273997 0.02648578 0.027722273 0.02895181 0.030132217 0.031223176
        0.032192342 0.033021312 0.033665176 0.034115933 0.03535715 0.0363464
        0.03605989 0.03550733 0.03473284 0.03374708 0.03258103 0.03126038
        0.029814359 0.028271696 0.026661932 0.025014998 0.023359152 0.021718984
        0.02011511 0.018564207 0.01707916 0.015669292 0.014340744 0.013096894
        0.011938819 0.0108657675 0.009875555 0.008964687 0.008128661 0.007362611
        0.0066617266 0.0060213506 0.005437034 0.004904563 0.0044199675 0.0039795185
        0.0035797209 0.0032173013 0.0028891957 0.0025925396 0.002324653 0.002083052
        0.0018653623 0.0016696039 0.0014843299 0.0073336996 0.007986308 0.008660097
        0.009386288 0.010167516 0.011006516 0.011905776 0.012866948 0.013890049
        0.014972449 0.016107505 0.01728247 0.01847781 0.019672327 0.020850496
        0.022007395 0.023150837 0.024298226 0.025469149 0.026677037 0.02791611
        0.029154982 0.030350808 0.031462125 0.03245557 0.03331173 0.03398288
        0.034458 0.0357301 0.03674391 0.036461595 0.035904355 0.03511741
        0.03411248 0.032922078 0.031573426 0.030097274 0.028523715 0.026883513
        0.025207648 0.023525171 0.021861145 0.020236373 0.01866752 0.017167287
        0.015744744 0.014405719 0.013153264 0.011988146 0.010909335 0.009914397
        0.008999625 0.0081603145 0.007391439 0.006688073 0.0060454784 0.005459153
        0.0049248436 0.004438555 0.0039965403 0.0035952902 0.0032315222 0.0029021641
        0.0026043463 0.002335383 0.0020927875 0.0018741777 0.0016775836 0.001491537
        0.007412741 0.008074214 0.008758428 0.009496717 0.01029152 0.011145229
        0.012059902 0.013036721 0.014075221 0.015172231 0.016320456 0.017506253
        0.018708969 0.019906366 0.02108243 0.022232631 0.023366243 0.024503032
        0.025665393 0.026869452 0.028111162 0.029359419 0.030570727 0.031702496
        0.03272038 0.033603944 0.03430266 0.03480244 0.03610574 0.03714436
        0.03686637 0.03630444 0.035504896 0.034480546 0.033265464 0.03188844
        0.030381782 0.028776973 0.027106015 0.02540095 0.023691623 0.022003565
        0.020357762 0.018770844 0.017255338 0.015820041 0.014470466 0.013209342
        0.0120371245 0.010952508 0.009952819 0.009034132 0.0081915455 0.007419872
        0.006714067 0.006069309 0.005481034 0.0049449485 0.0044570253 0.0040134974
        0.0036108408 0.0032457612 0.00291518 0.0026162222 0.0023461976 0.0021026172
        0.0018830925 0.0016856648 0.0014988453 0.0074936543 0.008163523 0.00885763
        0.009607473 0.010415376 0.011283461 0.012213395 0.013205893 0.01425997
        0.015371865 0.016533569 0.017730493 0.018940821 0.020141257 0.021315292
        0.022458822 0.023582613 0.024708826 0.025862679 0.027062975 0.028307391
        0.029565105 0.030791983 0.031944335 0.032986835 0.033898056 0.034624647
        0.035149425 0.036484245 0.03754795 0.03727442 0.036707792 0.0358955
        0.03485146 0.033611357 0.032205578 0.030668018 0.02903159 0.02732954
        0.02559499 0.023858583 0.022146307 0.020479325 0.018874226 0.017343352
        0.015895218 0.014535022 0.013265166 0.012085801 0.010995342 0.009990882
        0.009068279 0.008222432 0.007447993 0.006739793 0.0060929223 0.005502753
        0.004964944 0.0044754366 0.004030439 0.0036264118 0.0032600502 0.0029282682
        0.0026281858 0.00235711 0.0021125507 0.0018921131 0.0016938517 0.0015062576
        0.0075765513 0.008254431 0.008957986 0.009718922 0.010539504 0.011421646
        0.012366667 0.013374828 0.014444603 0.0155716 0.016747043 0.01795535
        0.019173492 0.020377085 0.021549134 0.022685984 0.02379994 0.024915576
        0.026060954 0.02725755 0.028504757 0.029772019 0.031014582 0.032187663
        0.033254992 0.034194157 0.034948964 0.035499096 0.03686579 0.037954867
        0.03768594 0.037114598 0.0362894 0.035225403 0.03395992 0.032524988
        0.030956121 0.029287681 0.027554192 0.025789855 0.024026118 0.022289427
        0.02060111 0.018977707 0.01743136 0.015970308 0.014599421 0.013320778
        0.0121342195 0.011037891 0.010028647 0.009102132 0.008253047 0.0074758744
        0.006765322 0.0061163865 0.005524371 0.0049848855 0.004493835 0.0040474036
        0.0036420352 0.003274414 0.0029414473 0.0026402518 0.0023681314 0.0021225964
        0.0019012458 0.0017021484 0.0015137766 0.007661547 0.008347113 0.009059745
        0.009831382 0.010664276 0.011560181 0.012520109 0.013543884 0.014629431
        0.015771694 0.01696109 0.01818099 0.019407107 0.020613942 0.021784013
        0.022914141 0.024018206 0.025123244 0.026260164 0.027453123 0.028703207
        0.029980129 0.031238515 0.032432504 0.033524904 0.03449233 0.035275728
        0.035851605 0.03725054 0.038365286 0.038101114 0.037525047 0.036686786
        0.035602544 0.034311313 0.032846816 0.031246215 0.029545357 0.027780062
        0.025985625 0.024194296 0.022432981 0.02072316 0.01908132 0.0175194
        0.016045343 0.014663698 0.013376215 0.012182426 0.011080205 0.010066172
        0.009135756 0.008283455 0.0075035826 0.0067907176 0.00613976 0.0055459407
        0.0050048176 0.0045122593 0.0040644235 0.0036577368 0.0032888735 0.0029547343
        0.0026524328 0.0023792714 0.0021327608 0.0019104955 0.0017105588 0.0015214052
        0.0077487566 0.008441736 0.009163134 0.009945143 0.010790031 0.011699434
        0.012674093 0.013713414 0.014814769 0.01597242 0.017175933 0.018407593
        0.019641805 0.020851929 0.022019994 0.02314332 0.024237406 0.025331791
        0.026460256 0.027649634 0.028902695 0.030189402 0.031463776 0.03267888
        0.033796616 0.03479265 0.03560505 0.036207095 0.037638664 0.03877939
        0.03852013 0.03793933 0.037087835 0.035983056 0.034665696 0.0331712
        0.031538427 0.029804729 0.028007243 0.026182374 0.02436318 0.022577018
        0.020845521 0.019185107 0.017607503 0.01612036 0.0147278905 0.013431517
        0.012230468 0.0111223385 0.010103514 0.009169209 0.008313716 0.0075311763
        0.006816035 0.0061630933 0.005567507 0.00502478 0.004530742 0.004081525
        0.0036735383 0.0033034456 0.0029681423 0.0026647395 0.0023905383 0.002143051
        0.0019198672 0.0017190867 0.001529146 0.007838297 0.008538459 0.009268364
        0.010060469 0.010917082 0.011839752 0.012828976 0.013883761 0.015000934
        0.016174054 0.017391808 0.01863535 0.019877736 0.021091154 0.022257138
        0.023373544 0.024457535 0.02554119 0.026661182 0.027847024 0.029103162
        0.030399803 0.031690344 0.0329268 0.034070175 0.0350952 0.03593704
        0.0365657 0.038030323 0.039197356 0.038943175 0.038357627 0.037492726
        0.036367107 0.03502322 0.03349828 0.031832878 0.030065905 0.028235827
        0.026380178 0.02453283 0.022721587 0.02096823 0.0192891 0.017695703
        0.016195389 0.014792034 0.013486729 0.012278389 0.01116434 0.010140727
        0.009202547 0.008343886 0.0075587085 0.0068413243 0.006186431 0.0055891084
        0.0050448054 0.004549311 0.004098731 0.0036894584 0.0033181454 0.0029816835
        0.0026771813 0.0024019396 0.0021534723 0.0019293656 0.0017277355 0.0015370022
        0.007930289 0.0086374385 0.009375634 0.010177608 0.011045724 0.011981461
        0.012985098 0.014055264 0.0151882395 0.016376875 0.017608954 0.018864458
        0.020115055 0.021331731 0.022495525 0.023604851 0.02467859 0.025751404
        0.02686289 0.028045237 0.02930456 0.03061129 0.031918213 0.033176273
        0.03434561 0.03540004 0.036271803 0.036927555 0.038425673 0.039619364
        0.039370436 0.03878013 0.037901644 0.036754865 0.035384048 0.033828203
        0.032129698 0.030328989 0.028465902 0.026579114 0.024703309 0.02286674
        0.021091335 0.01939334 0.017784037 0.016270466 0.014856168 0.013541889
        0.012326238 0.01120626 0.010177864 0.0092358235 0.008374017 0.007586228
        0.0068666292 0.0062098126 0.0056107803 0.0050649233 0.0045679915 0.004116063
        0.0037055134 0.0033329867 0.0029953686 0.0026897667 0.0024134822 0.0021640307
        0.001938995 0.0017365091 0.0015449766 0.008024856 0.008738826 0.009485138
        0.010296797 0.011176237 0.0121248765 0.013142796 0.014228258 0.0153770065
        0.016581174 0.017827619 0.019095127 0.020353928 0.02157378 0.022735229
        0.02383728 0.024900572 0.02596241 0.027065331 0.028244214 0.02950683
        0.030823823 0.03214735 0.033427306 0.034622964 0.035707247 0.036609445
        0.0372928 0.038824875 0.040045585 0.039802097 0.039207026 0.038314767
        0.03714651 0.03574833 0.034161102 0.032429002 0.030594088 0.028697561
        0.026779251 0.024874674 0.02301253 0.02121487 0.01949786 0.017872538
        0.016345631 0.01492033 0.013597042 0.012374058 0.011248146 0.010214973
        0.0092690885 0.008404157 0.0076137814 0.006891993 0.0062332763 0.0056325546
        0.0050851614 0.0045868056 0.004133539 0.0037217191 0.0033479817 0.0030092078
        0.0027025044 0.0024251724 0.0021747313 0.00194876 0.001745411 0.0015530722
        0.008122124 0.008842777 0.009597064 0.010418271 0.011308894 0.012270307
        0.0133024 0.014403078 0.015567554 0.016787244 0.018048065 0.01932757
        0.020594528 0.02181743 0.022976335 0.024070868 0.025123488 0.02617418
        0.02726846 0.0284439 0.02970992 0.03103736 0.032377742 0.033679903
        0.034902267 0.03601689 0.036950067 0.03766157 0.039228097 0.040476207
        0.04023835 0.039638504 0.038732283 0.0375422 0.036116228 0.034497127
        0.032730926 0.03086131 0.028930893 0.026980668 0.02504699 0.023159003
        0.021338884 0.0196027 0.017961245 0.016420918 0.014984558 0.013652229
        0.012421897 0.011290049 0.010252106 0.009302392 0.008434354 0.007641412
        0.0069174534 0.0062568556 0.005654461 0.0051055443 0.004605775 0.0041511757
        0.00373809 0.0033631425 0.003023211 0.0027154018 0.0024370174 0.0021855796
        0.0019586647 0.0017544447 0.0015612922 0.008222222 0.0089494465 0.009711605
        0.010542258 0.011443966 0.012418059 0.013464236 0.014580056 0.015760208
        0.016995382 0.018270552 0.019562013 0.020837033 0.02206282 0.023218935
        0.02430567 0.025347348 0.026386693 0.02747223 0.028644238 0.029913774
        0.031251855 0.032609362 0.033934068 0.035183556 0.03632903 0.037293773
        0.038034007 0.039635494 0.040911406 0.040679388 0.04007476 0.039154377
        0.037942126 0.036487903 0.03483642 0.03303559 0.031130766 0.029165989
        0.02718344 0.025220318 0.02330621 0.021463418 0.0197079 0.018050192
        0.016496362 0.015048894 0.0137074925 0.012469799 0.0113320155 0.0102893105
        0.0093357805 0.008464653 0.007669162 0.00694305 0.006280585 0.005676529
        0.0051260977 0.0046249195 0.0041689915 0.0037546398 0.0033784802 0.0030373873
        0.002728467 0.0024490228 0.0021965809 0.001968714 0.0017636141 0.0015696398
        0.008325283 0.009058991 0.009828951 0.010668991 0.011581729 0.01256844
        0.0136286365 0.01475953 0.015955292 0.017205896 0.018495357 0.01979869
        0.021081636 0.022310087 0.023463128 0.024541736 0.025572164 0.026599929
        0.0276766 0.028845172 0.030118335 0.031467266 0.03284219 0.034189798
        0.035466865 0.036643744 0.03764067 0.038410246 0.040047243 0.04135137
        0.0411254 0.040515985 0.03958124 0.03834646 0.03686352 0.035179127
        0.033343125 0.031402566 0.029402943 0.027387645 0.025394721 0.023454206
        0.02158852 0.019813497 0.018139416 0.016572008 0.015113378 0.013762876
        0.012517813 0.011374093 0.010326636 0.009369303 0.008495101 0.0076970737
        0.00696882 0.0063044974 0.005698787 0.0051468452 0.0046442607 0.0041870037
        0.0037713828 0.0033940072 0.0030517466 0.0027417082 0.002461196 0.0022077407
        0.001978912 0.0017729232 0.0015781182 0.008431443 0.009171577 0.009949302
        0.010798712 0.011722465 0.012721769 0.013795939 0.014941846 0.016153144
        0.017419094 0.018722752 0.02003784 0.02132853 0.022559388 0.023709016
        0.024779124 0.025797952 0.02681387 0.027881527 0.02904665 0.03032355
        0.031683553 0.033076193 0.034447104 0.035752226 0.036961097 0.03799086
        0.03879043 0.040463503 0.04179629 0.0415766 0.040962383 0.040013067
        0.038755387 0.03724325 0.035525404 0.033653665 0.031676825 0.029641854
        0.027593363 0.025570266 0.023603046 0.021714231 0.019919533 0.018228961
        0.016647888 0.015178051 0.013818424 0.012565982 0.01141633 0.010364131
        0.009403007 0.008525742 0.0077251904 0.0069948025 0.006328628 0.005721265
        0.005167813 0.00466382 0.004205229 0.0037883343 0.0034097352 0.003066299
        0.002755133 0.0024735432 0.0022190646 0.0019892636 0.0017823755 0.0015867308
        0.008540839 0.009287371 0.010072867 0.010931674 0.011866469 0.012878372
        0.013966493 0.015127357 0.016354106 0.017635299 0.018953027 0.020279707
        0.021577917 0.022810878 0.02395671 0.025017897 0.026024735 0.027028503
        0.028086971 0.029248616 0.030529365 0.031900663 0.03331136 0.034705985
        0.036039673 0.03728116 0.03834446 0.039174702 0.040884454 0.04224636
        0.042033184 0.041414168 0.04045006 0.039169095 0.03762726 0.0358754
        0.03396735 0.031953663 0.029882818 0.027800675 0.025747022 0.023752786
        0.021840602 0.020026054 0.018318864 0.016724048 0.015242954 0.013874181
        0.0126143545 0.011458776 0.010401844 0.009436942 0.008556625 0.007753555
        0.007021038 0.006353012 0.0057439944 0.005189028 0.00468362 0.004223688
        0.0038055098 0.0034256773 0.003081055 0.0027687505 0.002486072 0.0022305583
        0.0019997736 0.0017919753 0.0015954811 0.008653615 0.009406552 0.010199868
        0.011068149 0.012014056 0.013038598 0.014140664 0.015316428 0.016558532
        0.017854834 0.019186476 0.020524548 0.021830013 0.023064721 0.024206325
        0.025258128 0.026252538 0.027243815 0.028292896 0.029451016 0.030735722
        0.03211856 0.03354766 0.034966443 0.036329243 0.03760401 0.038701583
        0.03956322 0.04131028 0.042701785 0.04249537 0.041871548 0.040892422
        0.03958778 0.038015738 0.036229283 0.034284316 0.032233197 0.03012594
        0.02800967 0.025925057 0.023903485 0.021967685 0.0201331 0.018409166
        0.016800525 0.015308129 0.013930189 0.012662977 0.01150148 0.010439827
        0.009471158 0.008587798 0.007782216 0.00704757 0.006377688 0.00576701
        0.0052105202 0.004703686 0.0042424006 0.0038229267 0.003441848 0.0030960264
        0.0027825704 0.0024987897 0.0022422285 0.0020104472 0.0018017268 0.0016043724
        0.008769911 0.009529304 0.010330543 0.011208428 0.012165566 0.01320282
        0.014318836 0.01550944 0.016766781 0.018078038 0.0194234 0.020772627
        0.022085037 0.023321092 0.02445799 0.025499888 0.02648139 0.027459798
        0.028499262 0.0296538 0.030942569 0.032337192 0.03378507 0.03522849
        0.03662098 0.03792972 0.039062344 0.039956134 0.04174116 0.04316277
        0.042963374 0.042334743 0.041340373 0.040011644 0.038408864 0.036587212
        0.034604713 0.03251556 0.030371329 0.028220437 0.02610445 0.024055203
        0.02209553 0.02024072 0.018499909 0.01687736 0.015373618 0.013986495
        0.012711897 0.011544491 0.0104781315 0.009505708 0.008619314 0.0078112227
        0.0070744446 0.0064027007 0.0057903505 0.0052323225 0.0047240467 0.0042613917
        0.0038406053 0.0034582636 0.0031112265 0.0027966031 0.0025117053 0.0022540817
        0.0020212897 0.0018116344 0.0016134086 0.008889871 0.0096558295 0.010465158
        0.011352841 0.012321375 0.01337144 0.01450142 0.015706792 0.016979232
        0.018305255 0.019664109 0.02102421 0.022343218 0.023580175 0.024711834
        0.025743263 0.026711324 0.027676445 0.028706033 0.029856913 0.03114985
        0.032556526 0.034023575 0.03549213 0.03691492 0.038258377 0.039426863
        0.040353607 0.042177293 0.04362954 0.04343743 0.042803988 0.041794132
        0.0404409 0.03880683 0.03694937 0.034928694 0.03280088 0.030619098
        0.028433071 0.026285278 0.024208011 0.022224192 0.02034896 0.01859114
        0.016954599 0.015439465 0.014043143 0.012761162 0.01158786 0.010516811
        0.009540648 0.00865123 0.007840631 0.0071017155 0.0064280974 0.0058140587
        0.0052544735 0.004744735 0.004280689 0.0038585684 0.003474943 0.0031266706
        0.002810861 0.002524828 0.0022661253 0.0020323072 0.0018217026 0.001622593
        0.009013639 0.009786344 0.010604012 0.0115017565 0.012481904 0.013544899
        0.014688854 0.015908904 0.017196275 0.01853684 0.01990892 0.021279585
        0.022604793 0.02384216 0.024967998 0.025988337 0.02694238 0.02789375
        0.028913172 0.0300603 0.031357512 0.032776516 0.034263156 0.035757378
        0.037211105 0.038590062 0.03979528 0.040755812 0.042618882 0.04410231
        0.04391777 0.043279517 0.042253934 0.040875755 0.039209835 0.03731593
        0.035256423 0.033089302 0.030869367 0.028647672 0.026467623 0.024361972
        0.02235373 0.020457871 0.018682899 0.01703228 0.015505711 0.014100176
        0.012810819 0.01163164 0.010555921 0.009576037 0.008683603 0.007870499
        0.007129441 0.006453934 0.005838186 0.0052770185 0.004765791 0.0043003256
        0.0038768437 0.003491909 0.0031423767 0.0028253582 0.0025381693 0.0022783685
        0.0020435061 0.0018319363 0.0016319295 0.009141353 0.009921089 0.010747445
        0.011655601 0.012647625 0.013723686 0.014881612 0.016116219 0.017418314
        0.018773157 0.02015816 0.021539034 0.02287001 0.024107246 0.025226632
        0.026235208 0.027174601 0.028111713 0.029120643 0.03026391 0.031565495
        0.032997124 0.03450379 0.036024243 0.037509598 0.03892487 0.04016772
        0.041162923 0.043066137 0.04458133 0.044404656 0.04376158 0.042720012
        0.041316442 0.039618094 0.037687086 0.035588067 0.033380974 0.031122264
        0.02886435 0.026651578 0.024517164 0.022484206 0.020567507 0.018775236
        0.01711045 0.015572399 0.014157641 0.0128609175 0.011675883 0.01059552
        0.009611936 0.008716503 0.007900897 0.007157688 0.0064802757 0.005862793
        0.0053000124 0.0047872616 0.0043203426 0.0038954655 0.0035091888 0.0031583665
        0.002840112 0.0025517421 0.0022908205 0.0020548936 0.0018423408 0.0016414219
        0.00927315 0.010060336 0.010895862 0.011814875 0.012819084 0.013908342
        0.015080203 0.016329201 0.017645767 0.019014586 0.02041217 0.02180286
        0.023139128 0.02437565 0.025487898 0.02648398 0.027408034 0.02833033
        0.02932841 0.030467685 0.031773753 0.0332183 0.03474547 0.036292747
        0.037810445 0.0392629 0.040544335 0.04157513 0.04351928 0.04506685
        0.04489834 0.044250444 0.04319263 0.041763205 0.040031824 0.038063042
        0.035923805 0.03367605 0.03137792 0.029083215 0.026837235 0.024673665
        0.022615686 0.02067792 0.0188682 0.01718915 0.015639573 0.014215579
        0.012911505 0.0117206415 0.010635667 0.009648412 0.008749999 0.007931899
        0.007186534 0.006507197 0.005887951 0.005323522 0.0048092064 0.0043407907
        0.0039144764 0.0035268173 0.0031746682 0.0028551433 0.0025655625 0.0023034934
        0.0020664781 0.0018529218 0.0016510739 0.009409156 0.010204406 0.011049754
        0.011980173 0.012996908 0.014099473 0.015285181 0.016548343 0.017879069
        0.01926151 0.020671291 0.022071369 0.023412416 0.024647593 0.025751963
        0.026734762 0.02764273 0.028549604 0.029536434 0.030671572 0.031982224
        0.033440024 0.034988187 0.036562916 0.03811371 0.039604258 0.040925276
        0.041992635 0.043978557 0.045559127 0.0453991 0.04474638 0.043672044
        0.04221629 0.040451262 0.038444005 0.036263827 0.0339747 0.031636484
        0.029304393 0.027024701 0.024831563 0.022748241 0.020789176 0.018961841
        0.01726843 0.015707277 0.014274038 0.012962628 0.01176597 0.010676422
        0.009685534 0.008784169 0.00796359 0.007216066 0.006534788 0.0059137475
        0.005347627 0.004831699 0.004361735 0.003933931 0.0035448393 0.0031913167
        0.00287048 0.0025796508 0.0023164018 0.0020782694 0.0018636857 0.0016608891
        0.009549485 0.010353687 0.01120973 0.012152218 0.013181827 0.01429775
        0.015497136 0.016774155 0.018118666 0.019514322 0.02093588 0.022344882
        0.023690159 0.024923315 0.026019013 0.026987676 0.027878746 0.028769534
        0.02974468 0.030875511 0.032190852 0.033662245 0.035231933 0.03683478
        0.038419463 0.03994906 0.041310716 0.04241564 0.044444207 0.046058446
        0.04590723 0.04524968 0.04415854 0.04267596 0.04087665 0.038830202
        0.03660834 0.034277104 0.03189811 0.029528018 0.027214086 0.024990952
        0.022881953 0.020901335 0.019056214 0.017348334 0.015775554 0.014333059
        0.013014334 0.01181192 0.010717848 0.009723375 0.008819097 0.007996063
        0.0072463867 0.0065631536 0.005940288 0.0053724316 0.004854834 0.0043832595
        0.0039539007 0.0035633147 0.00320836 0.0028861582 0.002594034 0.0023295642
        0.00209028 0.0018746395 0.0016708712 0.009694233 0.010508677 0.011376568
        0.012331891 0.013374688 0.0145039195 0.0157167 0.01700717 0.018365012
        0.019773426 0.021206299 0.022623729 0.023972647 0.025203064 0.026289238
        0.027242847 0.028116144 0.028990122 0.029953098 0.031079436 0.032399584
        0.033884935 0.035476707 0.03710837 0.03872777 0.040297426 0.041700825
        0.04284438 0.044916507 0.046565108 0.04642304 0.045760646 0.044652414
        0.043142505 0.041308254 0.03922188 0.03695756 0.034583457 0.03216297
        0.029754234 0.027405513 0.025151933 0.023016904 0.02101447 0.01915138
        0.017428916 0.015844448 0.014392685 0.013066669 0.011858545 0.010760007
        0.009762008 0.008854871 0.00802942 0.0072776102 0.0065924185 0.0059677013
        0.005398062 0.0048787333 0.0044054748 0.003974484 0.0035823246 0.0032258632
        0.0029022282 0.0026087484 0.002343006 0.0021025257 0.0018857922 0.0016810234
        0.009843471 0.010670045 0.011551292 0.012520279 0.013576469 0.014718796
        0.015944533 0.017247928 0.018618565 0.02003922 0.02148291 0.022908244
        0.02426019 0.025487099 0.02656284 0.027500408 0.028354982 0.029211361
        0.030161638 0.03128327 0.03260834 0.03410805 0.0357225 0.03738372
        0.039038718 0.040649492 0.04209579 0.043279078 0.04539572 0.047079425
        0.046946846 0.0462796 0.04515398 0.043616217 0.041746352 0.039619282
        0.037311714 0.034893963 0.03243125 0.029983198 0.027599117 0.025314618
        0.023153188 0.02112866 0.0192474 0.017510226 0.015914004 0.014452959
        0.013119674 0.011905894 0.010802958 0.009801509 0.0088915825 0.008063773
        0.0073098666 0.006622728 0.005996143 0.005424679 0.0049035535 0.004428529
        0.0039958134 0.0036019834 0.00324392 0.0029187626 0.0026238475 0.0023567635
        0.002115029 0.001897155 0.001691349 0.009997237 0.010838751 0.011735267
        0.012718716 0.013788285 0.014943251 0.01618131 0.017496964 0.018879771
        0.020312099 0.021766072 0.023198763 0.024553087 0.025775684 0.026840022
        0.027760483 0.028595304 0.029433224 0.030370224 0.031486925 0.032817047
        0.034331534 0.035969302 0.037660867 0.039352365 0.04100538 0.0424958
        0.043719973 0.045882143 0.047601715 0.047478985 0.046806883 0.045663554
        0.0440974 0.04219123 0.040022686 0.037671052 0.035208844 0.032703135
        0.03021508 0.027795043 0.025479134 0.023290908 0.021243988 0.019344345
        0.01759232 0.015984273 0.014513923 0.013173393 0.01195401 0.010846758
        0.009841951 0.008929327 0.008099239 0.0073432974 0.0066542467 0.0060257986
        0.0054524806 0.0049295 0.0044526234 0.0040180758 0.0036224572 0.0032626695
        0.002935872 0.0026394133 0.0023708926 0.002127823 0.0019087435 0.0017018501
        0.0101555195 0.011016252 0.01193035 0.012928821 0.014011364 0.015178179
        0.01642769 0.017754786 0.019149043 0.020592423 0.022056121 0.0234956
        0.024851628 0.026069062 0.02712096 0.028023174 0.028837128 0.029655652
        0.030578738 0.03169025 0.03302557 0.034555297 0.036217067 0.037939798
        0.03966875 0.041365188 0.04290101 0.04416728 0.046376027 0.04813229
        0.048019774 0.0473428 0.046181455 0.044586357 0.04264317 0.040432356
        0.03803582 0.03552833 0.032978833 0.030450057 0.027993442 0.025645606
        0.023430174 0.021360543 0.019442288 0.01767526 0.016055297 0.014575616
        0.013227861 0.0120029375 0.010891458 0.0098834 0.008968195 0.008135938
        0.007378054 0.006687159 0.006056884 0.0054817116 0.004956835 0.0044780276
        0.0040415367 0.003643992 0.0032823281 0.0029537338 0.0026555809 0.0023854866
        0.0021409644 0.001920583 0.001712528 0.010318254 0.011204905 0.012139058
        0.013152493 0.014246989 0.015424428 0.016684245 0.018021807 0.019426709
        0.020880472 0.02235331 0.023798991 0.02515603 0.026367407 0.027405767
        0.028288504 0.029080378 0.029878484 0.030786961 0.031893015 0.03323369
        0.03477916 0.036465663 0.03822043 0.039987832 0.041728936 0.04331151
        0.044621136 0.04687757 0.048671383 0.048569463 0.047887616 0.04670794
        0.045083348 0.04310243 0.040848527 0.03840624 0.035852615 0.033258524
        0.030688293 0.028194461 0.025814163 0.023571093 0.021478416 0.019541303
        0.017759101 0.016127128 0.014638077 0.013283111 0.012052708 0.010937099
        0.009925916 0.009008268 0.008173983 0.0074142874 0.0067216605 0.0060896403
        0.0055126585 0.0049858857 0.0045051 0.0040665707 0.00366696 0.003303243
        0.002972651 0.0026725938 0.0024007221 0.002154561 0.0019327211 0.0017233823
        0.0104853 0.0114087425 0.012364727 0.013391793 0.0144963395 0.015682664
        0.01695136 0.018298252 0.019712904 0.021176338 0.022657711 0.024109
        0.025466332 0.026670711 0.027694358 0.028556295 0.029324777 0.03010135
        0.030994456 0.03209475 0.03344097 0.035002735 0.036714744 0.03850247
        0.040309347 0.042096436 0.04372718 0.045081478 0.047386765 0.049219053
        0.049128134 0.048441425 0.047243115 0.045588486 0.04356912 0.04127133
        0.038782448 0.03618184 0.033542335 0.030929903 0.0283982 0.025984896
        0.023713743 0.021597676 0.019641444 0.017843893 0.016199796 0.014701327
        0.013339163 0.012103341 0.010983708 0.009969541 0.009049613 0.0082134735
        0.0074521415 0.0067579444 0.00612432 0.0055456385 0.0050170408 0.004534298
        0.0040936926 0.0036919161 0.0033259825 0.0029931685 0.0026909332 0.002416979
        0.0021688673 0.0019452765 0.0017344085 0.01065643 0.0116350595 0.012611446
        0.013648592 0.014760179 0.015953107 0.017228972 0.018583907 0.020007327
        0.021479668 0.022968942 0.024425223 0.025782099 0.026978487 0.027986167
        0.028825875 0.029569542 0.030323362 0.031200262 0.03229447 0.033646446
        0.035225093 0.036963437 0.038785078 0.040632483 0.042466935 0.044147354
        0.045547683 0.047903035 0.04977478 0.0496953 0.049003802 0.047786605
        0.046101443 0.04404297 0.041700523 0.03916424 0.036515843 0.033830144
        0.031174783 0.028604582 0.026157739 0.023858072 0.021718273 0.019742671
        0.01792959 0.016273264 0.0147653315 0.013395977 0.012154799 0.011031258
        0.010014267 0.00909225 0.008254467 0.0074917153 0.006796165 0.0061611445
        0.005580955 0.0050506988 0.0045661316 0.0041235383 0.0037196246 0.0033514283
        0.0030162565 0.002711601 0.002435204 0.0021846558 0.001958708 0.0017455952
        0.010831312 0.011877151 0.012872013 0.013916573 0.015033223 0.01623135
        0.017513383 0.018875629 0.020307278 0.02178811 0.023284933 0.024745839
        0.026101781 0.027289521 0.028280398 0.029096939 0.029814865 0.030545156
        0.031405326 0.032493245 0.033851106 0.035447 0.03721221 0.0390684
        0.04095706 0.04283985 0.044571012 0.046018377 0.048424724 0.050336685
        0.050268985 0.049572736 0.048336446 0.046620335 0.044522207 0.042134482
        0.03955014 0.03685331 0.034120798 0.031421956 0.028812781 0.02633201
        0.024003519 0.021839749 0.019844595 0.01801586 0.01634722 0.014829783
        0.013453232 0.012206724 0.01107933 0.010059596 0.009135595 0.008296284
        0.0075322357 0.006835459 0.006199169 0.0056175934 0.0050857933 0.0045995046
        0.004155009 0.0037490197 0.0033785866 0.0030410315 0.0027338618 0.0024548373
        0.0022015572 0.0019728295 0.0017569152
      </DataArray>
    </PointData>
    <CellData>
    </CellData>
    <Points>
      <DataArray type="Float32" Name="Points" NumberOfComponents="3" format="ascii" RangeMin="0.8157173771084143" RangeMax="0.9606370610170336">
        0.6386184 -0.00096329785 0.5370849 0.6392304 -0.0002966342 0.53710514
        0.6399126 0.00042100388 0.53712654 0.6406725 0.001192789 0.53714913
        0.6415182 0.0020217034 0.5371728 0.6424581 0.002910422 0.5371975
        0.64350134 0.0038611742 0.53722304 0.6446575 0.004875581 0.5372493
        0.6459364 0.005954471 0.53727627 0.647348 0.0070976885 0.5373036
        0.64890206 0.008303896 0.53733134 0.6506076 0.009570416 0.5373591
        0.65247214 0.010893135 0.53738695 0.654501 0.012266745 0.5374147
        0.656697 0.013685591 0.53744256 0.6590606 0.015144702 0.5374705
        0.6615914 0.016640637 0.5374988 0.6642889 0.018171737 0.5375277
        0.66715306 0.019737503 0.5375576 0.67018527 0.021337328 0.5375894
        0.67338735 0.022968816 0.5376237 0.67676014 0.02462578 0.5376619
        0.6803018 0.02629725 0.53770566 0.68400717 0.027967723 0.53775674
        0.68786806 0.029617783 0.5378173 0.69187224 0.031224815 0.53788966
        0.696006 0.03276388 0.53797597 0.70024604 0.034207135 0.5380783
        0.7045746 0.035531923 0.5381981 0.70921165 0.036779065 0.53834426
        0.71387607 0.03785137 0.53850967 0.71852064 0.038737774 0.538692
        0.72310984 0.03943847 0.538888 0.72760534 0.03996034 0.5390936
        0.73197436 0.040316924 0.53930444 0.7361881 0.04052623 0.5395161
        0.74022317 0.040609054 0.53972465 0.7440613 0.04058726 0.5399268
        0.74768966 0.040482365 0.54011995 0.7511004 0.04031448 0.5403023
        0.7542902 0.04010147 0.54047257 0.7572597 0.039858542 0.5406303
        0.76001275 0.039598133 0.5407755 0.76255554 0.039330065 0.5409083
        0.76489633 0.039061815 0.5410292 0.76704466 0.038798865 0.54113907
        0.7690111 0.038545057 0.5412385 0.77080643 0.03830294 0.5413284
        0.77244216 0.03807405 0.5414095 0.7739294 0.037859175 0.54148257
        0.7752793 0.03765857 0.5415484 0.77650255 0.03747207 0.5416076
        0.7776094 0.037299287 0.54166096 0.7786097 0.03713966 0.5417089
        0.77951247 0.03699256 0.541752 0.78032637 0.036857285 0.5417907
        0.7810593 0.03673315 0.5418255 0.78171873 0.036619443 0.54185677
        0.78231144 0.036515485 0.5418848 0.78284377 0.036420602 0.54190993
        0.78332144 0.036334157 0.5419325 0.7837498 0.036255527 0.5419528
        0.7841337 0.03618413 0.5419709 0.7844775 0.03611939 0.5419872
        0.78478515 0.036060777 0.5420017 0.78506047 0.036007795 0.5420147
        0.7853066 0.03595996 0.5420264 0.78552663 0.035916828 0.54203683
        0.7857232 0.035877977 0.5420461 0.6380205 -0.00042363585 0.5370664
        0.6386568 0.00023312494 0.5370869 0.6393583 0.0009459514 0.5371084
        0.6401347 0.0017161279 0.5371309 0.64099514 0.0025457465 0.53715444
        0.6419489 0.0034370166 0.5371788 0.6430053 0.0043919003 0.53720397
        0.6441743 0.0054118503 0.5372298 0.6454658 0.0064975843 0.5372561
        0.6468899 0.0076488657 0.53728276 0.64845645 0.008864288 0.5373095
        0.65017444 0.010141108 0.5373363 0.6520513 0.011475108 0.5373629
        0.65409225 0.012860796 0.53738934 0.6562997 0.014292227 0.53741556
        0.65867424 0.015764019 0.53744173 0.66121525 0.01727224 0.537468
        0.66392225 0.018814728 0.5374948 0.66679573 0.020390581 0.5375225
        0.6698373 0.021998955 0.5375518 0.67304933 0.023637438 0.53758377
        0.67643327 0.025300048 0.5376196 0.6799875 0.026976118 0.5376609
        0.6837073 0.028650444 0.53770953 0.6875844 0.030303868 0.5377679
        0.6916069 0.031913985 0.5378381 0.695761 0.033456188 0.53792256
        0.7000232 0.03490287 0.5380233 0.7043752 0.03623148 0.53814185
        0.70903844 0.03748318 0.538287 0.71372956 0.038560364 0.53845173
        0.7184007 0.039451815 0.53863376 0.723016 0.04015761 0.5388298
        0.7275366 0.040684514 0.5390357 0.73192936 0.041046016 0.539247
        0.73616517 0.041260112 0.53945917 0.7402205 0.041347556 0.53966844
        0.74407697 0.04133021 0.5398712 0.74772173 0.041229583 0.54006505
        0.751147 0.04106574 0.5402479 0.7543494 0.04085652 0.54041886
        0.75732994 0.040617082 0.5405771 0.76009244 0.040359836 0.5407228
        0.76264346 0.040094595 0.540856 0.76499134 0.039828826 0.54097736
        0.7671458 0.039568026 0.54108757 0.7691175 0.039316054 0.5411874
        0.77091753 0.039075498 0.5412776 0.7725574 0.038847916 0.541359
        0.7740484 0.038634144 0.54143244 0.77540165 0.03843447 0.54149854
        0.7766281 0.038248796 0.5415581 0.7777379 0.038076762 0.5416116
        0.778741 0.03791786 0.5416598 0.77964646 0.03777149 0.5417031
        0.7804629 0.03763699 0.541742 0.7811983 0.037513684 0.54177696
        0.78186005 0.03740089 0.54180837 0.782455 0.037297934 0.54183656
        0.78298944 0.037204154 0.54186183 0.7834692 0.037118904 0.54188454
        0.7838995 0.037041575 0.54190487 0.7842851 0.03697156 0.54192305
        0.78463066 0.036908306 0.5419393 0.78494 0.036851265 0.54195386
        0.7852168 0.036799926 0.5419669 0.7854644 0.036753807 0.54197854
        0.7856858 0.036712456 0.54198897 0.78588367 0.03667544 0.5419982
        0.6374227 0.00011598805 0.53704727 0.6380787 0.00076705083 0.5370679
        0.63879836 0.0014761671 0.53708947 0.6395912 0.0022448888 0.5371119
        0.64046675 0.0030750786 0.53713524 0.64143467 0.003968693 0.5371593
        0.64250463 0.004927497 0.5371841 0.6436867 0.0059528016 0.53720945
        0.64499116 0.0070452187 0.5372352 0.6464281 0.008204424 0.53726107
        0.6480074 0.009428936 0.53728694 0.64973813 0.010715923 0.5373126
        0.6516276 0.012061048 0.537338 0.6536808 0.01345862 0.53736305
        0.65590006 0.01490239 0.53738767 0.6582858 0.016386578 0.53741205
        0.66083723 0.017906781 0.53743637 0.66355413 0.019460378 0.53746104
        0.66643703 0.021046098 0.5374865 0.6694881 0.022662885 0.5375135
        0.6727102 0.024308337 0.53754294 0.6761052 0.02597666 0.5375763
        0.67967206 0.027657466 0.5376151 0.68340623 0.029335832 0.5376614
        0.68729955 0.030992849 0.53771734 0.6913403 0.032606322 0.5377855
        0.69551486 0.03415194 0.537868 0.69979906 0.035602305 0.5379671
        0.70417464 0.03693496 0.53808427 0.7088642 0.038191397 0.53822833
        0.7135822 0.039273567 0.5383925 0.71828014 0.04017011 0.5385742
        0.72292167 0.04088098 0.5387703 0.7274674 0.041412868 0.5389765
        0.73188406 0.04177919 0.5391882 0.7361421 0.041997913 0.539401
        0.7402178 0.042089805 0.53961086 0.74409276 0.042076703 0.5398144
        0.747754 0.041980125 0.54000884 0.7511937 0.041820105 0.54019237
        0.7544089 0.04161444 0.54036385 0.75740045 0.041378275 0.5405227
        0.7601725 0.041123994 0.5406688 0.7627317 0.040861398 0.5408025
        0.7650866 0.040597953 0.54092425 0.7672472 0.04033918 0.5410349
        0.76922417 0.04008895 0.541135 0.7710289 0.03984988 0.5412256
        0.7726729 0.03962357 0.54130733 0.7741676 0.0394109 0.541381
        0.7755243 0.039212193 0.54144746 0.7767539 0.039027393 0.54150724
        0.7778668 0.03885619 0.54156107 0.77887267 0.03869811 0.5416094
        0.7797808 0.03855258 0.5416529 0.78059983 0.03841896 0.5416921
        0.78133774 0.038296603 0.5417272 0.78200185 0.038184825 0.5417587
        0.78259903 0.038082957 0.541787 0.78313565 0.03799034 0.5418124
        0.7836174 0.037906315 0.5418352 0.78404963 0.037830263 0.5418556
        0.7844371 0.03776157 0.5418738 0.7847843 0.037699647 0.54189014
        0.7850953 0.037643928 0.54190475 0.78537357 0.03759388 0.5419178
        0.7856225 0.037548997 0.5419295 0.7858451 0.0375088 0.54193985
        0.7860441 0.037472837 0.54194915 0.6368249 0.00065557275 0.53702736
        0.6374979 0.00130356 0.53704816 0.6382343 0.0020103832 0.5370697
        0.6390431 0.0027782482 0.5370921 0.6399337 0.0036091926 0.5371152
        0.6409159 0.0045051463 0.5371391 0.6419996 0.005467791 0.5371635
        0.6431951 0.006498346 0.53718835 0.64451265 0.007597338 0.53721344
        0.64596266 0.008764364 0.53723854 0.647555 0.0099978605 0.5372635
        0.64929867 0.011294898 0.5372882 0.651201 0.012651006 0.5373123
        0.6532668 0.0140602775 0.53733593 0.65549815 0.015516156 0.53735894
        0.6578953 0.017012468 0.53738153 0.66045755 0.018544367 0.5374039
        0.66318446 0.020108802 0.53742635 0.66607696 0.021704169 0.53744954
        0.6691376 0.023329228 0.53747416 0.6723698 0.024981605 0.5375012
        0.67577595 0.026655694 0.53753203 0.6793554 0.028341353 0.53756833
        0.68310386 0.030023938 0.5376122 0.68701345 0.031684764 0.53766584
        0.6910725 0.033301845 0.5377317 0.6952673 0.03485115 0.53781235
        0.69957376 0.036305446 0.5379097 0.703973 0.037642352 0.5380255
        0.708689 0.038903695 0.53816855 0.7134339 0.03999096 0.538332
        0.7181588 0.04089265 0.53851336 0.7228267 0.041608587 0.53870946
        0.72739786 0.042145386 0.53891593 0.7318385 0.04251642 0.53912807
        0.7361189 0.042739626 0.5393415 0.7402151 0.042835776 0.53955203
        0.74410856 0.042826723 0.53975624 0.74778634 0.042733967 0.5399513
        0.7512407 0.042577535 0.5401355 0.7544686 0.042375207 0.5403076
        0.7574712 0.042142097 0.5404669 0.7602527 0.04189058 0.54061353
        0.7628201 0.041630447 0.5407477 0.76518214 0.041369177 0.54086995
        0.7673488 0.041112296 0.54098094 0.7693311 0.04086371 0.5410814
        0.7711405 0.040626053 0.5411723 0.77278864 0.040400974 0.5412544
        0.7742871 0.040189393 0.54132843 0.7756472 0.039991662 0.54139507
        0.77688 0.039807774 0.54145515 0.7779958 0.039637454 0.5415092
        0.7790046 0.03948025 0.5415578 0.77991545 0.03933562 0.54160154
        0.7807371 0.03920295 0.5416408 0.78147745 0.039081577 0.5416761
        0.78214395 0.038970847 0.5417078 0.78274345 0.03887007 0.54173625
        0.78328216 0.03877858 0.5417617 0.783766 0.03869571 0.5417846
        0.7842001 0.038620822 0.541805 0.7845894 0.038553268 0.5418233
        0.7849383 0.038492452 0.5418397 0.7852507 0.038437795 0.5418544
        0.78553045 0.038388737 0.5418675 0.78578067 0.038344767 0.5418791
        0.7860045 0.038305398 0.5418896 0.7862046 0.03827017 0.54189897
        0.6362271 0.0011951172 0.5370068 0.63691527 0.0018418358 0.53702754
        0.6376672 0.002547686 0.5370491 0.6384912 0.003315471 0.53707147
        0.6393966 0.0041475613 0.5370945 0.6403931 0.005046018 0.5371181
        0.64149064 0.0060125426 0.5371421 0.64269966 0.0070483265 0.5371664
        0.64403063 0.008153842 0.5371909 0.64549387 0.009328621 0.53721523
        0.64709944 0.010571021 0.5372393 0.6488563 0.011878013 0.53726286
        0.6507717 0.013244971 0.5372858 0.6528503 0.014665771 0.537308
        0.655094 0.01613354 0.5373294 0.65750295 0.01764172 0.5373501
        0.6600761 0.019185036 0.53737044 0.66281325 0.020760044 0.5373908
        0.6657156 0.022364834 0.5374117 0.66878587 0.023998028 0.5374339
        0.6720282 0.02565728 0.5374585 0.67544556 0.02733717 0.5374868
        0.6790376 0.02902779 0.5375206 0.68280035 0.03071476 0.53756195
        0.6867261 0.032379605 0.53761315 0.6908034 0.034000546 0.5376769
        0.6950186 0.03555379 0.5377554 0.6993472 0.03701226 0.5378511
        0.70377016 0.038353626 0.5379655 0.70851266 0.039620046 0.5381074
        0.7132848 0.040712513 0.5382701 0.7180367 0.041619375 0.5384512
        0.7227312 0.042340383 0.53864723 0.72732794 0.04288203 0.53885394
        0.73179275 0.043257657 0.5390666 0.7360956 0.043485194 0.53928065
        0.7402124 0.043585427 0.53949183 0.74412453 0.043580208 0.5396967
        0.7478189 0.043491058 0.53989255 0.7512879 0.043337986 0.5400773
        0.7545285 0.043138765 0.54025 0.75754213 0.042908493 0.5404099
        0.76033324 0.042659543 0.540557 0.7629089 0.042401697 0.5406917
        0.7652779 0.042142447 0.54081434 0.7674507 0.04188733 0.5409257
        0.76943827 0.041640278 0.5410266 0.77125233 0.041403968 0.54111785
        0.77290463 0.041180078 0.5412002 0.7744068 0.040969558 0.54127455
        0.77577037 0.040772803 0.54134154 0.7770063 0.04058984 0.5414018
        0.77812517 0.04042042 0.5414561 0.7791368 0.040264122 0.5415049
        0.78005034 0.04012042 0.54154885 0.78087455 0.039988704 0.5415883
        0.7816174 0.03986833 0.5416238 0.7822863 0.03975861 0.5416556
        0.78288805 0.039658874 0.54168415 0.78342897 0.03956843 0.5417098
        0.78391474 0.03948659 0.54173267 0.7843508 0.039412703 0.54175323
        0.7847418 0.039346118 0.54177165 0.78509235 0.03928622 0.5417881
        0.78540635 0.0392324 0.54180276 0.78568745 0.03918412 0.5418159
        0.785939 0.03914085 0.5418276 0.7861639 0.039102107 0.5418381
        0.78636503 0.039067436 0.54184747 0.63562936 0.0017346207 0.5369855
        0.6363313 0.0023814174 0.53700626 0.63709766 0.0030874412 0.53702784
        0.6379363 0.003855963 0.53705007 0.63885605 0.004689709 0.53707284
        0.63986665 0.005590953 0.53709614 0.6409781 0.0065615 0.5371198
        0.6422007 0.0076025673 0.5371437 0.64354515 0.00871461 0.53716755
        0.64502186 0.009897115 0.5371911 0.64664084 0.011148365 0.5372143
        0.6484111 0.012465227 0.53723675 0.6503398 0.013842924 0.5372584
        0.6524314 0.015275092 0.5372791 0.65468776 0.016754545 0.53729886
        0.65710866 0.018274343 0.53731775 0.659693 0.019828813 0.5373361
        0.6624406 0.021414137 0.53735435 0.6653528 0.023028139 0.5373729
        0.6684329 0.024669318 0.5373927 0.67168546 0.026335383 0.5374148
        0.675114 0.028021097 0.53744054 0.6787185 0.02971678 0.53747183
        0.6824956 0.031408288 0.53751063 0.6864375 0.033077348 0.53755945
        0.69053304 0.03470238 0.53762084 0.6947686 0.03625982 0.5376974
        0.69911945 0.037722707 0.53779125 0.7035662 0.039068732 0.5379042
        0.7083354 0.040340383 0.5380449 0.71313477 0.041438162 0.53820693
        0.7179139 0.042350255 0.53838766 0.72263515 0.043076303 0.5385837
        0.7272576 0.043622736 0.5387907 0.73174673 0.044002853 0.53900385
        0.7360722 0.04423457 0.5392185 0.7402097 0.044338696 0.5394303
        0.7441405 0.044337112 0.5396359 0.74785155 0.044251345 0.53983235
        0.7513352 0.04410141 0.54001784 0.75458866 0.04390507 0.5401911
        0.75761336 0.043677423 0.54035157 0.760414 0.04343084 0.54049927
        0.7629978 0.04317511 0.54063433 0.7653739 0.042917714 0.5407574
        0.76755273 0.042664237 0.54086924 0.7695456 0.04241863 0.5409705
        0.77136433 0.042183578 0.5410621 0.77302074 0.041960817 0.5411448
        0.7745267 0.041751318 0.5412194 0.7758937 0.041555524 0.54128665
        0.7771328 0.041373484 0.5413472 0.7782546 0.041204967 0.54140174
        0.7792691 0.04104958 0.5414508 0.7801854 0.04090679 0.5414949
        0.78101224 0.040776014 0.54153454 0.7817576 0.04065658 0.5415702
        0.78242886 0.04054783 0.54160213 0.78303283 0.040449046 0.5416308
        0.7835759 0.040359538 0.54165655 0.7840637 0.04027861 0.54167956
        0.7845016 0.04020558 0.5417002 0.7848944 0.0401398 0.54171866
        0.78524655 0.040080644 0.5417352 0.785562 0.040027514 0.54174995
        0.78584445 0.03997985 0.5417632 0.7860972 0.039937124 0.541775
        0.7863233 0.039898872 0.5417855 0.7865255 0.039864633 0.5417949
        0.63503164 0.0022740818 0.5369635 0.6357465 0.002922024 0.53698426
        0.6365263 0.0036292102 0.5370057 0.6373788 0.00439926 0.53702784
        0.63831264 0.005235227 0.5370505 0.6393371 0.0061396305 0.5370735
        0.6404623 0.007114422 0.5370968 0.6416986 0.008160895 0.5371201
        0.64305663 0.009279522 0.53714335 0.64454687 0.010469761 0.5371661
        0.6461794 0.0117298355 0.53718835 0.6479632 0.013056509 0.53720975
        0.64990544 0.014444841 0.53723013 0.6520103 0.015888229 0.5372493
        0.65427953 0.017379172 0.53726745 0.65671253 0.018910358 0.53728455
        0.6593083 0.020475725 0.5373009 0.6620665 0.022071112 0.5373169
        0.66498876 0.023694107 0.5373332 0.6680787 0.025343122 0.5373506
        0.67134154 0.027015937 0.53737015 0.6747812 0.028707486 0.53739333
        0.6783983 0.030408321 0.537422 0.6821896 0.032104507 0.5374583
        0.68614763 0.03377797 0.5375047 0.6902614 0.035407327 0.53756374
        0.6945174 0.036969207 0.5376382 0.69889045 0.038436737 0.5377302
        0.7033611 0.03978763 0.5378417 0.70815706 0.041064683 0.5379812
        0.71298385 0.042167872 0.53814244 0.7177905 0.043085244 0.53832275
        0.72253853 0.04381632 0.5385188 0.72718686 0.044367466 0.53872603
        0.7317004 0.04475195 0.53893965 0.7360487 0.044987705 0.5391549
        0.740207 0.04509554 0.53936744 0.7441566 0.045097385 0.5395737
        0.7478844 0.045014773 0.5397709 0.75138277 0.04486775 0.53995705
        0.75464904 0.044674072 0.5401309 0.7576848 0.04444885 0.54029197
        0.760495 0.044204433 0.54044014 0.763087 0.04395063 0.54057574
        0.7654701 0.043694954 0.54069924 0.767655 0.043442983 0.5408115
        0.7696532 0.043198705 0.54091316 0.77147657 0.042964842 0.5410051
        0.7731371 0.04274315 0.5410881 0.77464676 0.042534634 0.541163
        0.7760171 0.04233977 0.54123056 0.77725947 0.04215862 0.54129136
        0.77838427 0.041990984 0.54134613 0.7794016 0.041836474 0.5413954
        0.78032064 0.041694578 0.5414397 0.78115004 0.041564684 0.5414795
        0.7818979 0.04144615 0.5415153 0.7825715 0.041338265 0.5415474
        0.78317773 0.041240342 0.5415762 0.7837229 0.041151654 0.5416021
        0.7842127 0.041071508 0.5416252 0.7846525 0.04099921 0.54164594
        0.78504705 0.0409341 0.5416645 0.78540075 0.040875558 0.5416811
        0.7857177 0.040822983 0.54169595 0.78600156 0.04077581 0.54170924
        0.78625554 0.040733524 0.54172105 0.78648275 0.04069566 0.54173166
        0.78668594 0.040661763 0.5417411 0.6344339 0.0028134997 0.5369408
        0.63516086 0.0034634732 0.5369615 0.6359535 0.0041726814 0.53698283
        0.6368193 0.004945006 0.5370048 0.63776666 0.0057837805 0.53702724
        0.6388048 0.006691765 0.53705 0.63994366 0.007671088 0.5370729
        0.64119357 0.008723146 0.5370957 0.6425652 0.00984846 0.53711826
        0.6440691 0.0110464785 0.5371403 0.6457153 0.0123153785 0.5371616
        0.64751285 0.01365182 0.53718185 0.6494687 0.015050701 0.5372009
        0.65158707 0.016505176 0.53721875 0.6538693 0.018007426 0.5372352
        0.65631473 0.019549772 0.5372504 0.6589221 0.021125786 0.5372647
        0.66169107 0.022730993 0.53727853 0.66462344 0.024362775 0.5372925
        0.66772336 0.026019476 0.53730744 0.6709964 0.027698958 0.5373245
        0.6744473 0.029396351 0.5373451 0.6780769 0.03110241 0.53737116
        0.6818824 0.032803416 0.5374049 0.6858566 0.034481473 0.53744876
        0.68998855 0.036115367 0.53750545 0.6942648 0.03768192 0.53757775
        0.6986603 0.039154325 0.53766793 0.70315486 0.04051029 0.53777784
        0.7079777 0.041792896 0.5379161 0.7128321 0.042901598 0.5380765
        0.71766627 0.04382429 0.53825647 0.7224414 0.044560388 0.53845245
        0.72711575 0.045116186 0.53866 0.7316539 0.045504924 0.5388741
        0.7360251 0.045744553 0.5390899 0.74020433 0.04585592 0.5393032
        0.7441728 0.04586098 0.5395102 0.7479174 0.045781314 0.53970814
        0.7514305 0.045636974 0.53989494 0.75470966 0.045445744 0.54006946
        0.75775653 0.04522272 0.54023105 0.76057625 0.04498028 0.54037976
        0.7631764 0.04472824 0.54051584 0.7655665 0.04447412 0.5406398
        0.7677575 0.044223536 0.5407525 0.76976097 0.043980476 0.5408545
        0.7715889 0.043747712 0.5409468 0.77325356 0.04352702 0.54103017
        0.7747669 0.043319438 0.5411054 0.77614075 0.043125458 0.54117316
        0.7773862 0.04294516 0.54123425 0.778514 0.042778373 0.54128927
        0.77953416 0.0426247 0.54133874 0.7804559 0.04248363 0.54138327
        0.7812879 0.042354565 0.54142326 0.7820383 0.04223684 0.5414592
        0.78271425 0.042129748 0.54149145 0.7833227 0.042032573 0.5415204
        0.78387 0.041944597 0.54154634 0.7843618 0.041865118 0.54156965
        0.7848034 0.04179343 0.54159045 0.7851997 0.04172888 0.5416091
        0.785555 0.04167084 0.5416258 0.7858734 0.0416187 0.5416407
        0.7861586 0.041571934 0.54165405 0.78641385 0.041530002 0.541666
        0.7866422 0.04149244 0.54167664 0.7868464 0.041458815 0.5416862
        0.63383627 0.003352873 0.53691745 0.63457465 0.00400564 0.536938
        0.63537955 0.0047176327 0.5369593 0.63625807 0.0054929294 0.53698105
        0.6372186 0.006335095 0.5370033 0.6382701 0.007247114 0.53702575
        0.6394224 0.008231299 0.5370482 0.64068586 0.009289171 0.5370705
        0.6420711 0.010421314 0.53709245 0.6435887 0.011627195 0.53711367
        0.6452487 0.012904945 0.537134 0.6470601 0.014251131 0.5371531
        0.6490298 0.015660489 0.53717095 0.6511618 0.017125927 0.5371872
        0.6534572 0.018639313 0.53720194 0.6559152 0.020192608 0.53721535
        0.6585343 0.021779027 0.53722763 0.66131425 0.023393815 0.53723925
        0.66425693 0.02503417 0.5372509 0.6673668 0.026698401 0.53726333
        0.6706502 0.028384475 0.5372779 0.6741122 0.030087706 0.5372959
        0.67775434 0.031799056 0.5373193 0.68157405 0.033505008 0.5373504
        0.6855643 0.03518783 0.5373917 0.68971443 0.036826484 0.537446
        0.6940111 0.038397938 0.5375161 0.6984289 0.03987544 0.5376044
        0.7029475 0.04123667 0.5377127 0.7077974 0.04252499 0.5378497
        0.71267945 0.04363931 0.5380093 0.71754134 0.044567373 0.5381888
        0.72234374 0.04530848 0.53838474 0.7270443 0.045868855 0.5385925
        0.7316072 0.04626174 0.5388071 0.7360014 0.04650509 0.5390236
        0.74020165 0.046619803 0.53923756 0.7441891 0.046627875 0.5394453
        0.74795055 0.046550926 0.53964394 0.7514785 0.046409052 0.53983146
        0.75477046 0.04622004 0.54000664 0.7578284 0.045999013 0.5401688
        0.76065767 0.04575836 0.54031813 0.76326597 0.045507908 0.5404547
        0.76566315 0.0452552 0.54057914 0.7678602 0.045005854 0.5406922
        0.76986885 0.044763915 0.5407946 0.7717014 0.044532157 0.54088724
        0.77337015 0.04431239 0.540971 0.7748872 0.044105675 0.5410465
        0.7762644 0.043912522 0.54111457 0.777513 0.043733034 0.5411759
        0.77864385 0.043567035 0.54123116 0.7796668 0.04341414 0.54128087
        0.78059125 0.04327384 0.5413255 0.7814259 0.043145526 0.54136574
        0.78217864 0.04302852 0.5414018 0.782857 0.04292212 0.5414343
        0.7834677 0.042825602 0.5414633 0.7840171 0.042738236 0.5414894
        0.78451085 0.04265931 0.54151285 0.78495437 0.042588133 0.54153377
        0.78535235 0.04252404 0.54155254 0.78570926 0.042466402 0.5415693
        0.78602916 0.042414635 0.5415843 0.7863157 0.042368174 0.5415977
        0.78657216 0.042326525 0.5416097 0.78680164 0.042289212 0.54162043
        0.78700686 0.04225579 0.54163 0.6332386 0.003892201 0.5368933
        0.633988 0.004548437 0.5369138 0.6348046 0.005263901 0.5369349
        0.63569546 0.00604282 0.53695655 0.6366687 0.006888949 0.5369785
        0.6377333 0.007805474 0.5370006 0.63889885 0.008794882 0.5370227
        0.6401758 0.009858833 0.53704447 0.6415746 0.010997987 0.5370657
        0.6431059 0.012211839 0.5370861 0.6447798 0.01349849 0.5371055
        0.64660513 0.014854416 0.5371235 0.6485888 0.016274193 0.53713995
        0.65073454 0.017750483 0.53715473 0.6530434 0.01927484 0.53716785
        0.6555141 0.020838875 0.5371793 0.6581451 0.022435473 0.53718954
        0.66093606 0.024059603 0.53719896 0.6638891 0.025708325 0.53720826
        0.6670091 0.027379928 0.5372183 0.6703028 0.02907251 0.5372302
        0.673776 0.030781565 0.53724563 0.6774306 0.032498263 0.5372664
        0.6812644 0.03420928 0.5372948 0.6852707 0.03589704 0.53733355
        0.68943906 0.03754066 0.53738546 0.6937561 0.039117247 0.5374533
        0.69819635 0.040600065 0.53753954 0.70273906 0.04196675 0.53764623
        0.70761603 0.043260947 0.53778195 0.71252596 0.044380996 0.5379407
        0.71741575 0.04531446 0.53811973 0.7222455 0.04606056 0.5383156
        0.7269724 0.04662545 0.5385236 0.7315603 0.04702236 0.53873867
        0.73597753 0.047269285 0.5389558 0.74019897 0.047387157 0.5391705
        0.7442055 0.047398034 0.53937906 0.7479839 0.047323592 0.53957844
        0.7515266 0.047183953 0.5397666 0.7548315 0.04699694 0.53994244
        0.7579006 0.046777703 0.54010534 0.7607393 0.046538644 0.5402551
        0.7633558 0.046289608 0.5403922 0.76575994 0.046038155 0.54051715
        0.767963 0.04578993 0.5406306 0.7699769 0.045548994 0.5407334
        0.77181405 0.045318145 0.54082644 0.77348685 0.04509922 0.5409105
        0.7750076 0.044893306 0.5409863 0.77638817 0.044700917 0.54105467
        0.7776399 0.04452217 0.54111624 0.7787737 0.044356894 0.5411717
        0.7797995 0.04420471 0.5412217 0.7807267 0.044065095 0.54126656
        0.7815638 0.043937445 0.541307 0.78231907 0.04382108 0.5413433
        0.78299975 0.043715276 0.5413758 0.7836127 0.043619316 0.5414051
        0.7841642 0.043532457 0.5414313 0.7846599 0.043454 0.5414548
        0.7851053 0.043383237 0.54147583 0.785505 0.04331951 0.5414947
        0.7858635 0.0432622 0.5415116 0.7861849 0.043210715 0.5415267
        0.78647274 0.043164507 0.5415402 0.78673047 0.043123074 0.54155225
        0.7869611 0.043085948 0.54156303 0.7871674 0.043052696 0.5415727
        0.632641 0.0044314824 0.53686845 0.6334011 0.0050918018 0.5368889
        0.63422894 0.0058113653 0.5369098 0.63513166 0.0065945173 0.5369312
        0.6361173 0.0074451673 0.53695285 0.6371946 0.008366674 0.53697467
        0.6383733 0.009361694 0.5369963 0.6396635 0.010432014 0.5370176
        0.6410759 0.011578392 0.53703815 0.6426209 0.012800351 0.53705776
        0.6443086 0.014095973 0.5370761 0.646148 0.015461654 0.537093
        0.64814574 0.016891805 0.5371081 0.65030545 0.018378846 0.53712136
        0.6526278 0.01991402 0.53713274 0.65511143 0.021488596 0.53714234
        0.6577545 0.023095142 0.5371505 0.6605566 0.024728391 0.53715765
        0.6635201 0.026385272 0.5371646 0.66665024 0.028064094 0.53717214
        0.6699543 0.029763086 0.53718156 0.6734386 0.031477947 0.5371943
        0.6771057 0.033200048 0.5372124 0.6809536 0.034916244 0.5372382
        0.684976 0.036609102 0.53727424 0.68916243 0.038257882 0.53732365
        0.6934999 0.03983982 0.5373892 0.6979626 0.041328177 0.5374735
        0.7025295 0.042700514 0.53757846 0.7074337 0.04400074 0.5377129
        0.7123716 0.04512661 0.53787065 0.71728945 0.04606554 0.5380492
        0.72214675 0.046816617 0.5382451 0.72690016 0.047385953 0.5384533
        0.7315131 0.047786772 0.5386689 0.7359536 0.048037108 0.53888667
        0.74019635 0.048157956 0.5391021 0.744222 0.04817143 0.53931135
        0.7480173 0.048099272 0.5395115 0.75157493 0.04796165 0.53970045
        0.7548927 0.047776427 0.53987694 0.75797296 0.04755877 0.54004043
        0.7608212 0.04732112 0.5401908 0.7634458 0.047073323 0.54032844
        0.7658569 0.046822973 0.5404538 0.7680659 0.046575733 0.54056776
        0.77008504 0.046335686 0.540671 0.77192676 0.046105653 0.54076433
        0.7736036 0.04588749 0.54084873 0.77512807 0.04568228 0.54092485
        0.77651197 0.04549058 0.5409935 0.7777669 0.045312505 0.5410554
        0.7789036 0.045147877 0.5411111 0.7799322 0.044996325 0.54116124
        0.78086203 0.044857323 0.54120636 0.7817018 0.04473025 0.54124695
        0.7824595 0.044614423 0.5412834 0.7831425 0.044509128 0.54131615
        0.7837577 0.044413622 0.54134554 0.7843113 0.044327192 0.54137194
        0.784809 0.044249106 0.54139555 0.7852562 0.044178676 0.54141676
        0.78565764 0.044115245 0.5414357 0.7860178 0.04405819 0.5414527
        0.7863406 0.044006925 0.54146785 0.7866298 0.04396091 0.5414815
        0.7868888 0.043919638 0.5414936 0.7871205 0.043882657 0.54150444
        0.7873278 0.043849524 0.54151416 0.6320434 0.004970717 0.53684294
        0.6328138 0.005635688 0.5368632 0.6336526 0.0063599376 0.53688395
        0.63456684 0.0071478994 0.5369051 0.6355645 0.008003609 0.5369265
        0.6366543 0.008930577 0.5369479 0.6378459 0.009931605 0.5369691
        0.6391493 0.011008616 0.5369898 0.6405751 0.012162452 0.5370097
        0.64213383 0.01339268 0.53702843 0.6438355 0.014697367 0.53704584
        0.64568895 0.01607283 0.5370615 0.64770085 0.017513324 0.5370753
        0.6498746 0.019011024 0.537087 0.65221065 0.020556867 0.5370967
        0.65470725 0.022141796 0.53710437 0.6573625 0.023758069 0.53711045
        0.6601759 0.025400206 0.53711545 0.66314995 0.027065039 0.53712
        0.6662902 0.028750919 0.53712505 0.66960466 0.030456226 0.53713185
        0.6731001 0.032176867 0.5371419 0.6767796 0.03390441 0.5371573
        0.68064165 0.035625897 0.53718036 0.68468 0.037324015 0.53721386
        0.68888456 0.038978156 0.53726065 0.69324243 0.04056566 0.5373239
        0.6977276 0.04205976 0.5374061 0.7023188 0.04343794 0.5375094
        0.70725036 0.044744357 0.53764236 0.7122164 0.045876157 0.5377992
        0.71716243 0.046820577 0.5379773 0.72204745 0.047576625 0.5381731
        0.72682756 0.048150342 0.5383815 0.7314657 0.048554957 0.5385976
        0.7359296 0.048808552 0.53881603 0.7401937 0.04893218 0.5390322
        0.74423856 0.048948053 0.53924227 0.7480509 0.04887796 0.5394432
        0.75162345 0.048742127 0.5396329 0.75495416 0.04855847 0.5398101
        0.7580455 0.048342198 0.5399742 0.7609033 0.048105758 0.5401252
        0.76353604 0.047859035 0.5402633 0.7659541 0.04760964 0.54038924
        0.7681691 0.04736325 0.54050356 0.77019334 0.04712397 0.5406072
        0.7720396 0.046894643 0.540701 0.7737205 0.04667714 0.5407857
        0.7752486 0.04647257 0.54086214 0.7766358 0.046281476 0.5409311
        0.77789384 0.04610399 0.5409932 0.77903354 0.04593993 0.5410492
        0.7800649 0.04578892 0.5410996 0.7809974 0.045650434 0.5411449
        0.7818397 0.045523852 0.5411857 0.78259987 0.045408484 0.54122233
        0.78328526 0.0453036 0.5412553 0.78390265 0.045208476 0.5412848
        0.78445834 0.04512237 0.5413113 0.784958 0.045044582 0.5413351
        0.78540707 0.044974413 0.5413564 0.78581023 0.044911202 0.5413755
        0.786172 0.044854335 0.54139256 0.7864963 0.044803236 0.5414079
        0.78678685 0.044757355 0.5414216 0.7870471 0.0447162 0.5414338
        0.78727996 0.044679314 0.5414447 0.7874883 0.044646267 0.5414545
        0.6314459 0.0055099027 0.5368167 0.6322263 0.0061800615 0.5368368
        0.6330758 0.00690955 0.53685737 0.6340012 0.0077028726 0.5368782
        0.63501066 0.008564169 0.5368993 0.6361127 0.009497072 0.53692037
        0.6373169 0.0105045205 0.53694105 0.6386333 0.011588554 0.5369612
        0.6400724 0.012750104 0.5369804 0.6416448 0.013988783 0.5369983
        0.6433604 0.015302643 0.53701466 0.64522797 0.016687931 0.53702915
        0.6472541 0.018138746 0.53704154 0.6494421 0.019647025 0.53705174
        0.6517919 0.021203397 0.53705966 0.6543017 0.02279849 0.53706545
        0.6569692 0.024424274 0.53706944 0.659794 0.026075078 0.5370722
        0.66277856 0.02774766 0.5370743 0.6659291 0.029440433 0.53707695
        0.6692539 0.031151956 0.5370811 0.6727605 0.03287835 0.5370885
        0.6764524 0.03461138 0.53710115 0.6803285 0.036338244 0.5371215
        0.68438274 0.03804177 0.53715223 0.6886054 0.039701466 0.5371965
        0.69298375 0.041294742 0.5372573 0.69749147 0.042794805 0.5373374
        0.702107 0.04417902 0.53743887 0.70706606 0.045491785 0.5375704
        0.7120603 0.046629615 0.53772634 0.71703476 0.04757958 0.53790396
        0.72194767 0.048340574 0.5380996 0.7267546 0.0489186 0.5383083
        0.7314181 0.0493269 0.53852487 0.7359055 0.04958359 0.538744
        0.7401911 0.049709823 0.53896093 0.7442552 0.049727876 0.53917176
        0.74808466 0.049659625 0.5393735 0.7516722 0.049525373 0.53956395
        0.75501585 0.04934307 0.5397419 0.7581183 0.04912797 0.5399066
        0.76098555 0.048892554 0.5400582 0.7636264 0.04864673 0.5401969
        0.7660514 0.048398133 0.54032326 0.76827234 0.048152458 0.5404381
        0.77030176 0.047913823 0.5405422 0.77215254 0.0476851 0.5406363
        0.77383745 0.047468163 0.54072136 0.7753691 0.047264136 0.5407981
        0.7767597 0.04707356 0.5408674 0.7780208 0.046896577 0.5409298
        0.7791634 0.046732996 0.54098606 0.78019756 0.046582446 0.54103667
        0.78113276 0.046444394 0.5410822 0.78197765 0.046318203 0.54112315
        0.78274024 0.0462032 0.54116005 0.7834279 0.046098646 0.5411931
        0.78404754 0.046003807 0.5412228 0.7846053 0.04591796 0.5412495
        0.785107 0.04584039 0.5412734 0.78555787 0.045770403 0.5412949
        0.78596276 0.04570735 0.54131407 0.7863261 0.045650613 0.5413313
        0.7866519 0.04559962 0.54134667 0.78694385 0.045553837 0.54136044
        0.78720534 0.04551276 0.5413728 0.78743935 0.04547593 0.5413838
        0.78764874 0.045442928 0.54139364 0.63084835 0.0060490384 0.5367898
        0.63163865 0.006724899 0.5368097 0.63249844 0.0074601565 0.53683
        0.6334349 0.008259369 0.53685063 0.63445574 0.009126762 0.5368714
        0.6355698 0.010066073 0.536892 0.6367864 0.011080356 0.5369122
        0.6381157 0.01217176 0.5369317 0.63956803 0.013341297 0.5369502
        0.641154 0.014588623 0.5369672 0.6428835 0.015911784 0.53698254
        0.64476526 0.017306954 0.5369958 0.6468057 0.018768076 0.53700686
        0.6490079 0.020286854 0.53701544 0.65137166 0.021853626 0.53702164
        0.65389466 0.0234587 0.5370255 0.65657455 0.025093786 0.53702736
        0.6594108 0.026753033 0.5370279 0.662406 0.02843316 0.53702766
        0.6655668 0.030132666 0.5370277 0.668902 0.0318503 0.5370293
        0.6724197 0.03358241 0.53703403 0.67612404 0.03532096 0.5370439
        0.6800141 0.037053302 0.53706145 0.6840843 0.038762387 0.53708947
        0.68832505 0.04042781 0.5371311 0.6927238 0.042027082 0.5371895
        0.6972541 0.043533307 0.53726745 0.7018941 0.044923745 0.53736705
        0.7068807 0.04624301 0.5374971 0.71190333 0.047386974 0.537652
        0.71690637 0.04834253 0.5378291 0.72184736 0.04910846 0.5380246
        0.7266813 0.049690723 0.5382336 0.7313703 0.050102584 0.53845066
        0.7358814 0.05036222 0.5386704 0.7401885 0.050490864 0.5388882
        0.744272 0.05051089 0.5390999 0.74811864 0.050444268 0.5393024
        0.7517211 0.050311364 0.5394936 0.7550777 0.050130203 0.53967226
        0.7581913 0.04991607 0.5398377 0.76106805 0.049681492 0.5399899
        0.763717 0.0494364 0.5401291 0.76614887 0.049188446 0.540256
        0.76837575 0.048943345 0.5403713 0.7704103 0.04870524 0.5404758
        0.77226555 0.048477005 0.5405704 0.77395445 0.04826053 0.54065573
        0.7754897 0.04805694 0.54073286 0.7768836 0.047866795 0.5408024
        0.77814776 0.04769022 0.54086506 0.77929324 0.047527034 0.54092157
        0.7803302 0.047376845 0.5409725 0.78126806 0.04723913 0.54101825
        0.78211546 0.047113255 0.54105943 0.7828805 0.04699852 0.5410965
        0.7835705 0.04689421 0.54112977 0.7841923 0.046799585 0.5411597
        0.78475225 0.04671391 0.5411865 0.7852559 0.046636485 0.54121053
        0.78570867 0.04656662 0.5412321 0.7861153 0.046503663 0.5412515
        0.78648025 0.046447013 0.5412688 0.78680754 0.04639608 0.54128426
        0.78710085 0.046350338 0.54129815 0.7873636 0.046309296 0.54131055
        0.7875988 0.046272494 0.5413217 0.78780925 0.046239514 0.5413316
        0.6302509 0.0065881233 0.5367621 0.6310508 0.007270184 0.5367818
        0.6319208 0.008011721 0.53680193 0.63286793 0.00881734 0.5368222
        0.63390005 0.00969133 0.5368426 0.63502586 0.010637517 0.5368628
        0.63625467 0.011659055 0.53688246 0.6375966 0.012758183 0.53690135
        0.63906205 0.013935994 0.53691906 0.6406615 0.01519218 0.5369352
        0.64240485 0.016524779 0.5369495 0.6443008 0.017929893 0.53696156
        0.6463557 0.019401325 0.5369712 0.6485722 0.020930534 0.53697824
        0.65094995 0.022507576 0.5369826 0.6534863 0.024122452 0.5369845
        0.6561787 0.025766628 0.5369843 0.6590264 0.0274341 0.53698254
        0.66203237 0.02912157 0.53698 0.6652034 0.030827645 0.53697747
        0.66854894 0.03255128 0.53697646 0.67207783 0.03428907 0.5369784
        0.6757945 0.036033157 0.5369856 0.6796985 0.037771076 0.53700024
        0.6837846 0.039485853 0.5370255 0.6880434 0.0411572 0.5370645
        0.69246256 0.04276266 0.53712034 0.6970156 0.044275265 0.5371961
        0.70168006 0.04567211 0.53729385 0.70669436 0.046998028 0.5374224
        0.71174556 0.048148237 0.5375762 0.71677727 0.049109425 0.53775275
        0.72174644 0.049880274 0.53794813 0.7266076 0.05046671 0.5381574
        0.7313222 0.050882008 0.5383749 0.7358571 0.051144432 0.53859544
        0.7401859 0.051275298 0.53881395 0.74428886 0.05129709 0.5390265
        0.74815273 0.05123187 0.53922987 0.7517702 0.0511001 0.53942186
        0.7551398 0.05091986 0.5396013 0.7582645 0.050706495 0.53976744
        0.7611507 0.050472565 0.5399203 0.7638077 0.050228026 0.54006004
        0.7662465 0.04998056 0.5401875 0.7684792 0.0497359 0.54030323
        0.7705189 0.049498197 0.54040813 0.77237856 0.04927034 0.5405031
        0.77407146 0.04905422 0.54058886 0.77561027 0.048850976 0.5406663
        0.77700746 0.048661157 0.54073614 0.7782747 0.048484895 0.54079914
        0.77942306 0.048321996 0.5408559 0.7804628 0.048172086 0.540907
        0.78140324 0.04803462 0.54095304 0.7822532 0.047908954 0.54099447
        0.7830207 0.047794417 0.5410317 0.78371304 0.04769026 0.54106516
        0.7843371 0.047595765 0.54109526 0.78489906 0.0475102 0.54112226
        0.78540474 0.04743285 0.54114646 0.78585935 0.047363054 0.5411682
        0.78626776 0.047300138 0.54118764 0.7866343 0.047243506 0.5412051
        0.7869631 0.04719259 0.5412207 0.78725785 0.04714686 0.5412347
        0.78752184 0.047105815 0.5412472 0.7877582 0.047069006 0.54125834
        0.7879697 0.04703601 0.54126835 0.6296534 0.007127157 0.53673375
        0.6304629 0.007815906 0.53675324 0.6313429 0.0085642245 0.536773
        0.6323005 0.00937675 0.53679305 0.63334364 0.01025783 0.536813
        0.6344809 0.011211358 0.5368327 0.63572174 0.01224057 0.5368519
        0.6370762 0.013347788 0.53687006 0.63855463 0.014534167 0.53688705
        0.6401675 0.015799435 0.5369023 0.6419247 0.017141622 0.5369155
        0.6438348 0.018556757 0.5369263 0.64590406 0.020038499 0.53693455
        0.648135 0.021578077 0.53694 0.6505268 0.023165261 0.53694254
        0.65307665 0.02478977 0.53694254 0.65578157 0.026442824 0.5369402
        0.65864086 0.028118303 0.53693616 0.66165763 0.029812913 0.5369312
        0.6648389 0.03152539 0.5369262 0.66819483 0.03325492 0.5369225
        0.6717348 0.034998342 0.5369218 0.67546374 0.036748 0.5369261
        0.6793817 0.03849157 0.53693795 0.68348366 0.040212184 0.53696036
        0.68776053 0.041889638 0.5369966 0.6922001 0.04350149 0.53705
        0.6967758 0.04502067 0.53712344 0.70146495 0.046424117 0.5372192
        0.70650697 0.047756847 0.53734624 0.7115869 0.04891339 0.537499
        0.71664745 0.049880255 0.5376749 0.72164506 0.050656013 0.53787017
        0.72653353 0.051246554 0.5380796 0.731274 0.051665176 0.5382977
        0.7358328 0.05193022 0.5385189 0.74018335 0.05206312 0.5387383
        0.7443059 0.052086465 0.53895164 0.74818695 0.05202243 0.5391559
        0.75181955 0.05189157 0.5393487 0.7552021 0.051712036 0.5395289
        0.75833786 0.051499236 0.53969574 0.76123357 0.05126576 0.53984916
        0.7638986 0.051021613 0.5399896 0.76634425 0.050774477 0.54011756
        0.7685829 0.050530113 0.5402338 0.7706276 0.050292682 0.5403392
        0.7724917 0.050065085 0.5404345 0.7741885 0.049849216 0.54052067
        0.77573085 0.049646202 0.54059845 0.77713126 0.04945662 0.5406686
        0.7784016 0.04928057 0.5407319 0.7795528 0.049117874 0.54078895
        0.7805953 0.04896814 0.5408403 0.7815384 0.048830822 0.5408866
        0.7823909 0.048705295 0.5409282 0.7831608 0.048590854 0.5409657
        0.7838555 0.048486784 0.54099935 0.78448176 0.04839234 0.54102963
        0.78504586 0.048306808 0.5410568 0.7855535 0.04822947 0.5410812
        0.78601 0.04815967 0.54110307 0.78642017 0.048096746 0.5411226
        0.78678834 0.0480401 0.5411402 0.7871187 0.04798915 0.54115593
        0.7874148 0.04794338 0.54117006 0.7876801 0.0479023 0.54118264
        0.7879176 0.047865454 0.5411939 0.7881302 0.04783242 0.541204
        0.629056 0.0076661385 0.5367047 0.6298748 0.008362059 0.5367239
        0.63076466 0.009117652 0.53674346 0.63173264 0.009937582 0.5367631
        0.6327865 0.010826237 0.5367827 0.63393515 0.011787569 0.5368019
        0.6351878 0.012824878 0.5368204 0.63655454 0.013940552 0.53683794
        0.6380458 0.015135802 0.5368541 0.639672 0.016410386 0.5368684
        0.64144295 0.017762315 0.53688055 0.6433673 0.019187555 0.5368901
        0.645451 0.020679614 0.5368969 0.6476964 0.022229504 0.53690064
        0.6501023 0.023826707 0.5369015 0.6526657 0.025460672 0.53689945
        0.6553832 0.027122403 0.53689504 0.6582542 0.028805671 0.5368887
        0.6612817 0.030507216 0.5368813 0.6644733 0.03222593 0.5368738
        0.66783965 0.033961244 0.5368675 0.67139065 0.035710245 0.53686404
        0.67513186 0.03746549 0.5368655 0.67906374 0.039214805 0.5368745
        0.68318146 0.040941387 0.536894 0.68747634 0.042625114 0.53692746
        0.69193643 0.044243563 0.53697824 0.6965349 0.045769528 0.53704935
        0.70124865 0.04717976 0.53714323 0.7063186 0.048519455 0.5372686
        0.7114274 0.049682446 0.5374202 0.716517 0.05065503 0.53759557
        0.72154313 0.051435687 0.53779066 0.72645915 0.05203025 0.53800035
        0.73122555 0.052452076 0.538219 0.7358084 0.052719582 0.5384409
        0.74018085 0.05285432 0.5386611 0.74432296 0.052879013 0.53887534
        0.7482214 0.05281594 0.53908044 0.751869 0.052685764 0.53927416
        0.7552646 0.052506726 0.5394551 0.75841147 0.052294284 0.53962266
        0.76131666 0.05206108 0.5397768 0.76398975 0.05181714 0.53991777
        0.7664422 0.05157019 0.5400463 0.7686866 0.051325977 0.54016304
        0.77073634 0.051088694 0.54026884 0.7726049 0.050861232 0.5403646
        0.7743056 0.050645493 0.54045117 0.7758514 0.05044262 0.54052925
        0.7772551 0.050253157 0.5405998 0.7785284 0.050077222 0.5406634
        0.7796825 0.04991463 0.5407207 0.78072774 0.049764972 0.5407723
        0.78167343 0.049627718 0.54081887 0.78252846 0.04950223 0.5408608
        0.7833008 0.04938781 0.54089844 0.78399783 0.04928374 0.5409323
        0.7846263 0.049189277 0.54096276 0.78519255 0.04910371 0.5409901
        0.7857022 0.049026333 0.5410146 0.7861606 0.048956472 0.54103667
        0.78657246 0.048893485 0.5410564 0.78694236 0.048836768 0.5410741
        0.7872742 0.048785746 0.54108995 0.7875717 0.04873991 0.54110414
        0.7878383 0.048698757 0.54111683 0.788077 0.04866184 0.5411282
        0.7882907 0.04862874 0.54113835 0.62845856 0.0082050655 0.536675
        0.62928677 0.008908641 0.5366939 0.6301863 0.009672002 0.53671306
        0.6311644 0.010499828 0.5367324 0.6322289 0.01139654 0.5367515
        0.6333886 0.012366137 0.53677016 0.63465285 0.013411964 0.5367881
        0.6360318 0.014536468 0.5368049 0.63753575 0.0157409 0.5368202
        0.6391751 0.017025031 0.5368335 0.6409598 0.018386869 0.53684455
        0.6428983 0.019822298 0.53685284 0.64499646 0.021324692 0.53685814
        0.6472564 0.022884833 0.53686035 0.64967656 0.024491934 0.53685933
        0.6522535 0.026135182 0.5368554 0.65498376 0.027805382 0.5368488
        0.65786636 0.029496228 0.5368402 0.6609047 0.031204503 0.5368304
        0.6641066 0.032929283 0.53682035 0.6674833 0.034670267 0.5368114
        0.67104536 0.0364248 0.5368051 0.6747988 0.038185645 0.53680366
        0.67874455 0.03994078 0.5368098 0.6828781 0.04167347 0.53682643
        0.68719095 0.04336365 0.5368571 0.6916715 0.044988893 0.5369052
        0.69629264 0.046521842 0.53697395 0.70103127 0.047939055 0.5370658
        0.70612925 0.049285863 0.5371894 0.711267 0.050455403 0.5373399
        0.7163858 0.051433757 0.5375147 0.7214407 0.05221929 0.53770965
        0.72638434 0.052817807 0.5379196 0.73117685 0.053242713 0.5381387
        0.7357839 0.053512517 0.5383614 0.74017835 0.053648908 0.5385824
        0.7443402 0.053674735 0.5387976 0.74825597 0.0536124 0.5390036
        0.75191873 0.053482693 0.53919816 0.7553273 0.053303927 0.5393799
        0.7584853 0.053091638 0.5395482 0.76139987 0.052858517 0.539703
        0.76408094 0.052614618 0.53984463 0.7665402 0.052367684 0.5399737
        0.7687905 0.052123483 0.5400909 0.7708452 0.051886216 0.5401972
        0.7727181 0.051658772 0.5402934 0.77442265 0.05144306 0.54038036
        0.775972 0.051240202 0.54045886 0.77737886 0.05105076 0.54052967
        0.7786552 0.050874833 0.54059356 0.77981216 0.050712243 0.5406512
        0.78086007 0.05056257 0.5407031 0.78180844 0.05042529 0.5407499
        0.78266597 0.050299753 0.54079205 0.7834407 0.05018527 0.54082996
        0.78414005 0.05008112 0.540864 0.7847708 0.049986567 0.5408947
        0.7853391 0.049900897 0.5409222 0.7858508 0.049823415 0.54094696
        0.7863111 0.049753442 0.54096913 0.78672475 0.04969034 0.540989
        0.78709626 0.04963351 0.54100686 0.78742963 0.04958238 0.5410228
        0.7877286 0.049536437 0.54103714 0.7879965 0.049495175 0.5410499
        0.7882364 0.04945817 0.5410614 0.78845114 0.049424972 0.5410716
        0.6278612 0.008743939 0.53664446 0.6286986 0.009455657 0.5366631
        0.62960774 0.010227275 0.536682 0.6305958 0.011063492 0.53670084
        0.6316708 0.011968744 0.5367195 0.63284135 0.012947062 0.53673756
        0.63411707 0.014001834 0.53675485 0.635508 0.015135541 0.53677094
        0.63702446 0.016349463 0.53678536 0.63867694 0.01764339 0.53679776
        0.64047533 0.019015301 0.5368076 0.642428 0.020461012 0.5368146
        0.6445406 0.021973751 0.53681844 0.646815 0.023544086 0.5368189
        0.6492495 0.02516097 0.5368161 0.6518401 0.026813326 0.53681016
        0.65458304 0.02849179 0.53680146 0.6574774 0.03018999 0.5367906
        0.6605266 0.03190479 0.5367784 0.6637388 0.03363547 0.5367658
        0.6671259 0.035382006 0.53675413 0.67069894 0.037142016 0.5367451
        0.6744646 0.03890848 0.5367408 0.6784242 0.040669512 0.53674394
        0.6825734 0.04240844 0.53675765 0.68690425 0.044105243 0.5367854
        0.69140524 0.04573748 0.53683084 0.6960493 0.047277626 0.5368971
        0.70081276 0.048701998 0.5369869 0.7059389 0.050056078 0.53710884
        0.71110576 0.05123227 0.53725815 0.7162539 0.052216437 0.5374322
        0.72133774 0.053006828 0.537627 0.72630924 0.053609233 0.53783715
        0.731128 0.054037098 0.53805685 0.7357593 0.05430904 0.53828025
        0.7401759 0.054446883 0.5385022 0.7443575 0.054473624 0.5387183
        0.7482907 0.054411814 0.53892523 0.7519686 0.054282345 0.5391207
        0.7553902 0.05410364 0.53930324 0.7585593 0.053891297 0.5394723
        0.7614833 0.05365807 0.5396278 0.7641724 0.05341404 0.53977007
        0.7666384 0.053166963 0.5398997 0.76889443 0.052922636 0.5400175
        0.77095413 0.05268525 0.54012424 0.7728313 0.052457698 0.54022086
        0.7745397 0.052241884 0.5403082 0.7760926 0.05203894 0.5403871
        0.7775026 0.051849414 0.54045826 0.7787819 0.051673394 0.5405225
        0.7799417 0.0515107 0.5405804 0.78099227 0.051360924 0.5406326
        0.78194326 0.051223516 0.5406797 0.7828033 0.051097844 0.5407221
        0.7835805 0.05098322 0.54076016 0.7842822 0.05087891 0.5407945
        0.78491515 0.0507842 0.54082537 0.7854856 0.050698366 0.5408531
        0.7859993 0.05062072 0.540878 0.7864615 0.05055058 0.54090035
        0.786877 0.050487313 0.5409204 0.7872501 0.050430328 0.5409384
        0.7875851 0.050379045 0.5409545 0.7878854 0.05033296 0.5409689
        0.78815466 0.050291568 0.54098177 0.78839576 0.050254427 0.54099333
        0.78861165 0.050221115 0.5410037 0.62726384 0.009282756 0.53661335
        0.6281104 0.01000311 0.53663164 0.62902904 0.010783484 0.5366501
        0.63002694 0.011628584 0.53666854 0.63111216 0.01254286 0.53668666
        0.6322935 0.0135303615 0.5367042 0.6335805 0.014594501 0.53672075
        0.6349832 0.015737785 0.5367361 0.63651204 0.016961517 0.5367496
        0.6381775 0.01826548 0.536761 0.6399895 0.019647632 0.5367696
        0.6419562 0.021103717 0.53677535 0.6440833 0.02262682 0.5367776
        0.6463723 0.02420729 0.5367765 0.6488211 0.02583383 0.53677183
        0.6514254 0.027495123 0.53676385 0.6541812 0.029181644 0.53675306
        0.6570873 0.03088698 0.5367399 0.66014737 0.032608107 0.5367252
        0.6633699 0.034344517 0.5367101 0.66676736 0.03609648 0.5366958
        0.67035145 0.037861917 0.5366839 0.6741292 0.03963401 0.5366767
        0.67810255 0.04140101 0.5366768 0.6822675 0.04314631 0.5366876
        0.6866163 0.044849906 0.53671247 0.6911378 0.046489332 0.53675514
        0.69580466 0.048036877 0.5368189 0.7005932 0.0494686 0.53690654
        0.7057474 0.05083011 0.5370267 0.71094364 0.052013062 0.53717476
        0.71612126 0.053003084 0.53734815 0.7212342 0.053798325 0.53754276
        0.7262337 0.054404534 0.53775316 0.7310789 0.05483523 0.5379734
        0.7357347 0.055109154 0.53819764 0.74017346 0.055248257 0.53842044
        0.74437493 0.055275697 0.53863746 0.74832565 0.05521418 0.53884536
        0.7520187 0.05508472 0.53904176 0.75545335 0.05490586 0.53922516
        0.75863355 0.054693267 0.539395 0.76156694 0.05445974 0.5395512
        0.7642639 0.054215394 0.53969413 0.7667367 0.053968027 0.53982437
        0.76899844 0.05372343 0.5399427 0.7710631 0.053485785 0.5400499
        0.7729446 0.053258 0.540147 0.77465683 0.05304198 0.54023474
        0.7762131 0.052838836 0.540314 0.7776263 0.052649107 0.5403856
        0.77890855 0.0524729 0.54045016 0.78007114 0.052310005 0.54050833
        0.7811244 0.052160017 0.5405609 0.782078 0.0520224 0.54060817
        0.78294057 0.051896505 0.5406508 0.7837202 0.051781647 0.5406892
        0.7844242 0.05167711 0.54072374 0.7850594 0.051582173 0.5407548
        0.785632 0.051496107 0.54078275 0.7861478 0.05141823 0.54080784
        0.78661186 0.05134787 0.5408304 0.7870291 0.0512844 0.5408506
        0.78740394 0.051227212 0.5408687 0.7877404 0.05117574 0.5408849
        0.78804225 0.05112947 0.54089946 0.7883128 0.051087905 0.5409125
        0.78855515 0.051050615 0.54092413 0.7887721 0.05101716 0.54093456
        0.62666655 0.009821516 0.53658146 0.62752223 0.010551012 0.53659946
        0.6284502 0.011340647 0.5366175 0.62945783 0.012195129 0.53663546
        0.6305532 0.013118915 0.536653 0.63174504 0.014116064 0.5366699
        0.6330431 0.015189997 0.53668576 0.63445747 0.016343234 0.53670025
        0.63599855 0.017577084 0.5367128 0.63767695 0.018891335 0.53672314
        0.63950235 0.020283895 0.53673065 0.6414832 0.021750445 0.53673494
        0.6436247 0.023283925 0.5367358 0.6459283 0.024874477 0.5367329
        0.6483915 0.026510546 0.5367264 0.65100956 0.028180603 0.5367165
        0.6537782 0.029874966 0.53670347 0.65669614 0.03158722 0.536688
        0.65976703 0.033314463 0.536671 0.6629999 0.035056423 0.5366533
        0.6664077 0.036813706 0.53663623 0.67000276 0.038584508 0.5366216
        0.67379266 0.040362243 0.53661144 0.67777973 0.04213529 0.5366086
        0.6819603 0.04388708 0.5366163 0.68632704 0.045597646 0.53663814
        0.69086903 0.047244474 0.536678 0.69555885 0.04879961 0.5367393
        0.7003724 0.050238874 0.5368247 0.705555 0.051607974 0.5369431
        0.7107806 0.052797787 0.5370899 0.715988 0.053793713 0.5372625
        0.72113013 0.054593783 0.5374569 0.72615784 0.05520373 0.5376676
        0.7310296 0.055637132 0.5378884 0.73570997 0.055912856 0.5381134
        0.7401711 0.056053028 0.5383371 0.7443925 0.056080952 0.53855515
        0.74836075 0.056019504 0.538764 0.752069 0.055889837 0.5389613
        0.7555167 0.055710595 0.5391456 0.75870794 0.05549754 0.53931624
        0.76165074 0.055263523 0.53947324 0.76435566 0.0550187 0.53961676
        0.76683515 0.054770876 0.5397476 0.7691026 0.054525856 0.5398665
        0.77117217 0.054287825 0.5399743 0.77305794 0.05405969 0.5400718
        0.7747739 0.053843334 0.54015994 0.7763336 0.05363988 0.54023963
        0.7777499 0.053449847 0.5403116 0.7790351 0.05327334 0.5403765
        0.7802005 0.05311014 0.540435 0.7812565 0.052959856 0.5404878
        0.7822126 0.052821927 0.54053545 0.7830777 0.05269573 0.54057837
        0.7838597 0.052580565 0.540617 0.7845661 0.052475717 0.54065174
        0.7852036 0.052380472 0.54068303 0.7857783 0.052294116 0.54071116
        0.78629607 0.052215956 0.5407365 0.78676206 0.052145325 0.5407592
        0.78718114 0.05208159 0.54077953 0.7875577 0.052024156 0.5407978
        0.78789574 0.051972456 0.54081416 0.788199 0.05192597 0.5408289
        0.7884709 0.051884215 0.540842 0.78871447 0.05184674 0.54085374
        0.7889326 0.05181311 0.5408643 0.62606925 0.010360219 0.5365489
        0.626934 0.011099373 0.53656656 0.62787133 0.011898786 0.5365842
        0.62888855 0.0127631575 0.5366016 0.6299938 0.013696945 0.53661853
        0.6311961 0.014704204 0.53663474 0.632505 0.01578836 0.5366499
        0.6339308 0.016951924 0.5366634 0.63548404 0.018196212 0.5366751
        0.63717514 0.019520987 0.53668433 0.639014 0.020924127 0.53669065
        0.64100885 0.02240123 0.5366936 0.6431649 0.023945099 0.53669286
        0.6454831 0.025545664 0.53668827 0.64796066 0.02719114 0.5366799
        0.65059257 0.028869778 0.53666794 0.6533741 0.030571777 0.5366528
        0.6563038 0.032290727 0.53663504 0.6593857 0.03402387 0.53661555
        0.6626288 0.03577122 0.53659534 0.666047 0.037533697 0.53657556
        0.66965294 0.03930981 0.53655803 0.67345494 0.041093193 0.5365449
        0.67745566 0.04287235 0.5365391 0.6816519 0.044630773 0.5365437
        0.6860365 0.04634848 0.53656256 0.69059896 0.04800289 0.5365996
        0.6953117 0.04956584 0.53665817 0.7001505 0.051012836 0.5367414
        0.70536155 0.05238968 0.53685784 0.7106167 0.053586464 0.53700334
        0.7158539 0.054588344 0.5371753 0.7210256 0.05539322 0.5373695
        0.7260816 0.05600683 0.5375804 0.7309801 0.056442816 0.53780174
        0.73568517 0.056720175 0.5380275 0.74016875 0.056861203 0.53825223
        0.74441016 0.056889396 0.5384713 0.748396 0.056827795 0.53868115
        0.7521195 0.056697685 0.5388794 0.75558025 0.056517854 0.5390646
        0.75878257 0.056304127 0.53923607 0.7617348 0.056069423 0.5393938
        0.76444757 0.05582395 0.539538 0.7669337 0.055575505 0.5396695
        0.7692068 0.05532992 0.53978896 0.77128124 0.055091374 0.5398972
        0.77317125 0.054862756 0.53999525 0.77489096 0.05464595 0.5400838
        0.77645403 0.054442067 0.54016393 0.77787346 0.05425163 0.54023623
        0.7791616 0.054074716 0.5403015 0.7803297 0.05391112 0.5403604
        0.7813884 0.05376043 0.5404135 0.78234714 0.053622104 0.5404614
        0.7832147 0.053495508 0.5405046 0.7839992 0.053379953 0.5405435
        0.78470784 0.05327473 0.54057854 0.7853476 0.053179115 0.5406101
        0.7859245 0.053092394 0.5406384 0.7864443 0.053013887 0.5406639
        0.78691226 0.052942935 0.5406867 0.78733313 0.05287889 0.5407073
        0.7877114 0.05282117 0.5407257 0.788051 0.052769203 0.5407423
        0.78835577 0.052722465 0.54075706 0.788629 0.052680477 0.5407703
        0.7888738 0.052642785 0.5407822 0.7890931 0.052608963 0.54079276
        0.625472 0.010898864 0.5365157 0.6263458 0.011648212 0.53653294
        0.62729234 0.012457929 0.5365501 0.62831897 0.01333271 0.5365669
        0.62943405 0.014276998 0.53658324 0.6306465 0.015294838 0.53659874
        0.6319662 0.01638964 0.53661305 0.63340324 0.017563913 0.53662574
        0.6349684 0.018818948 0.53663635 0.6366722 0.02015449 0.5366444
        0.6385244 0.021568367 0.53664947 0.6405332 0.02305611 0.5366511
        0.6427037 0.024610376 0.53664875 0.6450366 0.02622089 0.5366425
        0.6475286 0.027875641 0.53663224 0.6501743 0.029562676 0.5366183
        0.65296876 0.03127209 0.53660095 0.65591043 0.032997515 0.5365809
        0.65900314 0.034736354 0.536559 0.6622567 0.036488913 0.5365362
        0.6656851 0.038256455 0.53651375 0.669302 0.040037826 0.53649336
        0.673116 0.041826867 0.5364773 0.6771304 0.04361222 0.5364683
        0.6813422 0.045377392 0.5364699 0.6857447 0.047102414 0.5364857
        0.69032764 0.048764624 0.5365197 0.6950634 0.050335582 0.5365757
        0.6999274 0.051790506 0.53665656 0.70516706 0.053175252 0.53677106
        0.7104519 0.05437911 0.53691524 0.71571916 0.055386983 0.5370864
        0.72092044 0.05619666 0.5372804 0.726005 0.05681385 0.5374915
        0.7309304 0.057252295 0.53771347 0.7356603 0.057531122 0.5379401
        0.7401664 0.05767281 0.53816575 0.7444279 0.057701055 0.5383858
        0.7484314 0.057639055 0.5385967 0.7521702 0.057508286 0.53879595
        0.75564396 0.05732763 0.5389821 0.7588574 0.05711303 0.5391544
        0.76181895 0.05687746 0.5393129 0.76453966 0.056631148 0.5394579
        0.7670324 0.056381933 0.53959 0.76931113 0.05613563 0.53971
        0.7713904 0.05589643 0.5398188 0.7732846 0.05566721 0.53991735
        0.775008 0.055449843 0.5400064 0.7765745 0.05524542 0.5400869
        0.777997 0.055054456 0.5401596 0.779288 0.05487704 0.5402252
        0.78045887 0.054712936 0.54028445 0.7815202 0.054561753 0.5403379
        0.7824815 0.05442294 0.54038614 0.7833516 0.05429586 0.5404296
        0.7841385 0.054179832 0.54046875 0.7848495 0.054074146 0.54050404
        0.78549147 0.05397809 0.5405358 0.7860705 0.053890947 0.54056436
        0.7865924 0.053812042 0.54059005 0.7870623 0.053740706 0.5406131
        0.787485 0.053676307 0.54063386 0.787865 0.05361825 0.54065245
        0.7882062 0.05356597 0.54066914 0.78851247 0.05351895 0.54068404
        0.78878707 0.053476695 0.54069746 0.7890332 0.053438764 0.54070944
        0.7892536 0.05340472 0.54072016 0.6248748 0.011437449 0.5364818
        0.6257576 0.012197545 0.5364986 0.6267132 0.013018113 0.5365152
        0.6277492 0.013903832 0.53653145 0.6288739 0.014859129 0.5365471
        0.63009644 0.015888024 0.53656185 0.6314266 0.016993906 0.53657526
        0.63287485 0.01817926 0.536587 0.6344518 0.019445349 0.5365966
        0.63616806 0.02079189 0.5366035 0.63803357 0.022216672 0.53660727
        0.6400563 0.02371513 0.53660744 0.64224124 0.02527979 0.53660357
        0.64458877 0.026900183 0.5365956 0.6470953 0.028564071 0.5365834
        0.64975494 0.030259319 0.5365674 0.6525624 0.031975932 0.53654796
        0.6555159 0.033707596 0.5365256 0.6586196 0.03545192 0.5365012
        0.6618835 0.037209507 0.5364759 0.6653221 0.038982 0.5364507
        0.6689499 0.040768564 0.5364275 0.6727759 0.042563275 0.5364084
        0.6768039 0.044354897 0.5363963 0.6810312 0.046126958 0.5363947
        0.68545157 0.047859468 0.53640735 0.690055 0.04952967 0.5364384
        0.6948139 0.051108863 0.53649163 0.6997032 0.0525719 0.5365702
        0.7049715 0.053964708 0.5366827 0.71028626 0.055175755 0.5368255
        0.71558374 0.056189664 0.5369958 0.72081476 0.057004116 0.53718966
        0.725928 0.057624817 0.53740096 0.73088044 0.058065582 0.5376236
        0.73563534 0.058345713 0.53785104 0.7401641 0.05848786 0.5380777
        0.74444586 0.058515925 0.5382988 0.748467 0.05845331 0.53851074
        0.7522211 0.058321644 0.538711 0.755708 0.058139946 0.5388981
        0.7589325 0.05792426 0.5390713 0.7619033 0.05768762 0.5392306
        0.76463187 0.0574403 0.5393763 0.7671312 0.05719015 0.53950906
        0.76941556 0.056942996 0.5396297 0.77149963 0.05670301 0.5397391
        0.773398 0.056473058 0.5398381 0.7751251 0.056255005 0.5399276
        0.77669483 0.05604993 0.54000854 0.77812046 0.05585834 0.5400816
        0.7794143 0.055680305 0.54014766 0.780588 0.055515606 0.54020727
        0.7816519 0.055363834 0.54026103 0.7826158 0.055224434 0.54030955
        0.78348833 0.055096786 0.5403533 0.7842777 0.054980207 0.5403928
        0.784991 0.054873984 0.54042834 0.78563523 0.054777414 0.54046035
        0.7862165 0.054689784 0.54048914 0.7867404 0.054610413 0.54051507
        0.78721225 0.054538637 0.5405383 0.7876369 0.05447383 0.54055923
        0.7880185 0.054415394 0.540578 0.78836143 0.054362766 0.5405948
        0.7886691 0.054315418 0.5406099 0.78894514 0.054272868 0.5406234
        0.7891925 0.054234665 0.5406355 0.7894141 0.054200374 0.5406463
        0.6242776 0.011975974 0.53644717 0.62516934 0.012747396 0.5364635
        0.62613404 0.013579379 0.53647953 0.6271792 0.014476583 0.53649515
        0.62831336 0.015443409 0.5365101 0.62954575 0.01648384 0.536524
        0.6308863 0.017601231 0.5365366 0.6323455 0.018798037 0.5365473
        0.63393414 0.020075485 0.5365558 0.6356628 0.021433257 0.53656155
        0.6375414 0.02286909 0.536564 0.6395781 0.024378335 0.5365627
        0.64177746 0.025953386 0.53655726 0.6441397 0.02758358 0.5365474
        0.6466608 0.02925646 0.5365334 0.6493344 0.030959722 0.53651536
        0.6521548 0.03268331 0.5364937 0.65512025 0.03442098 0.5364691
        0.6582349 0.036170572 0.53644234 0.6615091 0.037933018 0.5364144
        0.66495806 0.039710335 0.5363865 0.6685966 0.04150204 0.5363604
        0.6724346 0.043302424 0.53633827 0.6764762 0.045100395 0.5363231
        0.68071896 0.046879474 0.53631824 0.6851572 0.048619654 0.5363277
        0.6897811 0.050298054 0.53635573 0.6945631 0.05188568 0.53640616
        0.69947785 0.05335704 0.5364823 0.7047749 0.054758076 0.5365928
        0.71011966 0.05597641 0.53673404 0.71544755 0.05699641 0.5369036
        0.72070855 0.057815623 0.53709716 0.7258507 0.058439754 0.53730875
        0.7308303 0.058882713 0.5375319 0.7356103 0.059163965 0.53776026
        0.74016184 0.05930637 0.53798795 0.74446386 0.059334032 0.53821015
        0.7485028 0.059270564 0.5384232 0.7522722 0.059137765 0.5386245
        0.7557721 0.05895481 0.5388126 0.75900775 0.058737822 0.5389867
        0.76198786 0.05849992 0.53914684 0.76472425 0.05825142 0.5392933
        0.76723015 0.058000173 0.53942674 0.7695201 0.057752013 0.539548
        0.7716089 0.057511106 0.5396579 0.7735114 0.057280302 0.53975743
        0.7752422 0.057061452 0.5398475 0.77681524 0.05685562 0.5399288
        0.77824384 0.056663297 0.54000235 0.77954054 0.056484547 0.54006875
        0.7807169 0.056319144 0.5401287 0.78178346 0.056166682 0.5401828
        0.7827499 0.05602661 0.5402317 0.78362495 0.055898305 0.5402758
        0.7844167 0.055781085 0.54031557 0.7851324 0.05567425 0.54035133
        0.7857789 0.055577092 0.54038364 0.78636235 0.055488903 0.54041266
        0.78688836 0.055409007 0.54043883 0.78736216 0.055336744 0.54046226
        0.78778857 0.055271477 0.54048336 0.788172 0.055212613 0.5405023
        0.7885165 0.055159587 0.5405193 0.78882575 0.05511188 0.54053456
        0.78910315 0.055069 0.5405482 0.78935176 0.055030495 0.54056036
        0.78957456 0.054995924 0.54057133 0.6236804 0.012514437 0.5364119
        0.6245811 0.013297789 0.5364277 0.6255547 0.014141777 0.5364432
        0.62660897 0.015051032 0.53645813 0.6277524 0.016029913 0.53647226
        0.62899446 0.017082367 0.5364853 0.6303452 0.018211704 0.5364969
        0.6318152 0.019420328 0.5365066 0.63341534 0.020709435 0.5365139
        0.63515633 0.022078658 0.5365184 0.63704807 0.02352568 0.5365195
        0.6390985 0.025045777 0.5365167 0.64131236 0.026631206 0.5365097
        0.64368933 0.028271109 0.5364982 0.646225 0.02995283 0.5364822
        0.6489126 0.031663906 0.5364621 0.6517461 0.03339424 0.53643835
        0.6547235 0.035137683 0.5364114 0.65784913 0.03689232 0.5363822
        0.66113365 0.038659446 0.5363517 0.66459286 0.04044147 0.5363211
        0.6682423 0.042238254 0.5362921 0.67209214 0.04404433 0.5362669
        0.67614716 0.045848716 0.5362485 0.68040544 0.047634955 0.53624046
        0.6848614 0.049382977 0.53624666 0.6895059 0.051069792 0.5362716
        0.694311 0.05266607 0.53631914 0.6992513 0.054145947 0.53639275
        0.70457727 0.055555373 0.53650117 0.7099522 0.056781113 0.536641
        0.7153106 0.057807248 0.5368097 0.7206018 0.058631204 0.537003
        0.725773 0.059258685 0.5372148 0.73077995 0.059703708 0.53743863
        0.7355853 0.059985906 0.5376678 0.74015963 0.060128357 0.5378966
        0.744482 0.06015539 0.5381199 0.74853873 0.060090836 0.5383341
        0.7523235 0.059956677 0.5385364 0.75583655 0.059772223 0.53872555
        0.7590832 0.05955373 0.5389006 0.7620726 0.059314374 0.5390616
        0.76481676 0.059064504 0.5392088 0.7673293 0.058812007 0.539343
        0.7696247 0.058562703 0.53946483 0.77171826 0.05832074 0.53957534
        0.77362484 0.058088966 0.5396754 0.7753593 0.057869192 0.53976595
        0.7769356 0.057662494 0.5398478 0.77836716 0.057469334 0.5399217
        0.7796667 0.057289768 0.5399885 0.78084576 0.05712357 0.5400489
        0.78191495 0.056970324 0.5401034 0.78288394 0.056829486 0.54015255
        0.7837615 0.056700435 0.54019696 0.7845556 0.056582496 0.54023707
        0.7852737 0.056474965 0.54027313 0.78592247 0.056377146 0.5403057
        0.786508 0.05628833 0.54033494 0.7870361 0.056207843 0.54036134
        0.78751194 0.05613503 0.540385 0.78794026 0.056069247 0.5404063
        0.7883254 0.056009907 0.5404254 0.78867155 0.05595645 0.5404426
        0.78898233 0.055908337 0.54045796 0.78926116 0.05586509 0.54047173
        0.7895111 0.055826247 0.5404841 0.7897351 0.055791378 0.54049516
        0.6230833 0.013052838 0.5363759 0.6239928 0.0138487555 0.53639114
        0.62497526 0.014705361 0.536406 0.62603843 0.015627252 0.5364202
        0.627191 0.016618734 0.5364336 0.6284426 0.017683707 0.5364457
        0.6298033 0.01882542 0.5364562 0.63128394 0.020046229 0.53646487
        0.6328954 0.02134728 0.536471 0.63464856 0.022728164 0.5364742
        0.63655335 0.02418651 0.53647393 0.63861763 0.025717512 0.53646964
        0.6408459 0.027313294 0.53646094 0.64323765 0.028962811 0.53644764
        0.64578795 0.030653212 0.53642976 0.6484896 0.032371897 0.53640765
        0.6513362 0.03410873 0.53638166 0.6543256 0.035857704 0.5363525
        0.6574622 0.037617173 0.53632087 0.66075706 0.03938879 0.5362878
        0.66422653 0.0411754 0.53625447 0.66788673 0.04297721 0.5362225
        0.6717485 0.044788994 0.53619426 0.67581695 0.046599884 0.5361727
        0.6800906 0.048393417 0.5361613 0.6845644 0.05014947 0.5361643
        0.68922937 0.051844906 0.536186 0.6940577 0.053450055 0.53623056
        0.6990236 0.054938655 0.5363017 0.7043786 0.05635664 0.5364079
        0.7097838 0.057589892 0.53654623 0.71517295 0.058622207 0.5367141
        0.72049445 0.059450895 0.5369071 0.7256949 0.060081642 0.53711915
        0.7307294 0.06052859 0.5373436 0.73556006 0.060811557 0.53757375
        0.7401574 0.06095385 0.53780353 0.7445002 0.060980033 0.53802806
        0.74857485 0.060914148 0.53824335 0.752375 0.060778383 0.53844684
        0.75590116 0.06059221 0.538637 0.75915885 0.060371995 0.53881305
        0.76215756 0.060130987 0.5389749 0.7649095 0.05987958 0.5391229
        0.7674285 0.059625667 0.53925776 0.76972944 0.059375063 0.5393803
        0.7718277 0.059131917 0.5394914 0.7737383 0.058899045 0.539592
        0.77547634 0.058678254 0.53968304 0.77705586 0.058470577 0.53976536
        0.7784904 0.058276474 0.53983974 0.7797928 0.058095995 0.539907
        0.7809745 0.057928897 0.5399677 0.7820463 0.057774775 0.5400226
        0.7830178 0.05763308 0.54007214 0.7838978 0.057503197 0.5401169
        0.7846944 0.057384446 0.54015726 0.7854148 0.057276145 0.5401937
        0.7860659 0.057177585 0.54022646 0.78665364 0.057088077 0.540256
        0.7871838 0.057006933 0.5402826 0.7876616 0.056933504 0.54030657
        0.78809184 0.056867152 0.540328 0.7884788 0.056807287 0.54034734
        0.7888266 0.056753345 0.5403647 0.7891389 0.05670479 0.54038024
        0.7894191 0.05666114 0.5403941 0.78967035 0.056621928 0.5404066
        0.7898956 0.056586716 0.5404178 0.6224862 0.013591175 0.5363392
        0.6234045 0.014400329 0.5363539 0.62439567 0.015270197 0.5363681
        0.62546754 0.01620533 0.5363815 0.6266291 0.017209979 0.53639394
        0.62789 0.018287968 0.53640515 0.6292605 0.019442491 0.5364146
        0.63075155 0.020675844 0.5364221 0.6323743 0.02198912 0.536427
        0.63413954 0.023381863 0.53642887 0.63605726 0.024851648 0.5364272
        0.6381353 0.026393594 0.53642136 0.64037806 0.027999692 0.53641105
        0.6427846 0.029658718 0.5363959 0.64534956 0.03135763 0.5363761
        0.6480653 0.0330837 0.536352 0.6509251 0.034826797 0.5363238
        0.65392655 0.03658105 0.5362924 0.65707415 0.038345125 0.5362583
        0.66037935 0.04012106 0.53622264 0.66385907 0.041912124 0.5361866
        0.66753 0.043718915 0.5361517 0.6714036 0.04553642 0.5361204
        0.6754855 0.047353897 0.5360955 0.6797745 0.049154866 0.53608084
        0.68426603 0.05091914 0.5360804 0.6889515 0.052623417 0.53609884
        0.6938031 0.054237664 0.5361405 0.6987947 0.05573519 0.536209
        0.7041788 0.0571619 0.536313 0.7096145 0.05840278 0.53644973
        0.71503454 0.059441328 0.5366166 0.72038656 0.060274716 0.5368094
        0.7256164 0.06090866 0.5370217 0.7306786 0.061357394 0.5372468
        0.73553485 0.061640956 0.5374779 0.7401553 0.061782874 0.5377088
        0.7445186 0.061807968 0.5379345 0.74861115 0.061740518 0.538151
        0.75242674 0.061602913 0.5383557 0.755966 0.061414793 0.5385469
        0.7592347 0.06119263 0.5387239 0.76224273 0.060949776 0.53888667
        0.76500237 0.060696647 0.5390355 0.7675279 0.060441155 0.5391711
        0.7698343 0.06018912 0.5392943 0.7719372 0.05994466 0.53940606
        0.7738519 0.059710573 0.53950727 0.7755934 0.059488647 0.53959876
        0.77717614 0.05927989 0.53968155 0.7786137 0.05908475 0.5397564
        0.7799188 0.05890326 0.53982407 0.7811032 0.05873517 0.5398852
        0.78217757 0.058580074 0.5399405 0.7831516 0.05843743 0.5399904
        0.7840341 0.058306612 0.5400355 0.7848331 0.058186974 0.5400762
        0.78555584 0.058077816 0.5401129 0.78620917 0.05797844 0.54014605
        0.78679913 0.057888158 0.54017586 0.7873314 0.057806294 0.5402027
        0.7878112 0.05773218 0.5402268 0.7882433 0.057665206 0.5402486
        0.7886321 0.05760476 0.54026806 0.78898156 0.057550285 0.5402856
        0.7892954 0.057501245 0.54030126 0.78957707 0.05745714 0.54031533
        0.7898296 0.05741753 0.54032797 0.79005605 0.05738195 0.54033923
        0.6218891 0.014129449 0.53630185 0.62281615 0.014952549 0.53631586
        0.62381583 0.01583636 0.5363293 0.6248963 0.016785368 0.5363419
        0.6260666 0.017803758 0.53635347 0.62733656 0.018895274 0.5363636
        0.6287167 0.020063037 0.536372 0.6302181 0.02130928 0.53637826
        0.63185185 0.02263505 0.5363819 0.6336291 0.02403984 0.5363824
        0.6355597 0.02552117 0.53637916 0.63765156 0.027074086 0.5363718
        0.6399088 0.028690452 0.5363598 0.6423301 0.030358866 0.5363429
        0.64490986 0.032066107 0.5363212 0.64763975 0.033799335 0.53629494
        0.65051275 0.03554844 0.5362647 0.65352637 0.037307736 0.5362309
        0.656685 0.03907618 0.53619444 0.66000056 0.040856246 0.53615624
        0.6634905 0.042651657 0.53611743 0.66717213 0.044463363 0.53607965
        0.6710575 0.046286616 0.5360452 0.6751528 0.048110776 0.53601706
        0.6794571 0.049919326 0.53599894 0.68396634 0.051692013 0.5359951
        0.6886723 0.05340535 0.53601027 0.6935472 0.05502892 0.5360488
        0.69856465 0.05653558 0.53611463 0.70397794 0.057971194 0.5362164
        0.7094443 0.05921982 0.5363515 0.71489537 0.060264643 0.5365175
        0.72027814 0.061102718 0.5367099 0.72553754 0.061739765 0.53692245
        0.7306276 0.062190156 0.5371483 0.7355095 0.062474128 0.53738034
        0.7401532 0.06261546 0.5376124 0.7445371 0.06263923 0.5378393
        0.74864763 0.06256997 0.538057 0.75247866 0.062430277 0.5382629
        0.75603104 0.06223997 0.5384552 0.75931084 0.062015664 0.5386333
        0.7623281 0.06177075 0.53879696 0.7650955 0.06151572 0.5389466
        0.7676274 0.061258495 0.539083 0.76993924 0.061004873 0.5392069
        0.77204674 0.060758978 0.5393193 0.7739655 0.060523562 0.5394211
        0.7757105 0.060300395 0.5395132 0.7772964 0.060090452 0.53959644
        0.7787369 0.059894178 0.5396718 0.78004473 0.059711583 0.53973985
        0.7812318 0.05954241 0.5398014 0.78230876 0.05938625 0.5398571
        0.7832853 0.05924256 0.5399074 0.7841702 0.05911074 0.5399528
        0.7849716 0.058990113 0.5399939 0.78569674 0.058880016 0.5400309
        0.78635234 0.058779743 0.5400643 0.7869445 0.05868861 0.54009444
        0.7874789 0.058605947 0.54012156 0.7879607 0.058531094 0.54014593
        0.7883947 0.05846343 0.54016787 0.7887853 0.058402345 0.54018754
        0.7891364 0.05834728 0.54020524 0.78945184 0.058297705 0.5402211
        0.789735 0.058253117 0.54023534 0.78998893 0.05821306 0.5402481
        0.79021657 0.058177076 0.54025954 0.6212921 0.014667656 0.5362638
        0.62222767 0.015505462 0.5362772 0.62323576 0.016403932 0.5362898
        0.62432456 0.017367484 0.5363015 0.62550336 0.018400207 0.53631204
        0.62678224 0.019505767 0.5363211 0.6281718 0.020687196 0.5363283
        0.6296833 0.02194667 0.5363333 0.63132805 0.023285184 0.53633565
        0.6331172 0.024702188 0.5363347 0.6350606 0.02619515 0.53633
        0.63716626 0.02775905 0.53632104 0.639438 0.029385619 0.53630733
        0.6418742 0.031063288 0.5362886 0.6444687 0.03277867 0.53626496
        0.6472129 0.034518827 0.5362367 0.6500992 0.036273677 0.5362043
        0.6531249 0.038037736 0.5361683 0.65629464 0.039810322 0.5361294
        0.6596206 0.04159434 0.53608865 0.6631207 0.04339397 0.53604704
        0.6668131 0.045210555 0.53600633 0.6707102 0.047039583 0.5359687
        0.6748188 0.04887051 0.53593725 0.67913836 0.050686803 0.53591573
        0.6836653 0.0524681 0.5359084 0.6883918 0.05419073 0.5359202
        0.69329 0.05582385 0.5359556 0.6983333 0.057339873 0.53601867
        0.703776 0.05878456 0.53611803 0.7092731 0.06004104 0.5362515
        0.7147554 0.061092194 0.53641653 0.7201691 0.06193494 0.53660864
        0.72545826 0.062575005 0.5368215 0.7305764 0.06302692 0.5370479
        0.73548406 0.06331111 0.537281 0.7401511 0.06345164 0.53751427
        0.7445557 0.06347384 0.5377424 0.7486843 0.063402526 0.5379614
        0.7525308 0.06326051 0.5381685 0.75609636 0.06306779 0.53836197
        0.7593872 0.062841095 0.5385411 0.7624136 0.06259393 0.5387057
        0.7651887 0.062336817 0.53885627 0.7677271 0.062077694 0.5389935
        0.7700443 0.061822355 0.5391181 0.7721564 0.061574887 0.5392311
        0.7740791 0.061338034 0.53933346 0.77582765 0.061113518 0.5394261
        0.7774167 0.060902305 0.53950995 0.7788601 0.0607048 0.5395857
        0.7801707 0.060521003 0.53965425 0.7813603 0.060350668 0.53971624
        0.7824398 0.060193352 0.53977233 0.7834189 0.060048535 0.53982306
        0.7843063 0.059915606 0.5398689 0.78511006 0.059793912 0.53991026
        0.78583753 0.05968278 0.5399476 0.7864954 0.059581526 0.5399813
        0.78708977 0.059489466 0.5400117 0.78762627 0.059405923 0.54003906
        0.78811014 0.059330255 0.54006374 0.788546 0.05926183 0.5400859
        0.7889384 0.059200045 0.5401059 0.78929126 0.059144348 0.5401237
        0.7896083 0.05909418 0.5401398 0.7898929 0.059049055 0.5401542
        0.79014814 0.05900851 0.5401671 0.7903771 0.058972094 0.54017866
        0.62069505 0.015205797 0.53622514 0.6216391 0.016059121 0.5362377
        0.62265533 0.016973015 0.5362495 0.62375224 0.017951805 0.53626025
        0.6249393 0.018999474 0.53626966 0.62622684 0.02011959 0.5362776
        0.62762564 0.021315113 0.5362836 0.6291471 0.022588143 0.53628725
        0.63080275 0.023939636 0.53628814 0.63260365 0.025369002 0.5362858
        0.6345599 0.02687367 0.53627956 0.63667935 0.028448546 0.53626895
        0.63896555 0.030085247 0.5362536 0.6414167 0.03177203 0.536233
        0.64402616 0.03349534 0.53620744 0.6467847 0.035242178 0.53617716
        0.64968437 0.037002496 0.5361426 0.6527223 0.03877106 0.53610426
        0.65590316 0.040547553 0.5360631 0.6592395 0.042335343 0.53601974
        0.66274977 0.044139072 0.5359754 0.6664528 0.04596049 0.5359317
        0.6703617 0.047795318 0.53589094 0.67448354 0.049633127 0.53585607
        0.67881835 0.051457312 0.53583103 0.6833629 0.05324743 0.53582025
        0.68810993 0.05497958 0.5358286 0.6930315 0.056622498 0.5358608
        0.69810086 0.05814809 0.535921 0.703573 0.059602026 0.53601795
        0.70910096 0.060866494 0.5361497 0.71461475 0.061924025 0.5363137
        0.7200595 0.06277142 0.5365055 0.72537863 0.063414425 0.5367186
        0.73052496 0.0638677 0.5369458 0.7354586 0.064151935 0.5371798
        0.7401491 0.06429144 0.5374143 0.7445744 0.064311855 0.5376438
        0.7487211 0.06423822 0.5378641 0.7525832 0.06409363 0.53807247
        0.75616187 0.06389824 0.5382671 0.7594637 0.06366895 0.5384473
        0.7624994 0.063419335 0.53861296 0.76528215 0.06315996 0.5387644
        0.7678269 0.06289878 0.5389024 0.7701496 0.062641576 0.53902775
        0.7722662 0.062392414 0.5391415 0.7741928 0.062154002 0.5392444
        0.7759448 0.06192805 0.5393377 0.777537 0.06171547 0.53942204
        0.77898324 0.06151665 0.5394983 0.78029656 0.061331578 0.53956735
        0.78148884 0.06115998 0.53962976 0.78257084 0.06100143 0.53968626
        0.78355235 0.06085539 0.53973734 0.7844422 0.060721267 0.53978354
        0.78524834 0.060598414 0.5398253 0.7859782 0.06048616 0.53986305
        0.7866383 0.060383834 0.5398971 0.7872349 0.060290758 0.5399278
        0.78777355 0.060206257 0.53995544 0.78825945 0.060129695 0.53998035
        0.7886973 0.06006044 0.54000276 0.78909147 0.059997898 0.5400229
        0.78944606 0.059941486 0.540041 0.78976464 0.05989068 0.54005724
        0.79005075 0.059844974 0.54007185 0.7903074 0.0598039 0.5400849
        0.7905376 0.059766993 0.5400966 0.6200981 0.01574387 0.5361857
        0.62105036 0.016613586 0.5361975 0.6220744 0.017543722 0.53620833
        0.6231792 0.01853848 0.53621805 0.6243743 0.019601729 0.5362264
        0.6256702 0.020736925 0.53623307 0.62707806 0.021946942 0.5362378
        0.62860936 0.023233838 0.5362401 0.6302757 0.024598524 0.53623956
        0.6320884 0.026040385 0.53623563 0.63405746 0.027556812 0.5362278
        0.63619065 0.029142642 0.5362156 0.63849145 0.030789385 0.53619844
        0.6409577 0.03248512 0.5361761 0.6435821 0.034216147 0.5361486
        0.6463551 0.035969395 0.53611624 0.6492682 0.037734907 0.5360796
        0.6523184 0.03950771 0.53603905 0.6555104 0.04128786 0.5359954
        0.65885717 0.043079227 0.5359495 0.6623777 0.044886943 0.53590244
        0.6660914 0.04671316 0.53585577 0.67001194 0.048553832 0.5358118
        0.674147 0.05039862 0.5357736 0.678497 0.052230872 0.535745
        0.68305916 0.05403002 0.5357306 0.6878267 0.055771936 0.53573537
        0.6927717 0.057424895 0.5357643 0.69786716 0.05896028 0.5358216
        0.70336884 0.06042366 0.5359161 0.7089279 0.061696224 0.5360461
        0.7144733 0.06276019 0.5362091 0.7199493 0.06361221 0.5364005
        0.7252986 0.06425806 0.5366139 0.7304733 0.06471258 0.5368418
        0.73543304 0.06499665 0.53707695 0.74014705 0.06513491 0.5373126
        0.74459326 0.06515327 0.5375434 0.74875814 0.06507708 0.5377651
        0.7526358 0.064929664 0.5379748 0.7562276 0.06473138 0.53817064
        0.7595405 0.06449926 0.538352 0.7625854 0.06424698 0.53851867
        0.7653758 0.063985154 0.5386711 0.76792693 0.06372175 0.5388099
        0.7702549 0.06346255 0.538936 0.7723761 0.063211575 0.5390504
        0.7743066 0.06297151 0.539154 0.7760621 0.062744014 0.5392478
        0.77765733 0.06252999 0.5393327 0.7791064 0.062329773 0.5394095
        0.7804224 0.062143344 0.539479 0.7816173 0.06197041 0.5395419
        0.7827018 0.06181054 0.5395988 0.7836858 0.061663195 0.5396503
        0.784578 0.061527792 0.539697 0.7853866 0.061403688 0.5397391
        0.78611875 0.061290223 0.53977716 0.7867812 0.061186735 0.53981155
        0.78738 0.061092544 0.53984255 0.7879208 0.061007 0.5398705
        0.7884087 0.060929462 0.5398957 0.78884846 0.060859296 0.53991836
        0.7892445 0.060795907 0.5399388 0.7896008 0.060738735 0.5399571
        0.789921 0.06068722 0.53997356 0.7902086 0.06064087 0.5399883
        0.7904666 0.06059921 0.5400015 0.7906981 0.060561784 0.5400134
        0.6195012 0.016281877 0.53614557 0.62046134 0.017168937 0.53615654
        0.621493 0.018116187 0.53616637 0.62260526 0.019127686 0.53617495
        0.6238081 0.020207157 0.5361821 0.6251122 0.021357948 0.5361875
        0.6265289 0.022582863 0.53619087 0.62806994 0.023883909 0.53619176
        0.6297469 0.02526198 0.5361897 0.6315713 0.026716443 0.53618425
        0.63355315 0.028244661 0.5361748 0.63570017 0.029841406 0.5361608
        0.6380156 0.03149808 0.536142 0.64049697 0.033202596 0.53611785
        0.6431365 0.034941114 0.5360884 0.64592403 0.03670049 0.536054
        0.6488507 0.038470913 0.5360152 0.6519133 0.040247656 0.5359725
        0.65511656 0.042031225 0.53592646 0.6584737 0.043825984 0.535878
        0.6620045 0.045637578 0.53582823 0.66572875 0.047468554 0.5357786
        0.669661 0.049315117 0.5357314 0.6738092 0.051167008 0.5356897
        0.6781743 0.05300749 0.5356575 0.68275404 0.0548159 0.53563946
        0.6875421 0.05656783 0.5356406 0.69251055 0.058231078 0.5356662
        0.6976322 0.059776496 0.5357205 0.70316356 0.061249495 0.5358125
        0.7087539 0.06253028 0.5359406 0.7143311 0.06360073 0.5361026
        0.71983856 0.06445735 0.5362937 0.7252182 0.065105975 0.5365073
        0.7304213 0.06556157 0.53673595 0.73540735 0.0658453 0.53697217
        0.740145 0.06598209 0.53720915 0.7446123 0.06599816 0.5374414
        0.74879533 0.06591915 0.5376644 0.7526886 0.065768644 0.5378754
        0.7562936 0.06556722 0.5380725 0.75961757 0.06533204 0.53825504
        0.7626716 0.065076895 0.53842276 0.7654696 0.06481244 0.5385762
        0.7680271 0.064546645 0.53871584 0.7703604 0.06428529 0.53884274
        0.7724861 0.06403239 0.53895783 0.7744205 0.06379057 0.53906214
        0.7761794 0.06356145 0.5391565 0.7777777 0.06334589 0.5392419
        0.7792296 0.063144214 0.5393193 0.7805483 0.06295635 0.53938925
        0.7817457 0.06278201 0.5394527 0.78283274 0.062620744 0.5395101
        0.7838192 0.062472027 0.539562 0.78471386 0.062335256 0.539609
        0.7855248 0.062209807 0.5396515 0.78625923 0.06209504 0.53968996
        0.78692394 0.06199028 0.5397247 0.787525 0.061894894 0.53975606
        0.7880679 0.06180821 0.5397844 0.7885578 0.0617296 0.5398098
        0.78899956 0.06165844 0.5398328 0.7893974 0.061594132 0.5398534
        0.78975546 0.061536103 0.53987193 0.7900773 0.061483815 0.53988856
        0.7903664 0.06143676 0.5399036 0.7906258 0.061394464 0.53991693
        0.7908586 0.06135645 0.539929 0.6189043 0.016819814 0.5361048
        0.619872 0.017725257 0.53611475 0.6209108 0.018690575 0.5361236
        0.6220302 0.019719625 0.53613096 0.6232404 0.020815978 0.53613687
        0.6245525 0.021982873 0.5361409 0.62597793 0.023223052 0.53614277
        0.6275285 0.024538511 0.5361422 0.62921613 0.025930133 0.5361386
        0.63105214 0.027397279 0.5361315 0.6330468 0.028937297 0.5361204
        0.63520765 0.030544905 0.5361048 0.63753784 0.032211382 0.5360841
        0.64003444 0.033924494 0.5360581 0.6426892 0.035670254 0.5360268
        0.6454914 0.037435487 0.5359904 0.6484318 0.039210506 0.53594947
        0.6515068 0.0409909 0.5359045 0.6547214 0.042777635 0.5358562
        0.658089 0.044575598 0.5358052 0.66163 0.046390958 0.53575265
        0.6653649 0.048226673 0.5357 0.6693087 0.050079178 0.5356496
        0.6734701 0.051938284 0.5356044 0.67785025 0.053787198 0.5355686
        0.6824476 0.055605087 0.5355468 0.6872561 0.05736729 0.5355443
        0.69224805 0.059041094 0.5355664 0.697396 0.060596775 0.5356177
        0.70295715 0.062079582 0.53570706 0.7085789 0.063368715 0.53583324
        0.71418804 0.06444569 0.5359941 0.7197272 0.0653069 0.53618485
        0.7251373 0.0659582 0.53639877 0.73036915 0.066414736 0.5366282
        0.7353816 0.06669794 0.53686553 0.7401431 0.06683302 0.53710383
        0.74463135 0.06684656 0.5373375 0.7488327 0.06676446 0.53756195
        0.7527416 0.066610605 0.5377744 0.7563598 0.06640578 0.53797287
        0.7596948 0.06616732 0.5381565 0.762758 0.065909095 0.53832537
        0.76556367 0.06564181 0.53847975 0.7681275 0.06537348 0.53862035
        0.7704661 0.06510985 0.538748 0.77259624 0.06485489 0.53886384
        0.7745345 0.06461121 0.5389688 0.77629673 0.064380385 0.5390638
        0.7778981 0.06416322 0.53914976 0.7793528 0.063960016 0.53922766
        0.7806741 0.06377067 0.5392981 0.7818741 0.063594855 0.539362
        0.78296363 0.06343213 0.5394199 0.78395253 0.06328195 0.5394723
        0.7848496 0.06314374 0.5395197 0.7856629 0.06301686 0.53956264
        0.7863997 0.062900685 0.5396015 0.7870667 0.06279458 0.5396366
        0.7876699 0.06269788 0.5396683 0.7882149 0.06260996 0.5396969
        0.78870696 0.062530175 0.5397227 0.78915066 0.06245792 0.5397459
        0.78955036 0.062392596 0.5397668 0.78991014 0.062333636 0.53978556
        0.7902336 0.062280495 0.5398025 0.7905242 0.062232662 0.53981763
        0.790785 0.062189657 0.5398312 0.79101914 0.062151007 0.5398434
        0.6183074 0.017357681 0.5360634 0.6192822 0.018282665 0.53607225
        0.6203277 0.019267078 0.5360799 0.62145376 0.020314533 0.536086
        0.6226711 0.021428429 0.53609055 0.6239909 0.022611914 0.5360932
        0.62542486 0.023867711 0.5360936 0.6269849 0.025197808 0.5360914
        0.62868303 0.026603114 0.5360862 0.6305308 0.028083004 0.53607744
        0.63253826 0.029634813 0.5360647 0.63471305 0.031253204 0.53604734
        0.6370581 0.032929346 0.53602487 0.63957006 0.03465085 0.5359971
        0.64224017 0.03640359 0.53596383 0.6450572 0.038174376 0.53592545
        0.6480114 0.039953675 0.5358824 0.651099 0.04173742 0.53583527
        0.65432495 0.043527067 0.5357846 0.6577031 0.04532804 0.53573114
        0.66125435 0.047147058 0.5356758 0.6649999 0.048987497 0.53562015
        0.66895527 0.05084601 0.5355664 0.6731297 0.05271247 0.53551775
        0.67752486 0.054569997 0.5354782 0.6821397 0.056397613 0.5354526
        0.68696874 0.058170363 0.53544635 0.69198424 0.05985498 0.53546494
        0.6971585 0.061421163 0.5355131 0.7027496 0.06291398 0.5355997
        0.7084029 0.06421159 0.53572404 0.7140442 0.06529515 0.5358837
        0.7196152 0.06616093 0.5360741 0.72505605 0.06681482 0.5362883
        0.73031676 0.06727214 0.5365185 0.73535573 0.0675546 0.53675705
        0.74014115 0.06768775 0.5369967 0.74465054 0.067698486 0.5372318
        0.74887025 0.06761306 0.5374578 0.7527948 0.06745559 0.5376716
        0.7564263 0.06724712 0.5378714 0.7597723 0.067005135 0.5380564
        0.7628447 0.06674361 0.53822637 0.7656579 0.06647332 0.53838176
        0.76822805 0.066202275 0.53852326 0.77057195 0.06593623 0.53865176
        0.77270657 0.0656791 0.53876835 0.7746486 0.06543347 0.538874
        0.7764142 0.06520085 0.5389696 0.7780186 0.06498203 0.5390562
        0.7794761 0.06477724 0.5391346 0.78080004 0.06458635 0.5392056
        0.78200257 0.06440902 0.53927 0.7830946 0.06424478 0.5393283
        0.78408587 0.06409308 0.53938115 0.78498536 0.06395335 0.539429
        0.785801 0.06382497 0.5394724 0.7865401 0.0637073 0.5395116
        0.78720933 0.06359973 0.53954715 0.7878148 0.06350162 0.5395792
        0.78836197 0.06341234 0.5396081 0.788856 0.063331276 0.5396342
        0.78930163 0.06325781 0.5396578 0.78970325 0.06319137 0.539679
        0.79006475 0.06313138 0.539698 0.79038984 0.063077286 0.5397151
        0.790682 0.06302859 0.5397305 0.7909442 0.0629848 0.53974426
        0.79117966 0.06294544 0.5397566 0.6177106 0.017895477 0.53602123
        0.6186918 0.018841308 0.5360289 0.6197434 0.019845942 0.53603524
        0.6208757 0.02091269 0.53604007 0.6220998 0.02204478 0.53604317
        0.6234271 0.02324532 0.5360443 0.6248694 0.024517037 0.5360431
        0.62643886 0.02586197 0.53603935 0.62814754 0.027281059 0.5360325
        0.63000697 0.028773721 0.53602207 0.6320273 0.030337285 0.5360076
        0.6342162 0.03196637 0.53598845 0.6365762 0.033652022 0.5359642
        0.63910365 0.035381697 0.53593457 0.6417893 0.03714114 0.5358994
        0.6446214 0.03891716 0.53585905 0.6475895 0.04070041 0.535814
        0.6506898 0.04248719 0.53576463 0.6539272 0.04427948 0.5357117
        0.65731597 0.04608328 0.5356557 0.66087747 0.047905862 0.5355976
        0.66463363 0.049751017 0.5355389 0.6686005 0.051615607 0.53548187
        0.67278796 0.05348957 0.53542966 0.6771982 0.055355914 0.5353863
        0.68183047 0.05719351 0.5353568 0.68667996 0.05897708 0.53534675
        0.69171906 0.060672794 0.5353617 0.6969198 0.062249728 0.53540665
        0.7025409 0.06375275 0.5354906 0.70822585 0.06505897 0.5356129
        0.71389955 0.06614917 0.53577137 0.7195026 0.06701949 0.5359614
        0.72497433 0.067675866 0.53617585 0.7302641 0.06813382 0.53640693
        0.7353298 0.068415366 0.5366466 0.74013925 0.06854635 0.5368877
        0.74466985 0.06855402 0.5371243 0.748908 0.06846498 0.53735185
        0.75284827 0.06830364 0.53756714 0.756493 0.068091266 0.53776836
        0.75985 0.067845516 0.5379546 0.7629316 0.06758047 0.53812575
        0.76575243 0.06730698 0.5382822 0.76832885 0.06703306 0.5384247
        0.7706779 0.06676445 0.5385541 0.772817 0.06650505 0.5386714
        0.77476287 0.06625737 0.5387777 0.7765318 0.0660229 0.538874
        0.77813923 0.06580236 0.5389612 0.7795995 0.06559594 0.53904015
        0.78092605 0.06540347 0.5391117 0.7821311 0.06522459 0.5391765
        0.78322554 0.06505879 0.53923535 0.78421926 0.064905524 0.53928864
        0.7851211 0.06476422 0.539337 0.7859391 0.06463425 0.5393808
        0.7866805 0.06451501 0.5394204 0.787352 0.06440587 0.53945637
        0.78795964 0.064306244 0.5394888 0.78850895 0.06421549 0.5395181
        0.78900504 0.06413302 0.5395445 0.7894527 0.06405823 0.5395684
        0.7898561 0.06399054 0.5395899 0.7902193 0.063929394 0.5396092
        0.79054606 0.063874245 0.53962654 0.7908398 0.06382458 0.53964216
        0.7911034 0.063779905 0.5396561 0.7913402 0.063739754 0.5396686
        0.61711377 0.018433198 0.5359784 0.6181006 0.019401379 0.5359848
        0.6191575 0.020427471 0.53598976 0.6202955 0.02151442 0.5359931
        0.62152606 0.022665339 0.53599465 0.62286067 0.023883348 0.5359942
        0.62431127 0.02517125 0.53599143 0.62589014 0.02653116 0.53598595
        0.6276094 0.0279641 0.5359774 0.62948054 0.029469535 0.53596526
        0.6315139 0.031044796 0.535949 0.6337169 0.032684457 0.5359281
        0.636092 0.034379452 0.535902 0.63863516 0.036117066 0.53587055
        0.64133656 0.03788292 0.5358335 0.6441837 0.03966385 0.5357912
        0.647166 0.041450698 0.53574413 0.65027916 0.04324019 0.53569263
        0.6535282 0.04503485 0.5356374 0.6569276 0.046841282 0.53557885
        0.6604994 0.04866734 0.53551805 0.6642661 0.050517198 0.53545636
        0.6682445 0.05238796 0.535396 0.67244494 0.054269582 0.53534013
        0.67687005 0.056144964 0.5352929 0.6815198 0.0579928 0.5352595
        0.68638974 0.059787486 0.53524554 0.69145244 0.061494578 0.53525674
        0.6966798 0.06308252 0.5352984 0.702331 0.06459595 0.53537947
        0.70804787 0.06591091 0.5354997 0.7137541 0.06700781 0.53565705
        0.71938944 0.06788265 0.53584665 0.7248922 0.06854142 0.5360614
        0.7302112 0.06899987 0.5362933 0.73530376 0.06928027 0.5365342
        0.74013734 0.06940885 0.5367768 0.74468935 0.069413215 0.5370149
        0.7489459 0.069320284 0.5372441 0.752902 0.06915479 0.5374609
        0.7565599 0.06893824 0.5376636 0.75992805 0.06868848 0.53785115
        0.7630188 0.06841971 0.53802353 0.76584715 0.068142824 0.53818107
        0.7684298 0.06786586 0.5383245 0.77078414 0.06759455 0.5384548
        0.77292764 0.06733276 0.5385729 0.7748773 0.06708296 0.5386799
        0.7766496 0.066846564 0.5387769 0.77825993 0.066624254 0.5388647
        0.779723 0.066416174 0.5389442 0.7810521 0.06622211 0.5390163
        0.7822597 0.06604165 0.53908163 0.7833566 0.06587427 0.53914094
        0.7843527 0.06571941 0.53919476 0.7852569 0.06557649 0.5392435
        0.78607726 0.06544487 0.53928775 0.786821 0.06532398 0.53932786
        0.7874948 0.0652132 0.53936416 0.7881046 0.06511193 0.539397
        0.788656 0.065019585 0.53942674 0.7891541 0.064935565 0.53945357
        0.78960365 0.0648593 0.5394777 0.7900089 0.06479022 0.5394995
        0.7903739 0.064727776 0.53951913 0.79070234 0.064671434 0.5395368
        0.7909975 0.064620666 0.5395526 0.7912626 0.064575 0.5395668
        0.7915007 0.06453394 0.5395795 0.616517 0.01897085 0.5359349
        0.61750823 0.019963156 0.5359399 0.6185696 0.021012057 0.53594327
        0.6197128 0.022120114 0.535945 0.62094945 0.02329044 0.535945
        0.62229127 0.02452627 0.53594285 0.62375015 0.025830554 0.53593844
        0.6253384 0.027205545 0.5359312 0.62706816 0.028652366 0.5359209
        0.6289512 0.030170543 0.53590703 0.63099766 0.03175743 0.53588897
        0.6332149 0.033407535 0.53586626 0.63560534 0.03511168 0.53583837
        0.63816434 0.036856987 0.53580505 0.6408817 0.038628954 0.5357661
        0.6437443 0.040414434 0.53572196 0.6467409 0.042204518 0.53567284
        0.64986706 0.043996386 0.53561926 0.6531278 0.04579314 0.5355617
        0.65653795 0.047602024 0.5355007 0.66012007 0.049431454 0.53543717
        0.66389734 0.05128604 0.5353724 0.6678872 0.053163063 0.53530866
        0.67210054 0.055052515 0.5352491 0.67654055 0.05693716 0.5351981
        0.6812077 0.058795523 0.5351606 0.68609816 0.060601622 0.5351426
        0.6911845 0.06232039 0.53515005 0.69643843 0.063919604 0.5351883
        0.70211995 0.06544366 0.5352664 0.7078688 0.066767484 0.5353846
        0.7136078 0.06787113 0.5355407 0.7192756 0.06875048 0.5357299
        0.72480965 0.06941155 0.53594494 0.73015803 0.06987033 0.5361777
        0.7352776 0.0701494 0.5364198 0.7401355 0.07027533 0.5366639
        0.74470884 0.070276104 0.5369037 0.74898404 0.070179015 0.53713447
        0.75295585 0.0700091 0.5373529 0.7566271 0.069788106 0.53755707
        0.7600063 0.06953409 0.5377461 0.76310617 0.06926136 0.5379197
        0.7659421 0.06898088 0.5380783 0.768531 0.06870071 0.5382228
        0.7708906 0.06842656 0.5383539 0.77303845 0.068162255 0.5384729
        0.7749919 0.06791025 0.53858066 0.7767675 0.06767188 0.5386783
        0.7783809 0.06744777 0.5387667 0.7798466 0.06723801 0.5388468
        0.78117836 0.067042336 0.5389194 0.7823884 0.066860296 0.5389853
        0.78348774 0.06669134 0.5390451 0.7844863 0.066534884 0.5390994
        0.7853929 0.06639031 0.5391486 0.78621554 0.06625703 0.53919333
        0.7869616 0.06613443 0.53923386 0.7876376 0.06602192 0.53927064
        0.78824955 0.065918915 0.5393039 0.7888031 0.065824844 0.539334
        0.78930324 0.06573913 0.5393612 0.78975475 0.06566124 0.53938574
        0.79016185 0.0655906 0.53940785 0.79052854 0.06552668 0.5394278
        0.79085857 0.06546896 0.53944576 0.79115534 0.06541693 0.53946185
        0.79142183 0.06537011 0.5394763 0.7916612 0.06532801 0.53948927
        0.61592025 0.019508429 0.5358907 0.6169142 0.02052705 0.53589404
        0.61797905 0.021600196 0.5358957 0.619127 0.022730218 0.5358958
        0.62036955 0.023920437 0.53589404 0.6217184 0.025174363 0.5358903
        0.6231856 0.026495166 0.5358841 0.6247832 0.027885282 0.53587514
        0.62652373 0.029345972 0.53586304 0.6284187 0.030876834 0.5358473
        0.6304784 0.03247524 0.53582746 0.63271016 0.03413566 0.5358029
        0.63511604 0.03584875 0.53577316 0.6376912 0.03760149 0.53573805
        0.64042467 0.039379235 0.5356973 0.64330286 0.041168902 0.53565115
        0.6463141 0.042961847 0.53560007 0.64945346 0.044755735 0.53554446
        0.65272605 0.046554297 0.5354847 0.656147 0.048365436 0.53542125
        0.6597395 0.05019817 0.5353549 0.6635273 0.05205751 0.5352871
        0.6675286 0.05394091 0.5352199 0.6717549 0.05583837 0.53515667
        0.67620975 0.057732526 0.53510165 0.6808942 0.0596017 0.5350601
        0.6858051 0.06141953 0.535038 0.6909151 0.06315029 0.5350415
        0.6961958 0.06476103 0.5350763 0.70190763 0.06629593 0.5351514
        0.70768875 0.06762877 0.5352674 0.7134607 0.06873922 0.53542227
        0.7191611 0.069623046 0.53561103 0.7247266 0.07028634 0.5358264
        0.7301046 0.07074529 0.53606004 0.7352513 0.07102279 0.53630346
        0.74013364 0.07114585 0.5365491 0.7447285 0.07114277 0.53679055
        0.7490223 0.071041234 0.537023 0.75301 0.07086661 0.5372431
        0.75669456 0.070640914 0.5374488 0.7600848 0.07038238 0.5376392
        0.76319385 0.070105456 0.53781414 0.76603734 0.06982118 0.537974
        0.76863253 0.06953762 0.5381195 0.7709973 0.069260485 0.5382516
        0.77314955 0.06899358 0.5383714 0.7751067 0.06873928 0.5384799
        0.7768856 0.06849889 0.5385782 0.7785019 0.06827295 0.5386672
        0.77997047 0.06806151 0.5387479 0.7813048 0.06786424 0.5388211
        0.7825173 0.06768064 0.5388875 0.7836191 0.067510135 0.53894776
        0.78462005 0.067352094 0.53900254 0.785529 0.067205906 0.5390523
        0.786354 0.06707094 0.5390975 0.78710234 0.0669466 0.53913844
        0.7877806 0.06683231 0.5391756 0.78839475 0.0667275 0.53920937
        0.7889504 0.06663159 0.5392399 0.78945255 0.066544056 0.5392675
        0.7899059 0.06646435 0.5392924 0.79031485 0.066391945 0.53931487
        0.79068327 0.066326335 0.5393352 0.7910149 0.06626701 0.53935343
        0.7913131 0.06621349 0.5393698 0.79158103 0.0661653 0.5393846
        0.7918217 0.06612194 0.5393978 0.61532354 0.02004593 0.5358459
        0.6163178 0.021093698 0.53584725 0.617385 0.022192542 0.5358471
        0.6185373 0.023345245 0.5358454 0.61978567 0.02455571 0.5358419
        0.6211417 0.025827887 0.5358363 0.6226171 0.027165264 0.53582835
        0.6242244 0.028570501 0.5358176 0.6259757 0.030045008 0.53580374
        0.62788284 0.031588476 0.5357861 0.62995595 0.03319829 0.5357644
        0.6322023 0.03486885 0.535738 0.63462394 0.036590688 0.5357064
        0.63721544 0.038350563 0.53566945 0.6399654 0.04013376 0.5356269
        0.64285946 0.041927226 0.5355789 0.64588547 0.043722633 0.53552586
        0.64903826 0.04551817 0.5354682 0.6523229 0.047318242 0.53540623
        0.6557548 0.04913146 0.53534037 0.65935767 0.05096743 0.5352713
        0.6631561 0.052831557 0.53520036 0.66716874 0.054721463 0.5351297
        0.6714079 0.05662714 0.53506273 0.6758775 0.058531053 0.5350037
        0.68057925 0.06041136 0.53495795 0.6855106 0.062241256 0.53493166
        0.6906443 0.06398431 0.5349312 0.6959518 0.06560687 0.5349625
        0.7016942 0.06715283 0.5350344 0.70750767 0.06849483 0.5351482
        0.7133127 0.069612145 0.5353017 0.71904594 0.07050042 0.53549004
        0.7246432 0.07116583 0.53570575 0.7300509 0.0716248 0.5359403
        0.7352249 0.071900554 0.5361851 0.7401318 0.07202046 0.5364323
        0.7447483 0.07201327 0.5366755 0.74906075 0.071907 0.5369097
        0.7530644 0.07172738 0.53713155 0.75676227 0.0714967 0.53733885
        0.7601636 0.071233384 0.5375307 0.76328176 0.07095204 0.537707
        0.76613283 0.07066376 0.537868 0.7687342 0.07037664 0.5380146
        0.7711042 0.07009639 0.5381477 0.77326083 0.06982677 0.5382683
        0.77522177 0.06957009 0.5383776 0.77700394 0.069327615 0.5384766
        0.7786232 0.06909984 0.5385663 0.7800945 0.06888672 0.53864753
        0.78143144 0.068687886 0.53872126 0.7826465 0.068502784 0.5387882
        0.7837507 0.06833078 0.538849 0.78475404 0.06817122 0.5389042
        0.7856654 0.06802346 0.53895444 0.78649276 0.067886844 0.5390001
        0.78724337 0.06776081 0.5390415 0.7879238 0.06764474 0.5390792
        0.7885402 0.06753807 0.53911334 0.7890979 0.067440264 0.5391443
        0.7896021 0.06735079 0.5391723 0.79005736 0.06726911 0.5391976
        0.79046804 0.067194745 0.5392206 0.7908382 0.06712718 0.5392412
        0.7911714 0.06706596 0.53925985 0.79147106 0.06701061 0.5392766
        0.7917403 0.06696069 0.5392916 0.79198223 0.06691575 0.53930515
        0.6147269 0.020583354 0.53580034 0.61571777 0.021664169 0.53579944
        0.6167866 0.022789888 0.5357973 0.617943 0.023965714 0.53579366
        0.61919725 0.025196597 0.53578836 0.6205605 0.026487064 0.53578097
        0.6220445 0.02784099 0.5357712 0.6236616 0.029261284 0.5357586
        0.6254239 0.030749522 0.5357428 0.6273433 0.032305487 0.5357234
        0.62943006 0.033926576 0.5356998 0.63169134 0.035607114 0.5356715
        0.6341289 0.03733747 0.5356381 0.63673705 0.03910421 0.5355993
        0.6395037 0.04089249 0.53555495 0.642414 0.04268935 0.5355051
        0.64545506 0.04448679 0.5354502 0.6486215 0.046283603 0.53539056
        0.65191835 0.048084892 0.53532636 0.6553613 0.049899988 0.5352581
        0.6589746 0.051739138 0.5351863 0.6627836 0.053608112 0.5351122
        0.66680765 0.055504676 0.5350382 0.6710595 0.05741879 0.53496736
        0.67554384 0.059332736 0.53490424 0.68026286 0.061224494 0.5348542
        0.68521464 0.06306681 0.53482354 0.6903721 0.064822495 0.534819
        0.6957065 0.066457145 0.5348466 0.70147943 0.068014406 0.5349154
        0.70732546 0.06936571 0.5350269 0.7131638 0.070489965 0.5351791
        0.7189301 0.071382664 0.53536695 0.7245592 0.072050095 0.53558296
        0.7299969 0.072508916 0.53581846 0.7351984 0.07278272 0.5360646
        0.74012995 0.07289924 0.5363135 0.7447682 0.072887644 0.5365585
        0.74909943 0.07277636 0.53679454 0.75311893 0.07259145 0.5370181
        0.7568302 0.0723555 0.5372271 0.76024264 0.07208716 0.53742045
        0.76337 0.07180115 0.53759813 0.76622856 0.071508646 0.5377604
        0.7688362 0.0712178 0.5379081 0.7712114 0.07093428 0.5380422
        0.77337235 0.07066182 0.5381637 0.7753371 0.0704027 0.5382738
        0.77712256 0.07015812 0.5383735 0.7787448 0.06992848 0.5384638
        0.7802188 0.06971372 0.53854567 0.78155833 0.06951337 0.5386199
        0.7827759 0.069326825 0.53868735 0.78388256 0.069153406 0.5387486
        0.7848883 0.06899242 0.53880435 0.78580207 0.06884318 0.538855
        0.7866318 0.06870504 0.53890115 0.78738475 0.06857737 0.53894305
        0.78806746 0.06845957 0.53898114 0.78868604 0.06835112 0.53901577
        0.78924584 0.06825142 0.5390471 0.789752 0.06815997 0.5390756
        0.7902092 0.06807626 0.53910136 0.7906217 0.06799978 0.5391247
        0.79099345 0.06793006 0.53914577 0.79132813 0.067866616 0.53916484
        0.7916292 0.06780898 0.539182 0.79189974 0.06775675 0.53919744
        0.79214275 0.06770943 0.53921133
        <InformationKey name="L2_NORM_RANGE" location="vtkDataArray" length="2">
          <Value index="0">
            0.81571737711
          </Value>
          <Value index="1">
            0.96063706102
          </Value>
        </InformationKey>
      </DataArray>
    </Points>
  </Piece>
  </StructuredGrid>
</VTKFile>
